#CSYNTH gun_1972 costs 5700 cells.
#C period 1972 fullperiod 1972 bbox 95 by 60
#CLL state-numbering golly
x = 95, y = 60, rule = LifeHistory
66.A11.2A$65.A.A9.B2AB$57.A3.2A2.A.A9.3B$33.2A21.A.A2.A2.2A.2A9.B.
B$31.2B2AB20.A.A3.A.A2.B8.5B$31.4B22.A.4A2.AB2A6.6B$24.3B3.4B11.A
13.A3.A.A.2A4.8B$22.5B4.4B8.3A12.A2.BA.A2.13B$22.14B6.A10.A3.A.2BA
.A5.13B$22.14B5.B2A7.3A3.2A.2BA5.15B$20.16B3.5B6.A10.3B4.15B$20.
16B.5B8.2A10.2B.B.17B$20.22B4.2A4B3.29B$19.23B4.2A2B4.16B2A13B$12.
3B4.24B2.7B2.16B2A14B$11.7B.24B3.7B.27B3.B2A$11.5B2AB.17BA5B2.35B
4.A2.A$10.5BA2BA17B3A5B.19B2.2B2.B3.6B5.2A.A$10.6B2A17BABABA21B14.
6B7.A$11.19BABA5B3A18B14.9B6.2A$12.2B.6B.8BABA25B15.2A4.4B$12.B.8B
2.7B6A22B15.A5.4B$11.2AB.6B4.8BA3BA13B.7B12.3A7.4B$10.A.A3.B8.7BA
5BA11B4.3B.B2A10.A10.4B$10.2A12.7B2ABA3BA10B9.BA.A21.4B$20.B4.9B2A
B2A5B2.5B10.A22.4B$19.2AB.8B5A2BA4B6.2A10.2A21.4B$19.2A13BA8B6.A
34.5B$20.15BABA6B6.3A30.7B$20.6B2A8B3A6B7.A29.8B$22.4B2A10B2A6B37.
8B.B$23.B.13B2A7B35.10B2A$25.12B.10B33.9B.B2A$25.11B5.8B22.2A8.9B
2.B$26.7B9.8B22.A9.8B$19.2A5.8B5.B3.2B2.4B21.A.AB5.9B$20.A6.8B3.2A
B.3B3.4B10.A10.2AB.3B.10B$20.A.AB2.8B4.2A3BA5.4B7.3A12.17B$21.2AB.
10B4.B.BA.A5.4B5.A15.17B$11.B2A9.12B7.BA.A5.4B4.2A15.4BA4BA6B$11.
3AB8.11B11.A6.9B14.5B2A3B2A7B$10.A.2AB8.9B.3B9.3A5.6B14.8B2A3B2A6B
$9.A.A.2B8.9B2.2A12.A5.6B3.B2.2B2.10BA4B2A6B2A$9.A2.A2.2B5.10B2.A
10.2AB.A4.30B2A5B.B2A$10.2A3.3B3.4B3.3B4.3A6.A2.2AB3.27B.9B3.B$4.
2A9.B2A.5B2.7B4.A6.2A2.14B2A16B2.6B$3.A.A8.BA2BA4B3.2A.B.2A16.13B
2A7BA8B2.6B.2B$3.A8.B.2B2A4B5.A3.A18.19B2A8B4.7B2A$2A.2A.B3.11B3.
3A5.3A15.17B.B.2A10.6B.B2A$.A.A.A2B.A11B3.A9.A16.15B4.2AB10.6B.B$.
A.A.2A3BA10B30.15B5.A2B.2A6.6B$2A.A2.5B2A8B31.13B5.A.A2B.A6.5B$A2.
4A2BAB2A6B.B2A31.13B2.A.AB2.A7.4B$.2A2.A2B.B2A7B.BA.A29.8B4.2A.A.A
3.A6.5B$3.2A6.7B5.A29.6B6.2ABA2.4A.A4.2A$3.A7.2B.4B5.2A28.5B8.B2.A
.A3.2A5.A$5.A9.4B34.B.B9.2A.2A.A.A5.3A$4.2A10.3BA34.3B9.A.A3.A.3A
2.A$17.3BA32.B2AB9.A.A4.A2.A$18.3AB32.2A11.A6.2A!
