#CSYNTH gun_133 costs 3596 cells.
#C period 133 fullperiod 133 bbox 62 by 58
#CLL state-numbering golly
x = 62, y = 58, rule = LifeHistory
53.2A$46.2A5.A2.2A$45.B2AB5.2A.3A$30.A8.2A5.3B6.B4.A$19.2A7.3A7.B
2AB2.B2.B5.B2AB3A$15.2A3.A6.A10.14B.B2A.A$15.A2.A8.2A10.17B$6.2A8.
A.2A5.4B9.17B$6.A6.4A2.BAB2.BAB10.18B$3.2A.A5.AB3.AB2A2B.ABAB8.8BA
11B$3.A2.2A2.2B2AB2AB.BAB.2B2AB.2A5.7BABA10B$4.2A2.BA2B2AB.B.2A2.
7B2A3.B.7BA2BA8B$6.AB2A2B3ABA.A4.7B3.2A9B2A8B$6.A2.A.A2.A.B.A4.7B
3.2AB.18B$7.A.A.4A.2A5.6B5.B4.16B$6.2A.2A4.A6.8B9.17B$12.2A.A5.4B
2.4B5.10B2A7B2A$13.A.2A3.4B4.4B3.10B2A8B2A$13.A5.4B6.4B2.12BA8B$
12.2A4.4B8.4B2.19B$17.4B10.23B$.2A13.4B12.8B.13B$2.A12.4B14.21B$2.
A.AB2.B5.4B17.15B.4B$3.2AB.3B3.ABAB20.4B2.6B2.4B$5.6B.B2AB21.3B3.
3B5.5B$5.9BA26.5B4.7B$5.2B2A5B27.2AB5.3A5B$6.A2BA3B29.A7.3B3A2B.B$
2.2A2.BABA4B25.3A7.4B3A3B2A$3.A3.BA6B23.A9.9B.B2A$2.A4.3B2.4B22.2A
8.9B2.B$2.2A3.3B3.4B22.A9.8B$4.A3B6.4B21.A.AB5.9B$2.3A4B6.4B10.A
10.2AB.3B.10B$.A2.B.A2B7.4B7.3A12.17B$A2.5A.A7.4B5.A15.17B$.2A2.B.
A.3A6.4B4.2A15.16B$3.2AB2A4.A6.9B14.19B$3.A4.3A.A7.6B14.21B$4.4A2.
A.A.2A5.6B3.B2.2B2.23B2A$7.A5.A2.A4.37B.B2A$6.A7.2AB3.27B.9B3.B$5.
A9.32B2.6B$4.A.3A.2A4.31B2.6B.2B$4.A4.2A.A4.12B3A14B4.7B2A$3.2A.2A
4.A4.9B2A2BA3B.B.2B10.6B.B2A$4.A.A.4A.2A3.8BABA4B4.3B10.6B.B$3.A2.
A.A2.B.A.A2.15B5.A2B.2A6.6B$3.2ABAB2A2B2A.A3.13B5.A.A2B.A6.5B$.2A
2.BAB2ABA.A.2A4.13B2.A.AB2.A7.4B$A2.2A2.3A2B2AB.2BA.8B4.2A.A.A3.A
6.5B$2A.A5.AB3.3ABA7B6.2ABA2.4A.A4.2A$3.A6.4A2.2BA3.4B7.B2.A.A3.2A
5.A$3.2A8.A.2A6.4B4.A.2A.A2.2A5.3A$12.A2.A8.3BA3.2A2.A.A.A6.A$12.
2A3.A7.3BA5.A2.A2.A$16.2A8.3AB5.2A2.2A!
