#CSYNTH gun_1159 costs 7812 cells.
#C period 1159 fullperiod 1159 bbox 93 by 84
#CLL state-numbering golly
x = 93, y = 84, rule = LifeHistory
63.A$61.3A$60.A$53.A6.2A$52.A.A3.4B$53.A.5B$54.7B$54.4B2A4B.B$54.
4B2A3B.B2A$54.11B2A$54.9B.2B$49.2B2.10B$48.2A13B$48.2A13B$49.2B.
11B$52.9B.B2A$54.7B.BA.A$53.7B5.A$52.8B5.2A$51.4B2.4B$50.4B4.4B$
49.4B6.4B$48.4B8.4B$47.4B10.4B$34.2A10.4B12.4B7.A$35.A9.4B14.4B6.
3A$33.A7.2B.4B5.2A9.4B8.A$33.2A6.7B5.A11.4B6.A.A$31.2A2.BAB.10B.BA
.A12.4B5.A.AB$30.A2.4A12B.B2A14.4B5.A3B$30.2A.A2.4B2A9B17.4B6.4B$
31.A.A.2A3B2A9B18.4B5.6B$31.A.A.2AB.9B2AB19.4B4.7B$30.2A.AB.B3.7B
2A2B20.4B2.8B.4B.B$33.A8.B.5BA2B20.17B.B2A$33.A.A8.9B20.18B2A$34.
2A9.3B2.4B10.2A2.2A3.16B.2B$43.5B3.4B10.A3.A2.17B$43.2A7.4B9.A.A.A
.A16B$38.2A4.A8.4B9.A.A.2A.14B$38.A2.3A3.2A5.4B.2B7.A6.12B$39.3A6.
A5.7B6.2A7.10B$48.A.AB.6B2A2B.BAB2.2A5.2B2A6B$31.2A4.5A7.2AB.5BA2B
A3B4A2.A3.3B2A6B$31.A5.A4.A8.8B2A5B2.A.A5.10B$23.A.2A.2A.A7.BAB.A
7.14B2A.A.2A4.8B.B2A.A$23.2A.A.A.A8.B2A.A2.A4.B2A9B.B2A.A.A4.7B3.B
2AB3A$28.BA7.A4B.A.A.A3.ABA8B3.B.BA.A4.6B6.B4.A$27.4B5.ABAB3.A2.A
3.3BA4B.B8.A.2A4.6B4.2A.3A$20.2A5.4B.2B2.A2BA2.2A5.9B8.A.A2.A4.5B
4.A2.2A$12.A8.A5.4B2A4B2A9.4B2.3B7.3A.3A4.8B.A.A$11.A.A7.A.AB.7BA
3B10.4B3.5B4.A11.8BA.A.2A.A$9.3A.A8.2AB2.3BA3BA2B9.4B7.2A5.5A6.6B.
2BAB.A.2A$8.A4.A.2A7.5BA5BA2B6.5B8.A7.A3.A4.7B2.2B2.A$8.ABABA.A.A
8.4B2ABA2BA2B5.6B9.3A2.A4.2A4.7B3.B.2A$9.2A.A.A10.4BABA3BAB6.7B10.
A2.2A3.4B.8B2.A.A2.2A$9.4BABA9.5BAB3A2B5.9B19.11B2.2A2.A2.A$12.2BA
3B7.12B4.6B.4B17.12B7.2A$8.2A4.5B4.2BA11B3.4B.B3.4B16.12B$5.A.4B2.
6B.2A3B4A8B2.4B7.4B15.11B$4.A5BA16BABA7B.4B9.B3A13.9B12.2A$4.A2B.
2A9BA5B2A10BA3B11.A3B9.2B.10B11.A$5.A2.BA10B2A5BA9B2AB13.A3B7.16B.
B4.BA.A$10.7BABA16BABAB14.4B3.23B2.B2A$10.8B4A3B2A.6B2.4B15.32B$
10.11BA2B4.5B4.B.B2A14.5B2A25B$10.12B7.3BA2B4.BA.A14.3BA27B$10.2B
3ABA5B9.ABA4B4.A15.3BABA5B2A17B$10.BA3BABA4B10.A.A.2A4.2A16.2BA6B
2A17B$9.2BA2BAB2A4B8.A.A.ABABA22.8BA8B5.B.4B$9.2BA5BA5B7.2A.A4.A
22.5B2A7B11.4B$10.2BA3BA3B2.B2A8.A.3A23.4BA2BA6B12.4B$10.3BA7B.BA.
A7.A.A29.ABA4.2B14.4B$2A6.2A4B2A4B5.A8.A31.A6.2B14.3BA$A2.2A2.A2BA
2.2B.4B5.2A45.B2AB14.ABA$.A.A3.BABA5.4B53.2A16.2A$2A.A.4BA7.AB73.B
$3.A.2AB8.A.A.A.2A$3.A.BAB7.A.2A.2A.A$4.A4.A5.A$5.5A4.2A2$7.2A.A$
7.A.2A!
