#CSYNTH gun_1268 costs 4940 cells.
#C period 1268 fullperiod 1268 bbox 76 by 65
#CLL state-numbering golly
x = 76, y = 65, rule = LifeHistory
10.2A$9.B2AB$9.3B$2A8.B.B37.A$.A6.5B36.A.A$.A.AB2.6B37.A$2.2AB2.
11B$4.14B2A28.5A2.A$3.15B2A3B5.2A17.A4.A2.3A9.2A$4.20B4.A17.A.BAB
7.A6.2B2AB$2.2AB.20BA.A14.A2.A.2AB6.2A6.4B$.A.AB2.19B2A6.A7.A.A.A.
4BA4.5B2.4B$.A5.19B6.3A8.A2.A3.BABA5.10B$2A5.19B5.A14.2A2.A2BA3.
12B$5.21B5.2A18.2A2B.12B$3.23B6.B20.16B$2.2B2A20B6.3B18.17B$2.2B2A
21B4.6B16.17B$3.25B2.10B11.18B$3.26B.11B3.2B2.22B$5.29B2A33B$5.29B
2A33B$4.64B$4.64B$4.65B$4.22B5.14B.4B.17B$6.19B7.7B.B4.4B2.17B$6.
18B9.4B7.4B.17B$6.9B.7B11.4B5.4B2.17B$7.8B4.6B10.4B3.4B3.13B2A2B$
6.9B8.2A11.4B.4B4.12BA2BA2B$5.10B8.A13.7B6.12B2A3B$2.B.12B8.3A11.
5B7.5B2A9B4.A$.2A13B10.A11.5B9.3B2A7B4.3A$.2A12B22.7B9.9B2A2B.A$2.
B2.9B2A20.4B.4B8.6B.BABA2BA.A$4.2B2.5BA2BA2.2A14.4B3.4B6.7B.3BA.2B
AB$4.2AB3.2B.ABAB3.A2.A10.4B5.4B5.6B.4B3.2B$2A.A.A8.A4B.A.A.A8.4B
7.4B5.9B3.2B$A.2A.A.A8.B2A.A2.A8.4B9.4B4.8B3.B2AB$6.2A8.BAB.A10.4B
11.4B2.8B5.2A$14.A4.A10.4B13.4B.7B$14.5A3.2A5.4B15.10B$22.A5.4B17.
9B$12.9A.A4.4B19.8B$12.A6.A.A4.4B17.2A.8B$15.2A8.4B16.A4BA7B$14.B
2AB6.4B17.13B$14.4B5.4B17.A5BA7B$15.2B5.4B19.3B2A9B$6.2A7.4B2.4B
19.10B2.4B$6.A.A5.5B.4B18.B.11B2.4B$7.A.14B18.2A3BA10B.4B$8.14B19.
A4BA9BABA10B$8.14B20.3BA6B2A7B3A6B4.2A$8.15B19.A2BA6BABA4B2A2BA6B
4.A$7.3B2A12B22.2B2A7B4AB2A6B.BA.A$7.3B2A13B21.B2ABA8B3A10B2A$5.2A
B.11B2.4B17.B.B2AB2A3B2.2B2.13B$4.A.AB2.8B5.4B15.2AB3AB2AB11.9B$4.
A5.10B4.4B14.2AB.4B16.5B$3.2A5.B.B5.2A5.4B14.B3.2B18.2B$11.3B4.A7.
3BA18.2B16.2B$10.B2AB5.3A5.3BA16.B2AB14.B2AB$11.2A8.A6.3AB16.2A16.
2A!
