#CSYNTH gun_505 costs 4550 cells.
#C period 505 fullperiod 505 bbox 70 by 65
#CLL state-numbering golly
x = 70, y = 65, rule = LifeHistory
20.2A$20.A2.A.A$10.A11.2A.3A$10.3A10.B4.A$13.A7.B2AB3A12.A11.2A$
12.2A2.4B.B2A.A13.A.A9.B2AB$12.10B17.A.A9.3B$14.8B15.3A.2A9.B.B$
11.11B14.A4.B8.5B$10.12B2.4B9.3AB2A6.6B$10.18B11.A.2A4.8B$10.19B
12.13B$12.17B14.13B$12.17B13.15B$11.18B2.B10.15B$7.B3.23B5.B.17B$
6.2AB.48B$6.2A21B2A13B2A13B$7.22B2A13B2A14B$2A5.3B.44B3.B2A$.A9.
43B4.A2.A$.A.AB2.B4.26B2.2B2.B3.6B5.2A.A$2.2AB.3B3.8B3.7B2.4B13.6B
7.A$4.6B.5B8.6B17.9B6.2A$4.10B11.3B19.2A4.4B$4.2B2A5B13.B21.A5.4B$
5.A2BA3B33.3A7.4B$5.BABA4B32.A10.4B$6.BA6B43.4B$6.3B2.4B43.4B$6.3B
3.4B43.4B$6.B6.4B42.4B$4.3BA6.4B41.5B$2A2.2A2BA6.4B39.7B$A2.A.3AB
7.4B37.8B$.A.A2B.A9.4B37.8B.B$2.A2.BAB10.4B35.10B2A$3.3ABAB10.4B
33.9B.B2A$6.B2A11.4B22.2A8.9B2.B$3.6A12.4B22.A9.8B$2.A2.BAB2A12.4B
21.A.AB5.9B$2.2A2.2BABA12.4B10.A10.2AB.3B.10B$7.2BA.A12.4B7.3A12.
17B$9.BA14.4B5.A15.17B$26.4B4.2A15.16B$19.2A6.9B14.19B$20.A7.6B14.
21B$20.A.2A5.6B3.B2.2B2.23B2A$21.A2.A4.37B.B2A$22.2AB3.27B.9B3.B$
23.32B2.6B$13.2A9.31B2.6B.2B$12.A.A10.12B3A14B4.7B2A$12.A7.2A3.9B
2A2BA3B.B.2B10.6B.B2A$13.4A3.A5.8BABA4B4.3B10.6B.B$11.A.A3.A4.A3.
15B5.A2B.2A6.6B$10.A.A2.B2AB2.2A4.13B5.A.A2B.A6.5B$10.A4.2B2ABA2.
2A4.13B2.A.AB2.A7.4B$7.2A.AB3.3BABA2BA.2B.8B4.2A.A.A3.A6.5B$7.A2.A
.2B.5B.2B2AB2A6B6.2ABA2.4A.A4.2A$8.A.A.2A2.B2ABA2BA.2B3.4B7.B2.A.A
3.2A5.A$7.2A2.A2.A.A.ABA2.2A6.4B5.2A.2A.A.A5.3A$9.A.A2.2A.A3.2A9.
3BA5.A.A3.A.3A2.A$9.2A6.A.2A2.4A6.3BA4.A.A4.A2.A$17.2A.A2.A2.A7.3A
B4.A6.2A!
