#CSYNTH gun_315 costs 2046 cells.
#C period 315 fullperiod 315 bbox 66 by 31
#CLL state-numbering golly
x = 66, y = 31, rule = LifeHistory
19.2B33.2A$17.6B29.A4BA$15.2A6B2A25.BA6BAB$13.BA2BA4BA2BAB21.2BA8B
A2B$12.2BA2BA4BA2BA2B3.2A14.3BA8BA3B$13.BA2BA4BA2BAB4.2A15.2BA8BA
2B$15.2A6B2A25.BA6BAB$17.6B6.4A19.A4BA$19.2B8.A2.A18.2B.2A8.2A$20.
4B6.B2.5B13.5B7.A.A$18.2B2A2B2.12B8.B.13B2.BA$4.2A.BABA6.2BABA8B2A
7B4.21B$3.A.A2BA2BA5.2BA2BA6BA2BA6B3.11B2AB2A6B$3.A.2BAB2AB4.3BABA
6B.BABA20BA3BA7B$2.2A.2A6B3.12B.2BA21BA3BA7B$2BA.B2AB.4B2.4B2A20B.
12BABA9B$2B3A3.3A3B.5BA11B.8B6.2B2.2B2.A2.2B.5B$4B.B2AB.A2B.28B12.
3B5.2B$6B2A.2A2.23B3.4B11.B2AB$.B2ABA2B.A3.13BA8B5.4B11.2A$.A2BA2B
A.A3.11B2AB2A6B6.4B$2.ABAB.2A3.12B2AB2A6B2.2A3.4B$12.21B.BA2.A4.4B
$10.2AB.21B3A6.4B$9.A.AB.21B10.4B$9.A5.12B.4B2.B2A.A.2A4.4B$8.2A3.
12B3.4B4.A.2A.A5.4B$13.2A2.8B4.2B5.A11.4B$14.A4.5B11.2A12.3BA$11.
3A5.3B28.3BA$11.A8.B30.3AB!
