#CSYNTH gun_3008 costs 2500 cells.
#C period 3008 fullperiod 3008 bbox 50 by 50
#CLL state-numbering golly
x = 50, y = 50, rule = LifeHistory
15.A7.2A$15.3A4.B2AB$18.A4.3B$7.2A.3B4.2A3.B.B10.2A$5.A2.A5B3.10B
3.2A2.A2.A$5.2A3.5B4.8B3.A.A2.2A$11.4B2.11B3.B.2A$12.11B2ABA2B.2B
2.A$13.B2A8BABA6B.A.2A$.2A11.B2A2BA6BA4B2A.A2.A$A2.A2.2A6.2B4A11B
2A.2A$.2A2.A.A4.B.3B2A10B.2B$3.2A.B4.6B2AB2A7B$3.A2.2B.10B3A2B.6B$
2A.A.19B4.B2A$A2.A.2A17B5.A6.2AB$2.2A.2A18B5.3A2.B3A$6.2B.17B6.A2.
B2A.A$9.12B2.4B8.2B.A.A$7.12B5.4B5.2B2.A2.A$7.2AB.10B4.4B3.3B3.2A$
8.A4.B.B3.2A5.5B.3B9.2A$5.3A4.3B4.A7.9B8.A.A$5.A6.B2AB4.3A5.8B.B8.
A$13.2A7.A6.11B3.B.BA.2A$29.12B.B2A.A.A$29.14B2A.A.A$29.8B2A5B2.A.
2A$27.2AB.5BA2BA3B4A2.A$26.A.AB.6B2A2B.BAB2.2A$26.A5.7B6.2A$17.B2A
5.2A5.4B.2B7.A$17.3AB10.4B11.A.A$16.A.2AB9.4B13.2A$15.A.A.2B8.4B$
15.A2.A2.2B5.4B3.A7.2B$16.2A3.3B3.4B3.A.A5.BAB$10.2A9.B2A.6B2.2BAB
5.ABA2B$9.A.A8.BA2BA5B2.B.2B5.A3BAB$9.A8.B.2B2A4B2.2BA3B4.A.2BAB$
6.2A.AB.B3.BA9B3.BABA2B2.BA2B.A$7.A.A.2AB.3A9B3.2A2B2A2BA3BA$7.A.A
.2A2B2A10B4.2AB2A.2BABA$6.2A.A2.5BA9B4.3AB2A2.BAB$6.A2.4A3BA8B.B2A
4.B3A2.2B$7.2A2.BAB.BA8B.BA.A2.BABAB$9.2A6.7B5.A3.2A$9.A7.2B.3BA5.
2A$10.A10.3BA$9.2A11.3AB!
