#CSYNTH gun_913 costs 6660 cells.
#C period 913 fullperiod 913 bbox 111 by 60
#CLL state-numbering golly
x = 111, y = 60, rule = LifeHistory
15.2A4.2A$11.2A3.A4.A58.2A$11.A4.A.2A.A58.A.A$12.3A.A.A.A61.A4.2A$
14.A.2A2B41.2A15.4A.2A2.A2.A$7.2A6.6B39.A.A15.A2.A.A.A.A.2A$7.A.B
5.6B2.4B27.2A4.A19.BABABA.A$4.2A.A.2B5.11B25.A2.A2.2A.4A16.B2ABA.A
$4.A2.2A17B2A24.2A.A.A.A.A2.A17.2B.BA$6.A2.A16B2A27.A.ABABAB18.3B
7.A$7.2AB.14B.B28.A.AB2AB10.2A6.4B7.3A$9.16B31.AB.2B12.A6.B2A3B8.A
$7.2AB.14B34.3B11.A.AB3.B2A3B7.A.A$7.A5.13B33.4B6.2A3.2AB.10B5.A.A
B$5.A.A7.12B30.3B2AB6.A6.13B5.A3B$5.2A9.7B.4B29.3B2AB3.BA.A6.14B6.
4B$13.11B.4B26.10B.B2A7.15B5.6B$12.11B3.4B24.13B11.8B2.4B4.7B$3.2A
7.11B4.4B22.14B11.6B5.4B2.8B.4B.B$2.A2.A2.2A2.11B5.4B20.15B10.9B4.
17B.B2A$3.2A2.A.A2.8B2.B2A4.4B18.4B2.8B11.4B4.2A5.18B2A$5.2A.B3.7B
3.BA.A4.4B16.4B5.6B10.4B5.A6.16B.2B$5.A2.2B2.7B6.A5.4B14.4B4.9B8.
4B7.3A2.17B$2.2A.A.BA2B.6B7.2A5.4B12.4B5.2A4.4B6.4B9.A2.A16B$2.A.
2A.A.A8B15.4B10.4B7.A5.4B4.4B8.A3.2A.14B$6.A.A.8B16.4B8.4B5.3A7.4B
2.4B9.2A7.12B$3.2A2.A4.5B18.4B6.4B6.A10.8B20.10B3.2A$.3A.2A4.6B19.
4B4.4B19.6B21.2B2A6B3.A$A4.B6.6B19.4B2.4B21.4B21.3B2A6B4.A$.3AB2AB
3.7B20.8B21.6B21.10B3.2A$3.A.2AB.8B22.6B21.8B20.8B.B2A$7.10B23.4B
21.4B2.4B18.7B3.B2AB2A$7.6B2A3B21.6B19.4B4.4B17.6B6.B.A$7.6B2A2B
21.8B10.A6.4B6.4B17.6B4.2A3.A$7.10B20.4B2.4B7.3A5.4B8.4B16.8B.A2.
4A$6.12B7.2A9.4B4.4B5.A7.4B10.4B14.9BA.A.A$6.14B.2A3.A8.4B6.4B4.2A
5.4B12.4B4.A8.7B.2BAB.A.2A$5.16BA2.A9.4B8.9B4.4B14.4B3.3A6.6B3.2B
2.A.A$4.17B2.3A7.4B10.6B5.4B16.4B5.A4.7B4.B.2A2.A$.2B.16B6.A5.4B
11.8B2.4B18.4B3.2A4.7B3.A.A2.A.A$2A18B5.2A4.4B10.15B20.4B2.4B.8B3.
2A2.A.A$2AB.17B4.9B11.14B22.4B3.11B8.A$.B.4B.8B2.4B5.6B12.13B24.4B
.12B$8.7B4.4B2.8B10.2AB.10B26.B3A12B$9.6B5.15B7.A.AB3.B2A3B29.A13B
10.A$11.4B6.14B7.A6.B2A3B30.A9B11.3A$13.3BA5.13B6.2A6.4B31.12B9.A$
14.BA.A5.10B.B2A13.3B30.16B6.2A$15.A.A7.3B2AB3.BA.A13.2B.BA20.A6.
24B$16.A8.3B2AB6.A12.B2ABA.A19.3A3.23B$17.3A7.4B6.2A10.BABABA.A22.
A2.24B$19.A7.3B17.A2.A.A.A.A.2A18.A.B.24B$24.AB.2B18.4A.2A2.A2.A
18.2A27B$23.A.AB2AB21.A4.2A18.2A2.A22B.4B$23.A.ABABAB18.A.A23.A2.
3A3B3.2B3.B7.2B3.4B$20.2A.A.A.A.A2.A16.2A25.A4.2B3.4B.3B5.BA2B3.4B
$20.A2.A2.2A.4A44.4A5.B2AB.B2AB4.A.A5.3BA$22.2A4.A50.A7.2A3.2A6.A
7.ABA$28.A.A50.A27.2A$29.2A49.2A28.B!
