#CSYNTH gun_919 costs 6785 cells.
#C period 919 fullperiod 919 bbox 115 by 59
#CLL state-numbering golly
x = 115, y = 59, rule = LifeHistory
16.2A66.2A$15.B2A2B7.2A34.2A19.A.A$16.4B6.B2AB32.A.A21.A4.2A$11.2A
4.6B4.2B27.2A4.A19.4A.2A2.A2.A$10.B2AB2.8B4.2B24.A2.A2.2A.4A15.A2.
A.A.A.A.2A$11.3B.17B22.2A.A.A.A.A2.A17.BABABA.A$9.2B.B2.18B24.A.AB
ABAB20.B2ABA.A$8.27B22.A.AB2AB22.2B.BA$7.29B22.AB.2B22.3B7.A$6.31B
24.3B12.2A6.4B7.3A$6.32B23.4B6.2A4.A6.B2A3B8.A$6.26B3.4B20.3B2AB6.
A5.A.AB3.B2A3B7.A.A$4.2AB4.B.16B.B5.4B19.3B2AB3.BA.A6.2AB.10B5.A.A
B$3.A.AB8.10B.2B9.4B16.10B.B2A9.13B5.A3B$3.A12.7B15.4B14.13B11.14B
6.4B$2.2A9.11B15.4B12.14B11.15B5.6B$12.12B16.4B10.15B13.8B2.4B4.7B
$12.12B17.4B8.4B2.8B15.6B5.4B2.8B.4B.B$3.A8.11B19.4B6.4B5.6B14.9B
4.17B.B2A$2.A.A2.2A3.8B.4B18.4B4.4B4.9B12.4B4.2A5.18B2A$.A.A2.A.A
3.7B4.2A19.4B2.4B5.2A4.4B10.4B5.A6.16B.2B$.A2.2A.B4.7B4.A21.8B7.A
5.4B8.4B7.3A2.17B$2.A.A2.2B3.6B6.3A19.6B5.3A7.4B6.4B9.A2.A16B$.2A.
A.BA2B.7B8.A20.4B6.A10.4B4.4B8.A3.2A.14B$4.A.A.A9B28.6B17.4B2.4B9.
2A7.12B$.4A2.A.8B28.8B17.8B20.10B3.2A$.A3.2A4.6B27.4B2.4B17.6B21.
2B2A6B3.A$3.A.B6.6B25.4B4.4B10.A6.4B21.3B2A6B4.A$2.2AB2AB3.7B24.4B
6.4B7.3A5.6B21.10B3.2A$5.2AB.8B24.4B8.4B5.A7.8B20.8B.B2A$2.2A3.10B
23.4B10.4B4.2A5.4B2.4B18.7B3.B2AB2A$2.A4.6B2A3B21.4B12.9B4.4B4.4B
17.6B6.B.A$3.A3.6B2A2B21.4B14.6B5.4B6.4B17.6B4.2A3.A$2.2A3.10B20.
4B15.8B2.4B8.4B16.8B.A2.4A$6.12B7.2A9.4B14.15B10.4B14.9BA.A.A$6.
14B.2A3.A8.4B15.14B12.4B4.A8.7B.2BAB.A.2A$5.16BA2.A9.4B16.13B14.4B
3.3A6.6B3.2B2.A.A$4.17B2.3A7.4B15.2AB.10B16.4B5.A4.7B4.B.2A2.A$.2B
.16B6.A5.4B15.A.AB3.B2A3B19.4B3.2A4.7B3.A.A2.A.A$2A18B5.2A4.4B16.A
6.B2A3B20.4B2.4B.8B3.2A2.A.A$2AB.17B4.9B16.2A6.4B23.4B3.11B8.A$.B.
4B.8B2.4B5.6B26.3B24.4B.12B$8.7B4.4B2.8B27.2B.BA22.B3A12B$9.6B5.
15B24.B2ABA.A22.A13B10.A$11.4B6.14B23.BABABA.A23.A9B11.3A$13.3BA5.
13B21.A2.A.A.A.A.2A19.12B9.A$14.BA.A5.10B.B2A19.4A.2A2.A2.A18.16B
6.2A$15.A.A7.3B2AB3.BA.A22.A4.2A13.A6.24B$16.A8.3B2AB6.A20.A.A19.
3A3.23B$17.3A7.4B6.2A19.2A23.A2.24B$19.A7.3B52.A.B.24B$24.AB.2B53.
2A27B$23.A.AB2AB50.2A2.A22B.4B$23.A.ABABAB48.A2.3A3B3.2B3.B7.2B3.
4B$20.2A.A.A.A.A2.A47.A4.2B3.4B.3B5.BA2B3.4B$20.A2.A2.2A.4A48.4A5.
B2AB.B2AB4.A.A5.3BA$22.2A4.A54.A7.2A3.2A6.A7.ABA$28.A.A54.A27.2A$
29.2A53.2A28.B!
