#CSYNTH gun_1244 costs 6097 cells.
#C period 1244 fullperiod 1244 bbox 91 by 67
#CLL state-numbering golly
x = 91, y = 67, rule = LifeHistory
46.2A11.A27.2A$45.B2AB9.A.A26.A$46.3B9.A.A2.2A3.A15.BA.A$45.B.B9.
2A.2A2.A2.A.A14.B2A$45.5B8.B2.A.A3.A.A12.3B4.2A$45.6B6.2ABA2.4A.A
12.4B4.A$45.8B4.2A.A.A3.A13.4B2.BA.A$46.13B2.A.AB2.A4.A6.6B.B2A$
44.13B5.A.A2B.A3.3A4.8B$43.15B5.A2B.2A6.A3.8B$43.15B4.3B9.2A2.9B$
42.17B.B.2B10.13B$42.29B5.11B$41.9B2A2B2A16B3.12B$40.9BABA2B2A16B
2.13B$39.2AB3.6BA20B.11B$38.A2.A4.37B$37.A.2A5.6B3.B2.2B2.21B$37.A
7.6B14.19B$36.2A6.9B11.19B$43.4B4.2A11.19B$42.4B5.A11.19B$41.4B7.
3A5.2B.12B.8B$40.4B10.A4.2A3B2A8B3.7B$39.4B16.2AB.B2A7B5.4B.B2A$
20.2A16.4B18.B.10B5.B2A2B.BA.A$21.A6.2A7.6B22.6B7.2A6.A$21.A.AB.2B
2AB5.10B.B18.4B16.2A$22.2AB.4B5.7B2AB.B2A16.4B$24.7B3.8B2A3B2A4.A
10.4B$24.8B.12B.2B5.3A7.4B$26.19B11.A5.4B$25.19B11.2A4.4B$25.19B
11.9B6.2A$24.19B14.6B7.A$25.21B2.2B2.B3.6B5.2A.A$25.37B4.A2.A$24.
11B.27B3.B2A$21.13B2.16B2A14B$21.12B3.16B2A13B$21.11B5.29B$21.13B
10.2B.B.17B$21.9B2.2A9.3B4.15B$21.8B3.A6.2A.2BA5.15B$21.8B4.3A3.A.
2BA.A5.13B$19.2AB.6B6.A4.A2.BA.A2.13B$18.A.AB2.4B13.A3.A.A.2A4.8B$
18.A4.4B12.A.4A2.AB2A6.6B$12.2A3.2A3.4B12.A.A3.A.A2.B8.5B$11.B2AB
6.4B13.A.A2.A2.2A.2A9.B.B$11.4B5.4B15.A3.2A2.A.A9.3B$12.2B5.4B24.A
.A9.B2AB$3.2A7.4B2.4B26.A11.2A$3.A.A5.5B.4B$4.A.14B$5.14B$5.14B$5.
15B$4.3B2A12B$4.3B2A13B$2.2AB.11B2.4B$.A.AB2.8B5.4B$.A5.10B4.4B$2A
5.B.B5.2A5.4B$8.3B4.A7.3BA$7.B2AB5.3A5.3BA$8.2A8.A6.3AB!
