#CSYNTH gun_1975 costs 5016 cells.
#C period 1975 fullperiod 1975 bbox 66 by 76
#CLL state-numbering golly
x = 66, y = 76, rule = LifeHistory
34.A13.2A$34.3A11.A.A$37.A13.A3.2A$36.2A11.2A.A.A.A$36.5B6.BA.B.A.
A$38.3BAB4.B2A2BA.AB$37.3BABA6BA.A2B2AB$36.4BA2BA2B.AB2AB3A3B$37.
4B2A3B2.AB2.B4AB$38.6B11.ABAB$39.5B12.A.A$38.7B12.A$37.4B.4B$36.A
3B3.4B$35.B2AB5.4B$34.BABA7.4B$33.4B9.4B13.2A$32.4B11.4B12.A$31.4B
13.4B5.B2.BA.A$17.2A11.4B15.4B3.3B.B2A$17.A11.4B17.4B.6B$10.2A2.BA
.A10.4B19.10B$9.BA.A.B2A10.4B21.5B2A2B$10.BA3B11.4B23.3BA2BA$11.4B
10.4B23.4BABAB$9.5B.3B2.8B23.6BAB$8.21B21.4B2.3B$2A5.23B19.4B3.3B$
.A4.24B18.4B6.B$.A.AB2.22B18.4B5.4B$2.2AB.21B10.2A7.4B6.5A$4.23B
11.A6.4B6.A.2B2A$4.22B11.A6.4B7.A2B.B$5.17B15.2A4.4B6.2A2.3B$5.16B
17.2B2.4B6.A2.3AB2A$5.17B15.8B6.A.A4.A2B$6.18B13.7B7.A2.4A3B$6.21B
2.2B2.B2.7B5.2A.A5.3A2B$6.37B4.A2.A3.2A2.B4A$7.9B.27B3.B2A4.A4.B2A
.A$9.6B2.16B2A14B6.A5.BA$8.6B3.16B2A13B8.A$8.4B6.29B8.2A$8.2B2AB
12.2B.B.17B3.2A9.2A$6.2AB.2A12.3B4.15B5.A3.4A.A.A$5.A.AB11.2A.2BA
5.15B3.A4.A3.A.A$5.A14.A.2BA.A5.13B4.2A2.B2AB2.A.A$4.2A15.A2.BA.A
2.13B4.2A2.AB2A2B4.A2.A$22.A3.A.A.2A4.8B.2B.A2BABA3B3.BA.A.A$20.A.
4A2.AB2A6.6B2AB2A2B.5B.2B.A2.A$19.A.A3.A.A2.B7.4B3.2B.A2BAB2AB2.2A
.A$19.A.A2.A2.2A.2A5.4B6.2A2.ABA.A.A2.A$20.A3.2A2.A.A5.4B9.2A3.A.
2A2.A.A$28.A.A4.4B8.2A2.2A.A6.2A$29.A4.4B3.A6.A.A2.2A$20.A12.4B4.
3A4.A2.A12.A$20.3A9.4B8.A4.2A12.A.A$11.A11.A7.4B8.2A17.B2AB$10.A.A
9.2A6.4B9.5B7.2A2.A3B2A$9.A2.A9.6B.4B7.A4.3BAB4.B2A2BA2B2AB$9.4A.
2A8.8B6.3A3.3BABA5BAB.2BABAB$13.A.A5.10B6.A5.4BA2BA2B.BA3BA.2A$6.
2A3.A.A6.10B.B5.2A5.4B2A3B.BA.B.A.A$6.A2.4ABA4.BA18B6.6B5.2A.A.A.A
$7.2A3.2B.A3BABA15B9.5B7.A.A.2A$9.B6A2B.ABA12B2A2B7.7B6.A.A$7.2A2B
.3AB4.A12BA2BA2B5.4B.4B6.2A$6.A2.2A2.B7.7B2.4B2A3B4.4B3.4B$6.2A13.
7B4.9B.4B5.4B$24.3B6.12B7.4B$22.5B7.10B9.4B$22.2A10.9B11.4B$23.A9.
9B13.4B$20.3A11.7B15.3BA$20.A13.6B17.3BA$36.2B20.3AB!
