#CSYNTH gun_2162 costs 4980 cells.
#C period 2162 fullperiod 2162 bbox 83 by 60
#CLL state-numbering golly
x = 83, y = 60, rule = LifeHistory
23.2A7.A$22.B2AB4.3A$22.3B4.A8.A$11.2A10.B.B3.2A5.3A$10.A2.A2.2A3.
2BA7B4.A42.2A$11.2A2.A.A3.B3A4B6.2A41.A.A$13.2A.B3.BA3BA5B2.4B42.A
B$13.A2.2B.B3AB3A6BAB7.A15.4B3.B.9B2.2B$10.2A.A.5BA4BA9B5.3A15.4B.
11B2A6B$10.A2.A.2A2B3A2BA9B5.A17.2A15BABA4B2A$12.2A.2A3BA4BA8B4.B
2A16.2A15BAB2A3B2A$16.2B.2B2A2BA8B.6B17.B.15B2A3B.B$19.3B2A15B21.
15BA3B$17.6B.4B2A9B.2B$17.2AB4.5BA11B2A.2A14.15BA3B$18.A5.2B3A12B
2A.A2.A10.B.15B2A3B.B$9.A5.3A5.20B.A.2A2.A6.2A15BAB2A3B2A$9.3A3.A
6.17B.2B2.A5.3A4.2A15BABA4B2A$12.A8.4B2.11B3.B.2A8.A4.4B.11B2A6B$
11.2A7.4B5.8B3.A.A2.2A5.2A4.4B3.B.9B2.2B$11.5B3.4B4.10B3.2A2.A2.A
4.6B21.AB$13.3B2.4B5.2A3.B.B10.2A7.2B2AB19.A.A$3.2A7.9B7.A4.3B18.
2B2A2B18.2A$3.A8.2BA5B5.3A4.B2AB17.8B$2A.A.B3.4BABA3B6.A7.2A12.A.
2A2.9B$A2.3AB.4BA3BA2B28.2A.A12B$.2A2.BA5BA3BA2B33.12B$3.4A5BA3BA
2B33.13B$3.A.2B3.3BABAB.B2A2.2A27.9B.4B$4.3AB2.4BA2B.BA.A2.A27.9B
2.4B$7.A4.4B5.2A28.11B2.4B$2.5A5.4B5.A29.8BABA3.4B$2.A10.4B6.A27.
9B2AB3.4B$4.A9.4B4.2A21.B4.10BA3B3.4B$3.2A10.4B2.2B21.3B3.10B.4B3.
4B$8.2A6.8B18.6B2.15B4.4B$9.A7.7B12.4B2.7B.3B2A2B3A3B.B2A3.4B$9.A.
2A5.7B2.B2.2B2.18B3A8B.BA.A3.4B$10.A2.A4.33BA8BA2B4.A4.4B$11.2AB3.
35B10AB4.2A4.4B$12.29B2A10B4A7B10.4B$13.28B2A11BA7BAB11.4B$14.10B
2A19BABAB2A4BABA3B2A2B11.4B$14.9BA7B.B5.7BA5BA2B2A6BAB13.4B$15.9BA
B4A10.B2.7BA3B2A7B15.4B$15.10B3ABA12.6B2A4B2A3BA2B.B.B13.3BA$16.
13B12.14BA2BA6B2A13.ABA$18.13B10.15B2A7B2A14.2A$17.8B4.2A.A6.2AB2.
5B2.12B.2B16.B$17.6B6.2AB3A3.A.AB2.4B3.13B$17.5B8.B4.A2.A14.11B.B$
17.B.B9.2A.3A2.2A14.12B2A$18.3B9.A.A20.10B.B2A$17.B2AB9.A.A18.2AB.
6B4.B$18.2A11.A18.A.AB.4B$50.A5.5B$49.2A8.2A$59.A$60.3A$62.A!
