#CSYNTH gun_1224 costs 2790 cells.
#C period 1224 fullperiod 1224 bbox 62 by 45
#CLL state-numbering golly
x = 62, y = 45, rule = LifeHistory
2.A9.A$2.3A5.3A$5.A3.A$4.2A.B.2A$4.7B$6.3B9.2A$4.7B7.A21.A$3.4BA4B
8.A9.A7.3A$3.3BABA3B3.2A2.2A8.A.A5.A17.2A$4.3BA3B4.A.A3.2A6.BA2B4.
2A16.A$4.7B5.B.2A.A8.2B.6B17.A$3.9B3.2B2.A.A9.6B18.2A$.17B.A2.2A6.
8B17.B$.15B2A.2A.A5.9B.B15.3B$2BA13B2A4.A5.11B14.4B$.ABA8BA2B.B2.
2A.2A2.2AB.2B2A6B.B10.5B$BABA7BABAB5.A.A2.A.AB.2B2A3BA6B7.5B$.BA8B
2A3B4.A3.2A4.3B2A4BA4B.2B3.5B$3.13B.BA.A4.A4.4BA4BA13B5.2A$5.11B.B
2A3.A4.2AB.2BA5BA5B2A5B5.A$5.2B2A9B5.2A2.A.AB.6BABA4BABA6B.BA.A$5.
BA2BA8B6.A2.A5.5B2A5BA5BA2B.B2A$6.B2A9B4.A2.3A5.13BA4BA4B4.2A$7.
11B4.3A7.4B3.2B.4BA4B2A3B4.A$10.5B3A7.A5.4B7.6BA3B2A2B.BA.A$10.5BA
3B5.2A4.4B10.B.6B2A2B.B2A$9.5B2.A3B4.9B14.11B$9.6B2.4B5.7B5.2B7.B.
9B$8.6B4.4B2.8B6.3B7.8B$4.B2.3BA3B5.15B.B.5B7.6B$2.7BABA2B6.19BA3B
4.6B.2B$2.7BABA2B7.17B3A3B3.2A4.2BAB$.9BA3B8.10B4.2B3A2B5.A5.A.A$.
11B.B2A8.3B2AB7.5B3.3A7.A$2.9B2.BA.A7.3B2AB8.3B4.A$2.7B7.A9.4B6.5B
$3.6B7.2A8.3B7.2AB$4.4B15.AB.2B9.A$5.4B13.A.AB2AB5.3A$6.4B12.A.ABA
BAB4.A$7.4B8.2A.A.A.A.A2.A$8.4B7.A2.A2.2A.4A$9.3BA8.2A4.A$10.3BA
13.A.A$11.3AB13.2A!
