#CSYNTH gun_236 costs 2508 cells.
#C period 236 fullperiod 236 bbox 66 by 38
#CLL state-numbering golly
x = 66, y = 38, rule = LifeHistory
27.2A3.A$25.3A.A.A.A$24.A4.A.A.A$24.ABABA.A.A$19.2A4.2A.A.A$20.A4.
4BABA9.2A$20.A.AB4.2BA3B6.B2A2B$11.B2A7.2AB.B4.5B6.4B$11.3AB8.4B2.
6B.9B$10.A.2AB8.2B2ABA15B$9.A.A.2B8.2BA11BA6B$9.A2.A2.2B5.3BAB4A4B
2AB2A4B15.A$10.2A3.3B3.4B.3BA4BA4BA5BA.2A8.3A$4.2A9.3B.5B3.6BA9B2.
2A.A7.A$3.A.A8.9B6.5BA3BA3B14.2A$3.A8.B.8B5.8B3A4B10.6B$2A.AB.B3.
11B5.3B2A11B10.4B$.A.A.2AB.12B4.4BA2BA9B2A7.7B$.A.A.2A14B3.6BABA2B
.3B2.A2BA6.10B$2A.A2.5B2A8B4.5B3A2B6.ABAB2.3B.8B2AB$A2.4A3BA2BA5B.
B2A5.7B7.A5B2A4BA3BABA$.2A2.BAB.2B2A6B.BA.A6.4B10.5B2AB2ABA3BA$3.
2A6.7B5.A4.6B10.5B2ABA2BA3B$3.A7.2B.4B5.2A3.2A14.BABABA4BA2B$4.A
10.4B10.A7.A.2A2.2B3A2BA2BA5B$3.2A11.4B6.3A8.2A.A2BA3BABA2BA7B$17.
4B5.A15.B3A3B3A10B2.B$18.4B20.2BA4B3A10B.B2A$19.4B19.22B2A$20.4B
17.9B.6B2.4B.B$21.4B16.4B6.5B4.2B$22.4B15.2B2AB6.3BA2B$23.4B16.2A
9.ABA4B$24.4B27.A.A.2A$25.4B24.A.A.ABABA$26.3BA22.A.A.A4.A$27.3BA
21.A.A.A.3A$28.3AB21.A3.2A!
