#CSYNTH gun_3024 costs 1938 cells.
#C period 3024 fullperiod 3024 bbox 51 by 38
#CLL state-numbering golly
x = 51, y = 38, rule = LifeHistory
44.A$23.2A4.B4.2A6.3A$9.ABA10.A2.A.5B.A2.A4.A$9.3BAB2.B5.3A2.5A2.
3A4.2A$8.A4BA2B2A7.2A5B2A5.3AB$8.2ABA2BAB2A6.A2.5B2.A3.ABA$9.B2.2A
3B7.2A.A3BA.2A3.A.BA$14.3B12.AB8.2AB$16.3B8.3B9.3B$16.5B4.5B10.3B$
15.4BA2B2.5B2A9.4B$15.2B2ABA8B2A8.7B$15.3BABA10B6.4B2A3B$14.3BA18B
2A2B2A2BAB$13.4B2A5B2A8BA4B2A2B2A3B$14.5BA2B2ABA8BA5BA2BA3B2A$16.B
ABAB4A10B2A3BA2BA5BA$15.4BA2BA9B4.3B2A2B2A4BA$15.2A2BABA9B7.BA2B2A
2B2AB$16.4B6.4B8.3B2A4B$11.A5.2B6.4B9.7B$11.3A10.4B12.4B$14.A8.4B
14.3B$13.2A7.4B3.A12.3B$13.5B3.4B3.A.A7.B3.B2A$4.2A9.3B2.5B2.2BAB
5.4B2.AB.A.2A$3.A.A8.10B2.B.2B4.3B3A3.ABA.A2.A$3.A8.B.8B2.2BA3B3.
8B3.AB3.2A$2A.AB.B3.BA9B3.BABA2B2.2AB2A3B3.4B$.A.A.2AB.3A9B3.2A2B
2A2B2ABABA2B2.B2A2B$.A.A.2A2B2A10B4.2AB2A.7BAB3.2A.B2A$2A.A2.5BA9B
4.3AB2A.BA4BAB6.BA.A$A2.4A3BA8B.B2A4.B3A2.A4BA2B8.A$.2A2.BAB.BA8B.
BA.A2.BABAB3.A2B2AB9.2A$3.2A6.7B5.A3.2A7.B2AB$3.A7.2B.3BA5.2A13.B$
5.A9.3BA$4.2A10.3AB!
