#CSYNTH gun_1977 costs 6674 cells.
#C period 1977 fullperiod 1977 bbox 94 by 71
#CLL state-numbering golly
x = 94, y = 71, rule = LifeHistory
34.2A$33.A.A$27.2A4.A$25.A2.A2.2A.4A$25.2A.A.A.A.A2.A$28.A.ABABAB
32.2A$28.A.AB2AB32.B2AB$29.AB.2B34.2B$24.A7.3B34.2B$22.3A7.4B6.2A
24.4B$21.A8.3B2AB6.A24.6B4.B$20.A.A7.3B2AB3.BA.A23.9B.3B$19.BA.A5.
10B.B2A24.12B2A$18.3BA5.13B26.12B2A$16.4B6.14B25.12B.B$14.6B5.15B
21.2B2.10B$13.7B4.4B2.8B22.2A13B$6.B.4B.8B2.4B5.6B22.2A7B2A4B$5.2A
B.17B4.9B22.2B.A3BA2BA3B$5.2A18B5.2A4.4B23.B2A3BABAB.B2A$6.2B.16B
6.A5.4B21.BABA4BA2B.BA.A$9.17B2.3A7.4B19.4B.6B5.A6.A$10.16BA2.A9.
4B17.4B.7B5.2A3.3A$11.14B.2A3.A8.4B15.4B.4B.4B8.A$11.12B7.2A9.4B
13.4B.4B3.4B7.2A$12.10B20.4B11.4B.4B5.4B3.5B$12.6B2A2B21.4B9.4B.4B
7.4B2.3B$12.6B2A3B21.4B7.4B.4B9.9B7.2A$12.10B23.4B5.4B.4B11.8B8.A$
8.A.2AB.8B24.4B3.4B.4B13.10B3.B.A.2A$6.3AB2AB3.7B24.4B.4B.4B14.7B
2A2B.B3A2.A$5.A4.B6.6B25.7B.4B15.7B2A3BAB2.2A$6.3A.2A4.6B27.5B.4B
16.12B4A$8.2A2.A4.5B27.9B15.2AB.7B3.2B.A$11.A.A.8B25.9B15.A.AB.7B
2.B3A$7.A.2A.A.A8B24.4B.4B16.A5.4B4.A$7.2A.A.BA2B.6B23.4B.6B14.2A
5.4B5.5A$10.A2.2B2.7B10.A10.4B.8B19.4B10.A$10.2A.B3.7B8.3A9.4B.4B
2.4B6.A10.4B9.A$8.2A2.A.A2.8B.2B3.A11.4B.4B4.4B5.3A7.4B10.2A$7.A2.
A2.2A2.12B2.2A9.4B.4B6.4B7.A5.4B$8.2A7.12B.3B2.2B2.B.4B.4B8.4B5.2A
4.4B$17.14B3.10B.4B10.4B4.9B$18.14B.10B.4B12.4B5.6B$9.2A10.21B.4B
14.4B2.8B$10.A8.27B16.15B$10.A.AB4.28B17.14B$11.2AB.31B18.13B$13.
34B18.10B.B2A$13.34BA.2A16.3B2AB3.BA.A$13.33B.2A.A16.3B2AB6.A$14.
30B25.4B6.2A$15.28B26.3B$11.A5.27B22.AB.2B$11.3A3.4B3.20B21.A.AB2A
B$14.A3.2B3.20B22.A.ABABAB$13.2A7.20B20.2A.A.A.A.A2.A$13.5B3.4B.4B
.9B22.A2.A2.2A.4A$4.2A9.3B2.4B7.8B25.2A4.A$3.A.A8.9B9.4B34.A.A$3.A
8.B.8B49.2A$2A.AB.B3.BA9B$.A.A.2AB.3A9B$.A.A.2A2B2A10B$2A.A2.5BA9B
$A2.4A3BA8B.B2A$.2A2.BAB.BA8B.BA.A$3.2A6.7B5.A$3.A7.2B.3BA5.2A$5.A
9.3BA$4.2A10.3AB!
