#CSYNTH gun_1306 costs 7315 cells.
#C period 1306 fullperiod 1306 bbox 77 by 95
#CLL state-numbering golly
x = 77, y = 95, rule = LifeHistory
46.2A$45.A.A$39.2A4.A$37.A2.A2.2A.4A$37.2A.A.A.A.A2.A$40.A.ABABAB$
40.A.AB2AB$41.AB.2B$44.3B$44.4B6.2A$42.3B2AB6.A$42.3B2AB3.BA.A$40.
10B.B2A$39.13B$38.14B$37.15B$36.4B2.8B$35.4B5.6B$34.4B4.9B$33.4B5.
2A4.4B10.2A$32.4B7.A5.4B9.A$31.4B5.3A7.4B10.A$30.4B6.A2.3A5.4B5.5A
$29.4B9.A2.A5.4B4.A$28.4B9.2A2.A.AB.7B2.B3A$19.A7.4B15.2AB.7B3.2B.
A$17.3A6.4B18.12B4A$16.A8.4B19.7B2A3BAB2.2A$15.A.A6.4B20.7B2A2B.B
3A2.A$14.BA.A5.4B21.10B3.B.A.2A$13.3BA5.4B21.8B8.A$11.4B6.4B21.9B
7.2A$9.6B5.4B21.4B2.3B$8.7B4.4B9.2A10.4B3.5B$.B.4B.8B2.4B11.A9.4B
7.2A$2AB.17B10.A10.4B8.A$2A18B11.5A5.4B5.2A3.3A$.2B.16B16.A4.4B5.A
6.A$4.16B13.3AB2.7B.BA.A$5.15B12.A.2B3.7B.B2A$6.12B.B2A10.4A12B$6.
11B2.BA.A7.2A2.BA3B2A7B$7.10B5.A6.A2.3AB.2B2A7B$7.6B2A2B5.2A5.2A.A
.B3.10B$7.6B2A3B14.A8.8B9.2A$7.10B15.2A7.9B8.A.A$3.A.2AB.8B25.3B2.
4B8.AB$.3AB2AB3.7B22.5B3.4B6.2B6.2B$A4.B6.6B22.2A7.4B3.5B3.5B$.3A.
2A4.6B24.A8.12B.6B$3.2A2.A4.5B21.3A10.21B$6.A.A.8B20.A13.21B2.B$2.
A.2A.A.A8B8.A26.22B2A$2.2A.A.BA2B.6B6.3A27.21B2A$5.A2.2B2.7B4.A30.
3B2A17B$5.2A.B3.7B4.2A19.2A8.2B2A17B$3.2A2.A.A2.8B.4B4.A15.A8.4BA
16B$2.A2.A2.2A2.11B4.3A15.A.AB4.21B$3.2A7.12B2.A19.2AB.23B.2B$12.
12B2.2A20.27B2A$13.11B3.B20.27B2A$16.7B4.3B19.24B.2B$15.8B3.6B16.
26B$14.9B2.10B11.21B.6B$13.23B3.2B2.22B.7B$11.B.16B2A34B.8B$10.2A
17B2A22B.9B4.6B$10.2A41B2.7B6.4B$11.42B2.7B7.5B$9.5B2.36B2.8B10.2A
$9.2A6.5B5.13B.4B8.9B10.A$10.A7.2B.3B3.7B.B4.4B10.8B11.3A$7.3A12.
2A15.4B8.B3.8B12.A$7.A14.A3.A11.4B8.A2B.B.6B$23.4A10.4B8.A.A11B$
36.4B10.AB.11B$25.2A8.4B14.10B2A$24.B2AB6.4B16.7B.B2A$24.4B5.4B17.
6B3.B$25.2B5.4B16.2AB$16.2A7.4B2.4B16.A.AB$16.A.A5.5B.4B17.A$17.A.
14B17.2A$18.14B$18.14B$18.15B$17.3B2A12B$17.3B2A13B$15.2AB.11B2.4B
$14.A.AB2.8B5.4B$14.A5.10B4.4B$13.2A5.B.B5.2A5.4B$21.3B4.A7.3BA$
20.B2AB5.3A5.3BA$21.2A8.A6.3AB!
