#CSYNTH gun_1206 costs 3306 cells.
#C period 1206 fullperiod 1206 bbox 57 by 58
#CLL state-numbering golly
x = 57, y = 58, rule = LifeHistory
24.2A5.2A11.B4.B$24.A.A.BA2B.A9.8B$26.A2BAB.2A6.13B$21.A2.A.A2.A2.
18B2A2B$21.4A.3AB4.16B2A2B$25.B.2A4.22B$23.ABA7.9B3A10B$22.A.A7.9B
A3BA9B$22.A.A.A.2A2.8BA2BA11B$20.2A.2A.2A.A2.7BABA2BA8B$21.A.A.A6.
4B4A13B$21.A.A.A6.3BA2BA8B2A4B$22.2A.A.AB.5BA2BABABA3BABAB.4B$26.
2AB.6B2A3BA5BA2B3.2A$28.18B2A3B2.A$28.18B3A2B3.3A$21.2A5.18B3A2B5.
A$22.A6.15BA5BA$8.A2.A3.2A5.A.AB.2B.14BABABABA2B$8.6A2.A6.2AB.2AB
2.22B$6.2A6.2A9.2B2A4.4B2A4BABABABA4B$5.A2.AB2ABA2.3A7.4B4.3B2A4BA
5BA4B$4.A.2AB.2A.B2A2.A3.B.6B6.9B3A6B$4.A.A2.4A2.A.A3.2AB.6B6.8B3A
5B$3.2A.3A4B3A.2A2.2A7B9.B2A10B$4.A.A2.4B2.A.A4.2B.6B9.2A.9B$4.A.A
3.2A3.A.A7.3B2AB12.8B$5.A4.2B4.A8.3B2AB12.8B$11.B13.6B11.7B$10.2AB
12.7B11.6B$9.A2BAB5.2A2.8B12.B2A3B$7.3B2A3B4.A3.8B12.B2A3B$7.8B.BA
.A2.9B.2A9.6B.2B$6.9B.B2A3.10B2AB9.7B2A$5.B2A9B4.5B3A8B6.6B.B2A$4.
BA2BA8B3.6B3A9B6.6B.B$5.B2A9B3.4BA5BA4B2A3B4.4B$7.10B3.4BABABABA4B
2A4B4.2A2B$9.7B4.22B2.B2A.B2A$9.8B4.2BABABABA14B.2B.BA.A$8.5B.4B5.
A5BA15B6.A$8.6B.4B4.2B3A18B5.2A$7.6B3.4B3.2B3A18B$3.B2.3BA3B4.4B2.
3B2A18B$.7BABA2B5.4B2.2BA5BA3B2A6B.B2A$.7BABA2B6.4B.BABA3BABABA2BA
5B.BA.A$9BA3B7.5B2A8BA2BA3B6.A$11B.B2A6.13B4A4B6.2A$.9B2.BA.A5.8BA
2BABA7B$.7B7.A3.11BA2BA8B$2.6B7.2A2.9BA3BA9B7.BA$3.4B12.10B3A9B7.A
BAB2.2A$4.4B11.22B4.2A.B3.A2.A$5.4B11.2B2A16B4.B3A.6A$6.4B10.2B2A
18B2.A2.A.A$7.3BA10.13B6.2A.BA2BA.A.2A$8.3BA11.8B9.A.2BAB.A.A.2A$
9.3AB11.B4.B11.2A5.A!
