#CSYNTH gun_729 costs 5293 cells.
#C period 729 fullperiod 729 bbox 79 by 67
#CLL state-numbering golly
x = 79, y = 67, rule = LifeHistory
24.2A3.2A$24.A.A.A.A$17.2A7.A.A7.2A$18.A6.2A.2A6.A$18.A.AB2.A.A.A.
A2.BA.A4.2A$10.2A7.2AB.A3BA3BA.B2A3.A2.A$11.A9.BA3B3A3BAB5.2A.A.2A
$11.A.AB6.B2AB5AB2AB6.B.A.BA$12.2AB7.2B.5B.2B5.ABA.ABA$3.2A9.3B9.
3B6.AB.AB.BAB$3.A4.A5.4B9.B6.A.2ABA2.B$5.A.A.A5.4B9.3B2.B2A.2B3.A
2.2A$4.3A2.A5.4B.3B2.7B2.2AB.A2.A.A2.A$.2A6.A.AB.19B2.A2BA2B5A$.A.
4A3.2AB.B3A10B3A2B2.A2BA2BA$3.B3.A4.2BA3BA8BA3BA2B6.A.4A$3.2B2A5.B
A5BA6BA5BAB5.2A2B3.A$2.2A.A6.2BA3BA8BA3BA2B4.A2.2B.2A$.A2.A2BA2BA
2.2B3A10B3AB.B2A3.A.A.A$A.3A2BA2BA2.19B.BA.A3.3A.2A$.A2.A2.A.B2A2.
7B2.3B.4B5.A5.B.A$2.2A3.2B.2AB2.3B9.4B5.2A4.A.A$6.A.2A.A6.B9.4B10.
2A.2A$5.B2A.BA6.3B9.4B8.3A.A$2.AB.A.A5.2B.5B.2B6.BABA7.A3.A$.A.4A
5.B2AB5AB2AB6.B2AB7.3A24.A2.2A$2.A2.2B5.BA3B3A3BAB7.A3B8.A.A22.4A.
A$3.A.B4.2AB.A3BA3BA.B2A6.4B8.2A27.A$3A.2BA2.A.AB2.A.A.A.A2.BA.A6.
4B29.7A.2A$A2.2A.A2.A6.2A.2A6.A7.4B27.A2.B3.A.A2.A$.A4.4A7.A.A7.2A
7.3BAB25.2A2.2A.AB2.2A$2.4A9.A.A.A.A13.5BA2B26.B2AB2A$6.2A6.A.A.A.
A.A10.5B3A2B27.5B$4.A2.A6.A.A.A.A.A10.10B28.3B$2.4A9.A.A.A.A11.11B
26.2A3B$.A4.4A7.A.A7.2A4.12B24.B2AB2A$A2.AB.A2.A6.BA.AB6.A7.5B2.4B
15.2A6.2ABA4B$3A.2AB2.A.AB2.A.A.A.A2.BA.A5.5B5.4B15.A5.9B$3.A.B4.
3A.ABA3BABA.3A6.4B7.4B14.A.AB3.7B$2.A2.AB5.2AB2A3B2AB2A7.5B8.4B14.
2AB.10B$.A.4A5.B2ABA3BAB2AB6.5B10.4B15.13B$2.2A.B.A5.2B.B3AB.2B6.A
4B12.4B14.13BA$5.A2B.2A6.3B9.B2AB8.2A5.4B10.A2.11BABA$6.A.2A.A6.B
9.BABA5.A4.A6.4B7.3A4.8B2.2A$2.2A3.2A.2BA2.3B9.4B5.A.A.A9.4B5.A7.
6B5.B$.A2.A2.B.A2B2.4BA2B2.B2A.4B5.A2.3A9.4B4.2A5.9B$A.AB7A2.3B2A
4B2A8B.BA.A6.2A7.9B4.4B4.2A$.A2.B2A4B2.4B2A3B2A5BA2B.B2A3.4A.A8.6B
5.4B5.A$2.2A.A6.4B3A6B2ABAB2A2B4.A3.B10.8B2.4B7.3A$3.B3A5.4BA12BA
4B5.3AB8.15B10.A$3.B3.A4.2B2ABAB2A6B3A4B6.A.2A7.8BA5B$.A.4A3.2AB.
2BA5B2A3B2A4B2.4B2AB2.A6.7BABA3B$.2A6.A.AB.8B2A4B2A3B2.7ABA.A3.2AB
.5BA2BAB$4.3A2.A5.4B.2AB2.2BA4B2.2BA.B2.A2.A3.A.AB3.2BA3BA$5.A.A.A
5.4B9.3B2.A2B.2A3.2A4.A5.2B2ABAB2A$3.A4.A5.BA2B9.B6.A.2A.A7.2A6.BA
4BAB$3.2A9.3B9.3B6.2A.2BA14.2B4A$12.2AB7.2B.B3AB.2B5.A.B.2A12.3BAB
$11.A.AB6.B2ABA3BAB2AB5.4A.A12.3B$11.A9.2AB2A3B2AB2A5.BA2.A12.5B$
10.2A7.3A.ABA3BABA.3A4.B.A12.B2AB2A$18.A.AB2.A.A.A.A2.BA.A2.B2A.3A
6.2A2.2A.AB2.2A$18.A6.BA.AB6.A2.A.BA2.A6.A2.B3.A.A2.A$17.2A7.A.A7.
4A4.A8.7A.2A$24.A.A.A.A9.4A16.A$24.2A3.2A7.A2.A13.4A.A$38.2A15.A2.
2A!
