#CSYNTH gun_642 costs 4361 cells.
#C period 642 fullperiod 642 bbox 89 by 49
#CLL state-numbering golly
x = 89, y = 49, rule = LifeHistory
30.2A.A.2A15.2A5.A$29.A2.2A.A2.A.2A.A7.A.2BAB.A.A.2A$28.A.A4.A.2A.
A.2A7.2A.BA2BA.A.2A$29.A.5A2.B8.6B2.A2.A.A$14.A16.A4.AB2A6.5B4.B3A
.6A$14.3A13.A2.BA.A.2A4.7B5.2A.B3.A2.A$17.A11.A.2BA.A2.13B8.ABAB2.
2A$16.2A11.2A.2BA5.13B7.BA$16.5B12.3B3.15B$18.4B12.2B3.15B13.2B$
16.7B10.4B.17B12.BA2B$16.7B3.29B11.BABA2B$16.7B2.16B2A13B9.2BABA2B
$14.10B.16B2A14B8.3BA3B$14.38B3.B2A6.7B$14.37B4.A2.A6.7B$13.22B2.
2B2.B3.6B5.3A2.A4.7B2.3B9.2A$12.20B14.6B7.3A4.13B.2B5.A$13.17B14.
9B5.A8.18BA.A$13.17B14.2A4.4B5.3A4.19B2A$13.18B14.A5.4B7.A2.20B$
13.19B10.3A7.4B5.2A2.20B$6.3B.B3.19B9.A10.4B4.24B$5.22B3.4B20.4B5.
21B$5.21B5.4B20.4B3.22B$4.24B4.4B10.A9.19B3.B.3B$4.20B2.2A5.4B7.3A
10.19B$4.20B2.A7.4B5.A14.18B$2.2A19B4.3A5.4B4.2A14.17B$.A.A18B8.A
5.9B14.17B$.A5.2B.13B4.3A7.6B14.20B$2A9.3B2.7B4.A2.3A5.6B3.B2.2B2.
22B$17.7B6.A2.A4.37B$18.7B6.2AB3.38B$17.3BA3B3.2A3.32B.10B$17.2BAB
A2B3.2A4.31B2.7B$17.2BABAB11.12B3A14B3.7B$18.2BAB5.4A3.9B2A2BA3B.B
.2B10.7B$20.2B4.A4.A3.8BABA4B4.3B10.4B$26.5A.A2.15B5.A2B.2A7.5B$
24.2A2.2BA.A3.13B5.A.A2B.A10.2A$23.A2.A4B.2A4.13B2.A.AB2.A11.A$23.
2A.A.ABAB.A2B.8B4.2A.A.A3.A13.3A$26.A2.A.3A9B6.2ABA2.4A.A13.A$26.
2A.A.B.A2B3.4B7.B2.A.A3.A.A$28.A.A.2A6.4B5.2A.2A2.A2.A.A$28.A.A.A
8.3BA5.A.A2.2A3.A$29.A2.A9.3BA4.A.A$30.2A11.3AB4.A!
