#CSYNTH gun_5610 costs 2576 cells.
#C period 5610 fullperiod 5610 bbox 56 by 46
#CLL state-numbering golly
x = 56, y = 46, rule = LifeHistory
39.2A$39.A13.A$40.3A9.A.A$42.A9.BA2B$43.3B7.AB$18.4B16.9B4.3AB$18.
4AB9.4B.11B3.2B$17.A4BA7.18B3.2B$17.A2B.A.AB4.18B4.3AB$18.A3.ABAB
3.18B6.AB$23.BAB3.19B4.BA2B$22.2BAB2.2B2A16B4.BAB$21.A2BAB.B2ABA
18B.A.A$22.2A2.23B.BAB$26.BA2BA17B.2BAB$27.BA18B3.BA$27.19B4.B3A$
28.BA2BA13B6.2B$28.4BA2BA10B6.2B$26.8BABA8B5.B3A$22.A2.4B3A3B2AB.
4B7.BA$20.3A2.13B11.2BAB$19.A6.7B2.B14.A.A$6.A12.2A5.7B3.4B11.A$5.
A.A8.5B6.5B4.3BAB$3.3A.A4.7B9.3B4.4ABA$2.A4.2A2.10B5.5B4.3A.A.AB$
3.3A.B3.10B3.7B5.B3.ABAB$5.AB2A3.20B9.A2B$6.2A2B3.20B7.2A2B$5.2ABA
B3.16B.4B5.B2A2B$4.ABA.AB3.16B2.4B5.2A$2.3A.ABAB3.4B3A8B4.4B$.A4.A
.A3.5B2ABA6B6.4B$.A.2A2B3A.5BA3BA6B7.4B$2A.A2.AB2AB.5B3A6B9.4B$A3.
2AB3A2.5B3A4B12.4B$.2A.A2.BAB3.B.6B16.4B$2.A.A.2A8.5B17.4B$2.A.A.A
7.2BA3B19.4B$3.A2.A4.4BABA22.4B$6.2A3.2A.A.A24.4B$10.ABABA.A.A23.
4B$10.A4.A.A.A23.3BA$11.3A.A.A.A24.3BA$13.2A3.A26.3AB!
