#CSYNTH gun_9993 costs 17290 cells.
#C period 9993 fullperiod 9993 bbox 133 by 130
#CLL state-numbering golly
x = 133, y = 130, rule = LifeHistory
61.2A$61.A.A$63.A4.2A$59.4A.2A2.A2.A$59.A2.A.A.A.A.2A$61.BABABA.A$
62.B2ABA.A$63.2B.BA$62.3B$53.2A6.4B$54.A6.B2A3B$54.A.AB3.B2A3B$55.
2AB.10B$57.13B$57.14B$57.15B30.2A$59.8B2.4B29.A.A$59.6B5.4B30.A4.
2A$58.9B4.4B25.4A.2A2.A2.A$57.4B4.2A5.4B18.2A4.A2.A.A.A.A.2A$56.4B
5.A7.4B17.A7.BABABA.A$55.4B7.3A5.4B18.A6.B2ABA.A$15.A11.A26.4B10.A
6.4B13.5A7.2B.BA$15.3A7.3A25.4B19.4B12.A10.3B13.2A$18.A5.A27.4B21.
4B13.B4A3.4B14.A$17.2A5.2A25.4B23.4B12.BA2.A3.B2A3B10.A5.2A$17.9B
24.4B25.4B11.4B4.B2A3B10.2A5.A$19.5B25.4B27.4B6.2A3.15B11.3B.A.2A$
18.7B11.2A10.4B29.4B5.A2.A.2A14B7.2A2B2A.A2.A$17.9B11.A9.4B31.4B6.
2A.2A3BA11B5.B2A2B.A.2A$16.10B9.A10.4B33.4B9.B.BABA11B5.4B.A$10.
19B6.5A5.4B5.2A28.4B11.BA7B2.4B3.4B.2A$10.19B.2B8.A4.4B5.A30.4B10.
7B5.6BA3B$9.2A20B2A4.3AB2.7B.BA.A31.4B9.9B4.4BABA2B7.2A$9.2A18B.B
2A3.A.2B3.7B.B2A33.4B7.4B4.2A5.4BA3B8.A$10.B.18B.B4.4A12B36.4B5.4B
5.A7.10B3.B.A.2A$13.16B5.2A2.BA3B2A7B37.4B3.4B7.3A4.7B2A2B.B3A2.A$
14.14B5.A2.3AB.2B2A7B38.4B.4B10.A4.7B2A3BAB2.2A$14.9B2.4B4.2A.A.B
3.10B39.7B16.12B4A$15.8B3.4B6.A8.8B39.5B15.2AB.7B3.2B.A$13.11B3.4B
5.2A7.9B38.5B14.A.AB.7B2.B3A$12.12B4.4B14.3B2.4B36.7B13.A5.4B4.A$
3.2A7.12B5.4B11.5B3.4B10.2A22.4B.4B11.2A5.4B5.5A$2.A2.A2.2A2.11B7.
4B10.2A7.4B9.A22.4B3.4B16.4B10.A$3.2A2.A.A2.8B.4B6.4B10.A8.4B10.A
19.4B5.4B14.4B9.A$5.2A.B3.7B4.2A7.4B6.3A3.2A5.4B5.5A18.4B7.4B12.4B
10.2A$5.A2.2B2.7B4.A9.4B5.A6.A5.4B4.A22.4B9.4B10.4B$2.2A.A.BA2B.6B
6.3A7.4B11.A.AB.7B2.B3A18.4B11.4B8.4B$2.A.2A.A.A8B8.A8.4B11.2AB.7B
3.2B.A16.4B13.4B6.4B$6.A.A.8B18.4B12.12B4A15.4B15.4B4.4B$3.2A2.A4.
5B20.4B11.7B2A3BAB2.2A12.4B17.4B2.4B$.3A.2A4.6B21.4B10.7B2A2B.B3A
2.A10.4B19.8B9.A$A4.B6.6B21.4B9.10B3.B.A.2A9.4B21.6B8.3A$.3AB2AB3.
7B22.4B7.8B8.A11.4B23.4B8.A$3.A.2AB.8B24.4B5.9B7.2A10.4B23.6B7.2A$
7.10B25.4B3.4B2.3B19.4B23.8B3.5B$7.6B2A3B25.4B.4B3.5B16.4B23.4B2.
4B2.3B$7.6B2A2B27.7B7.2A15.4B23.4B4.9B7.2A$7.10B28.5B8.A15.4B23.4B
6.8B8.A$6.12B27.5B9.3A11.4B23.4B8.10B3.B.A.2A$6.14B.2A.A19.7B10.A
10.4B23.4B9.7B2A2B.B3A2.A$5.16BA.2A18.4B.4B19.4B23.4B10.7B2A3BAB2.
2A$4.17B21.4B3.4B10.A6.4B23.4B11.12B4A$.2B.16B21.4B5.4B7.3A5.4B15.
A7.4B10.2AB.7B3.2B.A$2A18B20.4B7.4B5.A7.4B14.3A6.4B10.A.AB.7B2.B3A
$2AB.17B18.4B9.4B4.2A5.4B14.A8.4B11.A5.4B4.A$.B.4B.8B2.4B16.4B11.
9B4.4B14.A.A6.4B11.2A5.4B5.5A$8.7B4.4B14.4B13.6B5.4B14.BA.A5.4B18.
4B10.A$9.6B5.4B12.4B14.8B2.4B14.3BA5.4B18.4B9.A$11.4B6.4B10.4B13.
15B13.4B6.4B18.4B10.2A$13.3BA5.4B8.4B14.14B12.6B5.4B18.4B$14.BA.A
5.4B6.4B15.13B12.7B4.4B18.4B$15.A.A6.4B4.4B14.2AB.10B6.B.4B.8B2.4B
18.4B$16.A8.4B2.4B14.A.AB3.B2A3B7.2AB.17B18.4B$17.3A6.8B15.A6.B2A
3B7.2A18B18.4B4.A2.2A$19.A7.B3A2B15.2A6.4B10.2B.16B17.4B5.4A.A$28.
A3B25.3B13.17B2.2A11.4B11.A$27.2BA3B25.2B.BA11.16BA2.A10.4B5.7A.2A
$26.8B23.B2ABA.A11.14B.2A11.4B5.A2.B3.A.A2.A$25.4B2.4B21.BABABA.A
11.12B15.4B6.2A2.2A.AB2.2A$24.4B4.4B18.A2.A.A.A.A.2A9.10B15.4B10.B
2AB2A$23.4B6.4B17.4A.2A2.A2.A9.6B2A2B14.4B12.5B$22.2A2B8.4B20.A4.
2A11.6B2A3B12.4B14.3B$21.2B2A10.4B17.A.A17.10B12.4B14.5B$20.2BAB
12.4B16.2A14.A.2AB.8B11.4B14.4BAB$7.A11.4B14.4B29.3AB2AB3.7B9.4B7.
2A6.3BABA2B$6.A.A2.2A5.4B16.4B10.2A15.A4.B6.6B4.2B2.4B9.A5.4BABA2B
$6.A.A3.A4.4B18.4B9.A17.3A.2A4.6B4.8B10.A.AB3.4BA2B$4.2A.A.3A4.4B
20.4B10.A17.2A2.A4.5B4.7B12.2AB.10B$2.A2.A.A.A5.4B15.2A5.4B5.5A20.
A.A.8B.8B15.13B$2.2A2.BA2B4.4B17.A5.4B4.A21.A.2A.A.A16B16.14B$6.2A
4B.4B18.A.AB.7B2.B3A18.2A.A.BA2B.15B15.15B$6.10B20.2AB.7B3.2B.A20.
A2.2B2.15B17.8B2.4B$8.7B23.12B4A20.2A.B3.15B17.6B5.4B$8.6B24.7B2A
3BAB2.2A16.2A2.A.A2.9B2A3B17.9B4.4B$8.6B24.7B2A2B.B3A2.A14.A2.A2.
2A2.9B2AB18.4B4.2A5.4B$7.11B20.10B3.B.A.2A15.2A7.12B17.4B5.A7.4B$
2.17B18.8B8.A27.12B16.4B7.3A5.4B$.13B2A4B16.9B7.2A28.11B15.4B10.A
6.3BA$.12B2ABA3B15.4B2.3B27.2A9.12B13.4B19.ABA$.13BA6B13.4B3.5B26.
A8.13B.2B9.4B21.2A$2.12B2A4B13.4B7.2A26.A.AB4.18B7.4B23.B$3.17B12.
4B8.A28.2AB2.23B3.4B$4.16B11.4B10.3A6.A20.32B$5.3B.B2.8B10.4B.3B.B
7.A4.3A19.32B$6.B5.7B4.18B10.A16.2A4.31B$5.A.A4.8B2.16B2A2B5.B3.2A
16.A4.30B$5.2A.A4.7B2.16B2A2B3.8B14.A6.28B$8.A5.7B.20B.8B16.2A4.4B
.B5.17B$8.2A3.38B17.2B2.4B11.14B$12.20B2.2B.15B15.8B6.2A4.14B$11.
18B8.17B13.7B7.A6.2B4.3B$11.16B11.13BABA3B2.2B2.B2.7B5.2A.A5.2B6.B
$11.15B12.12BA3BA18B4.A2.A5.B2AB$8.2A.16B12.7B.2BA4BA19B3.B2A7.2A$
8.A.7B3.7B11.11BA4BA8B2A14B$5.2A.A2.7B4.3B.B2A8.12BA3BA9B2A13B$6.A
.2A3BA.A2.A7.BA.A8.8B2.2BA2BA23B$4.A2.A2.B3AB4A10.A8.6B11.2B.B.17B
$4.2A.A.2A.B16.2A8.5B10.3B4.15B$7.A2.A.5A22.4B7.2A.2BA5.15B$7.2A2.
A4.A23.3B7.A.2BA.A5.13B$13.A24.4B9.A2.BA.A2.13B$12.2A24.2A12.A3.A.
A.2A4.8B$39.A10.A.4A2.AB2A6.6B$36.3A10.A.A3.A.A2.B8.5B$36.A12.A.A
2.A2.2A.2A9.B.B$50.A3.2A2.A.A9.3B$58.A.A9.B2AB$59.A11.2A!
