#CSYNTH gun_6765 costs 3009 cells.
#C period 6765 fullperiod 6765 bbox 59 by 51
#CLL state-numbering golly
x = 59, y = 51, rule = LifeHistory
6.2A13.2A5.A$3.A.A2.A11.A.BABA.A.A.2A$3.2A2.2A11.2A.2BABA.A.2A15.
2A$.2A14.5B2.B2.A.A16.3A.A$A.A.7A.2A2.4B4.4A.6A4.A5.A4.3A$3A.A5.A.
A.B.5B4.2B.A3.B2.A2.A.A4.A.2A4.A$.BA.A.2A4.A.7B7.3AB2.A3.A.A3.2A.A
.4A$5A.A.A3.2A8B7.BA4.4A.2A.AB2.B.A$BA2.BA2.A4.2B.6B19.B5ABAB.4A$B
2A3B2.3A5.6B.2B7.A4.3AB2AB.B.ABABA2.A$.A.2A6.A4.5B.4B4.3A3.A2.A.AB
8A$3AB6.2A2.14B.A6.2A4.4B.3AB$2B8.10B2ABA4B2.A17.B6.2A$.2B9.11B2A
2B4A8.2B6.B5.BAB.A$A2BA7.8BA4B2ABA5.2A3.4B4.4B3.B2A.A$.2A8.10B4AB.
2BA.A2.A3.13B2.B.B.2A$.3B.2B4.3B2A8B4.2A.2A5.12B2.2B2A2.A$.15BA7B
14.13B.BA2.2A$14BA11B11.10BA4BAB2A$9B2A3B2ABA9B10.8B2AB2A3BA2.2A$
9B2A6BA10B9.8B2AB2A3B2.A2.A$2.26B7.2AB.6BA2B2A3B3.2A$4.B.20B.B2A4.
A.AB.7B2A4B$10.16B.BA.A3.A6.9B$12.13B5.A2.2A6.9B$5.2A6.5B.5B6.2A9.
9B$6.A5.13B15.9B$6.A.AB.16B13.9B$7.2AB.20B.B6.9B$9.29B.7B$9.10BA6B
2A17B$10.9BAB2A3B2A15B$11.11BA21B$13.7BA17B3.4B$4.2A.2A4.8B2A3B4.
2B2.4B4.4B$2.A2.A.A2B.B4A10B8.4B5.4B$2.2A5.AB2A4BA8B8.2B2AB5.4B$6.
4A2B2A11B8.A.A2BAB5.4B$6.A2.4BAB2A10B4.3A.A.2AB6.4B$7.A.14B2.2A3.A
4.A2.4B5.4B$4.3A4.4B.5B4.A5.3A.A4.2A6.4B$4.A7.2B.6B5.3A4.2A5.A8.4B
$15.6B.2B4.A12.3A6.4B$6.AB7.8B2A18.A7.4B$.2A2.B3A7.7B.A27.4B$.A2.B
3.A.2B4.5B.B.A.2A25.4B$2.6A.4A4.4B2.2A.2A26.4B$7.A.A2.B2.5B35.3BA$
4.2A.A.ABA2B.2A39.ABA$4.2A.A.A.ABAB.A40.2A$8.A5.2A42.B!
