#CSYNTH gun_6204 costs 3551 cells.
#C period 6204 fullperiod 6204 bbox 67 by 53
#CLL state-numbering golly
x = 67, y = 53, rule = LifeHistory
46.A3.2A$45.A.A2.A$45.A.A4.A$46.A.5A$48.A$47.A2.B2A5.2A$46.A.3B2AB
4.A$14.B.B29.2A.5B.BA.A$12.3B2AB32.3B2.B2A6.A$2A10.2BA2BA31.8B5.3A
$.A5.2B2.4B2A2B29.8B5.A$.A.AB.13B9.2A16.10B5.2A$2.2AB.16B6.A3.2A9.
2B.10B3.4B$4.4BA12BAB7.A2.A8.2A11B3.3B$3.4BABA10BABAB5.3A2.2A6.2AB
.6B2A7B$4.4BA11BABAB3.2B3.2A2.A6.B.6BA2BA5B5.2A$2.2AB.15BA2B3.2B3A
2.A.A9.4B2A3BA4B5.A$.A.AB.23BA.B2A.A10.10BA4B.BA.A$.A5.2B2.19B2A3.
A.A8.3BA3BA7B.B2A$2A10.21B2A.2A6.2AB.2B2ABA9B$12.19B.B.A8.A.AB.15B
$12.16B5.A2.2A5.A5.5BA8B$8.2A.4B3.10B6.2A.A4.2A5.7B2A6B.B$8.A.3B2A
B3.8B21.15B.B2A$9.A2.B2A4.9B19.4B3.11B2A$10.A8.10B6.A10.4B3.4BA5B.
2B$8.A.5A5.10B5.3A7.4B4.3BABA4B$7.A.A4.A5.3BA7B7.A5.4B5.8B$7.A.A2.
A7.2BABA7B5.2A4.4B5.4B3AB$8.A3.2A6.2BABA8B4.9B5.2AB2.3B$20.3BA10B
5.6B5.A.AB.5B.2A$18.2AB.13B2.8B5.A4.B2A3B.A$17.A.AB2.24B2.2A5.2AB
2.A$17.A7.7B.14B13.A$16.2A7.6B3.13B9.5A.A$11.B2A12.4B5.10B.B2A7.A
4.A.A$11.3AB10.4B7.4B2AB3.BA.A8.A2.A.A$10.A.2AB9.4B7.5B2A2B5.A7.2A
3.A$9.A.A.2B8.4B8.8B6.2A$9.A2.A2.2B5.4B11.6B$10.2A3.3B3.4B12.5B$
15.B2A.5B14.3B$2.2A.2A7.BA2BA4B14.5B$2.2A.A8.2B2A4B15.2AB2AB$5.A.B
3.2A8B12.2A2.BA.2A2.2A$5.2A2B.3BA7B12.A2.A.A3.B2.A$3.2A2.A2BAB2A7B
14.2A.7A$2.A2.AB2A12B16.A$2.2A.A.AB3.7B.B2A14.A.4A$3.A2.3AB2.7B.BA
.A14.2A2.A$3.A5.A4.2BAB5.A$4.5A5.3BA5.2A$6.A8.3AB!
