#CSYNTH gun_2900 costs 5358 cells.
#C period 2900 fullperiod 2900 bbox 94 by 57
#CLL state-numbering golly
x = 94, y = 57, rule = LifeHistory
4.2A2.2A.2A10.B9.A$2.3A.A2.A.A.A7.BA2B.2A3.3A$.A4.2A.A.B.A2.AB.B3A
2BA.A2.A51.2A$.A.3A.B.A3BA.A.2A2B.AB.BA3.2A44.A4.B2AB$2.AB.2ABA2B
2.A.AB.A2BAB4.5B43.A.A2.2B2A$3.3B2A3B3A2B.BA2BA4.4B5.2B.2A35.BA2B
2.B3A$5.3BA2B.BA2BA3B6.5B3.B2A2.A36.2B4.3B$2.A2.A.A2.B.B.3B2A7.6B
2.2AB2A37.3A2.A4BA$2.4A.5ABAB.ABAB6.8B2A2B38.5BA4BAB$6.A6.A.A3.A5.
2B3AB2.B2A2B36.A4BABA4BA$4.A.A2.3A.A.A.2A5.2BA2BAB3.2AB2A32.B.BA4B
A7B2.2A$4.2A4.A.A3.A7.2BA2BA4.B2A2.A29.5BA4BA2B3A2B3.A$8.A8.A.A4.B
A2BAB5.2B.2A28.12B.8B.A.2A$8.2A8.2A4.2B3AB38.8B3AB2.5B2A.A2.A$25.B
2A2B2.2A32.B.3A9B2.5B.A.2A$25.4B4.A2.A21.A6.4A2BAB3.3B4.B.2B.A.A$
25.4B4.A.A.A20.3A4.5ABAB3.5B4.2B2A2.A$9.ABA12.6B2.2A.A.A23.A4.4BA
4B4.2A4.BAB.2A$9.3BA10.ABA5BAB2.2A23.2A4.5B2.2A4.A5.B2A.A$8.A.BAB
9.B2AB3.2B2ABA25.6B2.B4.A6.3A4.A.A$7.A.A.AB8.3BA3.3BA2.A27.2B2AB7.
3A5.A2.A.A.2A$7.A2.A2.2B5.4B3.AB2AB2A27.3B2A2B8.A8.2A$8.2A3.3B3.4B
3.ABABA.A28.8B$13.3B.5B5.2B.A3.A.2A23.9B$3.2A7.9B6.2B2A.A.2A.A22.
11B$3.A8.8B6.A4.A.A27.6B.4B$2A.A.B3.10B7.4A.A.A27.5B3.4B$A2.3AB.2B
2A7B10.A.2A12.A12.8B4.4B$.2A2.BA3B2A7B7.3A16.3A8.10B5.4B$3.4A12B7.
A21.A6.12B5.4B$3.A.2B3.7B.B2A2.2A.A8.2A10.2A6.13B5.4B$4.3AB2.7B.BA
.A2.A.2A8.A10.5B3.12B7.4B$7.A4.4B5.2A13.A.AB9.4B2.13B7.4B$2.5A5.4B
5.A15.2AB.3B4.20B8.4B$2.A10.4B6.A15.7B.23B7.4B$4.A9.4B4.2A15.28BA
4B6.4B$3.2A10.4B2.2B17.BA24BABA4B6.4B$8.2A6.8B15.2B2A23BABA4B7.4B$
9.A7.7B13.2B2A2BA23BA4B9.4B$9.A.2A5.7B2.B2.2B2.3BA4B2A9B.B3.B.2B3.
5B12.4B$10.A2.A4.19B3A11B6.3B7.B15.4B$11.2AB3.7B3A10B2A5B.6B6.B2AB
5.3B15.4B$12.10BA4BA16B2.B.5B5.2A6.B2AB15.4B$13.10BA3BA16B7.2A14.
2A17.4B$14.9B4A16B8.A35.4B$14.17B.B.2B16.3A33.4B$15.15B4.3B17.A34.
4B$15.15B5.A2B.2A49.3BA$16.13B5.A.A2B.A50.ABA$18.13B2.A.AB2.A52.2A
$17.8B4.2A.A.A3.A54.B$17.6B6.2ABA2.4A.A$17.5B8.B2.A.A3.A.A$17.B.B
9.2A.2A2.A2.A.A$18.3B9.A.A2.2A3.A$17.B2AB9.A.A$18.2A11.A!
