#CSYNTH gun_2178 costs 5775 cells.
#C period 2178 fullperiod 2178 bbox 75 by 77
#CLL state-numbering golly
x = 75, y = 77, rule = LifeHistory
39.2A$38.A.A$32.2A4.A$30.A2.A2.2A.4A$30.2A.A.A.A.A2.A$33.A.ABABAB$
33.A.AB2AB$34.AB.2B$37.3B$37.4B6.2A$35.3B2AB6.A$35.3B2AB3.BA.A$33.
10B.B2A$32.13B$31.14B$30.15B$29.4B2.8B$28.4B5.6B$27.4B4.9B$26.4B5.
2A4.4B$25.4B7.A5.4B$24.4B5.3A7.4B$9.A13.4B6.A10.4B$9.3A10.A3B19.4B
$12.A8.A3B21.4B$11.2A7.B3A23.4B$11.5B3.4B25.4B$13.3B2.4B26.4B$3.2A
7.9B27.5B$3.A8.8B27.9B$2A.A.B3.10B28.9B$A2.3AB.2B2A7B28.9B$.2A2.BA
3B2A7B27.10B$3.4A12B26.12B$3.A.2B3.7B.B2A14.2A8.13B$4.3AB2.7B.BA.A
2.2A10.A9.11B$7.A4.4B5.A2.A11.A.AB4.12B$2.5A5.4B5.3A2.A10.2AB.15B$
2.A10.4B7.3A12.17B$4.A9.4B5.A15.17B$3.2A10.4B4.2A15.17B.B$8.2A6.9B
14.19B2A$9.A7.6B14.19B.B2A$9.A.2A5.6B3.B2.2B2.20B4.B$10.A2.A4.36B$
11.2AB3.27B.9B$12.14B2A16B2.7B$13.13B2A16B2.7B$14.29B4.6B$14.17B.
4B10.7B$4.A.B8.15B3.2B12.6B$3.B4A7.15B3.3B11.7B$4.3A.A7.13B5.A2B.
2A8.5B8.2A$6.3BA8.13B2.A.A2B.A8.6B6.B2AB$6.A3B.2A5.7B4.2A.A.AB2.A
7.9B5.4B$7.BA.3AB4.5B6.2ABA4.A8.2A.7B5.2B$8.A.A2.A2.6B8.B2.5A.A7.A
5.4B2.4B7.2A$7.2A.A2BAB.2A7.2A.A.2A.A4.A.A3.3A7.4B.5B5.A.A$7.A2.A.
BA2B.A7.A.2A.A2.A.2A2.A3.A3.3A5.14B.A$8.2A5.2A15.2A.A.2A3.A2.A.A2.
A5.14B$43.3A3.2A5.14B$46.A8.15B$45.2A7.12B2A3B$45.5B3.13B2A3B$36.
2A9.3B2.4B2.11B.B2A$35.A.A8.9B5.8B2.BA.A$35.A8.B.8B4.10B5.A$32.2A.
AB.B3.BA9B5.2A5.B.B5.2A$33.A.A.2AB.3A9B6.A4.3B$33.A.A.2A2B2A10B3.
3A5.B2AB$32.2A.A2.5BA9B3.A8.2A$32.A2.4A3BA8B.B2A.A$33.2A2.BAB.BA8B
.BA.A.2A$35.2A6.7B5.A2.A$35.A7.2B.3BA5.2A$37.A9.3BA$36.2A10.3AB!
