#CSYNTH gun_558 costs 4248 cells.
#C period 558 fullperiod 558 bbox 72 by 59
#CLL state-numbering golly
x = 72, y = 59, rule = LifeHistory
42.2A$42.A.A$44.A4.2A$40.4A.2A2.A2.A10.A$40.A2.A.A.A.A.2A9.BAB$42.
BABABA.A13.AB$43.B2ABA.A12.2BABA$27.2A15.2B.BA14.A.2AB.2A$26.A.A
14.3B7.A10.6A.A$20.2A4.A7.2A6.4B7.3A9.2B4.A$18.A2.A2.2A.4A4.A6.B2A
3B8.A10.4A$18.2A.A.A.A.A2.A4.A.AB3.B2A3B7.A.A8.BA.B$21.A.ABABAB7.
2AB.10B5.A.AB7.BA.2A$21.A.AB2AB10.13B5.A3B7.A3B$22.AB.2B11.14B6.4B
7.BA$8.A16.3B10.15B5.6B6.BA$7.ABA15.4B6.2A3.8B2.4B4.7B3.BA.A$7.2B
14.3B2AB6.A4.6B5.4B2.8B3.B2A$5.BA2BA13.3B2AB3.BA.A3.9B4.17B$.2A.AB
A.A12.10B.B2A3.4B4.2A5.16B$A.2A3BA12.13B4.4B5.A6.16B$A4.AB12.14B3.
4B7.3A3.16B$.4A13.15B2.4B10.A3.15B$2.A.2B11.4B2.8B3.4B11.A.2AB.12B
$.BA.BA10.4B5.6B2.4B10.2A.A.AB2.11B$.B3A10.4B4.13B11.A2.A5.10B3.2A
$.2A11.4B5.2A4.6B14.2A5.2B2A6B3.A$BA11.4B7.A5.4B21.3B2A6B4.A$A.AB
2.B5.4B5.3A5.6B21.10B3.2A$.2AB.3B3.4B6.A6.8B20.8B.B2A$3.6B.4B13.4B
2.4B18.7B3.B2AB2A$3.10B13.4B4.4B17.6B6.B.A$3.2B2A5B13.4B6.4B17.6B
4.2A3.A$4.A2BA3B13.4B8.4B16.8B.A2.4A$4.BABA4B11.4B10.4B14.9BA.A.A$
5.BA6B9.4B12.4B4.A8.7B.2BAB.A.2A$5.3B2.4B7.4B14.4B3.3A6.6B3.2B2.A.
A$5.3B3.4B5.4B16.4B5.A4.7B4.B.2A2.A$5.B6.4B3.4B18.4B3.2A4.7B3.A.A
2.A.A$4.A2B6.4B.4B20.4B2.4B.8B3.2A2.A.A$3.A.A3B5.7B22.4B3.11B8.A$
3.2A2BABA5.5B5.2A.2A14.4B.12B$.2A2.A2B2A4.6B4.ABA.A16.16B$2.A.A8.
4B2A3B2.2BA.A17.B3A10B10.A$2.A.6A2.4BA2BA2B.4B.A.2A15.A9B11.3A$3.A
5.A3.3BABA3BA2BAB.A.A15.2BA9B9.A$4.3A7.3BAB4.A.A.2A.A14.16B6.2A$6.
A5.5B7.2A3.A8.A6.24B$12.2A12.3A9.3A3.23B$13.A12.A14.A2.24B$10.3A
27.A.B.24B$10.A29.2A27B$38.2A2.A22B.4B$37.A2.3A3B3.2B3.B7.2B3.4B$
38.A4.2B3.4B.3B5.BA2B3.3BA$39.4A5.B2AB.B2AB4.A.A5.ABA$41.A7.2A3.2A
6.A7.2A$43.A27.B$42.2A!
