#CSYNTH gun_2038 costs 9316 cells.
#C period 2038 fullperiod 2038 bbox 137 by 68
#CLL state-numbering golly
x = 137, y = 68, rule = LifeHistory
45.2A20.2A$44.A.A20.A.A33.A9.2A$38.2A4.A24.A4.2A27.3A8.A$36.A2.A2.
2A.4A16.4A.2A2.A2.A28.A5.A$36.2A.A.A.A.A2.A16.A2.A.A.A.A.2A27.2A5.
2A15.A$39.A.ABABAB20.BABABA.A30.5B3.B13.3A$39.A.AB2AB22.B2ABA.A32.
4B2.4B9.A$40.AB.2B24.2B.BA31.15B6.2A$43.3B22.3B33.17B2.5B$43.4B6.
2A4.2A6.4B32.23B$33.A7.3B2AB6.A6.A6.B2A3B30.22B2A$31.3A7.3B2AB3.BA
.A6.A.AB3.B2A3B30.22B2A$30.A8.10B.B2A8.2AB.10B26.2AB.19B.B$29.A.A
6.13B12.13B24.A.AB2.18B$28.BA.A5.14B12.14B23.A6.16B$27.3BA5.15B12.
15B21.2A6.15B$25.4B6.4B2.8B16.8B2.4B30.12B$23.6B5.4B5.6B16.6B5.4B
29.15B$22.7B4.4B4.9B14.9B4.4B28.16B$15.B.4B.8B2.4B5.2A4.4B12.4B4.
2A5.4B26.4B.12B7.2A$14.2AB.17B7.A5.4B10.4B5.A7.4B24.4B3.11B2.2A2.A
2.A$14.2A18B5.3A7.4B8.4B7.3A5.4B22.4B2.4B.8B2.A.A2.2A$15.2B.16B5.A
10.4B6.4B10.A6.4B20.4B3.2A4.7B3.B.2A$18.16B17.4B4.4B19.4B18.4B5.A
4.7B2.2B2.A$19.15B18.4B2.4B21.4B16.4B3.3A6.6B.2BAB.A.2A$20.12B.B2A
17.8B23.4B14.4B4.A8.8BA.A.2A.A$20.11B2.BA.A17.6B25.4B12.4B14.8B.A.
A$21.10B5.A18.4B27.4B10.4B16.5B4.A2.2A$21.6B2A2B5.2A16.6B27.4B8.4B
17.6B4.2A.3A$21.6B2A3B21.3A5B27.4B6.4B17.6B6.B4.A$13.2A.2A3.10B21.
3BA2.4B27.4B4.4B18.7B3.B2AB3A$14.A.A2.2AB.8B20.3BA4.4B27.4B2.4B20.
8B.B2A.A$14.A2.AB2AB3.7B18.4B6.4B27.8B21.10B$15.A.A.B6.6B17.4B8.4B
27.6B21.3B2A6B$16.A2.2A4.6B17.4B10.4B27.4B16.2A5.2B2A6B$17.2A2.A.
8B16.4B12.4B25.6B16.A5.10B$18.A.A.A9B14.4B14.4B23.8B15.A.AB2.11B$
18.A.BA2B.7B8.A4.4B16.4B21.4B2.4B15.2AB.12B$15.2A.A2.2B3.6B6.3A3.
4B18.4B19.4B4.4B16.15B$15.A2.2A.B4.7B4.A5.4B20.4B6.A10.4B6.4B10.A
4.16B$17.A2.A.A3.7B4.2A3.4B22.4B5.3A7.4B8.4B7.3A4.16B.2B$18.A2.2A
3.8B.4B2.4B24.4B7.A5.4B10.4B5.A7.18B2A$15.3A8.11B3.4B26.4B5.2A4.4B
12.4B4.2A5.17B.B2A$15.A10.12B.4B28.4B4.9B14.9B4.4B2.8B.4B.B$26.16B
30.4B5.6B16.6B5.4B4.7B$16.A10.14B32.4B2.8B16.8B2.4B5.6B$16.3A11.
10B34.15B12.15B6.4B$19.A9.12B34.14B12.14B5.A3B$18.2A6.16B34.13B12.
13B5.A.AB$12.2A4.24B6.A28.10B.B2A8.2AB.10B6.A.A$11.B2AB5.23B3.3A
30.3B2AB3.BA.A6.A.AB3.B2A3B9.A$11.4B4.24B2.A33.3B2AB6.A6.A6.B2A3B
6.3A$12.2B5.24B.B.A34.4B6.2A4.2A6.4B8.A$4.A7.4B2.27B2A34.3B22.3B$
3.A.A5.5B.4B.22BA2.2A29.AB.2B24.2B.BA$4.A.14B3.2B7.B3.2B3.3B3A2.A
27.A.AB2AB22.B2ABA.A$5.14B3.2BAB5.3B.4B3.2B4.A28.A.ABABAB20.BABABA
.A$5.14B4.A.A4.B2AB.B2AB5.4A26.2A.A.A.A.A2.A16.A2.A.A.A.A.2A$5.15B
4.A6.2A3.2A7.A28.A2.A2.2A.4A16.4A.2A2.A2.A$4.3B2A12B22.A32.2A4.A
24.A4.2A$4.3B2A13B21.2A37.A.A20.A.A$2.2AB.11B2.4B60.2A20.2A$.A.AB
2.8B5.4B$.A5.10B4.4B$2A5.B.B5.2A5.4B$8.3B4.A7.3BA$7.B2AB5.3A5.3BA$
8.2A8.A6.3AB!
