#CSYNTH gun_1107 costs 3264 cells.
#C period 1107 fullperiod 1107 bbox 51 by 64
#CLL state-numbering golly
x = 51, y = 64, rule = LifeHistory
4.2A.A2B.AB.A3.ABA$3.A.AB5A3BA2BABA23.2A$3.5A.A.A.2BA3BA2B13.2A7.A
.A$.2A4.A.BAB2.A.6B14.A9.A$2.A.4A2BA6.4BAB11.A5.2A3.BA.2A$.A2.A3.A
B6.2BA3B3.A8.2A4.A3.B.A.2A$A3.A.2A8.5BAB2.3A9.2A.A2.2A.A$A.A.A.A
10.6B5.A5.2A.A.A3.BA.4A$.2A.A2.3A7.2BA3B4.2A5.AB.A6.2A4.A$4.A4.A7.
3BA2B4.4B4.B2A2B6.4A$4.2A3.A.AB4.2B2A3B5.3B4.4B5.BA.B$10.2AB.10B3.
6B2.6B4.BA.2A$4.4A4.13B.7B2.7B4.A3B$4.A2.AB3.30B6.BA$5.4B2.30B8.BA
$6.2B3.17BA11B.3B3.BA.A$4.12B3A8B2A17B.B2A$3.14BA9BABA18B$3.19BA2B
.2BA19B$3.18BABA9BA14B$.2AB.17B2A8B3A12B$A.AB3.3B.11BA17B3.2B$AB8.
30B2.4B$.AB6.30B3.BA2.A$.3BA4.7B2.7B.13B4.4A$.2A.AB4.6B2.6B3.10B.B
2A$2.B.AB5.4B4.3B5.3B2A2B4.BA.A3.2A$.4A6.2B2AB4.4B4.2BA3B7.A3.2A$A
4.2A6.A.BA5.2A4.3BA2B7.2A$.4A.AB3.A.A.2A5.A5.6B$4.A.2A2.A.2A9.3A2.
BA5B$.2A.A.B3.A4.2A8.A3.3BA2B$.2A.AB3.2A5.A11.BA2BAB$4.A9.A14.2B3A
$4.A.A7.2A5.2A.2A.4B3AB$5.2A12.A2.A.A.A3BA2BAB8.A$19.2A.A.BA2B.BAB
A2B6.3A$22.A2.2B2.B3A3B4.A$22.2A.B3.7B4.2A$20.2A2.A.A2.8B.4B$19.A
2.A2.2A2.11B$20.2A7.12B$29.13B$30.11B$19.2A11.8B$20.A11.8B$14.A5.A
.AB4.B.10B$14.3A4.2AB2.16B$17.A5.8B2A10B$16.2A4.9B2A3B2A6B$16.5B.
14B2A6B$7.2A9.3B.22B$6.A.A8.25B.B2A$6.A8.B.8B.B5.B.7B2.BA.A$3.2A.A
B.B3.BA9B11.5B6.A$4.A.A.2AB.3A9B12.3B7.2A$4.A.A.2A2B2A10B12.2B$3.
2A.A2.5BA9B$3.A2.4A3BA8B.B2A$4.2A2.BAB.BA8B.BA.A$6.2A6.7B5.A$6.A7.
2B.3BA5.2A$8.A9.3BA$7.2A10.3AB!
