#CSYNTH gun_1567 costs 8858 cells.
#C period 1567 fullperiod 1567 bbox 103 by 86
#CLL state-numbering golly
x = 103, y = 86, rule = LifeHistory
33.2A11.A$32.B2AB9.A.A$33.3B9.A.A2.2A3.A$32.B.B9.2A.2A2.A2.A.A21.
2A$32.5B8.B2.A.A3.A.A20.B2A2B$32.6B6.2ABA2.4A.A22.4B$32.8B4.2A.A.A
3.A13.A11.4B3.3B$33.13B2.A.AB2.A12.3A8.4B4.5B$31.13B5.A.A2B.A3.A
10.A6.14B$30.15B5.A2B.2A3.3A7.2AB5.14B$30.15B4.3B10.A6.5B3.16B$29.
17B.B.2B10.2A8.5B.16B$29.29B3.4B2A4.22B$28.13B2A16B4.2B2A4.23B$27.
14B2A16B2.7B2.24B4.3B$26.2AB3.27B.7B3.24B.7B$25.A2.A4.35B2.23B.B2A
5B$24.A.2A5.7B2.B2.2B2.19B.25BA2BA5B$24.A7.7B13.43B2A6B$23.2A6.8B
15.48B$30.4B2.2B17.36B.6B.2B$29.4B4.2A15.35B2.8B.B$28.4B6.A15.7B.
26B4.6B.B2A$27.4B5.A15.2AB.3B4.25B8.B3.A.A$26.4B6.2A13.A.AB9.25B
12.2A$25.4B22.A10.5B2.19B4.B$24.4B22.2A10.2A6.20B.B2A$23.4B32.A3.A
6.22B2A$22.4B33.4A6.24B$21.4B43.25B$20.4B35.2A6.24B$19.4B35.B2AB4.
22B.B$18.4B37.3B3.10B.12B$17.4B37.B.B3.8B5.11B$16.4B37.14B9.7B$15.
4B36.15B9.8B5.2A$4.A9.4B36.15B9.8B6.A$4.3A6.4B35.16B11.8B2.BA.A$7.
A4.4B35.16B11.10B.B2A$6.2A3.4B8.2A25.16B12.12B$6.8B8.A.A23.17B2.B
10.12B$2.2A4.5B5.2A2.A24.23B6.2AB2.9B$.A.BAB.5B6.A.A.2A22.6B2A17B
4.A.AB2.8B$.A.2AB2.5B6.2A.A2.A18.8B2A16B5.A4.8B2.2B$2A.B.B3.5B3.3B
.B2.2A9.2A7.27B3.2A4.8B.4B$A2.2A2B2.5B3.4B15.A6.28B8.14B$.2A2.AB.
13B.B13.A.AB.28B10.11B2AB$3.2ABA13B.B2A13.2AB.28B10.11B2A2B$.2A2.A
5BA10B2A15.24B2.B.B12.14B$A2.A2.4BABA7B.2B16.23B2.3B15.11B$.2A3.4B
ABA7B19.23B2.B2AB13.13B$7.4BA7B21.21B4.2A13.14B$9.9B3.2A18.16B.B.B
2A17.14B$6.B.10B.B2.A19.16B2.BA.A9.A7.13B$5.2A12B3A20.11B2.2B6.A9.
3A3.14B$5.2AB.8B.BA22.10B11.2A11.A2.9B$6.B3.6B4.2A21.9B23.A2.10B$
11.4B6.A22.7B19.2A3.2A11B$12.4B4.A22.4B.B21.A2.2A2.11B$13.4B3.2A
20.4B25.2A2.2A10B$14.4B23.4B28.A.A.B.8B$15.4B21.ABAB29.A2.A3.6B$
16.4B19.B2AB31.2A5.4B$17.4B6.A10.3BA28.2A8.4B$18.4B5.3A7.4B28.B2AB
6.4B$19.4B7.A5.4B29.4B5.4B$20.4B5.2A4.4B31.2B5.4B$21.4B4.9B24.A7.
4B2.4B$22.4B5.6B24.A.A5.5B.4B$23.4B2.8B25.A.14B$24.15B24.14B$25.
14B24.14B$26.13B24.15B$27.10B.B2A21.3B2A12B$29.3B2AB3.BA.A20.3B2A
13B$29.3B2AB6.A18.2AB.11B2.4B$31.4B6.2A16.A.AB2.8B5.4B$31.3B25.A5.
10B4.4B$28.AB.2B25.2A5.B.B5.2A5.4B$27.A.AB2AB32.3B4.A7.4B$27.A.ABA
BAB30.B2AB5.3A5.4B$24.2A.A.A.A.A2.A29.2A8.A6.4B$24.A2.A2.2A.4A47.
4B$26.2A4.A52.3BA$32.A.A51.3BA$33.2A52.3AB!
