#CSYNTH gun_1590 costs 4462 cells.
#C period 1590 fullperiod 1590 bbox 97 by 46
#CLL state-numbering golly
x = 97, y = 46, rule = LifeHistory
12.2A3.2A$12.A.A2.A$8.A.2A2.A3.A$8.2A.A.A.4A5.A$12.2A.A8.3A10.2A$
12.4B.2A8.A9.A$12.2B.2B.A7.2A6.BA.A$13.4B.A.2A4.7B.B2A$12.B6A.A2.A
4.7B34.B2A3B$11.6B.B.A.2A2.9B27.B4.3B3A4B$11.A5BA2.A5.3B2A3B27.2AB
.7B2ABA3B2.B.BA4B$10.BA5B2.2A5.2BAB3AB5.B21.A5BA4BA2BA6BABA6B4.B$
5.2B2.B2A4BA9.6BA2B3.3B21.4BA5B2ABAB.3BABA9B.B2A$4.BA4B2A3BA8.5B2A
BA2B2.5B16.2A2.A3BA3B3A7BA2BA11B2A$4.ABABA4B2AB7.7BA3B2ABA5B15.2A
4.A4.B2A9BABA12B$4.A2BA13B2.6BABA12B30.8BABA11B$4.B3AB2ABA8B.8B3A
5BA5B14.4A3.B7.BA5B3.BA4B4.B$2.5B3A2B2A17BA3BABA6B13.BAB2.A.B2A5.
2A2B$.8BA2B3A14B3A2BA8B14.4B2A2B2A4.2B2A$6BABA3BA17B2A2B3A5B9.A6.
8B4.4B19.2A$5BA5B3A8B.8BAB2AB3AB9.3A5.4B2.3B3.4B18.A2BAB$12BABA6B
2.13BA2BA8.A7.4B6.B.4B5.B2.BA9.4B$.5BAB2A3BA7B7.B2A4BABABA8.2A5.4B
7.5B4.B3A3BA7.A3B$2.5B2.2BAB2A5B8.A3B2A4BAB.3B.5B4.4B8.3BA5B5A.A9.
4B$3.3B3.2BA6B9.A4B2AB2.11B5.4B9.4BA2B2.B.A13.2A2B$4.B5.B3ABA2B5.
2A2.5BAB4.12B2.4B10.2B3A2B3.2AB12.2BA2B$10.3B2A3B5.A2.A5BA5.2BAB2A
11B11.7B3.2A13.5B$9.9B2.2A.A.B.6B4.3BABA8B2AB11.9B16.7B$9.7B4.A2.A
.6AB5.3BA6BA2B2AB12.5B.4B15.2A3B2A$7.2AB.7B4.2A.A.4B6.10B4AB12.7B.
4B14.2A3B2A$6.A.AB6.2A7.A.2B.2B7.9B2A14.7B2.4B13.B5AB$6.A9.A8.2A.
4B7.6B2AB2AB13.2A3B2A3.3BA12.2BABA2B$5.2A10.3A8.A.2A8.5B3A3B13.B5A
B4.ABAB11.7B$19.A5.4A.A.A.2A.A6.8B12.B2AB2AB5.2A2B11.B3AB$25.A3.A
2.2A.2A.A5.7B6.A6.B2AB2AB6.4B10.5B$26.A2.A.A6.A5.8B3.3A7.B3AB8.4B
9.4B$25.2A3.2A6.A.AB3.8B.A10.5B9.4B8.4B$39.2AB.5B2A3BA.A9.4B10.4B
2.5BA3B$41.2B2AB2.2A4B2A9.4B10.10B4A2B$41.BA.AB3.4B11.4B3.B2A3B.
10B2ABABA2B$42.2A6.3B.2A8.8BA2BA11B3ABA2BAB$48.4B3.A9.2B2A7BA11B2A
BABAB$48.2A5.A.A7.BA2BA6BA12B4A$49.A6.2A9.2A7BA7BA5BA$46.3A20.3BA
2BA9BA$46.A24.B2A3B3.3B3AB!
