#CSYNTH gun_6540 costs 6018 cells.
#C period 6540 fullperiod 6540 bbox 102 by 59
#CLL state-numbering golly
x = 102, y = 59, rule = LifeHistory
61.2A11.A6.2A$60.B2AB9.A.A4.A2.A$61.3B9.A.A3.A.3A2.A$60.B.B9.2A.2A
.A.A5.3A$60.5B8.B2.A.A3.2A5.A$60.6B6.2ABA2.4A.A4.2A$60.8B4.2A.A.A
3.A6.5B$61.13B2.A.AB2.A7.4B$18.2A3.2A34.13B5.A.A2B.A6.5B$18.A.A.A.
A33.15B5.B2A.2A6.6B$20.A.A35.15B4.3B10.6B.B$15.2A2.A.2AB33.17B.B.
2B10.6B.B2A$14.A.A2.A.BAB33.29B4.7B2A$13.A2.A.2A.B34.13B2A16B2.6B.
2B$14.3A2.4B32.14B2A16B2.6B$17.AB2A3B30.2AB3.27B.4BA4B3.B$16.A2.A.
2A30.A2.A4.30B3A4B.B2A$16.2A2.2AB29.A.2A5.6B3.B2.2B2.13B2A2BA5B2A$
20.BA30.A7.6B14.9B2A3B2A5B$20.2B29.2A6.9B14.5BABA2BABA6B$21.B7.2A
27.4B4.2A15.4B2A3B2A5B$20.2AB7.A26.4B5.A15.17B$11.2A6.A2BAB5.A3.2A
21.4B7.3A12.17B$12.A4.3B2A3B4.2A3.A20.4B10.A10.2AB.3B.10B$12.A.AB.
8B.BA.A2.A10.A10.4B21.A.AB5.9B$13.2AB.8B.B2A2.3A7.3A9.4B22.A9.8B$
15.12B7.A5.A11.4B22.2A8.9B2.B$15.12B6.2A4.B2A9.4B19.A13.9B.B2A$15.
12B6.9B8.4B.3B.B12.3A14.10B2A$17.10B8.5B3.18B10.A18.8B.B$19.7B8.6B
2.16B2A2B5.B3.2A11.A4.8B$19.8B7.6B2.16B2A2B3.8B11.3A3.7B$18.5B.4B
6.7B.20B.8B16.A3.5B$18.6B.4B4.38B15.2A3.4B3.A$17.6B3.4B2.20B2.2B.
15B14.9B3.3A$13.B2.3BA3B4.4B.17B8.17B14.6B7.A$11.7BABA2B5.19B11.
19B2.2B2.B3.6B5.2A.A$11.7BABA2B6.17B12.35B4.A2.A$10.9BA3B7.17B12.
7B.27B3.B2A$10.11B.B2A6.16B11.25B2A14B$11.9B2.BA.A6.7B3.3B.B2A8.
26B2A13B$11.7B7.A7.6B7.BA.A8.8B2.29B$11.7B7.2A7.4B11.A8.6B11.2B.B.
17B$4.B7.5B15.5B12.2A8.5B10.3B4.15B$3.3B5.7B14.2A25.4B7.2A.2BA5.
15B$3.3A4.4B.4B14.A25.4B7.A.2BA.A5.13B$2.2BA2B3.B2A3.4B10.3A24.2AB
.B9.A2.BA.A2.13B$2.2BA2B2.B2ABA3.4B9.A25.A.AB12.A3.A.A.2A4.8B$.2B
3A2B.A3BA4.4B34.A13.A.4A2.AB2A6.6B$.7B.4A6.4B32.2A12.A.A3.A.A2.B8.
5B$3B3A3B.2AB7.4B45.A.A2.A2.2A.2A9.B.B$3B3A3B.2AB8.4B45.A3.2A2.A.A
9.3B$.7B.4A9.4B52.A.A9.B2AB$.2B3A2B.A3BA9.4B52.A11.2A$2.2BA2B2.B2A
BA10.4B$2.2BA2B3.B2A12.4B$3.3A4.3B13.3BA$3.3B5.B15.3BA$4.B23.3AB!
