#CSYNTH gun_9040 costs 4004 cells.
#C period 9040 fullperiod 9040 bbox 91 by 44
#CLL state-numbering golly
x = 91, y = 44, rule = LifeHistory
24.2A5.2B11.2A$14.ABA4BA6BA2B3A2.2A7.A4.3B$13.BA.4ABABA2BABABAB2AB
.2A7.A.2AB3A$13.2A2B.2A2.B4AB4.B3A10.A3BA2BA$13.2B.2B2AB3.2B8.BAB
11.6B$17.A.A4.2B9.A13.3B2AB$18.A6.B22.A3B2A2B$24.2AB21.A9B$15.2A6.
A2BAB5.2A14.5A7B$16.A4.3B2A3B4.A10.B4.13B$16.A.AB.8B.BA.A9.2AB.5BA
6B2A2B$17.2AB.8B.B2A10.2A5B2AB2A4B2A2B8.2A4.2A$19.12B13.6B2AB2A9B
6.B2AB2.B2AB$19.12B15.4B2AB2A7B2AB5.3B3.4B9.2A$19.12B3.A10.8BA7BA
2BAB5.B5.2B10.A$21.10B3.3A7.13B2A3B2A3B2.2B2AB2.B3AB9.A$23.7B7.A5.
4B3.2BA3BA2BA8B.2B2A2B.5A8.2A$23.8B5.2A4.4B4.9BA9B.4BA4BABAB6.B$
22.5B.4B4.9B5.3A6BA6B.6BA6B3A5.3B$22.6B.4B5.7B5.BABA4BA4B.9BA9B4.
4B$21.6B3.4B2.8B8.5A.2B2A2B.8BA2BA3BA2B3.5B$17.B2.3BA3B4.15B6.B3AB
2.B2A2B2.3B2A3B2A14B$15.7BABA2B5.15B7.2B5.B5.BA2BA7BA9B$15.7BABA2B
6.14B6.4B3.3B5.B2A7B2AB2A4B$14.9BA3B7.10B3.B2A3.B2AB2.B2AB6.9B2AB
2A6B$14.11B.B2A6.2BA4B5.3AB3.2A4.2A8.2B2A4B2AB2A5B2A$15.9B2.BA.A4.
2BABA4B3.A.2AB19.2B2A6BA5B.B2A$2.2A7.A3.7B7.A4.2BABA3B3.A.A.2B20.
13B4.B$2.3B5.A.A3.6B7.2A5.BA4B3.A2.A23.7B5A$A3BA5.BA2B2.5B15.5B5.
2A27.9BA$A4BA5.2B.B2.5B15.3B37.2B2A3BA$.BABA.A4.2BA3B2.4B13.5B37.B
2A3B$3.A.ABAB2.3A3B3.4B12.2AB2AB37.6B$4.A4BA7B4.4B11.BA.2A2.2A34.A
2BA3BA$5.A3BA.5B6.4B6.2A.A.A3.B2.A35.3AB2A.A$5.3B2.6B7.4B5.A.2A.7A
36.3B4.A$6.2A2.4B9.5B8.A50.2A$10.2B2AB9.5B7.A.4A$12.2A7.3B2.4B7.2A
2.A$16.B2.BA3B3.4B$15.3AB2A2B2A3.4B$15.4A4B2A4.3BA$16.3B2A2.B6.3BA
$16.3B12.3AB!
