#CSYNTH gun_1106 costs 6552 cells.
#C period 1106 fullperiod 1106 bbox 84 by 78
#CLL state-numbering golly
x = 84, y = 78, rule = LifeHistory
29.2A26.2A$21.2A5.A.A18.2A5.A.A$21.A.A4.A20.A.A4.A$23.A2.2A.4A18.A
2.2A.4A$22.2A.A.A.A2.A17.2A.A.A.A2.A$23.A.ABABAB20.A.ABABAB$23.A.A
B2AB21.A.AB2AB$24.AB.2B23.AB.2B$19.A7.3B25.3B$17.3A7.4B6.2A16.4B6.
2A5.A.A$16.A8.3B2AB6.A15.3B2AB6.A3.A2.2A.A2.2A$15.A.A7.3B2AB3.BA.A
15.3B2AB3.BA.A3.3A3.A3.A$14.BA.A5.10B.B2A14.10B.B2A8.2A.3A$13.3BA
5.13B15.13B8.2A.A.A$11.4B6.14B14.14B8.A2.2B$9.6B5.15B2.A10.15B9.4A
$8.7B4.4B2.8B4.3A7.4B2.8B8.3A2.2AB$.B.4B.8B2.4B5.6B7.A5.4B5.6B8.A
2.A4B3.2A$2AB.17B4.9B5.2A4.4B4.7B2A8.A.A.4B2.A$2A18B5.2A4.4B4.9B5.
2A4.2A2B6.2A.A.A2B2A.A$.2B.16B6.A5.4B5.6B7.A5.BA2B5.A2.4AB.A.2A$4.
17B2.3A7.4B2.8B4.3A7.4B5.2A2.A.A.A$5.16BA2.A9.15B2.A10.4B6.2AB2A.
4A$6.14B.2A3.A8.14B14.4B5.A3.BA4.A$6.12B7.2A9.13B15.4B5.3A.B.3A$7.
10B20.10B.B2A14.4B6.2AB2A$7.6B2A2B22.3B2AB3.BA.A14.4B6.3B$7.6B2A3B
21.3B2AB6.A15.4B5.3B$7.10B24.4B6.2A15.4B3.B.B$3.A.2AB.8B24.3B25.8B
$.3AB2AB3.7B20.AB.2B27.7BAB$A4.B6.6B19.A.AB2AB27.5BABAB$.3A.2A4.6B
20.A.ABABAB26.5B2A2B$3.2A2.A4.5B17.2A.A.A.A.A2.A23.8B.B2A$6.A.A.8B
16.A2.A2.2A.4A7.A14.7B3.BA.A$2.A.2A.A.A8B8.A9.2A4.A11.3A11.4B.2B2A
5.A$2.2A.A.BA2B.6B6.3A15.A.5A8.A9.4B4.2A5.2A$5.A2.2B2.7B4.A19.A4.A
7.2A8.4B$5.2A.B3.7B4.2A19.2A10.6B3.4B$3.2A2.A.A2.8B.4B2.2A16.A12.
5B.4B$2.A2.A2.2A2.11B5.A16.A.AB7.11B$3.2A7.12B2.A19.2AB.3B3.13B$
12.12B2.2A20.20B2A$13.11B3.B20.20B2A$16.7B4.3B19.20B$15.8B3.6B16.
21B$14.9B2.10B11.20B$13.23B3.2B2.22B$11.B.16B2A31B.4B$10.2A17B2A
22B.7B4.2A$10.2A41B2.6B4.A$11.42B3.6B4.3A$9.5B2.36B6.4B6.A$9.2A6.
5B5.13B.4B12.B2A2B$10.A7.2B.3B3.7B.B4.4B14.2A.B2A$7.3A12.2A15.4B
18.BA.A$7.A14.A3.A11.4B22.A$23.4A10.4B23.2A$36.4B$25.2A8.4B$24.B2A
B6.4B$24.4B5.4B$25.2B5.4B$17.A7.4B2.4B$16.A.A5.5B.4B$17.A.14B$18.
14B$18.14B$18.15B$17.3B2A12B$17.3B2A13B$15.2AB.11B2.4B$14.A.AB2.8B
5.4B$14.A5.10B4.4B$13.2A5.B.B5.2A5.4B$21.3B4.A7.3BA$20.B2AB5.3A5.
3BA$21.2A8.A6.3AB!
