#CSYNTH gun_545 costs 4968 cells.
#C period 545 fullperiod 545 bbox 92 by 54
#CLL state-numbering golly
x = 92, y = 54, rule = LifeHistory
51.2A$50.B2AB11.2A.A.2A$51.3B4.A.2A.A2.A.2A2.A3.A$50.B.B5.2A.A.2A.
A4.A.A2.3A$50.5B8.B2.5A.A6.A$50.6B6.2ABA4.A7.2A$50.8B4.2A.A.AB2.A
6.5B$51.13B2.A.A2B.A7.4B$8.2A3.2A34.13B5.A2B.2A7.5B$8.A.A.A.A33.
15B3.3B11.6B$10.A.A35.15B3.2B12.6B.B$5.2A2.A.2AB33.17B.4B10.6B.B2A
$4.A.A2.A.BAB33.29B4.7B2A$3.A2.A.2A.B34.13B2A16B2.6B.2B$4.3A2.4B
32.14B2A16B2.6B$7.AB2A3B30.2AB3.3B3A14B2A5B.9B3.B$6.A2.A.2A30.A2.A
4.4BA14B3A15B.B2A$6.2A2.2AB29.A.2A5.3BA2B3.B2.2B2.3BA4B2A13B2A$10.
BA30.A7.6B14.2B2A2BA14B$10.2B29.2A6.9B14.2B2A15B$11.B7.2A27.4B4.2A
15.BA14B$10.2AB7.A26.4B5.A15.17B$.2A6.A2BAB5.A3.2A21.4B7.3A12.17B$
2.A4.3B2A3B4.2A3.A20.4B10.A10.2AB.3B.10B$2.A.AB.8B.BA.A2.A10.A10.
4B21.A.AB5.9B$3.2AB.8B.B2A2.3A7.3A9.4B22.A9.8B$5.12B7.A5.A11.4B22.
2A8.9B2.B$5.12B6.2A4.B2A9.4B19.A13.9B.B2A$5.12B6.9B8.4B.3B.B12.3A
14.10B2A$7.6B2A2B8.5B3.13BA4B10.A18.8B.B$9.3B2A2B8.6B2.13B2A5B5.B
3.2A11.A4.8B$9.5BA2B7.6B2.12B2A6B3.8B11.3A3.7B$8.5B.4B6.7B.13BA6B.
8B16.A3.5B$8.6B.4B4.23BA14B15.2A3.4B3.A$7.6B3.4B2.20B2.2B.BABA11B
14.9B3.3A$3.B2.3BA3B4.4B.17B8.3BABA11B14.6B7.A$.7BABA2B5.19B11.19B
2.2B2.B3.6B5.2A.A$.7BABA2B6.17B12.2BA32B4.A2.A$9BA3B7.17B12.BA5B.
27B3.B2A$11B.B2A6.16B11.4BABA23BA3BA6B$.9B2.BA.A6.7B3.3B.B2A8.2BA
5B2A21BA3B2A2BAB$.7B7.A7.6B7.BA.A8.BABA4B2.19BA6BA2B$2.6B7.2A7.4B
11.A8.6B11.2B.B.8B2AB2ABA2B$3.4B15.5B12.2A8.2BA2B10.3B4.3B3A8BA$4.
4B14.2A25.A2BA7.2A.2BA5.4B2A4B2ABAB$5.4B14.A25.3BA7.A.2BA.A5.4BAB
3A2BAB$6.4B10.3A24.A2B.A9.A2.BA.A2.8BA4B$7.4B9.A25.A.2A12.A3.A.A.
2A4.4BABAB$8.4B34.A13.A.4A2.AB2A6.2BABAB$9.4B32.2A12.A.A3.A.A2.B8.
B3AB$10.4B45.A.A2.A2.2A.2A9.B.B$11.3BA45.A3.2A2.A.A9.3B$12.3BA52.A
.A9.B2AB$13.3AB52.A11.2A!
