#CSYNTH gun_1202 costs 5724 cells.
#C period 1202 fullperiod 1202 bbox 106 by 54
#CLL state-numbering golly
x = 106, y = 54, rule = LifeHistory
96.2A$96.A2.2A$38.2A11.A45.2A.3A$37.B2AB9.A.A45.B4.A$38.3B9.A.A2.
2A3.A35.B2AB3A$37.B.B9.2A.2A2.A2.A.A12.A21.B2A.A$37.5B8.B2.A.A3.A.
A10.3A19.5B$37.6B6.2ABA2.4A.A10.A21.4B$37.8B4.2A.A.A3.A12.2A18.B.
5B$38.13B2.A.AB2.A9.4B17.8B$36.13B5.A.A2B.A7.3B18.10B$35.15B5.A2B.
2A7.4B15.13B4.2A$35.15B4.3B10.5B8.2A5.12B5.A$34.17B.B.2B11.6B8.A6.
12B.BA.A$34.29B2.8B8.A.AB3.12B.B2A$33.13B2A26B8.2AB.16B$32.14B2A
25B11.18B$31.2AB3.27B.7B12.17B$30.A2.A4.35B12.16B$29.A.2A5.6B3.B2.
2B2.19B11.17B$29.A7.6B14.17B8.18B$28.2A6.9B14.15B.2B2.20B$35.4B4.
2A15.38B$34.4B5.A16.8B.20B.7B$20.2A11.4B7.3A11.8B3.2B2A16B2.6B$19.
A.A6.8B10.A8.A2.2A3.B5.2B2A16B3.6B$15.2A2.A7.8B.3B.B12.3A3.A10.18B
6.4B$14.A2.A.2A3.5B2ABA9B10.A3.3A12.B.3B.4B12.B2A2B$14.2A.A.3B.6B
4A6B2A2B5.B3.2A2.A8.A10.4B14.2A.B2A$17.4AB.5BA3BA6B2A2B3.8B11.3A7.
4B18.BA.A$14.3A2.BA.7B3A11B.8B16.A5.4B22.A$13.A3.3A9B3A20B15.2A4.
4B23.2A$14.A2.A2.11BA5B.15B14.9B6.2A$15.A.A2.15B3.17B14.6B7.A$16.A
3.15B4.19B2.2B2.B3.6B5.2A.A$12.2A7.13B5.35B4.A2.A$11.B2AB6.12B7.7B
.27B3.B2A$11.4B5.12B7.25B2A14B$12.2B5.6B2.4B7.26B2A13B$3.2A7.4B2.
4B5.2B2AB7.8B2.29B$3.A.A5.5B.4B8.2A8.6B11.2B.B.17B$4.A.14B20.5B10.
3B4.15B$5.14B21.4B7.2A.2BA5.15B$5.14B22.3B7.A.2BA.A5.13B$5.15B19.
4B9.A2.BA.A2.13B$4.3B2A12B18.2A12.A3.A.A.2A4.8B$4.3B2A13B18.A10.A.
4A2.AB2A6.6B$2.2AB.11B2.4B14.3A10.A.A3.A.A2.B8.5B$.A.AB2.8B5.4B13.
A12.A.A2.A2.2A.2A9.B.B$.A5.10B4.4B26.A3.2A2.A.A9.3B$2A5.B.B5.2A5.
4B33.A.A9.B2AB$8.3B4.A7.3BA33.A11.2A$7.B2AB5.3A5.3BA$8.2A8.A6.3AB!
