#CSYNTH gun_5167 costs 14868 cells.
#C period 5167 fullperiod 5167 bbox 126 by 118
#CLL state-numbering golly
x = 126, y = 118, rule = LifeHistory
67.A$65.3A$64.A$64.2A$47.A14.4B$47.3A9.2A3B$50.A5.5BA3B.A$49.2A4.
5B3A2BABA$49.5B.7BA6B$51.6B2AB3A7B2.B$50.2A8BA5BA3B.B2A$50.2A19BA.
A$51.B.8BA3B2A5BA$53.9BA5BA3B$54.9B3A3B.4B$55.8B2A4BA2.2A$56.9B2A
2BA2.A$23.2A11.A16.12BA2BAB3.3A$22.B2AB9.A.A14.12B2AB2A6.A$23.3B9.
A.A2.2A3.A6.13BABAB$22.B.B9.2A.2A2.A2.A.A5.9B2A3BA3B$22.5B8.B2.A.A
3.A.A5.8B.2A7B$22.6B6.2ABA2.4A.A6.7B3.8B$22.8B4.2A.A.A3.A8.7B3.8B$
23.13B2.A.AB2.A7.6B4.8B$21.13B5.A.A2B.A5.7B4.9B$20.15B5.A2B.2A4.8B
5.9B$20.15B4.3B7.8B8.8B$19.17B.B.2B7.9B8.4B.4B$19.32B.6B8.2B3.4B$
18.13B2A17B.7B2.2A10.4B$17.14B2A16B2.6B2.B2AB10.4B$16.2AB3.27B.7B
2.3B12.4B$15.A2.A4.35B2.3B3.B8.4B$14.A.2A5.7B2.B2.2B2.19B.2B2AB.B
2A8.4B$14.A7.7B13.18BA2BA2B2A9.4B$13.2A6.8B14.18BABAB.B11.4B$20.4B
2.2B16.18BAB15.4B$19.4B4.2A15.18B18.4B$18.4B6.A15.7B.8B.3B17.4B$
17.4B6.A14.2AB.6B.6B3.2A18.4B$16.4B7.2A12.A.AB4.9B4.A20.4B$15.4B
22.A8.8B5.3A18.4B$4.A9.4B22.2A9.8B6.3A17.4B$4.3A6.4B35.7B9.A17.4B$
7.A4.4B37.6B6.3A19.4B$6.2A3.A3B8.2A28.7B4.A23.4B$6.5B2AB8.A.A28.7B
4.2A23.4B$2.2A4.2BABA5.2A2.A30.8B.4B24.4B$.A.BAB.5B6.A.A.2A29.11B
27.4B$.A.2AB2.5B6.2A.A2.A27.12B27.4B$2A.B.B3.5B3.3B.B2.2A27.12B28.
4B13.2A$A2.2A2B2.5B3.4B33.11B9.2A18.4B13.A$.2A2.AB.13B.B20.2A12.7B
9.A.A19.4B10.A5.2A$3.2ABA9B2A2B.B2A20.A11.8B9.A22.4B9.2A5.A$.2A2.A
5BA4B2A4B2A20.A.AB4.B.10B3.2B2.B2A23.4B11.3B.A.2A$A2.A2.4BABA3BABA
B.2B22.2AB2.22B26.4B7.2A2B2A.A2.A$.2A3.4BABA7B27.25B4A23.4B5.B2A2B
.A.2A$7.4BA7B27.26BA2.A24.4B5.4B.A$9.9B3.2A23.20BABA3B2.A26.4B3.4B
.2A$6.B.10B.B2.A23.21B2A2B4.3A24.6BA3B8.2A$5.2A6B2A4B3A25.20BA3B6.
A25.4BABA2B8.A.A$5.2AB.8B.BA30.B5.7B5.4B32.4BA3B.B8.A$6.B3.2B3AB4.
2A37.2B.3B4.4B13.A18.11B3.B.BA.2A$11.4B6.A18.A11.2A9.2A5.4B10.3A
18.12B.B2A.A.A$12.4B4.A18.A.A9.B2AB8.A7.4B8.A21.14B2A.A.A$13.4B3.
2A5.A3.A3.2A2.A.A9.3B10.3A5.4B7.2A20.8B2A5B2.A.2A$14.4B7.3A2.A.A2.
A2.2A.2A9.B.B11.A6.4B3.5B18.2AB.5BA2BA3B4A2.A$15.4B5.A5.A.A3.A.A2.
B8.5B19.4B2.3B19.A.AB.6B2A2B.BAB2.2A$16.7B.2A5.A.4A2.AB2A6.6B20.9B
7.2A9.A5.7B6.2A$17.9B7.A3.A.A.2A4.8B21.8B8.A8.2A5.4B.2B7.A$18.6B8.
A2.BA.A2.13B23.10B3.B.A.2A11.4B9.A$19.5B7.A.2BA.A5.13B21.7B2A2B.B
3A2.A10.4B10.2A$18.7B6.2A.2BA5.15B20.7B2A3BAB2.2A10.4B$19.6B10.3B
4.15B20.12B4A11.4B$19.7B10.2B.B.17B17.2AB.7B3.2B.A10.4B$19.8B2.29B
16.A.AB.7B2.B3A10.4B$19.25B2A13B15.A5.4B4.A12.4B$19.25B2A14B13.2A
5.4B5.5A6.4B$18.37B3.B2A18.4B10.A5.4B$18.36B4.A2.A16.4B9.A6.4B$13.
B4.20B2.2B2.B2.7B5.2A.A14.4B10.2A4.4B$12.2AB.21B11.7B7.A13.4B16.4B
$12.2A24B10.8B6.2A11.4B16.4B$13.B.23B11.2B2.4B17.4B16.4B$16.15B2A
7B8.2A4.4B15.4B16.4B$16.15B2A8B7.A6.4B13.4B16.4B$16.25B9.A5.4B11.
4B16.4B$16.12B4.8B9.2A6.4B9.4B16.4B$15.11B6.8B18.4B7.4B16.4B$14.
13B6.3B.4B18.4B5.4B16.4B$15.12B11.4B18.4B3.4B16.4B$16.10B13.4B18.
4B.4B16.4B$16.9B15.4B18.7B16.4B$16.9B16.4B18.5B5.A10.4B$16.9B17.4B
6.A10.5B5.3A7.4B$19.5B19.4B5.3A7.7B7.A5.4B$20.4B20.4B7.A5.4B.4B5.
2A4.4B$20.4B21.4B5.2A4.4B3.4B4.9B$21.4B21.4B4.9B5.4B5.7B$22.4B21.
4B5.6B7.4B2.7BAB$23.4B21.4B2.8B8.11BABAB.B$24.4B21.15B7.11BA3B2A.
2A$25.4B21.14B8.14B2A.A2.A$26.4B21.13B9.15B3.2A$27.4B21.10B.B2A9.
3B2AB4.4B$28.4B22.3B2AB3.BA.A8.3B2AB3.A2.AB$29.4B21.3B2AB6.A10.4B
3.4AB$30.4B22.4B6.2A9.3B10.A$31.4B21.3B15.AB.2B7.5A$32.4B17.AB.2B
15.A.AB2AB6.A$33.4B15.A.AB2AB14.A.ABABAB7.A$34.4B14.A.ABABAB12.2A.
A.A.A2.A4.2A$35.4B10.2A.A.A.A.A2.A11.A2.2A.4A$36.4B9.A2.A2.2A.4A9.
A.A4.A$37.3BA10.2A4.A13.2A5.A.A$38.3BA15.A.A19.2A$39.3AB15.2A!
