#CSYNTH gun_2250 costs 3060 cells.
#C period 2250 fullperiod 2250 bbox 51 by 60
#CLL state-numbering golly
x = 51, y = 60, rule = LifeHistory
39.2B$37.6B$35.10B$33.3B8A3B$5.2A4.2A19.4BAB4ABA4B$5.A.A2.A.A20.3B
8A3B$7.4A5.2A5.2A10.10B$5.A2B2A2BA2.A2.A4.A13.6B$5.A2B2A2BA3.3A5.A
14.2B$6.BA2BAB7.2A2.2A4.2A8.2B$2A6.2B4.4A.A.A3.2A2.A2.A6.B$.A6.B5.
A2.ABA.2A.A2.A.A.2A5.B2A8.2A$.A.AB2.2B9.BA2B3.3A.A.A5.2B2AB6.A.A$
2.2AB.3BAB7.3AB3A4.A.A4.8B4.A$4.4BA6B2.2B3AB.A.2A.A.A.AB.8B.BA.A$
4.3B2A10B.B3AB.A.A3.2AB.4B2A2B.B2A$.2A.4B2A3B2A4B2.2A2B.A7.5BA2BA
3B$.A.A.4B3AB2A4B3.B2.2A7.5BA2BA3B$2.AB5.2BABA6B10.A3.6B2A4B$.2A7.
2B2A3.3BA7.3A3.10B$B3A14.ABAB5.A7.7B$.2A2B14.2A2B4.2A5.8B$.BA.AB
14.9B4.4B.5B$2.B2AB15.6B5.4B.6B$2.4BA.2A2.2A7.8B2.4B3.6B$3.2B4A.A
2.A5.15B4.3BA3B2.B$2.BA.2ABA.A.A6.14B5.2BABA7B$2.A.A.2BA2.A7.13B6.
2BABA7B$3.2A2BA.2A6.2AB.10B7.3BA9B$5.AB2A7.A.AB3.7B6.2AB.11B$.3A3B
.B2A5.A5.9B4.A.AB2.9B$A2.A.2B2A2.A3.2A6.2B2A4B4.A7.7B$2A2B.B2.B.A
12.2B2A2B5.2A7.6B$3.6A.2A12.5B15.4B$4A3B.A.A2.A11.3B15.4B$A3.3B.A
3.2A10.5B13.4B$2.ABAB3A14.B2AB2A12.4B$.2A.3A2.2A9.2A2.2A.AB2.2A7.
4B$A2.A3B2A2.A8.A2.B3.A.A2.A6.4B$2A.A.A2.A.2A9.7A.2A7.4B$.A.2AB2.A
19.A8.4B$.A2.A2.2A12.6A.A7.4B$2.2A16.A5.2A7.4B$21.3A10.4B$24.A8.4B
$23.2A7.4B$23.5B3.4B$14.2A9.3B2.4B$13.A.A8.9B$13.A8.B.8B$10.2A.AB.
B3.BA9B$11.A.A.2AB.3A9B$11.A.A.2A2B2A10B$10.2A.A2.5BA9B$10.A2.4A3B
A8B.B2A$11.2A2.BAB.BA8B.BA.A$13.2A6.7B5.A$13.A7.2B.3BA5.2A$15.A9.
3BA$14.2A10.3AB!
