#CSYNTH gun_446 costs 4030 cells.
#C period 446 fullperiod 446 bbox 65 by 62
#CLL state-numbering golly
x = 65, y = 62, rule = LifeHistory
16.2A$15.B2A2B7.2A$16.4B6.B2AB$11.2A4.6B4.2B$10.B2AB2.8B4.2B$11.3B
.17B$9.2B.B2.18B$8.27B$7.29B$6.31B$6.32B7.A$6.26B3.4B6.3A$4.2AB4.B
.16B.B5.4B8.A$3.A.AB8.10B.2B9.4B6.A.A$3.A12.7B15.4B5.A.AB$2.2A9.
11B15.4B5.A3B$12.12B16.4B6.4B$12.12B17.4B5.6B$3.A8.11B19.4B4.7B$2.
A.A2.2A3.8B.4B18.4B2.8B.4B.B$.A.A2.A.A3.7B4.2A19.17B.B2A$.A2.2A.B
4.7B4.A21.18B2A$2.A.A2.2B3.6B6.3A18.16B.2B$.2A.A.BA2B.7B8.A18.16B$
4.A.A.A9B27.15B$.4A2.A.8B26.2AB.12B$.A3.2A4.6B25.A.AB2.11B$3.A.B6.
6B24.A5.10B$2.2AB2AB3.7B23.2A5.2B2A6B$5.2AB.8B30.3B2A6B$2.2A3.10B
31.10B$2.A4.6B2A3B30.8B.B2A.A$3.A3.6B2A2B5.2A23.7B3.B2AB3A$2.2A3.
10B5.A24.6B6.B4.A$6.11B2.BA.A25.6B4.2A.3A$6.12B.B2A26.5B4.A2.2A$5.
15B27.8B.A.A$4.16B18.A8.8BA.A.2A.A$.2B.16B18.3A6.6B.2BAB.A.2A$2A
18B21.A4.7B2.2B2.A$2AB.17B19.2A4.7B3.B.2A$.B.4B.8B2.4B18.4B.8B2.A.
A2.2A$8.7B4.4B19.11B2.2A2.A2.A$9.6B5.4B17.12B7.2A$11.4B6.4B16.12B$
13.3BA5.4B15.11B$14.BA.A5.B3A13.9B12.2A$15.A.A6.A3B9.2B.10B11.A$
16.A8.A3B7.16B.B4.BA.A$17.3A6.4B3.23B2.B2A$19.A7.32B$28.5B2A25B$
29.3BA27B$30.3BABA5B2A17B$32.2BA6B2A17B$33.8BA8B5.B.4B$33.5B2A7B
11.4B$33.4BA2BA6B12.4B$37.ABA4.2B14.4B$38.A6.2B14.3BA$44.B2AB14.AB
A$45.2A16.2A!
