#CSYNTH gun_432 costs 1584 cells.
#C period 432 fullperiod 432 bbox 48 by 33
#CLL state-numbering golly
x = 48, y = 33, rule = LifeHistory
16.A$4.A5.A5.3A7.2A$3.A.A3.A.A7.A5.A2BA$2.A2.A3.A.A6.2A.2B.2B2A$2.
A.A.2A.A.2AB4.9B$3.2A.A.2A3.AB3.4B2A4B7.2A$5.2A3.2AB2A2.3B2AB2A4B
6.A$3.2A.2B2A.3BAB.3BA4BA3B3.BA.A$3.A.BA.2BA.2BA5BA3B3A4B.B2A$2A.A
.4A.A3BA6B2A4BA5B$.A2.2A.BA.A2.BA10BABA5B$.A3.B.A2.A.2A2.9B2A5B$2.
4A.A.2A.A4.4B.10B$6.A.A4.A4.4B.7B2.AB4.2B$2.3A.A2.3A.3A3.4B.4B3.B
2A4.3B$.A2.A.A4.A4.A2.5B8.2AB.2B2AB$.2A4.3A.A3.A2B2.5B7.BA2.2B2ABA
$9.2A4.A3BA2.4B11.4B.A$17.2BA3.4B12.A.4B$16.2BA2B3.4B12.AB2A2B$15.
6BA3.4B12.B2A2B$4.2A4.2A2.3A4BAB3.4B11.3B$4.A.A2.B2A9BA5.4B11.2B$
6.A3.4B2A5B7.4B5.AB3.B.3B$6.2AB.5B2.3A8.5B3.A.A8B$4.2A2.BA5B2.2B
10.5B3.A4B6A$3.A2.AB2A.2AB12.3B2.4B3.B.BA2B4A$4.2A3.2B2AB7.B2.2A3B
3.4B3.BA2B2A.B$6.2ABA5.A4.2A4B4A3.4B3.B2A2B$6.A2.A.5A4.2A2B2AB3A4.
5B.3B$7.A.A.A9.3BAB2.B6.3BAB$8.A4.A7.3B12.3BA$12.2A23.3AB!
