#CSYNTH gun_3572 costs 5428 cells.
#C period 3572 fullperiod 3572 bbox 92 by 59
#CLL state-numbering golly
x = 92, y = 59, rule = LifeHistory
65.2A4.2B4.2A$64.A2.A.B4AB.A2.A$64.3A2.6A2.3A$67.10A$23.2A7.A33.A
2.6B2.A$22.B2AB4.3A33.2A.6B.2A$22.3B4.A8.2A30.4B$11.2A10.B.B3.2A7.
A32.3B$10.A2.A2.2A3.10B4.BA.A32.4B$11.2A2.A.A3.8B6.B2A32.6B$13.2A.
B3.11B2.3B33.10B6.2B$13.A2.2B.7B3A7B6.A27.11B4.3A$10.2A.A.10BAB2A
6B5.3A27.11B.B.5B$10.A2.A.2A7BA9B5.A30.3A10BA5BA$12.2A.2A7BABA7B4.
B2A27.4BA10BA5BAB$16.2B.5B2A8B.6B27.BA11B2.A5BA$19.5B3A12B27.3BABA
7B5.5B$17.6B.15B.2B16.A6.5BA7B7.3B$17.2AB4.12B3AB3A.2A12.3A4.14B6.
5B$18.A5.12BABAB3A.A2.A13.A4.13B8.B2A$9.A5.3A5.13B3A4B.A.2A12.2A4.
14B8.A$9.3A3.A6.17B.2B2.A15.6B3.12B8.3A$12.A8.4B2.11B3.B.2A17.2B2A
B2.13B9.A$11.2A7.4B5.8B3.A.A2.2A14.3B2A2B2.12B$11.5B3.ABAB4.10B3.
2A2.A2.A13.8B3.9B$13.3B2.B2AB5.2A3.B.B10.2A14.9B3.5B$3.2A7.8BA7.A
4.3B24.11B3.4B$3.A8.8B5.3A4.B2AB25.6B.4B3.2B$2A.A.B3.10B6.A7.2A26.
5B3.4B$A2.3AB.2B2A7B26.A12.8B4.4B$.2A2.BA3B2A7B26.3A8.10B5.4B$3.4A
12B29.A6.12B5.4B$3.A.2B3.7B.B2A2.2A10.2A10.2A6.13B5.4B$4.3AB2.7B.B
A.A2.A11.A10.5B3.12B7.4B$7.A4.4B5.2A13.A.AB9.4B2.13B7.4B$2.5A5.4B
5.A15.2AB.3B4.20B8.4B$2.A10.4B6.A15.7B.23B7.4B$4.A9.4B4.2A15.28BA
4B6.4B$3.2A10.4B2.2B17.B2A23BABA4B6.4B$8.2A6.8B15.2BAB2A21BABA4B7.
4B$9.A7.7B13.7BA22BA4B9.4B$9.A.2A5.7B2.B2.2B2.8BABA8B.B3.B.2B3.5B
12.4B$10.A2.A4.19BABA2B2A7B6.3B7.B15.4B$11.2AB3.3B3A14B2A5B.6B6.B
2AB5.3B15.4B$12.7BA2BA15BA5B2.B.5B5.2A6.B2AB15.4B$13.5BA25B7.2A14.
2A17.4B$14.5BA2BA20B8.A35.4B$14.6B3A8B.B.2B16.3A33.3BA$15.15B4.3B
17.A34.ABA$15.15B5.A2B.2A49.2A$16.13B5.A.A2B.A50.B$18.13B2.A.AB2.A
$17.8B4.2A.A.A3.A$17.6B6.2ABA2.4A.A$17.5B8.B2.A.A3.A.A$17.B.B9.2A.
2A2.A2.A.A$18.3B9.A.A2.2A3.A$17.B2AB9.A.A$18.2A11.A!
