#CSYNTH gun_1089 costs 4608 cells.
#C period 1089 fullperiod 1089 bbox 72 by 64
#CLL state-numbering golly
x = 72, y = 64, rule = LifeHistory
31.2A$31.A.A$33.A4.2A$29.4A.2A2.A2.A$29.A2.A.A.A.A.2A$31.BABABA.A$
32.B2ABA.A$33.2B.BA$32.3B$23.2A6.4B$24.A6.B2A3B$24.A.AB3.B2A3B$25.
2AB.10B$27.13B$27.14B$27.15B$29.B2A5B2.4B$29.ABA3B5.4B$28.3BA5B4.
4B$27.4B4.2A5.4B$26.4B5.A7.4B$25.4B7.3A5.4B$24.4B10.A6.4B13.A$23.
4B19.4B10.3A$22.4B21.4B8.A$21.4B23.4B7.2A$20.4B25.4B3.5B$20.4B26.
4B2.3B$19.5B27.9B7.2A$16.9B27.8B8.A$16.9B28.10B3.B.A.2A$16.9B28.7B
2A2B.B3A2.A$16.10B27.7B2A3BAB2.2A$15.12B26.12B4A$14.13B8.2A10.2A2.
2AB.7B3.2B.A$15.11B9.A11.A2.A.AB.7B2.B3A$16.12B4.BA.A13.2A5.4B4.A$
16.15B.B2A15.A5.4B5.5A$16.17B15.A6.4B10.A$16.17B15.2A4.4B9.A$13.B.
17B17.2B2.4B10.2A$12.2A19B15.8B6.2A$12.2AB.19B13.7B7.A$13.B4.20B2.
2B2.B2.7B5.2A.A$18.36B4.A2.A$18.9B.27B3.B2A$11.A7.7B2.16B2A14B$11.
3A5.7B2.16B2A13B$14.A4.6B4.29B$13.2A4.7B10.2B.B.17B$13.5B.6B10.3B
4.15B8.B.A$4.2A9.10B6.2A.2BA5.15B7.4AB$3.A.A8.10B7.A.2BA.A5.13B7.A
.3A$3.A8.B.10B8.A2.BA.A2.13B8.A3B$2A.AB.B3.BA14B7.A3.A.A.2A4.7B5.
2A.3BA$.A.A.2AB.3A11B.2A5.A.4A2.AB2A6.5B4.B3A.AB$.A.A.2A2B2A10B3.A
5.A.A3.A.A2.B8.6B2.A2.A.A$2A.A2.5BA9B4.3A2.A.A2.A2.2A.2A11.2A.BA2B
A.2A$A2.4A3BA8B.B2A4.A3.A3.2A2.A.A12.A.2BAB.A2.A$.2A2.BAB.BA8B.BA.
A15.A.A13.2A5.2A$3.2A6.7B5.A16.A$3.A7.2B.3BA5.2A$5.A9.3BA$4.2A10.
3AB!
