#CSYNTH gun_3135 costs 6077 cells.
#C period 3135 fullperiod 3135 bbox 103 by 59
#CLL state-numbering golly
x = 103, y = 59, rule = LifeHistory
86.B.B$85.B2A3B$85.A2BA2B10.2A$84.2B2A4B2.2B5.A$73.2A9.13B.BA.A$
69.2A3.A6.16B.B2A$69.A2.A7.BA12BA4B$67.2A2.3A5.BABA10BABA4B$66.A2.
2A3.2B3.BABA11BA4B$66.A.A2.3A2B3.2BA15B.B2A$67.A.2AB.A23B.BA.A$65.
A.A3.2A19B2.2B5.A$65.2A.2A21B10.2A$68.A.B.19B$65.2A2.A5.16B$65.A.
2A6.10B3.4B.2A$76.8B3.B2A3B.A$75.9B4.2AB2.A$74.10B8.A$73.10B5.5A.A
$72.7BA3B5.A4.A.A$71.7BABA2B7.A2.A.A$18.2A24.A25.8BABA2B6.2A3.A$2.
2A15.A22.3A24.10BA3B$3.A2.2A9.B.A.2A18.A26.13B.B2A$3.A.A2.A6.B4A2.
A18.2A24.13B2.BA.A$2.2A.ABA.A.2A2.2A3.2A14.7B23.4B.7B7.A$3.A.A.A.
2A.A3.2B2A16.5B24.4B3.6B7.2A$.A3.3A7.2AB.A14.9B8.A12.4B5.4B$A.3A.A
.4A3.B2A4.2A3.2A5.4B3A2B6.3A11.4B7.4B$A3.5B3.A3.B4.B2AB3.A4.5BABA
3B4.A13.4B9.4B$.3A.ABA.3A4.B4.3B4.A.AB2.4BABA3B4.2A11.4B11.4B$3.2A
BAB2A4.3B5.B.B4.2AB.3BA8B.4B10.4B13.4B$4.5B5.3B3.B3A2B5.3BABA4BA6B
11.6B.2B4.2B4.4B$4.6B.7B2.BABA4B3.2B2A2B2A2BA7B9.9BAB2ABA3B3.4B$6.
2B.12BABA5B3.2A2B2A3B2A7B7.5B.3B2AB2AB2A3B3.4B$9.16BA4B2.4B3A12B.
8B4.3BAB2ABA3B5.4B$9.11BA4BABA3B.5B3A3B3A13B7.3B2.3B8.4B$7.13BA2B
2A2B2A10B2A2B3A12B11.2B12.4B$5.14B2A3B2A2B2A7B3A3B3A12B9.B4AB11.4B
$5.18B3A10B3A13BA4B8.2B6A2B10.4B$4.12B3A3B3A7B2A2B2A3B2A9B2A3B6.3B
8A3B9.4B$5.11B3A2B2A10B2A2B2A2BA9BABAB7.3B2A6B2A3B9.4B$5.11B3A3B3A
5B.3BABA4BA11B10.3B8A3B11.4B$6.4B.12B3A4B2.4BA16B6.2A4.2B6A2B14.4B
$12.7B2A3B2A2B2A3.5BABA12B.B3.A2.A5.B4AB17.4B$13.7BA2B2A2B2A2B3.4B
ABAB2.7B.4B.B.A.A7.2B20.4B$14.6BA4BABA3B5.2B3AB3.4B4.5B2A.3A28.4B$
12.4B.8BA3B.B2A4.B.B4.4B4.2A2BA.ABA3.A28.4B$12.2A4.3BABA4B2.BA.A4.
3B3.4B4.2AB3A3B2A.A29.4B$13.A4.3BABA5B4.A3.B2AB3.3BAB4.B.B2A2B2A.A
31.4B$10.3A6.2B3A4B5.2A3.2A5.BABAB8.2A.2B33.4B$10.A8.9B19.A.A8.3AB
35.4B$21.5B19.A.A.3A6.BA3B35.4B$19.7B19.2A5.A6.4B36.3BA$19.2A30.2A
5.B2A2B37.ABA$20.A38.2A40.2A$17.3A82.B$17.A!
