#CSYNTH gun_2736 costs 3264 cells.
#C period 2736 fullperiod 2736 bbox 68 by 48
#CLL state-numbering golly
x = 68, y = 48, rule = LifeHistory
11.2A5.2B$.ABA4BA6BA2B3A2.2A9.2ABAB4.B7.B$BA.4ABABA2BABABAB2AB.2A
8.A.A.3A2.3AB4.3A4.2A$2A2B.2A2.B4AB4.B3A10.3A2.2A3.BAB2A2.2A4.A.3A
$2B.2B2AB3.2B8.BAB7.2A3.A.AB5.B.3A.BA3.A.BA.A$4.A.A4.2B9.A7.A2.5A
2.B6.A.AB2A2B2AB2.2A$5.A6.B18.A6.4AB2.3B2A3.B2A$11.2AB14.4A.5A3.2A
.3A2B.2ABABA4.2A$10.A2BAB5.2A5.A4.A5.2A2.2A.2A2.A2.A.A.2A3.A$8.3B
2A3B4.A7.3A.A.3A.A2.BA.2B.4ABA.A.A2.A$8.8B.BA.A9.A.A2.A2.A3.A2B2A.
2B.4A2.A.2A$7.9B.B2A11.B.A3.A5.B2A.A2BA.B2.ABA.A2.A$6.B2A9B12.A2B.
3A8.B6ABA3B.AB.2A$5.BA2BA8B11.3B2A13.4B2.A2.B2.A.A$6.B2A9B10.ABA4.
4A9.2B3.A.4A2.A$8.10B10.A2.4A3.A9.2B4.A6.2A$10.7B12.3A3.AB4.B3.5B
6.A$10.8B13.2BABAB2.8BA3B4.2A$9.5B.4B6.2A2.2A2.2A10B2ABA2B$9.6B.4B
5.A2.A.A4.10BA2BA3B.B$8.6B3.4B5.3A6.13BA5BA$4.B2.3BA3B4.4B7.A5.A
10BA3B2AB2AB$2.7BABA2B5.4B5.2A4.A12B2A4BABA$2.7BABA2B6.4B4.6B3A5.
3B.3BA7B$.9BA3B7.4B5.7B5.6BAB3A6B$.11B.B2A6.4B2.8B8.6B3ABA6B$2.9B
2.BA.A6.15B8.7BA3B.3B2.4B$2.7B7.A7.15B8.ABA4B2A11B$3.6B7.2A2.2A2.
15B8.B2AB2A3BA9B2A$4.4B11.BABAB.11B3.B2A6.A5BA11B2A$5.4B11.B3A3.4B
2AB5.3AB6.B.3BA2BA7B.B$6.4B10.2B2A2.5B2A2B3.A.2AB9.2BAB2A6B$7.4B8.
2A2B3.8B3.A.A.2B2.A6.3BA8B$8.4B7.3AB5.6B3.A2.A4.3A5.5B3.B$9.4B5.4B
6.5B5.2A8.A4.2B$10.4B4.4B7.3B13.2A.BA3.2B8.A$11.4B3.2B2AB5.5B10.A
2.2AB.B.4B6.ABA$12.4B4.2A6.2AB2AB9.2A3.BA.6ABABAB.2B$13.4B7.2A2.BA
.2A2.2A11.B2A.A2BA.A2BAB.2A$14.4B6.A2.A.A3.B2.A9.2A2.2A.2B.2AB3.A
3.A$15.4B7.2A.7A9.A2.3A.4A.BA4.4A$16.4B8.A17.A4.BA3.AB.AB$17.4B7.A
.4A13.4A.2AB3AB2A4.2A$18.4B7.2A2.A15.A2.2AB.A3.3A2.A$19.4B28.A4.3A
B3.A.A$20.3BA26.2A.3A2.B.2A2.A$21.3BA25.A2.A2.A.A.A.2A$22.3AB25.2A
2.2A.2A!
