#CSYNTH gun_1430 costs 4324 cells.
#C period 1430 fullperiod 1430 bbox 94 by 46
#CLL state-numbering golly
x = 94, y = 46, rule = LifeHistory
15.2A5.2A2.2A.2A$15.A2.2A.A2.A2.A.2A$16.2A.A.2A.2A.A$12.2A3.A.A2.B
.A2.A.2A$9.A2.A2.A.AB2ABA.A.2A.2A$9.3A2.6A.3BAB.BAB55.A$12.2A2.4BA
2B.4BA32.A22.A.A$11.A2.A.5BABA.2BAB32.3A20.A.3A$12.2A4.2B.BA3.A37.
A16.2A.A4.A$18.2B18.A24.2A16.A.A.ABABA$19.B18.3A7.2A13.5B15.A.A.2A
$18.2AB20.A6.A16.4B13.ABA4B$9.2A6.A2BAB5.2A11.2A3.BA.A15.5B11.3BA
2B$10.A4.3B2A3B4.A12.4B.B2A16.10B5.5B4.2B$10.A.AB.8B.BA.A14.4B18.
11B4.6B2.4B.B$11.2AB.8B.B2A8.2A4.6B17.11B.16B2A$13.12B9.B2AB3.5B5.
2A11.12BA13B.B2A$13.12B10.3B3.6B2.2B2AB9.10B2AB2A2BABA7B2.B$13.12B
9.B.B4.7B.4B9.10BA3BA6BA4B$15.10B5.AB.6B2.20B.9BA4BA3BABA4B$17.7B
5.A.A39B2A3BA4BA3B$17.8B4.2A.11B2A28B2ABA8B$16.5B.4B7.9BA2BA13B.
13BA2BA9B$16.6B.4B7.8BAB2A28B2A11B.2A$15.6B3.4B6.3BA4BA3B2A39BA.A$
11.B2.3BA3B4.3BA3.4BABA3BA4BA9B.20B2.6B.BA$9.7BABA2B5.B2AB.4BA6BA
3BA10B9.4B.7B4.B.B$9.7BABA2B6.ABA6BABA2B2AB2A10B9.B2A2B2.6B3.3B$8.
9BA3B7.14BA12B11.2A5.5B3.B2AB$8.11B.B2A5.15B.11B17.6B4.2A$4.A4.9B
2.BA.A4.4B2.6B4.11B18.4B$3.A.A3.7B7.A2.2AB.B4.5B5.10B16.2AB.4B$3.A
.A3.7B7.A.A.AB4.2BA3B11.5B15.A.AB3.2A$2A.A.2A2.6B7.2A.A4.4BABA13.
4B16.A6.A$A.2A2.2BA2B.4B9.A4.2A.A.A15.5B13.2A7.3A$4.5AB3.4B8.2A2.A
BABA.A.A16.2A24.A$4.A2.3BA3.4B11.A4.A.2A16.A$5.2ABA2BA3.4B11.3A.A
20.3A$6.A.A2BAB3.4B12.A.A22.A$.2A.A3.A.AB5.4B12.A$.A.2A.A.2A2B6.4B
$5.A.A4.A6.4B$5.A.A.4A7.4B$6.2A.A11.3BA$10.3A9.3BA$12.A10.3AB!
