#CSYNTH gun_833 costs 5550 cells.
#C period 833 fullperiod 833 bbox 74 by 75
#CLL state-numbering golly
x = 74, y = 75, rule = LifeHistory
57.4B$55.2B4A$55.2BA3BA$55.BA4BA$55.2ABA.A$54.ABA2B$53.A2B2A2B$53.
2B.BA2B2A$31.A21.2A2BAB.2B$31.3A12.2A7.2B2A2BA$34.A10.B2AB7.2BABA$
33.2A11.3B5.A.AB2A$33.5B7.B.B5.A4BAB$35.4B5.6B3.A3BA2B$33.6B3.8B4.
4A2B$32.2B2A13BAB3.4B$30.4B2A12BABA3B$30.24B5.2A$29.25B4.A.A$26.6B
2A18BAB4.A$20.2A3.6BA2B2A9B2A8B.B2A$20.A.B.7B2AB2A12BA2BA5B2.2A$
17.2A.A.9B2AB2A9BA4BA6B2A2.A$17.2A.2A.10BA13BA7B.B.A.2A$21.4B2A11B
.8BABA5B3.A$22.3B2A10B2.9BA2B6.2A$21.A3.B.B.6B4.13B$20.A.A8.4B4.
13B$21.A11.B6.12B$42.10B$41.11B$42.9B$42.8B$42.8B$42.7B$41.A3B.3B$
40.A3B4.2B$39.B3A4.A2BA$38.4B3.BA4B$37.4B3.BA5BA$36.4B4.2ABABA.3A$
31.2B2.4B5.BA2B.2A3.A$30.8B6.BA2BA.ABABA$29.8B8.4B.4B$20.2A6.8B8.A
BABA.A2BAB$21.A4.4B2A3B.2B6.A3.2A.2BAB$20.A4.4BA2BA4B2A6.3A.ABAB2A
6.A$20.2A4.3BA2BA2B.B2A8.A5BAB5.A.A$21.2B5.2B2A3B2.B10.4BAB6.A.A$
4.2A5.3B6.5B2.8B13.A2BA7.2A.2A$5.A5.4B4.15B26.B4.A2.2A$5.A.AB.5B4.
10B.B2A2B5.7B.B10.2AB4A2.A$6.2AB.5B3.13B2A3B4.13B.B4.2A.A6.3A$8.7B
3.43B3.B4A2.A$8.8B3.40B5.BA2.A2B$3.2A4.8B3.40B2.8B$3.A.A3.33B2A27B
$5.A3.33B2A16BA9B$5.2A.41B3.2B.5BA7B.B2A$7.18B3.B2.B3.B2.10B9.3BA
7B.BA.A$2.2A3.18B14.6B13.B.7B5.A$2.A2.B.12B3.5B13.3B19.5B5.2A$3.3A
12B7.2A13.B19.8B$5.AB.9B8.A13.2A19.2AB2.4B$3.2A3.9B3.2A4.3A10.A21.
A4.4B$3.A4.9B4.A6.A11.A17.3A6.4B$2A.A2.2AB.3B2A2B4.A.2A14.2A17.A9.
4B$2A.A.A.AB.2BA2BA2B.3A2.A44.4B$3.A.A5.BABA3BAB2.2A46.3BA$3.A.A3.
4BA4B4A49.ABA$4.A4.2A5.4B.A50.2A$10.A7.2A.A.A49.B$7.3A9.A2.2A$7.A
9.A.A$17.2A!
