#CSYNTH gun_1166 costs 6370 cells.
#C period 1166 fullperiod 1166 bbox 70 by 91
#CLL state-numbering golly
x = 70, y = 91, rule = LifeHistory
21.2A$21.A.A$23.A4.2A$19.4A.2A2.A2.A$19.A2.A.A.A.A.2A$21.BABABA.A$
22.B2ABA.A$23.2B.BA$22.3B$13.2A6.4B$14.A6.B2A3B$14.A.AB3.B2A3B$15.
2AB.10B$17.13B$17.14B$17.15B$19.8B2.4B$19.6B5.4B$18.9B4.4B$5.2A10.
4B4.2A5.4B$6.A9.4B5.A7.4B$4.A10.4B7.3A5.4B$4.5A5.4B5.3A2.A6.4B$9.A
4.4B5.A2.A9.4B$6.3AB2.7B.BA.A2.2A9.4B$5.A.2B3.7B.B2A15.4B$5.4A12B
18.4B7.A$3.2A2.BA3B2A7B19.4B6.3A$2.A2.3AB.2B2A7B20.4B8.A$2.2A.A.B
3.10B21.4B6.A.A$5.A8.8B21.4B5.A.AB$5.2A7.9B21.4B5.A3B$15.3B2.4B21.
4B6.4B$13.5B3.4B21.4B5.6B$13.2A7.4B21.4B4.7B$14.A8.4B21.4B2.8B.4B.
B$11.3A10.4B10.2A9.17B.B2A$11.A13.4B9.A11.18B2A$26.4B10.A9.16B.2B$
20.2A5.4B5.5A9.16B$21.A5.4B4.A14.15B$21.A.AB.7B2.B3A9.2AB.12B$22.
2AB.7B3.2B.A7.A.AB2.11B$24.12B4A7.A5.10B$24.7B2A3BAB2.2A4.2A5.2B2A
6B$24.7B2A2B.B3A2.A9.3B2A6B$24.10B3.B.A.2A10.10B$23.2A6B8.A13.8B.B
2A.A$22.2B2A5B7.2A12.7B3.B2AB3A$21.2BAB2.3B22.6B6.B4.A$20.4B3.5B
21.6B4.2A.3A$19.4B7.2A21.5B4.A2.2A$5.A12.4B8.A21.8B.A.A$5.3A9.4B
10.3A9.A8.8BA.A.2A.A$8.A7.4B13.A9.3A6.6B.2BAB.A.2A$7.2A6.4B27.A4.
7B2.2B2.A$7.5B2.4B6.2A19.2A4.7B3.B.2A$9.8B7.A16.2A2.4B.8B2.A.A2.2A
$8.8B5.BA.A16.A5.11B2.2A2.A2.A$7.8B2.3B.B2A19.A2.12B7.2A$6.16B20.
2A2.12B$4.18B20.B3.11B$4.17B19.3B4.7B$2.2AB.16B16.6B3.8B$.A.AB2.
17B11.10B2.9B$.A5.20B2.2B3.23B$2A6.31B2A16B.B$9.7B.22B2A17B2A$9.6B
2.41B2A$8.6B3.42B$8.4B6.36B2.5B$8.2B2AB12.4B.13B5.5B6.2A$6.2AB.2A
14.4B4.B.7B3.3B.2B7.A$5.A.AB18.4B15.2A12.3A$5.A22.4B15.A14.A$4.2A
23.4B8.A2.3A$30.4B7.4A17.B$31.4B17.B7.2BAB$32.4B7.2A6.3B3.4BABA2B$
33.4B7.A6.3B.9BAB$34.4B6.A.AB2.10BA2BAB$35.4B6.2AB.2B3A5B2A5B$36.
4B7.3BA2BA8BA3B$37.4B6.3BA8BA2BA3B$38.4B5.5B2A5B3A2B.B2A$39.4B5.BA
2BA10B2.BA.A$40.4B3.BA9B.3B6.A$41.8BABA4B3.3B6.2A$42.3BAB2.BA2B7.B
$43.3BA3.B$43.B3AB!
