#CSYNTH gun_2670 costs 5607 cells.
#C period 2670 fullperiod 2670 bbox 89 by 63
#CLL state-numbering golly
x = 89, y = 63, rule = LifeHistory
2A$.A26.A43.2BABAB$A25.3A36.B4.3BA2BA3B4.2B$2A23.A38.2AB.4B2A8B.2B
AB$.B23.2A37.2A4B2A3BA9BAB$3B20.4B2.A35.7B2A5B2A7B$5B9.B3.B.5B4.3A
10.2A21.8BA2BA4BA6B$6B2.B.16B6.A5.2A2.A24.B4.2BABAB4.7B$2.25B4.2A
5.A.A.A39.7B$.16B2A8B4.5B3.B.A40.2B3A2B$.15BABA9B5.3B2.2B42.BA3BAB
$.15BABA12B.9B41.A5BA$2.13B2A13BA12B8.2A29.A5BA$3.14B2A10BAB2A10B
8.A31.2BA2B$6.8BA4BA12B2A10B4.BA.A31.A3BA$6.9BABABA9B2A3BA12B.B2A
32.B3A$4.12BA6B2A6B3A11B2A2B34.2BAB$4.19B2A7BA9B.2BA.AB28.3BA5B$4.
39B3.2A22.B4.2B4A6B$4.31B.4B22.A6.2AB.3B4A5B2AB$4.29B.5B7.2A14.3A
4.2A5BA2BA4BA2BA$2.2AB.27B.4B6.A2.A17.A4.6B4A5B2A$.A.AB.26B2.4B6.
2A.A.2A.A11.2A4.7B4A4B$.A7.23B2.5B6.B.A.A.2A11.6B2.B4.3BA2B$2A6.
23B2.8B2.B2ABA18.5B$9.21B2.10B.B2A2.A17.6B$9.14B3.3B2.13B3.2A16.8B
$4.2A3.13B2.3B3.14B15.A.2A2.9B$4.A2.2AB.10B2.21B15.2A.A12B$5.AB2AB
2.8B2.23B6.2A11.12B$2A.A.A.B6.5B2.23B7.A12.13B$A.2A.A.2A6.4B2.26B.
BA.A12.9B.4B$5.A2.A6.4B.27B.B2A13.9B2.4B$5.2A7.5B.29B14.11B2.4B$
13.4B.31B14.11B3.4B$5.2A3.39B14.12B3.4B$4.BA.A2B.9BA7B2A19B8.B4.
14B3.4B$4.2B2A11B3A6B2A6BA12B7.2BA3.10B.4B3.4B$2.2AB.12BA3B2A9BABA
BA9B7.4BAB2.15B4.4B$.A.AB4.10B2A12BA4BA8B.4B2.3BABAB.13B.B2A3.4B$.
A8.10B2ABA10B2A19B2A4BAB2A10B.BA.A3.4B$2A8.12BA13B2A15BA7B2A4B4A4B
4.A4.4B$12.9B.12BABA20BA3BABA3B2A2BA3B4.2A4.3BA$13.2B2.3B5.9BABA
15BA4BA2B2AB2A5BABA3B10.ABA$11.A.B3.5B4.8B2A16BABAB2A2B2A6BA3BA3B
11.2A$10.A.A.A5.2A4.30BA10BA2B2A5B11.B$10.A2.2A5.A6.16B.B3.9BABA7B
2AB2A4B$9.2A10.3A4.5B.B3.B10.4B2.5BA8BA5B$23.A2.4B20.8BABA13B.B.B$
26.2A23.4B3A19B2A$27.A24.4B2AB2A16B2A$24.3A22.B3.2B.B2A2B2.12B.2B$
24.A23.2AB.3B.4B3.13B$48.2A3BA11.11B.B$49.B.BA.A10.12B2A$52.BA.A9.
10B.B2A$55.A7.2AB.6B4.B$55.2A5.A.AB.4B$62.A5.5B$61.2A8.2A$71.A$72.
3A$74.A!
