#CSYNTH gun_169 costs 4514 cells.
#C period 169 fullperiod 169 bbox 74 by 61
#CLL state-numbering golly
x = 74, y = 61, rule = LifeHistory
28.A11.2A$27.A.A9.B2AB$19.A3.2A2.A.A9.3B$18.A.A2.A2.2A.2A9.B.B$18.
A.A3.A.A2.B8.5B$19.A.4A2.AB2A6.6B$21.A3.A.A.2A4.8B$3.2A15.A2.BA.A
2.13B$4.A14.A.2BA.A5.13B$4.A.AB11.2A.2BA5.15B$5.2AB.2A12.3B4.15B$
7.2B2AB12.2B.B.17B$7.4B6.29B$7.6B3.4BA11B2A13B$8.6B2.4B3A9B2A14B$
8.7B.4BABA20B3.B2A$7.15BA19B4.A2.A$6.20B2.2B2.B2.7B5.2A.A$6.17B13.
7B7.A$6.15B15.8B6.2A$5.15B17.2B2.4B$2A3.16B15.2A4.4B$.A3.16B15.A6.
4B$.A.A15B.B2A14.A6.4B$2.2A2.12B2.BA.A12.2A7.4B$6.13B4.A22.4B18.A$
5.15B3.2A22.4B11.2A3.A.A$4.17B27.4B11.A3.A2.A$4.11B3.4B27.4B10.A.
2A.A.A$4.11B4.4B27.4B10.A.A.A.2A$2.2AB.7B7.4B27.4B10.2B2A.A2.A$.A.
AB.6B9.4B27.4B10.4B2.2A$.A5.4B11.4B27.4B6.7B$2A6.5B10.4B27.4B3.8B$
11.2A11.4B22.2A3.2B2A.8B$11.A13.4B22.A4.BABA8B$12.3A11.4B7.2A12.A.
AB2.A10B.2B$14.A12.4B6.A14.2AB.14B2A$28.4B6.A15.16B2A$29.4B4.2A15.
14B.2B$30.4B2.2B17.13B$23.2A6.8B15.14B.2B$24.A7.7B13.18B2A$24.A.2A
5.7B2.B2.2B2.19B.B2A$25.A2.A4.35B2.B$26.2AB3.4B2A21B.8B$27.8BABA
21B2.7B$28.6B2A23B2.7B$29.6BABA20B3.7B$29.7B2A8B.4B11.6B.BA$30.15B
3.2B12.7BA.A$30.15B3.3B11.8BA$31.13B5.A2B.2A7.6B.B$33.13B2.A.A2B.A
7.5B$32.8B4.2A.A.AB2.A8.6B$32.6B6.2ABA4.A7.2AB.5B$32.5B8.B2.5A.A4.
A.AB3.4B$32.B.B5.2A.A.2A.A4.A.A3.A7.4B$33.3B4.A.2A.A2.A.2A2.A3.2A
8.3BA$32.B2AB11.2A.A.2A15.3BA$33.2A35.3AB!
