#CSYNTH gun_3444 costs 4556 cells.
#C period 3444 fullperiod 3444 bbox 67 by 68
#CLL state-numbering golly
x = 67, y = 68, rule = LifeHistory
27.A11.A$9.A17.3A7.3A17.A$9.3A12.A5.A5.A5.A12.3A$12.A11.6A.A3.A.6A
11.A$11.2A16.A.A3.A.A16.2A$11.5B8.3A2B2.2A.2A2.BAB2A8.5B$13.5B6.A
2BA2BA5.A4B2A6.5B$11.7B7.4A.A5.A.B2AB7.7B$9.11B7.3A7.2AB7.11B$9.
12B7.B9.B7.12B$10.12B3.3B11.3B3.12B$12.11B2.3B11.3B2.11B$13.15B11.
15B$8.3B.B.16B7.16B.B.3B$6.24B7.13B2A9B$5.25B7.12B2A11B$5.24B9.12B
AB2A8B$5.10BA12B11.7B2ABAB2ABA7B$4.10B3A10B13.5B4A4BABA7B$4.4B3A3B
AB2A10B11.4B4ABA3BA10B$4.4B2A5B2A6BA4B11.3B2A3BA3BA11B$4.18BAB2A2B
11.3BA4BA3B2A10B$5.6BA10BA5B11.4B2A2BA3BAB2A7B$4.3BA3BA2B2A4BA6B
13.4BA6BAB2A8B$3.5BA4B3A10BA13.2A22B$2.11B3A5BA3B2A13.2A23B$2.10B
2A9BA2B15.24B$2.10BA5B.B.3B19.3B.B.16B$4.14B31.14B$4.3B2.11B2.B21.
B2.11B2.3B$4.3B3.10B.B2A19.2AB.10B3.3B$3.B7.11B2A19.2A11B7.B$2.A2B
7.8B.2B21.2B.8B7.2BA$.A.A2BA6.7B5.A21.7B6.A2BA.A$.BAB5A5.7B4.3A18.
7B5.3A3BAB$2.B2A4.A5.6B7.A17.6B5.A4.2AB$.2B.2B2A.A5.5B7.2A10.2A6.
5B5.A.4A.2B$2A.2A2.A.2A4.6B6.5B7.A6.6B4.2A.A2.AB.2A$2A.2ABA4.A4.6B
7.2B2A3.BA.A5.6B4.A4.ABAB.2A$.3BA.A.2A.A2.9B5.3B2AB2.B2A5.9B2.A.2A
.A.A3B$3.2A.A.A.A3.2A4.4B4.10B5.4B4.2A3.A.A.A.2A$4.BAB.A6.A5.4B2.
10B5.4B5.A6.A.A2B$3.2B.A.A3.3A7.4B2.9B4.4B7.3A3.A.B.2B$2.3A.2A4.A
10.13B4.4B10.A4.2A.2BA$.A.2A2B17.12B3.4B17.4A.A$A.B3.B18.10B3.4B
18.A3.A.A$A.5A.A17.7B2.B.4B17.A.5A.A$.A5.2A18.13B18.2A5.A$2.4A22.
11B22.4A$4.A19.2A2.10B24.A$6.A16.B2AB2.9B22.A$5.2A16.4B3.9B21.2A$
24.2B3.9B$16.A7.4B2.7B$15.A.A5.5B.8B$16.A.19B$17.20B$17.14B2.3B$
17.15B$16.3B2A12B$16.3B2A13B$14.2AB.11B2.4B$13.A.AB2.8B5.4B$13.A5.
10B4.4B$12.2A5.B.B5.2A5.4B$20.3B4.A7.3BA$19.B2AB5.3A5.3BA$20.2A8.A
6.3AB!
