#CSYNTH gun_603 costs 3132 cells.
#C period 603 fullperiod 603 bbox 58 by 54
#CLL state-numbering golly
x = 58, y = 54, rule = LifeHistory
15.2A$15.A35.2A$5.4B3.BA.A35.A.A$3.6B3.B2A4.4B30.A$2.11B5.6B9.2A6.
A10.2A.2A$2.B2A8B5.3B3A2B6.B2AB3.3A9.A.A.2A$.2B2A7B2.14B4.3B3.A11.
2B.A$19BA8B5.B.B2.2A7.A2.2A.4A$.18BA16B.3B5.3A3.BA4.A$.17B3A17B6.A
8.4A$.36B2AB4.2A6.2B.A$.15BA13B2A5B2AB.5B6.AB.AB$15BA14B2A5B.B.4B
9.3AB$.13B2A2BA14B.B4.7B9.2A$2.11B3ABABA5B3.B10.7B10.AB$2.12B2A2BA
2B2A3B12.13B3.BA.A$2.13BA5BA4B11.16B.B2A$3.13B5A4B11.19B$3.14B3A4B
12.19B$3.15BA5B11.20B$3.20B11.5BA15B$3.19B12.4B3A14B$3.19B11.4B5A
13B$.2AB.16B11.4BA5BA13B$A.AB3.13B12.3B2A2BA2B2A12B$BA10.7B10.B3.
5BABAB3A11B$.2A9.7B4.B.14BA2B2A13B$.B3A9.4B.B.5B2A14BA15B$.BA.BA6.
5B.B2A5B2A13BA15B$2.A.2B6.2A4.B2A36B$.4A8.A6.17B3A17B$A4.AB3.3A5.
3B.16BA18B$.4A.2A2.A7.2A2.B.B5.8BA19B$4.A.2B11.A3.3B4.14B2.7B2A2B$
.2A.A.A9.3A3.B2AB6.2B3A3B5.8B2AB$.2A.2A10.A6.2A9.6B4.12B$4.A24.A5.
4B4.4B2.6B$4.A.A22.3A10.4B3.4B$5.2A25.A8.4B$31.2A7.4B$31.5B3.4B$
22.2A9.3B2.4B$21.A.A8.9B$21.A8.B.8B$18.2A.AB.B3.BA9B$19.A.A.2AB.3A
9B$19.A.A.2A2B2A10B$18.2A.A2.5BA9B$18.A2.4A3BA8B.B2A$19.2A2.BAB.BA
8B.BA.A$21.2A6.7B5.A$21.A7.2B.3BA5.2A$23.A9.3BA$22.2A10.3AB!
