#CSYNTH gun_3940 costs 5046 cells.
#C period 3940 fullperiod 7880 bbox 87 by 58
#CLL state-numbering golly
x = 87, y = 58, rule = LifeHistory
61.2A$60.B2A2B3.2A$24.2A22.2A11.4B2.B2AB$23.B2AB5.2A14.A8.B.6B3.2B
$24.2B7.A15.A5.10B2.2B$19.6B7.A15.2A5.11B2A2B$16.B.8B6.2A14.B5.12B
2A3B.B$14.13B6.B13.B2A4.18B2A$14.13B6.3B10.BABA5.15B.B2A$3.B9.2A
12B5.6B7.3BAB4.15B3.B$2.2AB.3B3.B2A12B4.10B3.5B3.17B$2.2A2B3A3.17B
2.11B.5B.19B$3.B.3BA2B2.2B2.14BA3B2A31B$5.2BABAB.2B3.14B2A2B2A22B.
7B$7.2B2AB2AB3.6BA7B2A25B2.6B$7.BAB.B2A5.4BABA6BA26B2.7B$12.B7.11B
A26B2.9B$20.9B2.38B7.B$21.3B2A2B2.40B5.2AB.BAB$22.6B2.41B3.B2AB2A
2B$22.7B.22B2A18B3.2B.BABA2B$21.31B2A18B2.2B2.2BA3B.B$21.19B2.4B.
11B2.17B3.3A2B2A$20.17B4.4B3.10B4.12B2AB3.3B.B2A$16.B3.15B5.4B7.6B
5.12B2A9.B$15.2AB.15B5.4B10.3B6.13B$15.2A18B3.4B13.B6.13B$16.B.3B
2A12B2.4B11.A2.2A6.8B.B$19.2B2A11B2.4B10.3A3.A7.6B$20.2B2.10B.4B
10.A5.A7.2B$19.2B3.6B.B2.4B4.A6.2A4.2A5.B2AB$18.B2AB2.4B5.4B4.A.A
3.4B12.2A$19.2A3.2B2AB3.4B6.A.5B$26.2A3.4B8.7B$30.4B9.4B2A4B.B$29.
4B10.4B2A3B.B2A$28.4B11.11B2A$14.A12.4B12.9B.2B$14.3A9.4B8.2B2.10B
$17.A7.4B8.2A13B$16.2A6.4B9.2A13B$16.6B.4B7.A3.2B.11B$18.8B6.3A6.
9B.B2A$2A13.10B6.A11.7B.BA.A$A2.2B2.B6.10B.B5.2A9.7B5.A$.4A.2BAB3.
BA18B8.8B5.2A$3.A4B3A2BABA15B9.4B2.4B$.2A3.BA.A2B.ABA12B2A2B7.4B4.
4B$A2.3AB2A5.A12BA2BA2B5.4B6.4B$2A3.A.B7.7B2.4B2A3B4.4B8.4B$7.A.A
5.7B4.9B.4B10.4B$3.4A.2A8.3B6.12B12.4B$3.A2.A9.5B7.10B14.4B$4.A.A
9.2A10.9B16.4B$5.A11.A9.9B18.4B$14.3A11.7B20.3BA$14.A13.6B22.3BA$
30.2B25.3AB!
