#CSYNTH gun_2423 costs 14652 cells.
#C period 2423 fullperiod 2423 bbox 132 by 111
#CLL state-numbering golly
x = 132, y = 111, rule = LifeHistory
35.2A3.2A$33.3A.A2.2A$32.A4.A$32.A2.2A.4A$31.2A.A.A.A2.A4.2A$32.A.
ABABAB7.A$32.A.AB2AB6.A$33.AB.2B7.5A$36.3B10.A$36.4B3.4AB$34.3B2AB
3.A2.AB$34.3B2AB4.4B$32.15B3.2A$31.14B2A.A2.A$30.11BA3B2A.2A$29.
11BABAB.B$28.4B2.7BAB$12.2A13.4B5.7B$12.A13.4B4.9B$7.2A5.A10.4B5.
2A4.4B$7.A5.2A9.4B7.A5.4B$4.2A.A.3B11.4B5.3A7.4B$4.A2.A.2A2B2A7.4B
6.A10.4B$6.2A.A.2B2AB5.4B19.4B$9.A.4B5.4B21.4B$9.2A.4B3.4B23.4B$
12.3BA6B25.4B25.A11.2A$2A.2A7.2BABA4B27.4B23.A.A9.B2AB$2A.A8.3BA4B
12.2A15.4B10.A3.A3.2A2.A.A9.3B$3.A.B3.10B13.A.A15.4B7.3A2.A.A2.A2.
2A.2A9.B.B$3.3AB.2B2A7B15.A4.2A10.4B5.A5.A.A3.A.A2.B8.5B$.2A2.BA3B
2A7B11.4A.2A2.A2.A9.7B.2A5.A.4A2.AB2A6.6B$A2.4A12B11.A2.A.A.A.A.2A
10.9B7.A3.A.A.2A4.8B$2A.A.2B3.7B.B2A11.BABABA.A14.6B8.A2.BA.A2.13B
$.A2.3AB2.7B.BA.A11.B2ABA.A15.5B7.A.2BA.A5.13B$.A5.A4.4B5.A12.2B.B
A15.7B6.2A.2BA5.15B$2.5A5.4B5.2A10.3B19.6B10.3B4.15B$4.A8.4B7.2A6.
4B19.7B10.2B.B.17B$14.4B7.A6.B2A3B17.2B3AB4.29B$15.4B6.A.AB3.B2A3B
17.2BA2BAB2.16B2A13B$16.4B6.2AB.10B15.2BAB2AB2.16B2A14B$17.4B7.13B
13.9B.27B3.B2A$18.4B6.14B12.36B4.A2.A$19.4B5.15B6.B4.2BA17B2.2B2.B
3.6B5.2A.A$20.4B6.8B2.4B4.2AB.2B3A14B14.6B7.A$21.4B5.6B5.4B3.2A19B
14.9B6.2A$22.4B3.9B4.4B3.B.3B2A6BABA3B15.2A4.4B$23.4B.4B4.2A5.4B5.
3B2AB2A3BA5B15.A5.4B$24.7B5.A3.A3.4B4.4B3A10B12.3A7.4B$25.5B7.4A4.
4B3.5BA9B.B2A10.A10.4B$25.5B16.4B2.12B4.BA.A21.4B$24.7B4.4A8.15B9.
A22.4B$23.4B.4B3.A2.3A7.15B8.2A22.4B$22.4B3.4B8.A7.14B33.4B$21.4B
5.4B6.A.A7.12B35.4B$20.4B7.4B5.A.AB7.10B37.4B$19.4B9.4B5.A3B7.9B
38.4B$18.4B11.4B6.4B5.9B39.4B$17.4B13.4B5.6B5.6B41.4B$16.4B15.4B4.
7B.2B2.5B42.4B$3.2A10.4B17.4B2.8B.9B43.4B$4.A9.4B19.18B2A4B43.4B$
2.A10.4B21.16BA2BA4B43.4B$2.5A5.4B5.2A15.17B2A2.4B43.4B$7.A4.4B5.A
16.18B4.4B43.4B$4.3AB2.7B.BA.A16.16B7.4B43.4B$3.A.2B3.7B.B2A15.2AB
.13B9.4B43.4B$3.4A12B16.A.AB2.11B11.4B43.4B$.2A2.BA3B2A7B16.A5.10B
3.2A8.4B43.4B$A2.3AB.2B2A7B15.2A5.2B2A6B3.A10.4B43.4B$2A.A.B3.10B
21.3B2A6B4.A10.4B43.4B10.2A$3.A8.8B21.10B3.2A11.4B43.4B9.A$3.2A7.
9B20.8B.B2A15.4B43.4B10.A$13.3B2.4B18.7B3.B2AB2A13.4B36.2A5.4B5.5A
$11.5B3.2B2A17.6B6.B.A15.4B36.A5.4B4.A$11.2A7.BABA17.6B4.2A3.A14.
4B35.A.AB.7B2.B3A$12.A8.A3B16.8B.A2.4A15.4B35.2AB.7B3.2B.A$9.3A10.
4B14.9BA.A.A19.4B36.12B4A$9.A13.4B4.A8.7B.2BAB.A.2A17.4B35.7B2A3BA
B2.2A$24.4B3.3A6.6B3.2B2.A.A19.4B34.7B2A2B.B3A2.A$25.4B5.A4.7B4.B.
2A2.A19.4B33.10B3.B.A.2A$26.4B3.2A4.7B3.A.A2.A.A20.4B31.8B8.A$27.
4B2.4B.8B3.2A2.A.A22.4B29.9B7.2A$28.4B3.11B8.A24.4B27.4B2.3B$29.4B
.12B34.4B25.4B3.5B$30.16B35.4B23.4B7.2A$31.14B10.A26.4B21.4B8.A$
32.10B11.3A27.4B19.4B10.3A$31.12B9.A31.4B10.A6.4B13.A$30.16B6.2A
31.4B7.3A5.4B$23.A6.24B32.4B5.A7.4B$23.3A3.23B35.4B4.2A5.4B$26.A2.
24B35.9B4.4B$25.A.B.24B36.6B5.4B$25.2A27B35.8B2.4B$23.2A2.A22B.4B
32.15B$22.A2.3A3B3.2B3.B7.2B3.4B31.14B$23.A4.2B3.4B.3B5.BA2B3.4B
30.13B$24.4A5.B2AB.B2AB4.A.A5.4B27.2AB.10B$26.A7.2A3.2A6.A7.4B25.A
.AB3.B2A3B$28.A27.4B24.A6.B2A3B$27.2A28.4B22.2A6.4B$58.4B30.3B$59.
4B30.2B.BA$60.4B28.B2ABA.A$61.4B26.BABABA.A$62.4B23.A2.A.A.A.A.2A$
63.4B22.4A.2A2.A2.A$64.3BA25.A4.2A$65.3BA22.A.A$66.3AB21.2A!
