#CSYNTH gun_286 costs 2937 cells.
#C period 286 fullperiod 286 bbox 89 by 33
#CLL state-numbering golly
x = 89, y = 33, rule = LifeHistory
27.2A3.A19.A$25.3A.A.A.A16.3A$24.A4.A.A.A15.A$24.ABABA.A.A16.2A24.
A$19.2A4.2A.A.A15.5B13.2A7.3A$20.A4.4BABA13.4B16.A6.A$20.A.AB4.2BA
3B11.5B15.A.AB3.2A$21.2AB.B4.5B5.10B16.2AB.4B$23.4B2.6B4.11B18.4B$
23.9B2A4B.11B17.6B4.2A$23.9B2A16B11.2A5.5B3.B2AB$12.2A8.29B9.B2A2B
2.6B3.3B$11.B2AB6.4B.5B2A19B9.4B.7B4.B.B$11.4B5.4B3.4B2A19B.20B2.
6B.BA$12.2B5.4B6.12BABA38BA.A$4.A7.4B2.4B7.13BA39B.2A$3.A.A5.5B.4B
7.26B.26B$4.A.14B4.2A.39BA13B$5.14B5.A.A38BABA12B$5.14B6.AB.6B2.
20B.19B2A4B$5.15B9.B.B4.7B.4B9.19B2A5B$4.3B2A12B9.3B3.6B2.2B2AB9.
27B2.B$4.3B2A13B7.B2AB3.5B5.2A11.16B2A8B.B2A$2.2AB.11B2.4B7.2A4.6B
17.11B.4B2A10B2A$.A.AB2.8B5.4B13.4B18.11B4.6B2.4B.B$.A5.10B4.4B10.
4B.B2A16.10B5.5B4.2B$2A5.B.B5.2A5.4B9.2A3.BA.A15.5B11.3BA2B$8.3B4.
A7.4B9.A6.A16.4B13.ABA4B$7.B2AB5.3A5.4B5.3A7.2A13.5B15.A.A.2A$8.2A
8.A6.4B4.A24.2A16.A.A.ABABA$26.3BA29.A15.A.A.A4.A$27.3BA25.3A16.A.
A.A.3A$28.3AB24.A19.A3.2A!
