#CSYNTH gun_1372 costs 4453 cells.
#C period 1372 fullperiod 1372 bbox 73 by 61
#CLL state-numbering golly
x = 73, y = 61, rule = LifeHistory
20.A11.A$20.3A7.3A$23.A5.A$22.2A5.2A15.A$22.5B3.B13.3A$24.4B2.4B9.
A$22.10B2A3B6.BA18.A2.2A$21.10BABABA2B2.A3BA18.4A.A$20.10BA2B4A6B
25.A$20.10BA12BA17.7A.2A$20.10BABA9B2A16.A2.B3.A.A2.A$18.2AB.9B2A
5BA2B.B17.2A2.2A.AB2.2A$17.A.AB2.16B2A22.B2AB2A$17.A6.16B24.5B$16.
2A6.15B26.3B$26.6B2A4B19.2A5.2A3B$26.15B15.A2.A3.B2AB2A$26.16B12.B
A.A.A3.2ABA4B$25.4B.12B7.2A3.3A.A3.9B$24.4B3.11B2.2A2.A2.A2.3AB5.
7B$9.A13.4B2.4B.8B2.A.A2.2A4.3B3.10B$9.3A10.4B3.2A4.7B3.B.2A9.3BA
10B$12.A8.4B5.A4.7B2.2B2.A9.2BABA9BA$11.2A7.4B3.3A6.6B.2BAB.A.2A7.
BABA7BABA$11.5B3.4B4.A8.8BA.A.2A.A9.A7B2.2A$13.3B2.4B14.8B.A.A12.
7B5.B$3.2A7.9B16.5B4.A2.2A9.9B$3.A8.8B17.6B4.2A.3A6.4B4.2A$2A.A.B
3.10B17.6B6.B4.A4.4B5.A$A2.3AB.2B2A7B17.7B3.B2AB3A4.4B7.3A$.2A2.BA
3B2A7B18.8B.B2A.A5.4B10.A$3.4A12B18.10B8.4B$3.A.2B3.7B.B2A15.3B2A
6B7.4B$4.3AB2.7B.BA.A8.2A5.2B2A6B6.4B$7.A4.4B5.A9.A5.10B5.4B$2.5A
5.4B5.2A8.A.AB2.11B3.4B$2.A10.4B15.2AB.12B2.4B$4.A9.4B16.19B$3.2A
10.4B10.A4.18B$16.4B7.3A4.17B3.2A$17.4B5.A7.16B3.A.A$18.4B4.2A5.
16B4.A$19.9B4.4B2.8B.2B3.2A$20.6B5.4B4.7B2.3BA$20.8B2.4B5.6B2.5B2A
$18.15B6.4B4.3B.A2.A$18.14B5.A3B5.A.5A2.A$18.13B5.A.AB4.3A.A.B2.2A
$16.2AB.10B6.A.A4.A4.ABABA$15.A.AB3.B2A3B9.A6.4A4.A$15.A6.B2A3B6.
3A11.4A$14.2A6.4B8.A11.A2.A$23.3B20.2A$24.2B.BA$23.B2ABA.A$22.BABA
BA.A$20.A2.A.A.A.A.2A$20.4A.2A2.A2.A$24.A4.2A$22.A.A$22.2A!
