#CSYNTH gun_1919 costs 9984 cells.
#C period 1919 fullperiod 1919 bbox 104 by 96
#CLL state-numbering golly
x = 104, y = 96, rule = LifeHistory
31.2A$30.A.A$24.2A4.A$22.A2.A2.2A.4A$22.2A.A.A.A.A2.A$25.A.ABABAB$
25.A.AB2AB$26.AB.2B$29.3B$29.4B6.2A$27.3B2AB6.A$27.6B3.BA.A$25.10B
.B2A$24.6B2A5B$9.A13.5BAB2A5B$9.3A10.7B2A6B$12.A8.4B2.2BA5B$11.2A
7.4B5.6B$11.5B3.4B4.9B$13.3B2.4B5.2A4.4B$3.2A7.9B7.A5.4B$3.A8.8B5.
3A7.4B$2A.A.B3.10B6.A10.4B$A2.3AB.2B2A7B18.4B18.A$.2A2.BA3B2A7B19.
4B11.2A3.A.A$3.4A12B20.4B11.A3.A2.A$3.A.2B3.7B.B2A19.4B10.A.2A.A.A
$4.3AB2.7B.BA.A19.4B10.A.A.A.2A$7.A4.4B5.A20.4B10.2B2A.A2.A$2.5A5.
4B5.2A20.4B10.4B2.2A$2.A10.4B27.4B6.7B$4.A9.4B27.4B3.8B$3.2A10.2BA
B22.2A3.4B.8B$16.2B2A22.A4.12B$17.2A2B7.2A12.A.AB2.11B.2B$18.4B6.A
14.2AB.8BA5B2A$19.4B6.A15.9BA6B2A$20.4B4.2A15.9B2A3B.2B$21.4B2.2B
17.8B2A3B$14.2A6.8B15.9BA4B.2B$15.A7.7B13.9BA3BA4B2A$15.A.2A5.7B2.
B2.2B2.11B2A6B.B2A$16.A2.A4.27B2A3BA2B2.B$17.2AB3.10B2A15B.2B2A4B$
18.14B3A15B2.7B$19.13BA2BA14B2.7B$20.13B2A14B3.7B$20.9B2A6B.4B11.
6B.BA$21.8B2A5B3.2B12.7BA.A$21.15B3.3B11.8BA8.A$22.13B5.A2B.2A7.6B
.B8.A.A$24.13B2.A.A2B.A7.3BAB11.A.A$23.8B4.2A.A.AB2.A8.4B2A2.2B5.
2A.3A$23.6B6.2ABA4.A7.2AB.B2A6B5.B4.A$23.5B8.B2.5A.A4.A.AB3.8B2.B
2AB3A.A$23.B.B5.2A.A.2A.A4.A.A3.A7.8B.B2A.A2.A.A$24.3B4.A.2A.A2.A.
2A2.A3.2A5.2B.11B4.A.A$23.B2AB11.2A.A.2A10.2A11B5.2A.3A$24.2A29.2A
B.10B5.B4.A$56.B2.10B3.B2AB3A$59.12B.B2A.A$60.15B$59.14B7.2A$60.
14B6.A$62.12B3.BA.A$64.12B.B2A4.2A$64.14B5.A.A$64.9B2A3B5.A$65.7BA
BA3B4.2A$30.2A34.6B2A2B5.2B$31.A37.8B2.5B6.3B5.2A$30.A38.16B4.4B5.
A$30.2A6.2BAB13.B.7B5.2B2AB.10B4.5B.BA.A$32.A2B2.2BABAB6.B.13B4.3B
2A13B3.5B.B2A$30.3A5BABA45B3.7B$29.A2.B.4B2A45B3.8B$29.2A3.50B3.8B
4.2A$35.25B2A33B3.A.A$35.25B2A33B3.A$34.4B.B.11B3.41B.2A$35.4B2.
10B5.10B2.B3.B2.B3.18B$35.2B2AB4.2B2.4B7.6B14.18B3.2A$37.2A10.4B8.
3B13.5B3.12B.B2.A$50.4B9.B13.2A7.12B3A$51.4B8.2A13.A8.9B.BA$52.4B
8.A10.3A4.2A3.9B3.2A$53.4B7.A.A8.A6.A4.9B4.A$54.4B7.2A12.2A.A4.2B
2A3B.B2A2.A.2A$55.4B20.A2.3A.2BA2BA2B.BA.A.A.2A$56.4B20.2A2.BA3BAB
AB5.A.A$57.4B21.4A4BA4B3.A.A$58.4B20.A.4B5.2A4.A$59.4B17.A.A.2A7.A
$60.3BA16.2A2.A9.3A$61.3BA19.A.A9.A$62.3AB19.2A!
