#CSYNTH gun_9576 costs 5940 cells.
#C period 9576 fullperiod 9576 bbox 110 by 54
#CLL state-numbering golly
x = 110, y = 54, rule = LifeHistory
93.2A3.2A$81.A11.A.A.A2.A$81.3A11.A.2A.A$84.A8.B2A.A2.2A$83.2A7.5B
2.A2.A$83.5B4.4B4.2A$85.11B.B6.2A$75.2A2.AB3.11B.B2A4.B2A2B$75.A2.
A.AB.14B2A5.2A2B$76.A.2A15B.2B6.BA2B$15.2A60.A3.15B7.BABA$15.A22.A
39.2A8B2A7B6.2ABA$16.A14.2A4.A.A39.A.7BABAB2.4B4.4B$3.A11.2A13.B2A
B3.A.A37.A4.7BAB4.4B3.4B$3.3A8.B2.2A4.A7.3B2.2A.3A35.2A3.B2A4B7.5B
.2B2AB$6.A7.B2A2.A3.3A6.2B3.B4.A38.2B2A3B9.5B2.2A$5.2A6.2B.A.A7.A
4.3B.B2AB3A38.4B.5B8.4B$2A3.4BA2B.BA.A.2A5.2A4.5B2A.A39.4B5.2A9.4B
$.A5.BABA3B2A3.A5.3B.7B42.4B6.A11.4B$.A.AB.2BA2BA3B4.A.AB4.8B42.4B
8.3A9.4B$2.2AB.3B2A2B7.2AB3.10B40.4B10.B.A9.4B$4.9B9.3B2.2B2A5B3.A
35.4B11.B.A10.4B$4.9B9.4B.2B2A6B2.3A32.4B11.3A12.4B$4.9B8.6B.9B5.A
30.4B11.A16.4B$4.10B6.8B.8B4.2A29.4B12.2A10.AB4.3BA$3.12B4.17B5.5B
8.A5.2A9.4B11.4B9.BA.A4.ABA$3.14B2.17B7.4B5.3A4.B2AB7.4B12.2B11.A.
AB5.2A$3.32B7.5B4.A7.3B7.4B9.8B4.3B3.BA7.B$4.34B4.6B3.2A7.B7.4B3.
2A3.11B.7B$5.34B2.12B5.5B4.4B3.B2AB2.21B$4.36B.10B7.7B.4B4.3B3.26B
$3.10B2.B.31B2A2B5.12B2.2B2.B4.14BA8B3AB$3.9B5.30B3A2B.B2.12B.24B
6A6BA$4.7B7.10B.21BA41BA3B4A3B2A$6.5B5.12B2.15BA3BA14B2.27B2A4BA4B
$8.B7.2A3.6B4.10B2ABA4BA15B2.27B5A7B$7.3B7.A4.5B7.7BAB2A2B2A17B3.
22B3.2B2A7BA2.2A$6.B2AB4.3A5.4B7.17B2.14B8.B.16B3.8B2ABA2.A$7.2A5.
A8.5B5.17B4.12B13.6B.5B11.B2AB3A$26.2A4.8B.8B6.10B14.7B3.4B9.A.B$
26.A5.9B.6B8.9B12.2AB.4B6.2A10.A.2A$27.3A2.6B2A2B.4B9.9B11.A.AB3.B
7.A9.A.A.A.A$29.A3.5B2A2B2.3B9.9B11.A5.3B7.3A6.2A3.A$33.10B3.B2A7.
2B2A3B.B2A8.2A5.3A9.A$34.8B4.BA.A4.3BA2BA2B.BA.A15.B$33.7B.3B5.A3.
2A3BABAB5.A$29.A.2A5B4.2A5.2A.A.AB.2BA4B3.2A$27.3AB2AB.3B4.A7.A.A.
2B6.2A$26.A4.B3.2B6.3A3.A2.2AB7.A$27.3A.2A2.3B7.A4.2A2.B8.3A$29.A.
A3.B2AB13.2A11.A$29.A.A4.2A14.A$30.A22.A$52.2A!
