#CSYNTH gun_679 costs 5800 cells.
#C period 679 fullperiod 679 bbox 100 by 58
#CLL state-numbering golly
x = 100, y = 58, rule = LifeHistory
68.2A$24.2A42.A$24.A.A43.A$26.A4.2A33.5A$22.4A.2A2.A2.A31.A$22.A2.
A.A.A.A.2A33.B4A$24.BABABA.A36.BA2.A$25.B2ABA.A29.2A3.6B$26.2B.BA
31.A2.6B$25.3B33.A3.5B$16.2A6.4B22.2A9.2A2.7B$17.A6.B2A3B21.A10.2B
.8B8.2A$17.A.AB3.B2A3B21.A.AB6.11B9.A$18.2AB.10B20.2AB.2B.15B4.BA.
A$20.13B21.23B.B2A$20.14B20.25B$20.15B19.25B20.A$22.8B2.4B18.24B
12.2A5.3A$22.6B5.4B16.26B10.B2AB3.A$21.9B4.4B14.4B.24B8.3B4.2A$20.
4B4.2A5.4B12.4B4.2B.B.20B2.AB2.B2.5B$19.4B5.A7.4B10.4B11.19B4A8B$
18.4B7.3A5.4B8.4B11.9B.9BAB5A5B2A$17.4B10.A6.4B6.4B13.7B2.8B2A6BA
4B2A$16.4B19.4B4.4B14.7B2.9B3ABA3BA2B.B$3.2A10.4B21.4B2.4B15.6B4.
9B2A2BABA3B$4.A9.4B23.8B16.7B10.8B$2.A10.4B25.6B17.6B12.8B$2.5A5.
4B5.2A20.4B17.7B13.7B$7.A4.4B5.A20.6B15.8B12.7B$4.3AB2.7B.BA.A19.
8B14.9B2.2A6.8B7.2A$3.A.2B3.7B.B2A19.4B2.4B14.7B2.B2AB5.9B6.A$3.4A
12B20.4B4.4B14.4B5.2B7.9B2.BA.A$.2A2.BA3B2A7B19.4B6.4B6.2A5.2B2AB
3.2B6.12B.B2A$A2.3AB.2B2A7B18.4B8.4B5.A8.2A3.BA2B.18B$2A.A.B3.10B
6.A10.4B10.4B6.A11.A.A15BABA2B$3.A8.8B5.3A7.4B12.4B4.2A12.A.13BA3B
AB2.B$3.2A7.9B7.A5.4B14.4B2.2B10.3A3.11B6AB.B2A$13.3B2.4B5.2A4.4B
8.2A6.8B9.A5.11BA8B2A$11.5B3.4B4.9B10.A7.7B13.20B.2B$11.2A7.4B5.6B
11.A.2A5.7B2.B2.2B2.20B.B$12.A8.4B2.8B12.A2.A4.35B$9.3A10.15B11.2A
B3.27B.9B$9.A13.14B12.14B2A16B2.7B$24.13B13.13B2A16B2.7B$25.10B.B
2A12.29B4.6B$27.3B2AB3.BA.A11.17B.B.2B10.7B$27.3B2AB6.A12.15B4.3B
10.6B$29.4B6.2A11.15B5.A2B.2A6.7B$29.3B21.13B5.A.A2B.A7.5B$26.AB.
2B24.13B2.A.AB2.A8.6B$25.A.AB2AB22.8B4.2A.A.A3.A7.9B$25.A.ABABAB
21.6B6.2ABA2.4A.A5.2A.7B$24.2A.A.A.A2.A19.5B8.B2.A.A3.A.A5.A5.4B$
25.A2.2A.4A19.B.B9.2A.2A2.A2.A.A2.3A7.4B$23.A.A4.A24.3B9.A.A2.2A3.
A3.A10.3BA$23.2A5.A.A21.B2AB9.A.A23.3BA$31.2A22.2A11.A25.3AB!
