#CSYNTH gun_1323 costs 4864 cells.
#C period 1323 fullperiod 1323 bbox 76 by 64
#CLL state-numbering golly
x = 76, y = 64, rule = LifeHistory
45.A$44.A.A5.A$32.2B11.A4.3A$28.2B.5B13.A$22.2A3.10B2.9B.2A$22.A.B
.25B$19.2A.A.25B$20.A.2A.23B2A$19.A2.B.24BA.A15.2A.2A$19.5A17B3A3B
.2BA15.A.2A.A$23.BA.15BA2BAB3.A21.A$19.2A.2A5.10B2A2B2A2B3.3A11.7A
.2A$19.2A.A6.9BA5BAB6.A10.A2.B3.A.A2.A$24.A5.11B3AB18.2A2.2A.AB2.
2A$23.2A5.8B2A8B18.B2AB2A$31.7BA2B3A5B18.5B$31.8BA2BA6B7.2A2.2A6.
3B$30.9B2A8B2.2A2.A2.A2.A5.2A3B$29.4B3.4B.8B2.A.A2.A.A.A5.B2AB2A$
28.4B10.7B3.B.2A.2A.2A4.2ABA4B$27.4B11.4BA2B2.2B2.A4.B4.9B$26.4B
13.4B2A.2BAB.A.2AB2AB3.7B$25.4B14.3B2A3BA.A.2A.A.2AB.10B$24.4B15.
8B.A.A7.13B$23.4B17.5B4.A2.2A4.13BA$22.4B18.6B4.2A.3A2.11BABA$21.
4B18.6B6.B4.A3.8B2.2A$20.4B19.7B3.B2AB3A4.6B5.B$19.4B21.8B.B2A.A5.
9B$18.4B22.10B8.4B4.2A$17.4B22.3B2A6B7.4B5.A$16.4B17.2A5.2B2A6B6.
4B7.3A$15.4B19.A5.10B5.4B10.A$14.4B20.A.AB2.11B3.4B$2A5.2A4.4B22.
2AB.12B2.4B$.A5.2A2B.4B25.19B$.A.AB3.7B26.18B$2.2AB.8B27.17B3.2A$
4.2B2A5B28.16B3.A.A$4.BABA5B27.16B4.A$5.BA7B25.4B2.8B.2B3.2A$7.8B
23.4B4.7B2.A3B$5.2B.B3.4B21.4B5.6B2.A3B3A$4.3B6.4B19.4B6.4B4.3B.B
2.A$4.3B7.4B17.4B5.A3B5.A.A2B2A2.A$3.2AB2A7.4B15.4B5.A.AB4.3A.A.A
2.2A$.3A.B.3A6.4B13.4B6.A.A4.A4.2AB2A$A4.AB3.A6.4B11.4B8.A6.4A4.A$
.4A.2AB2A7.4B9.4B6.3A11.4A$4.A.A.A2.2A6.4B7.4B7.A11.A2.A$.2A.A.B4A
2.A6.4B5.4B20.2A$.2A.2A2BA.A.2A7.4B3.4B$5.4B.A7.A3.4B.4B$6.4BA6.A.
A3.7B3.2A5.2A$6.B2A2.2A.A2.A.A4.5B3.A2BA3.A2BA$7.4A2.4A.A4.6B4.2B
5.2B$7.2B2.A4.2A4.4B2A3B3.BA3.AB$3.2A.A.A.2A.4AB3.4BA2BA2B2.A2B3.
2BA$3.A.2A.2A3.A4.B3.3BABA5B2A2B.2B2A2B$7.A3.2A3.3A4.3BAB3.5BA.A5B
$7.A.2A4.A2.A2.5B4.2BA2B2A.2A2BA2B$8.A.A4.5A.2A8.ABAB.A.A.BABA$13.
A.A.2B2A.A8.A2BA.A.A.A2BA$13.2A5.BA12.BA3.AB!
