#CSYNTH gun_4350 costs 3705 cells.
#C period 4350 fullperiod 4350 bbox 57 by 65
#CLL state-numbering golly
x = 57, y = 65, rule = LifeHistory
43.A6.A$41.3A4.3A$40.A6.A$40.2A5.2A$37.5B2.5B$37.BAB4.BAB$36.BABAB
2.BABAB$36.A3BA2.A3BA$35.BA3BA2.A3BAB$34.3BABAB2.BABA3B$29.AB3.4BA
B4.BA4B3.BA$28.A.A4BA5B2.5BA4BA.A$29.A5BABA8BABA5BA$30.B.3BA5B2.5B
A3B.B$33.7B4.7B2$33.7B4.7B$30.B.3BA5B2.5BA3B.B$29.A5BABA8BABA5BA$
22.2A4.A.A4BA5B2.5BA4BA.A$8.2A3.2A8.A5.AB3.4BAB4.BA4B3.BA$8.A.A.A.
A2.2A.3A11.3BABAB2.BABA3B$10.A.A4.2A.A14.BA3BA2.A3BAB$5.2A2.A.B2A
6.B15.A3BA2.A3BA$4.A.A2.A.2AB3.3AB15.BABAB2.BABAB$3.A2.A.2A.B4.A2.
A2B.B2A3B8.BAB4.BAB$4.3A2.BA2B3.2A.5B3A4B6.5B2.5B$7.5A2B5.7B2ABA7B
3.2A5.2A$6.A2.A.BA6.7BA2BA6B4.A6.A$6.2A2.3B6.7B2ABA7B4.3A4.3A$10.
2A9.3B3A9B2A5.A7.A$10.2B11.B2A3B.6BABA11.2A$11.B17.BA4B.A3B10.4B$
10.2AB15.2A5B2.4B11.3B$.2A6.A2BAB5.2A6.2B2A3.B3.4B10.3B$2.A4.3B2A
3B4.A6.4B4.B4.4B8.5B$2.A.AB.8B.BA.A5.4B4.3A4.4B7.5B$3.2AB.8B.B2A5.
4B3.AB.2B5.4B5.7B$5.12B6.4B4.A4BA5.B3A4.2B3A2B$5.12B5.4B6.A.2B7.A
3B3.BA3BAB$5.12B4.ABAB9.2A8.A3B2.A5BA$7.10B3.B2AB11.AB8.4B.2ABAB2A
$9.7B3.3BA11.BAB9.11B$9.8B.4B13.A11.9B$8.5B.7B27.2BA5B$8.6B.5B28.
2B2A.2B$7.6B3.4B28.7B$3.B2.3BA3B4.4B27.B2ABAB$.7BABA2B5.4B27.2A2BA
$.7BABA2B6.4B26.B4AB$9BA3B7.4B25.5B$11B.B2A6.4B23.7B$.9B2.BA.A6.2B
2A22.2A3B2A$.7B7.A7.BABA21.3BA3B$2.6B7.A.2A5.A3B20.A5BA$3.4B5.2A.A
.2A6.4B19.B2AB2AB$4.4B4.2A.A10.7B3.B2A3B6.2BABA2B$5.4B6.A11.10BABA
4B5.2BA2B$6.4B5.A.AB3.5BA4B2A4B3A4B4.2BA2B$7.4B5.2AB.6BABAB2A2BA4B
3A4B4.3B$8.4B6.7BA3BA.3A4B3A5B5.4B$9.4B5.7BA3BAB2A4BABA4B.B2A5.2A$
10.3BA5.6BA3B2AB2.B.B2A3B3.BA.A4.A$11.3BA5.6BABAB18.A5.3A$12.3AB6.
5BA20.2A6.A!
