#CSYNTH gun_4692 costs 3127 cells.
#C period 4692 fullperiod 4692 bbox 59 by 53
#CLL state-numbering golly
x = 59, y = 53, rule = LifeHistory
48.A6.A$47.A2BA2.A2BA$39.B2AB3.5B2.3B.A$36.2A.4A.2A.2A.4A.2A$35.A.
3B2.5B3.B2AB$36.A2BA2.A2BA$37.A6.A.B$45.2B$44.5B2.2B$43.2BA8B$40.
3BAB2A5BA2B$39.3BA2BA5B2A2B$28.4B7.4B2A6BA3B$28.3B2A5.16B.2A$27.2A
BA2B5.16B2.A$27.2AB.A.BA3.12B2A2B2.A.A$28.B3.ABAB2.12BABAB3.2A$2.
2A29.A2B3.12B2AB$2.2AB27.4B.16B$4.B2.B.5BA3B.B3.4B4.B2A2B.15B$2.
11B2A7B.4B5.2A2.17B$.2A9B3ABA9B2A9.16B$.2A8B2A13B2A9.16B$2.B.8B2A
11B.B8.18B$4.9BA11B9.18B$19.3B.B.3B4.20B$4.9BA10BA3B2.21B$2.B.8B2A
8B2ABA22B$.2A8B2A8B2AB3A5B2.6B2.5B$.2A9B3ABA5BA2BA5B4.5B4.2B$2.11B
2A8B2A5B7.2B7.4B$4.B2.B.5BA3B.3B.B.4B17.3BAB$2.2AB19.4B17.4ABA$2.
2A19.4B18.3A.A.AB$12.2A8.4B20.B3.ABAB$11.B2AB6.4B26.A2B$11.4B5.4B
26.2A2B$12.2B5.4B26.B2A2B$4.A7.4B2.4B28.2A$3.A.A5.5B.4B$4.A.14B$5.
14B$5.14B$5.15B$4.3B2A12B$4.3B2A13B$2.2AB.11B2.4B$.A.AB2.8B5.4B$.A
5.10B4.4B$2A5.B.B5.2A5.4B$8.3B4.A7.3BA$7.B2AB5.3A5.3BA$8.2A8.A6.3A
B!
