#CSYNTH gun_774 costs 2408 cells.
#C period 774 fullperiod 774 bbox 56 by 43
#CLL state-numbering golly
x = 56, y = 43, rule = LifeHistory
8.A2.A3.2A$8.6A2.A27.2A$6.2A6.2A24.2A.A.A6.2A$5.A2.AB2ABA2.3A12.A
7.A.A.A8.A$4.A.2AB.2A.B2A2.A11.A.A5.A2.A.BA4.BA.A$4.A.A2.4A2.A.A
12.BA2B5.2A.A2BA3.B2A$3.2A.3A4B3A.2A12.2B8.BA2B2.3B$4.A.A2.4B2.A.A
13.3B7.4B.4B$4.A.A3.2A3.A.A13.4B5.2AB2A4B5.2A$5.A4.2B4.A12.2B2A2B
3.2B2AB2A4B5.A$11.B17.2B2A7BA9B.BA.A$10.2AB16.6BA8BA5B.B2A$9.A2BAB
5.2A7.6BABA6BABA6B$7.3B2A3B4.A8.5BA3BA4BA3BA5B$7.8B.BA.A8.6BABA6BA
BA6B$6.9B.B2A7.2AB.5BA8BA6B$5.B2A9B4.2A2.A.AB.9BA7B2A2B$4.BA2BA8B
5.A2.A5.4B2AB2A2B3.2B2A2B$5.B2A9B3.A2.3A5.4B2AB2A5.4B$7.10B3.3A7.
4B.4B7.3B$9.7B7.A5.A3B2.2BAB8.2B$9.8B5.2A4.A3B2.A2BA.2A5.2BAB$8.5B
.4B4.6B3A4.AB.A2.A5.A.A$8.6B.4B5.6B6.A.A.A7.A$7.6B3.4B2.8B4.A.A.2A
$3.B2.3BA3B4.2B2A11B2.2A$.7BABA2B5.2A12B$.7BABA2B6.BA11B$9BA3B7.4B
2A4B.B2A$11B.B2A6.2BA2BAB3.BA.A$.9B2.BA.A4.5B3AB5.A$.7B7.A4.3BA2BA
B6.2A$2.6B7.2A5.2B2A2B$3.4B15.2BA2B$4.4B15.3B$5.4B13.5B$6.4B12.2AB
2AB$7.4B7.2A2.BA.2A2.2A$8.4B6.A2.A.A3.B2.A$9.4B7.2A.7A$10.3BA8.A$
11.3BA7.A.4A$12.3AB7.2A2.A!
