#CSYNTH gun_1260 costs 2112 cells.
#C period 1260 fullperiod 1260 bbox 48 by 44
#CLL state-numbering golly
x = 48, y = 44, rule = LifeHistory
19.2B.2A$18.3A2.A$18.3B2A$17.A4B$11.4B2.A4B$10.2BA3B2.3B2A$8.3B4A
2B.3A2.A$7.3BA2B2A6B.2A7.2B$2A5.4BA3BA2B11.6B$.A6.4B3A3B9.10B$.A.A
B2.5B3A3B7.3BABA2BABA3B$2.2AB.11B7.2ABA2BA2BA2BAB2A$4.14B7.3BABA2B
ABA3B$4.2B3A9B9.10B$4.2B2AB3A7B10.6B$4.2B3AB2A8B11.2B$5.3BAB2A3B2.
3BA7.A2B2.2BA$6.3BA3B5.ABAB4.A2BA4BA2BA$4.5B.3B6.2A3B.BA2BA4BA2BAB
$4.2A7.B2AB3.6BA2BA4BA2BA7.2A$5.A7.4A4.6B.AB4.BA7.B.2A$2.3A7.AB2AB
A4.4B16.3A$2.A7.3A.2B.3A3.4B12.A3.BAB$9.A3.A2.A3.A3.4B9.3A4.3A$8.A
.4AB.2A.2A4.4B7.A7.B2AB$8.A.B2.2B2.A.A6.4B6.2A7.BAB$6.A.A.3AB3.A.A
7.4B.6B7.AB$6.2A.A.2AB2.2A.3A6.8B9.2B$9.A.B10.A6.10B6.2A$9.2A10.2A
5.B.10B4.3B$21.18BAB3.2AB$23.15BABA3BA2BA$22.2B2A12BABA.2BA2BA$21.
2BA2BA12BA4.2AB$21.3B2A4B2.2BA4B5.3B$7.2B10.9B4.BABA3B6.2A$5.6B6.
10B6.ABAB6.B.2B$3.10B.12B7.BAB6.4AB$.3B8A14B8.B6.A.3AB$4BAB4ABA15B
15.AB.AB$.3B8A3B.10B17.2B2A$3.10B4.3BA5B18.B.B$5.6B7.3BA2B19.B3A$
7.2B10.3AB20.BAB!
