#CSYNTH gun_3934 costs 9360 cells.
#C period 3934 fullperiod 3934 bbox 104 by 90
#CLL state-numbering golly
x = 104, y = 90, rule = LifeHistory
34.A11.2A$11.A11.A.A7.A.A9.B2AB$9.3A11.2A.A.2A3.A.A9.3B$8.A5.2A10.
A.A.A.2A.2A9.B.B$2.2B4.2A5.A7.2A.A3.A.A2.B8.5B$.9B5.A.2A3.A2.A.4A
2.AB2A6.6B$.7B8.A.A4.A3.A3.A.A.2A4.8B$.9B8.A.3A3.A2.BA.A2.13B$.10B
.3B2.2A.A4.A.2BA.A5.13B$.2B2A4B3A3B.5B4.2A.2BA5.15B$2BA2BAB6A7B9.
3B4.15B$2BA2BABAB5A6B10.2B.B.17B$.2B3A3B3A2B2A4B3.29B$7B3A2BAB2A4B
2.16B2A13B$.7BA6B2A3B2.16B2A14B$.4B.3B2.BA2BA5B.27B3.B2A28.2A$2.2B
7.B3A33B4.A2.A21.A.2A.A.A$11.21B2.2B2.B3.6B5.2A.A20.2A.A.A$12.17B
14.6B7.A24.2AB$12.15B14.9B6.2A23.2B$12.14B15.2A4.4B30.4B2.B$12.15B
15.A5.4B30.8B$11.16B12.3A7.4B18.A10.8B$10.2A.3B3.6B.B2A10.A10.4B
11.2A3.A.A8.8B2A$10.2A2B2AB3.4B2.BA.A21.4B11.A3.A2.A6.2B2A3B.B2A$
11.3B2A5.4B4.A22.4B10.A.2A.A.A6.BABA4B.B$6.2A.6B7.4B3.2A22.4B10.A.
A.A.2A5.ABA4B$6.A2.2A2.B9.4B27.4B10.2B2A.A2.A3.BA7B$7.3A.AB11.4B
27.4B10.4B2.2A4.8B$10.B.A12.4B27.4B6.7B9.7B$7.5A14.4B27.4B3.8B10.
8B$7.A19.4B22.2A3.4B.8B11.8B$10.2A16.4B22.A4.12B11.7B$10.2A17.4B
21.A.AB2.11B.2B8.7B$30.4B10.A10.2AB.14B2A7.8B$31.4B7.3A12.16B2A6.
10B$32.4B5.A15.14B.2B8.10B$33.4B4.2A15.13B10.7B.4B$26.2A6.9B14.14B
.2B7.6B3.4B$27.A7.6B14.18B2A6.6B4.4B$27.A.2A5.6B3.B2.2B2.19B.B2A6.
6B5.4B$28.A2.A4.35B2.B6.8B5.4B$29.2AB3.27B.8B10.8B5.4B$30.14B2A16B
2.7B9.9B6.4B$31.13B2A16B2.7B9.9B7.4B$32.29B3.7B9.10B7.4B$32.17B.B.
2B11.6B.BA6.5B2A3B8.4B$33.15B4.3B10.7BA.A5.5B2A4B8.4B$33.15B5.A2B.
2A6.8BA6.11B9.3BA$34.13B5.A.A2B.A6.6B.B7.12BA8.ABA$36.13B2.A.AB2.A
7.5B12.8B2.3A7.2A$35.8B4.2A.A.A3.A8.6B4.2A5.7B6.A7.B$35.6B6.2ABA2.
4A.A4.2AB.5B2.B2AB4.6B6.2A$35.5B8.B2.A.A3.2A3.A.AB3.4B.3B5.6B$35.B
.B9.2A.2A.A.A6.A7.4B.B5.8B$36.3B9.A.A3.A.3A2.2A8.8B.8B$35.B2AB9.A.
A4.A2.A12.9BA7B$36.2A11.A6.2A12.9BABA6B$70.9BABA7B$71.9BA7B$72.8B.
7B$73.16B4.2A$74.3B.10B5.A$74.3B2.9B2.BA.A$75.B3.9B2.B2A3.A$78.13B
4.A.A.2A$78.13B3.A2.A.A.A$77.14B2.A3.A3.A$76.A13B4.3A.3A$74.3A.12B
6.A.A$73.A5.5B.5B6.ABAB3A$73.2A6.2B2.6B6.2ABA2.A$85.7B4.4B2.2A$84.
16B$83.13BA2B$79.16BABAB$78.17BA2BA$78.18B2AB$78.21B$80.17B.B2A$
82.13B3.BA.A$80.4B3.10B4.A$80.2A6.4B3.2A4.2A$81.A5.A3.2B2.A$78.3A
4.3A2.B2A3.3A$78.A5.A6.A.A5.A$84.2A3.A.A.6A$89.2A$95.2A$95.2A!
