#CSYNTH gun_1416 costs 2948 cells.
#C period 1416 fullperiod 1416 bbox 67 by 44
#CLL state-numbering golly
x = 67, y = 44, rule = LifeHistory
8.A9.A$8.3A5.3A37.2A$11.A3.A39.B2AB$10.2A.B.2A39.2B$10.7B40.2B$12.
3B33.B6.5B3.2A$10.7B30.3B5.5B.BAB.A$9.4BA4B8.2A12.2A5.4B3.5B2.B2A.
A$9.3BABA3B3.2A2.A2.A12.A5.5B.5B3.B.B.2A$10.3BA3B4.A.A2.A.A12.A.AB
.6B.5B2.2B2A2.A$10.7B5.B.2A.A14.2AB.13B.BA2.2A$9.9B3.2B2.A18.10B3A
3BAB2A$7.17B.A18.10B3A4BA2.2A$7.15B2A.2A17.9BA3BA3B2.A2.A$6.2BA13B
2A.A18.9BAB2A4B3.2A$7.ABA11B.B4.A18.8B3A3B$6.BABA11B5.2A3.A17.9B$
7.BA13B4.A4.3A14.11B$9.13B.BA.A7.A13.11B$11.7B2A2B.B2A7.2A13.11B$
11.7B2A4B9.6B10.10B$11.13B11.4B10.10B.B$12.12B9.7B7.2A11B2A$13.11B
6.10B6.A2BA3.7B2A$16.8B5.B2A8B.B2A2.BABA4.7B$16.9B5.ABA8BA2BA3BA5.
B3.3B$15.5B2.4B5.A4BA5B2A3B6.2A$15.6B2.4B5.2B2AB2A4B2A2B6.A$14.6B
4.4B6.10B2AB8.A$10.B2.3BA3B5.B3A3.7BA2B3ABAB2.2A2.2A$8.7BABA2B6.A
3B.2BA4B2AB2A3BA3BA2.A$8.7BABA2B7.A6BA5B6A3B3.2A$7.9BA3B8.13B5A3B$
7.11B.B2A6.14B2A5B$8.9B2.BA.A5.4B2.6B.9B$8.7B7.A3.2AB.B4.5B6.4B$8.
7B7.2A.A.AB4.2BA3B6.B2A2B$9.5B9.A.A4.4BABA9.2A$6.3B2.4B8.A.A4.2A.A
.A$.B2.BA3B3.4B8.A4.ABABA.A.A$3AB2A2B2A3.4B12.A4.A.2A$4A4B2A4.3BA
12.3A.A$.3B2A2.B6.3BA13.A.A$.3B12.3AB13.A!
