#CSYNTH gun_1329 costs 4860 cells.
#C period 1329 fullperiod 1329 bbox 81 by 60
#CLL state-numbering golly
x = 81, y = 60, rule = LifeHistory
39.2A11.A$38.B2AB9.A.A$39.3B9.A.A2.2A3.A$38.B.B9.2A.2A2.A2.A.A$38.
5B8.B2.A.A3.A.A$38.6B6.2ABA2.4A.A$38.8B4.2A.A.A3.A$39.13B2.A.AB2.A
15.2A$37.13B5.A.A2B.A14.A$36.15B5.A2B.2A11.BA.A$36.15B4.3B12.2A.B
2A$35.17B.B.2B12.B2A2B$35.29B6.4B$34.13B2A16B3.6B$33.14B2A16B2.6B$
32.2AB3.27B.7B$31.A2.A4.35B$20.A9.A.2A5.7B2.B2.2B2.20B$19.A.A3.2A
3.A7.2A5B13.17B$18.A2.A3.A3.2A6.ABA5B15.15B$18.A.A.2A.A10.3BA2.2B
17.15B$17.2A.A.A.A10.4B4.2A15.16B$15.A2.A.2A2B10.4B6.A15.16B$15.2A
2.4B10.4B6.A14.2AB.15BA.2A$19.7B6.4B7.2A12.A.AB2.12B2.2A.A$20.8B3.
4B22.A4.13B$21.8B.4B3.2A17.2A3.15B$21.12B4.A22.17B$18.2B.11B2.BA.A
13.2A6.4B3.11B$17.2A14B.B2A15.A5.4B4.11B$17.2A16B15.A6.4B7.7B.B2A$
18.2B.14B15.2A4.4B9.6B.BA.A$21.13B17.2B2.4B4.A6.4B5.A$18.2B.14B15.
8B4.A.A3.5B6.2A$17.2A18B13.7B5.A2.A2.2A$17.2AB.19B2.2B2.B2.7B5.2A.
2A3.A$18.B2.35B4.A2.A2.3A$21.8B.27B3.B2A2.A$21.7B2.16B2A14B4.A$21.
7B2.16B2A13B4.2A$21.7B3.29B$18.AB.6B11.4B.17B$11.A5.A.A7B12.2B3.
15B$11.3A4.A8B11.3B3.15B$14.A4.B.6B7.2A.2BA5.13B$13.2A7.5B7.A.2BA.
A2.13B$13.5B3.6B8.A2.BA.A.2A4.8B$4.2A9.3B2.5B.B2A7.A4.AB2A6.6B$3.A
.A8.9B3.BA.A4.A.5A2.B8.5B$3.A8.B.8B7.A3.A.A4.A.2A.A.2A5.B.B$2A.AB.
B3.BA9B8.2A3.A2.2A.A2.A.2A.A4.3B$.A.A.2AB.3A9B14.2A.A.2A11.B2AB$.A
.A.2A2B2A10B33.2A$2A.A2.5BA9B$A2.4A3BA8B.B2A$.2A2.BAB.BA8B.BA.A$3.
2A6.7B5.A$3.A7.2B.3BA5.2A$5.A9.3BA$4.2A10.3AB!
