#CSYNTH gun_1183 costs 8004 cells.
#C period 1183 fullperiod 1183 bbox 87 by 92
#CLL state-numbering golly
x = 87, y = 92, rule = LifeHistory
45.2A11.A$44.B2AB9.A.A$45.3B9.A.A2.2A3.A$44.B.B9.2A.2A2.A2.A.A$44.
5B8.B2.A.A3.A.A$44.6B6.2ABA2.4A.A$44.8B4.2A.A.A3.A$45.13B2.A.AB2.A
15.2A$43.13B5.A.A2B.A14.A$42.15B5.A2B.2A11.BA.A$42.15B4.3B12.2A.B
2A$41.17B.B.2B12.B2A2B$41.29B6.4B$40.13B2A10BA5B3.6B$39.14B2A11B2A
3B2.6B$38.2AB3.17BABABA5B.7B$37.A2.A4.16BABA16B$36.A.2A5.6B3.B2.2B
2.20B$36.A7.6B14.17B$35.2A6.9B14.15B$42.4B4.2A15.15B$41.4B5.A15.
16B3.2A$40.4B7.3A12.16B3.A$39.4B10.A10.2AB.15BA.A$38.4B21.A.AB2.
12B2.2A$18.A18.4B22.A4.13B$17.A.A3.2A11.4B22.2A3.15B$16.A2.A3.A11.
4B27.17B$16.A.A.2A.A10.4B27.4B3.11B$15.2A.A.A.A10.4B27.4B4.11B$13.
A2.A.2A2B10.4B27.4B7.7B.B2A$13.2A2.4B10.4B27.4B9.6B.BA.A$17.7B6.4B
27.4B11.4B5.A$18.8B3.4B27.4B10.5B6.2A$19.8B.A3B3.2A22.4B11.2A$19.
9B2AB4.A22.4B13.A$16.2B.8BABA2.BA.A21.4B11.3A$15.2A14B.B2A10.A10.
4B12.A$15.2A16B12.3A7.4B$16.2B.14B15.A5.4B$19.13B15.2A4.4B$16.2B.
14B14.9B6.2A4.4B$15.2A18B14.6B7.A3.A4BA$15.2AB.19B2.2B2.B3.6B5.2A.
A2.2BA2BABA$16.B2.35B4.A2.A3.ABAB2A.3A$19.8B.21B2A4B3.B2A4.B2AB.AB
3.A$19.7B2.21BABA8B5.B4A.B4A$19.7B2.23BA7B7.A2BA.A2BA$19.7B3.20BAB
A6B7.4AB.4AB$16.AB.6B11.2B.B.8B2A7B7.A3.BA.B2AB$9.A5.A.A7B10.3B4.
15B4.A4.3A.2ABABA$9.3A4.A8B6.2A.2BA5.15B4.3A4.ABA2BA2B$12.A4.B.6B
6.A.2BA.A5.13B8.A4.A4BA$11.2A7.5B7.A2.BA.A2.13B9.2A4.4B$11.5B3.6B
8.A3.A.A.2A4.8B8.6B$13.3B2.5B.B2A4.A.4A2.AB2A6.6B10.5B$3.2A7.9B3.B
A.A3.2A3.A.A2.B8.5B9.7B$3.A8.8B7.A6.A.A.2A.2A9.B.B9.8B$2A.A.B3.7BA
2B8.2A2.3A.A3.A.A9.3B10.9B$A2.3AB.2B2A2B2A3B12.A2.A4.A.A9.B2AB8.
11B$.2A2.BA3B2A3B2A2B13.2A6.A11.2A10.6B.4B$3.4A12B45.5B3.4B$3.A.2B
3.7B.B2A27.A12.8B4.4B$4.3AB2.7B.BA.A26.3A8.10B5.4B$7.A4.4B5.A29.A
6.12B5.4B$2.5A5.4B5.2A15.2A10.2A6.13B5.4B$2.A10.4B22.A10.5B3.12B7.
4B$4.A9.4B21.A.AB9.4B2.13B7.4B$3.2A10.4B10.A10.2AB.3B4.20B8.4B$16.
4B7.3A12.7B.23B7.4B$17.4B5.A15.28BA4B6.4B$18.4B4.2A15.26BABA4B6.4B
$11.2A6.9B14.27BABA4B7.3BA$12.A7.6B14.30BA4B9.ABA$12.A.2A5.6B3.B2.
2B2.5B2A12B.B3.B.2B3.5B12.2A$13.A2.A4.18BAB4A9B6.3B7.B15.B$14.2AB
3.18B2ABA3B2A.6B6.B2AB5.3B$15.14B2A8BA2B2AB2A2.B.5B5.2A6.B2AB$16.
13B2A9B6AB7.2A14.2A$17.24BA4B8.A$17.17B.B.2B16.3A$18.15B4.3B17.A$
18.15B5.A2B.2A$19.13B5.A.A2B.A$21.13B2.A.AB2.A$20.8B4.2A.A.A3.A$
20.6B6.2ABA2.4A.A$20.5B8.B2.A.A3.A.A$20.B.B9.2A.2A2.A2.A.A$21.3B9.
A.A2.2A3.A$20.B2AB9.A.A$21.2A11.A!
