#CSYNTH gun_8647 costs 15892 cells.
#C period 8647 fullperiod 8647 bbox 137 by 116
#CLL state-numbering golly
x = 137, y = 116, rule = LifeHistory
37.2A2.A$36.A.4A$36.A$34.2A.7A$32.A2.A.A3.B2.A$32.2A2.BA.2A2.2A$
36.2AB2AB6.2A$36.5B8.A$37.3B7.A$36.5B6.5A$36.BA4B9.A$34.2BABA3B3.
4AB$34.2BABA4B2.A2.AB$35.2BA4B4.4B$34.15B3.2A$33.14B2A.A2.A$32.11B
A3B2A.2A$31.11BABAB.B$30.4B2.7BAB$14.2A13.4B5.7B$14.A13.4B4.9B$9.
2A5.A10.4B5.2A4.4B$9.A5.2A9.4B7.A5.4B$6.2A.A.3B11.4B5.3A7.4B$6.A2.
A.2A2B2A7.4B6.A10.4B$8.2A.A.2B2AB5.4B19.4B$11.A.4B5.4B21.4B$11.2A.
4B3.4B23.4B$4.2A8.3BA6B25.4B$3.A.A8.2BABA4B27.4B$3.A8.B.3BA4B29.4B
$2A.AB.B3.11B31.2B2A$.A.A.2AB.12B32.BABA$.A.A.2A14B33.A3B$2A.A2.5B
2A8B34.4B$A2.4A3BA2BA5B.B2A33.4B25.A11.2A$.2A2.BAB.2B2A6B.BA.A33.
4B23.A.A9.B2AB$3.2A6.7B5.A17.2A15.4B10.A3.A3.2A2.A.A9.3B$3.A7.2B.
4B5.2A16.A.A15.4B7.3A2.A.A2.A2.2A.2A9.B.B$5.A9.4B24.A4.2A10.4B5.A
5.A.A3.A.A2.B8.5B$4.2A10.4B19.4A.2A2.A2.A9.7B.2A5.A.4A2.AB2A6.6B$
17.4B18.A2.A.A.A.A.2A10.9B7.A3.A.A.2A4.8B$18.4B19.BABABA.A14.6B8.A
2.BA.A2.13B$19.4B19.B2ABA.A15.5B7.A.2BA.A5.13B$20.4B19.2B.BA15.7B
6.2A.2BA5.15B$21.4B17.3B19.6B10.3B4.15B$22.4B7.2A6.4B19.7B10.2B.B.
17B$23.4B7.A6.B2A3B17.6B4.29B$24.4B6.A.AB3.B2A3B17.7B2.16B2A13B$
25.4B6.2AB.10B15.7B2.16B2A14B$26.4B7.13B13.9B.27B3.B2A$27.4B6.14B
12.36B4.A2.A$28.4B5.15B6.B4.20B2.2B2.B2.7B5.2A.A$29.4B6.8B2.4B4.2A
B.19B13.7B7.A$30.4B5.6B5.4B3.2A19B15.8B6.2A$31.4B3.9B4.4B3.B.17B
17.2B2.4B$32.4B.4B4.2A5.4B5.17B15.2A4.4B$33.7B5.A3.A3.4B4.17B15.A
6.4B$34.5B7.4A4.4B3.15B.B2A14.A6.4B$34.5B16.4B2.12B4.BA.A12.2A7.4B
$33.7B4.4A8.15B9.A22.4B$32.4B.4B3.A2.3A7.15B8.2A22.4B$31.4B3.4B8.A
7.14B33.4B$30.4B5.4B6.A.A7.12B35.4B$29.4B7.4B5.A.AB7.10B37.4B$28.
4B9.4B5.A3B7.9B38.4B$27.4B11.4B6.4B5.9B39.4B$26.4B13.4B5.6B5.6B41.
4B$25.4B15.4B4.7B.2B2.5B42.4B$24.4B17.4B2.8B.9B43.4B$13.A9.4B19.
24B43.4B$13.3A6.4B21.24B43.4B$16.A4.4B22.19B2.4B43.4B$15.2A3.4B8.
2A8.2A2.19B4.4B43.4B$15.8B8.A.A8.A2.A17B7.4B43.4B$11.2A4.5B5.2A2.A
12.2A.15B9.4B43.4B10.2A$10.A.BAB.5B6.A.A.2A16.12B11.4B43.4B9.A$10.
A.2AB2.5B6.2A.A2.A15.10B13.4B43.4B10.A$9.2A.B.B3.5B3.3B.B2.2A15.2B
2A6B14.4B36.2A5.4B5.5A$8.A3.2A2B2.5B3.4B19.3B2A6B15.4B36.A5.4B4.A$
9.3A2.AB.13B.B18.10B16.4B35.A.AB.7B2.B3A$12.2ABA13B.B2A17.8B.B2A.A
13.4B35.2AB.7B3.2B.A$11.A2.A5BA10B2A16.7B3.B2AB3A12.4B36.12B4A$11.
2A2.4BABA7B.2B17.6B6.B4.A12.4B35.7B2A3BAB2.2A$15.4BABA7B21.6B4.2A.
3A14.4B34.7B2A2B.B3A2.A$16.4BA7B22.5B4.A2.2A17.4B33.10B3.B.A.2A$
18.9B3.2A17.8B.A.A21.4B31.8B8.A$15.B.10B.B2.A8.A8.8BA.A.2A.A18.4B
29.9B7.2A$14.2A12B3A9.3A6.6B.2BAB.A.2A19.4B27.4B2.3B$14.2AB.8B.BA
14.A4.7B2.2B2.A23.4B25.4B3.5B$15.B3.6B4.2A11.2A4.7B3.B.2A24.4B23.
4B7.2A$20.2B2A6.A11.4B.8B2.A.A2.2A23.4B21.4B8.A$21.BABA4.A14.11B2.
2A2.A2.A23.4B19.4B10.3A$22.A3B3.2A12.12B7.2A25.4B10.A6.4B13.A$23.
4B16.12B35.4B7.3A5.4B$24.4B15.11B37.4B5.A7.4B$25.4B13.9B12.2A27.4B
4.2A5.4B$26.4B9.2B.10B11.A29.9B4.4B$27.4B7.16B.B4.BA.A30.6B5.4B$
28.4B3.23B2.B2A31.8B2.4B$29.32B31.15B$30.32B30.14B$31.31B30.13B$
32.30B28.2AB.10B$34.28B27.A.AB3.B2A3B$35.17B5.B.4B26.A6.B2A3B$35.
14B11.4B24.2A6.4B$35.14B12.4B32.3B$39.3B4.2B14.4B32.2B.BA$40.B6.2B
14.4B30.B2ABA.A$46.B2AB14.4B28.BABABA.A$47.2A16.4B25.A2.A.A.A.A.2A
$66.4B24.4A.2A2.A2.A$67.3BA27.A4.2A$68.3BA24.A.A$69.3AB23.2A!
