#CSYNTH gun_385 costs 3348 cells.
#C period 385 fullperiod 385 bbox 62 by 54
#CLL state-numbering golly
x = 62, y = 54, rule = LifeHistory
34.A$11.A20.3A$10.A.A18.A$10.BABA17.2A$11.B4AB2.BA7.5B$11.3B3AB2AB
A4.BA3B$12.B2A2BA.A6BABA3B$13.BA.A2B2AB.2BA2BA4B$14.A.A.B.AB.3B2A
4B$12.A.A.A.2A5.6B$12.2A.A.A7.5B$15.A.A6.7B$9.A5.2A6.4B.4B$9.3A10.
4B3.4B$12.A8.4B5.4B$11.2A7.4B7.4B$11.5B3.4B9.4B$13.3B2.4B11.4B$3.
2A7.9B13.4B18.A$3.A8.8B15.4B11.2A3.A.A$2A.A.B3.10B17.4B11.A3.A2.A$
A2.3AB.2B2A7B18.4B10.A.2A.A.A$.2A2.BA3B2A7B19.4B10.A.A.A.2A$3.4A
12B20.4B10.2B2A.A2.A$3.A.2B3.7B.B2A19.4B10.4B2.2A$4.3AB2.7B.BA.A
19.4B6.7B$7.A4.4B5.A20.4B3.8B$2.5A5.4B5.2A15.2A3.2B2A.8B$2.A10.4B
22.A4.BABA8B$4.A9.4B7.2A12.A.AB2.A10B.2B$3.2A10.4B6.A14.2AB.14B2A$
16.4B6.A15.16B2A$17.4B4.2A15.14B.2B$18.4B2.2B17.13B$11.2A6.8B15.
14B.2B$12.A7.7B13.18B2A$12.A.2A5.7B2.B2.2B2.19B.B2A$13.A2.A4.35B2.
B$14.2AB3.27B.8B$15.14B2A16B2.7B$16.13B2A16B2.7B$17.29B3.7B$17.17B
.4B11.6B.BA$18.15B3.2B12.7BA.A$18.15B3.3B11.8BA$19.13B5.A2B.2A7.6B
.B$21.13B2.A.A2B.A7.5B$20.8B4.2A.A.AB2.A8.6B$20.6B6.2ABA4.A7.2AB.
5B$20.5B8.B2.5A.A4.A.AB3.4B$20.B.B5.2A.A.2A.A4.A.A3.A7.4B$21.3B4.A
.2A.A2.A.2A2.A3.2A8.3BA$20.B2AB11.2A.A.2A15.3BA$21.2A35.3AB!
