#CSYNTH gun_393 costs 3339 cells.
#C period 393 fullperiod 393 bbox 63 by 53
#CLL state-numbering golly
x = 63, y = 53, rule = LifeHistory
22.B9.2A5.2A$21.B2A7.A.2BAB.A2.A$18.BAB2AB7.2A.BA2BA.2A$17.6A5.5B
2.A2.A.A$17.A3.B4.BA3B4.B3A.AB$16.3AB3A3BABA3B4.2A.3BA$15.BA.2BAB.
2BA2BA4B6.A3B$16.2A.B2.4B2A4B8.A.3A$14.B2AB7.6B10.4AB$10.2A2.2A9.
5B12.B.A$11.A3.A8.7B$9.A2.3A8.4B.4B$9.3A10.4B3.4B$12.A8.4B5.4B$11.
2A7.4B7.4B$11.5B3.4B9.4B$13.3B2.4B11.4B$3.2A7.9B13.4B$3.A8.8B15.4B
18.A$2A.A.B3.10B17.4B11.2A3.A.A$A2.3AB.2B2A7B18.4B11.A3.A2.A$.2A2.
BA3B2A7B19.4B10.A.2A.A.A$3.4A12B20.4B10.A.A.A.2A$3.A.2B3.7B.B2A19.
4B10.2B2A.A2.A$4.3AB2.7B.BA.A19.4B10.4B2.2A$7.A4.4B5.A20.4B6.7B$2.
5A5.4B5.2A20.4B3.8B$2.A10.4B22.2A3.4B.8B$4.A9.4B22.A4.2B2A8B$3.2A
10.4B6.2A13.A.AB2.BABA7B.2B$16.4B5.A15.2AB.2BA11B2A$17.4B6.A15.16B
2A$18.4B4.2A15.14B.2B$19.4B2.2B17.13B$12.2A6.8B15.14B.2B$13.A7.7B
13.18B2A$13.A.2A5.7B2.B2.2B2.19B.B2A$14.A2.A4.35B2.B$15.2AB3.27B.
8B$16.14B2A16B2.7B$17.13B2A16B2.7B$18.29B3.7B$18.17B.4B11.6B.BA$8.
B.B8.15B3.2B12.7BA.A$7.3ABA7.15B3.3B11.8BA$8.2BA.A7.13B5.A2B.2A7.
6B.B$10.B2AB8.13B2.A.A2B.A7.5B$10.3AB.2B5.7B4.2A.A.AB2.A8.6B$11.BA
.4A4.5B6.2ABA4.A7.2AB.5B$12.A.A2.B2.6B8.B2.5A.A4.A.AB3.4B$11.2A.AB
A2B.2A7.2A.A.2A.A4.A.A3.A7.3BA$11.A2.A.ABAB.A7.A.2A.A2.A.2A2.A3.2A
8.3BA$12.2A5.2A15.2A.A.2A15.3AB!
