#CSYNTH gun_9900 costs 3498 cells.
#C period 9900 fullperiod 9900 bbox 66 by 53
#CLL state-numbering golly
x = 66, y = 53, rule = LifeHistory
49.2A$50.A$48.A4.A$47.A.5A$44.A2.A.A4.2A$38.A4.A.A.A.B4A2.A$38.3A
3.A2.A.2BA2.3A2.A$14.B.B24.A5.2ABA2BA3.3A$12.3B2AB22.2A6.B.BA.A2.A
$2A10.2BA2BA22.4B7.BA3.2A$.A5.2B2.4B2A2B23.3B8.5B$.A.AB.13B9.2A11.
5B6.4B5.2B.2A$2.2AB.16B6.A3.2A7.5B6.5B3.3A2.A$4.4BA12BAB7.A2.A6.7B
5.6B2.3B2A$3.4BABA10BABAB5.3A2.2A4.7B5.2BA4BA4B$4.4BA11BABAB3.2B3.
2A2.A3.2ABAB2A4.2B3AB2.A4B$2.2AB.15BA2B3.2B3A2.A.A3.7B3.2BA2B2A3.
3B2A$.A.AB.23BA.B2A.A4.A5BA3.B5A4.3A2.A$.A5.2B2.19B2A3.A.A2.7B3.BA
2B2A5.2B.2A$2A10.21B2A.2A3.2AB2A4.BA2BAB$12.19B.B.A6.2BA2B5.BABAB$
12.16B5.A2.2A4.4B5.4B$8.2A.4B3.10B6.2A.A4.4B5.4B$8.A.3B2AB3.8B16.
4B3.5B$9.A2.B2A4.9B14.4B3.5B7.B$10.A8.10B12.B2A2B.8B5.BAB$8.A.5A5.
10B6.A5.2A2.5B.4B4.3A$7.A.A4.A5.3BA7B5.3A7.4B3.3A3.5B$7.A.A2.A7.2B
ABA7B7.A5.4B3.AB2AB2.5B$8.A3.2A6.2BABA8B5.2A4.4B4.A3BA.2B3A2B$20.
3BA10B4.9B6.A2BA.7B$18.2AB.13B5.6B7.3B.3BABA3B$17.A.AB2.13B2.8B7.
3B.3BABA3B$17.A7.7B.15B5.A2BA.7B$16.2A7.6B3.14B4.A3BA.2B3A2B$11.B
2A12.4B5.13B4.AB2AB2.5B$11.3AB10.4B7.10B.B2A3.3A3.5B$10.A.2AB9.4B
9.7B3.BA.A2.3B4.3A$9.A.A.2B8.4B9.9B5.A3.B5.BAB$9.A2.A2.2B5.4B10.4B
2A2B6.2A9.B$10.2A3.3B3.4B13.2B2A2B$15.B2A.5B14.5B$2.2A.2A7.BA2BA4B
16.3B$2.2A.A8.2B2A4B16.5B$5.A.B3.2A8B17.2AB2AB$5.2A2B.3BA7B13.2A2.
BA.2A2.2A$3.2A2.A2BAB2A7B13.A2.A.A3.B2.A$2.A2.AB2A12B15.2A.7A$2.2A
.A.AB3.7B.B2A15.A$3.A2.3AB2.7B.BA.A14.A.4A$3.A5.A4.2BAB5.A15.2A2.A
$4.5A5.3BA5.2A$6.A8.3AB!
