#CSYNTH gun_1263 costs 4840 cells.
#C period 1263 fullperiod 1263 bbox 88 by 55
#CLL state-numbering golly
x = 88, y = 55, rule = LifeHistory
46.A$46.3A$37.A11.A$37.3A8.2A5.4B$40.A7.11B$23.2A14.2A3.B5.11B$22.
B2AB13.8B2.11B2A$23.2B16.19B2A$18.B3.2B17.20B$17.2AB.4B15.20B$17.
2A8B11.21B$18.B.B2A6B2.2B2.25B$21.2A30B4.4B$21.24B.6B6.4B$17.28B2.
B.5B5.4B$17.28B7.2A6.4B$16.2A26B8.A8.4B13.A$16.2A14B.4B16.3A6.4B
10.3A$17.B.11B2.4B19.A7.4B8.A$19.10B2.4B29.4B7.2A$20.14B31.4B3.5B$
19.14B33.4B2.3B$20.13B34.9B7.2A$20.13B9.A25.8B8.A$22.2B.8B7.3A26.
10B3.B.A.2A$11.A13.8B6.A29.7B2A2B.B3A2.A$11.3A10.9B6.2A28.7B2A3BAB
2.2A$14.A8.10B3.5B28.12B4A$13.2A7.4B.12B12.2A10.2A2.2AB.7B3.2B.A$
13.5B3.4B2.13B11.A11.A2.A.AB.7B2.B3A$4.2A9.3B2.4B4.12B8.BA.A13.2A
5.4B4.A$3.A.A8.9B5.12B4.3B.B2A15.A5.4B5.5A$3.A8.B.8B5.22B15.A6.4B
10.A$2A.AB.B3.11B6.22B15.2A4.4B9.A$.A.A.2AB.12B7.20B17.2B2.4B10.2A
$.A.A.2A14B7.21B15.8B6.2A$2A.A2.5B2A8B7.23B13.7B7.A$A2.4A3BA2BA5B.
B2A3.2AB.24B2.2B2.B2.7B5.2A.A$.2A2.BAB.2B2A6B.BA.A.A.AB.5B2.33B4.A
2.A$3.2A6.7B5.A.A6.2B2.7B.17B3A7B3.B2A$3.A7.2B.4B5.A.A6.B4.B.3B2.
16BA4BA10B$5.A9.4B5.A6.2A3.2A2B4.16BA3BA10B$4.2A10.4B11.A4.A2.AB4.
16B4A9B$17.4B8.A.A5.3A12.2B.B.17B$18.4B7.2A20.3B4.15B$19.4B13.A.2A
7.2A.2BA5.15B$20.4B12.2A.A7.A.2BA.A5.13B$21.4B23.A2.BA.A2.13B$22.
4B23.A3.A.A.2A4.8B$23.4B20.A.4A2.AB2A6.6B$24.4B18.A.A3.A.A2.B8.5B$
25.4B17.A.A2.A2.2A.2A9.B.B$26.3BA17.A3.2A2.A.A9.3B$27.3BA24.A.A9.B
2AB$28.3AB24.A11.2A!
