#CSYNTH gun_3659 costs 12519 cells.
#C period 3659 fullperiod 3659 bbox 117 by 107
#CLL state-numbering golly
x = 117, y = 107, rule = LifeHistory
35.2A2.A$34.A.4A$34.A$32.2A.7A$30.A2.A.A3.B2.A$30.2A2.BA.2A2.2A$
34.2AB2AB6.2A$34.5B8.A$35.3B7.A$34.5B6.5A$34.BA4B9.A$32.2BABA3B3.
4AB$32.2BABA4B2.A2.AB$33.2BA4B4.4B$32.15B3.2A$31.14B2A.A2.A$30.15B
2A.2A$29.15B.B$28.4B2.9B$12.2A13.4B5.7B$12.A13.4B4.9B$7.2A5.A10.4B
5.2A4.4B$7.A5.2A9.4B7.A5.4B$4.2A.A.3B11.4B5.3A7.4B$4.A2.A.2A2B2A7.
4B6.A10.4B$6.2A.A.2B2AB5.4B19.4B$9.A.4B5.4B21.4B$9.2A.4B3.4B23.4B$
12.3BA6B25.4B$2A.2A7.2BABA4B27.4B$2A.A8.3BA4B29.4B$3.A.B3.10B31.4B
25.A11.2A$3.3AB.2B2A7B32.4B23.A.A9.B2AB$.2A2.BA3B2A7B16.2A15.4B10.
A3.A3.2A2.A.A9.3B$A2.4A12B16.A.A15.4B7.3A2.A.A2.A2.2A.2A9.B.B$2A.A
.2B3.7B.B2A16.A4.2A10.4B5.A5.A.A3.A.A2.B8.5B$.A2.3AB2.7B.BA.A11.4A
.2A2.A2.A9.7B.2A5.A.4A2.AB2A6.6B$.A5.A4.4B5.A11.A2.A.A.A.A.2A10.9B
7.A3.A.A.2A4.8B$2.5A5.4B5.2A12.BABABA.A14.6B8.A2.BA.A2.13B$4.A8.4B
19.B2ABA.A15.5B7.A.2BA.A5.13B$14.4B19.2B.BA15.7B6.2A.2BA5.15B$15.
4B17.3B19.6B10.3B4.15B$16.4B7.2A6.4B19.7B10.2B.B.17B$17.4B7.A6.B2A
3B17.6B4.29B$18.4B6.A.AB3.B2A3B17.7B2.16B2A13B$19.4B6.2AB.10B15.7B
2.16B2A14B$20.4B7.13B13.9B.27B3.B2A$21.4B6.14B12.36B4.A2.A$22.4B5.
15B6.B4.20B2.2B2.B3.6B5.2A.A$23.4B6.8B2.4B4.2AB.19B14.6B7.A$24.4B
5.6B5.4B3.2A19B14.9B6.2A$25.4B3.9B4.4B3.B.17B15.2A4.4B$26.4B.4B4.
2A5.4B5.17B15.A5.4B$27.7B5.A3.A3.4B4.17B12.3A7.4B$28.5B7.4A4.4B3.
15B.B2A10.A10.4B$28.5B16.4B2.12B4.BA.A21.4B$27.7B4.4A8.15B9.A22.4B
$26.4B.4B3.A2.3A7.15B8.2A22.4B10.2A$25.4B3.4B8.A7.14B33.4B9.A$24.
4B5.4B6.A.A7.12B35.4B10.A$23.4B7.4B5.A.AB7.10B30.2A5.4B5.5A$22.4B
9.4B5.A3B7.9B31.A5.4B4.A$21.4B11.4B6.4B5.9B31.A.AB.7B2.B3A$20.4B
13.4B5.6B5.6B33.2AB.7B3.2B.A$19.4B15.4B4.7B.2B2.5B35.12B4A$6.2A10.
4B17.4B2.8B.9B35.7B2A3BAB2.2A$7.A9.4B19.24B34.7B2A2B.B3A2.A$5.A10.
4B21.24B33.10B3.B.A.2A$5.5A5.4B5.2A15.19B2.4B31.8B8.A$10.A4.4B5.A
16.18B4.4B29.9B7.2A$7.3AB2.7B.BA.A16.16B7.4B27.4B2.3B$6.A.2B3.7B.B
2A15.2AB.13B9.4B25.4B3.5B$6.4A12B16.A.AB2.11B11.4B23.4B7.2A$4.2A2.
BA3B2A7B16.A5.10B3.2A8.4B21.4B8.A$3.A2.3AB.2B2A7B15.2A5.2B2A6B3.A
10.4B19.4B10.3A$3.2A.A.B3.10B21.3B2A6B4.A10.4B10.A6.4B13.A$6.A8.8B
21.10B3.2A11.4B7.3A5.4B$6.2A7.9B20.8B.B2A15.4B5.A7.4B$16.3B2.4B18.
7B3.B2AB2A13.4B4.2A5.4B$14.5B3.4B17.6B6.B.A15.9B4.4B$14.2A7.4B17.
6B4.2A3.A14.6B5.4B$15.A8.4B16.8B.A2.4A14.8B2.4B$12.3A10.4B14.9BA.A
.A15.15B$12.A13.4B4.A8.7B.2BAB.A.2A12.14B$27.4B3.3A6.6B3.2B2.A.A
13.13B$28.4B5.A4.7B4.B.2A2.A10.2AB.10B$29.4B3.2A4.7B3.A.A2.A.A9.A.
AB3.B2A3B$30.4B2.4B.8B3.2A2.A.A10.A6.B2A3B$31.2B2A3.11B8.A10.2A6.
4B$32.BABA.12B28.3B$33.A15B29.2B.BA$34.14B10.A18.B2ABA.A$35.10B11.
3A17.BABABA.A$34.12B9.A18.A2.A.A.A.A.2A$33.16B6.2A17.4A.2A2.A2.A$
26.A6.24B21.A4.2A$26.3A3.23B21.A.A$29.A2.24B20.2A$28.A.B.24B$28.2A
27B$26.2A2.A22B.4B$25.A2.3A3B3.2B3.B7.2B3.4B$26.A4.2B3.4B.3B5.BA2B
3.4B$27.4A5.B2AB.B2AB4.A.A5.4B$29.A7.2A3.2A6.A7.3BA$31.A27.3BA$30.
2A28.3AB!
