#CSYNTH gun_2741 costs 11865 cells.
#C period 2741 fullperiod 2741 bbox 113 by 105
#CLL state-numbering golly
x = 113, y = 105, rule = LifeHistory
35.2A2.A$34.A.4A$34.A$32.2A.7A$30.A2.A.A3.B2.A$30.2A2.BA.2A2.2A$
34.2AB2AB$34.5B$35.3B$34.5B$34.2B2A2B$32.4B2A2B6.2A$32.9B5.A$33.7B
3.BA.A$32.10B.B2A$31.13B$30.14B$29.15B$28.4B2.8B$12.2A13.4B5.6B$
12.A13.4B4.9B$7.2A5.A10.4B5.2A4.4B$7.A5.2A9.4B7.A5.4B$4.2A.A.3B11.
4B5.3A7.4B$4.A2.A.2A2B2A7.4B6.A10.4B$6.2A.A.2B2AB5.4B19.4B$9.A.4B
5.4B21.4B$9.2A.4B3.4B23.4B$12.3BA6B25.4B$2A.2A7.2BABA4B27.4B25.A
11.2A$2A.A8.3BA4B29.4B23.A.A9.B2AB$3.A.B3.10B14.2A15.4B10.A3.A3.2A
2.A.A9.3B$3.3AB.2B2A7B14.A.A15.4B7.3A2.A.A2.A2.2A.2A9.B.B$.2A2.BA
3B2A7B16.A4.2A10.4B5.A5.A.A3.A.A2.B8.5B$A2.4A12B12.4A.2A2.A2.A9.7B
.2A5.A.4A2.AB2A6.6B$2A.A.2B3.7B.B2A10.A2.A.A.A.A.2A10.9B7.A3.A.A.
2A4.8B$.A2.3AB2.7B.BA.A11.BABABA.A14.6B8.A2.BA.A2.13B$.A5.A4.4B5.A
12.B2ABA.A15.5B7.A.2BA.A5.13B$2.5A5.4B5.2A12.2B.BA15.7B6.2A.2BA5.
15B$4.A8.4B17.3B19.6B10.3B4.15B$14.4B7.2A6.4B19.7B10.2B.B.17B$15.
4B7.A6.B2A3B17.6B4.29B$16.4B6.A.AB3.B2A3B17.7B2.16B2A13B$17.4B6.2A
B.10B15.7B2.16B2A14B$18.4B7.13B13.9B.27B3.B2A$19.4B6.14B12.36B4.A
2.A$20.4B5.15B6.B4.20B2.2B2.B3.6B5.2A.A$21.4B6.8B2.4B4.2AB.19B14.
6B7.A$22.4B5.6B5.4B3.2A19B14.9B6.2A$23.4B3.9B4.4B3.B.17B15.2A4.4B$
24.4B.4B4.2A5.4B5.17B15.A5.4B$25.7B5.A3.A3.4B4.17B12.3A7.4B$26.5B
7.4A4.4B3.15B.B2A10.A10.4B$26.5B16.4B2.12B4.BA.A21.4B10.2A$25.7B4.
4A8.15B9.A22.4B9.A$24.4B.4B3.A2.3A7.15B8.2A22.4B10.A$23.4B3.4B8.A
7.14B26.2A5.4B5.5A$22.4B5.4B6.A.A7.12B28.A5.4B4.A$21.4B7.4B5.A.AB
7.10B29.A.AB.7B2.B3A$20.4B9.4B5.A3B7.9B30.2AB.7B3.2B.A$19.4B11.4B
6.4B5.9B32.12B4A$18.4B13.4B5.6B5.6B33.7B2A3BAB2.2A$17.4B15.4B4.7B.
2B2.5B33.7B2A2B.B3A2.A$4.2A10.4B17.4B2.8B.9B33.10B3.B.A.2A$5.A9.4B
19.24B31.8B8.A$3.A10.4B21.24B29.9B7.2A$3.5A5.4B5.2A15.19B2.4B27.4B
2.3B$8.A4.4B5.A16.18B4.4B25.4B3.5B$5.3AB2.7B.BA.A16.16B7.4B23.4B7.
2A$4.A.2B3.7B.B2A15.2AB.13B9.4B21.4B8.A$4.4A12B16.A.AB2.11B11.4B
19.4B10.3A$2.2A2.BA3B2A7B16.A5.10B3.2A8.4B10.A6.4B13.A$.A2.3AB.2B
2A7B15.2A5.2B2A6B3.A10.4B7.3A5.4B$.2A.A.B3.10B21.3B2A6B4.A10.4B5.A
7.4B$4.A8.8B21.10B3.2A11.4B4.2A5.4B$4.2A7.9B20.8B.B2A15.9B4.4B$14.
3B2.4B18.7B3.B2AB2A13.6B5.4B$12.5B3.4B17.6B6.B.A14.8B2.4B$12.2A7.
4B17.6B4.2A3.A10.15B$13.A8.4B16.8B.A2.4A10.14B$10.3A10.4B14.9BA.A.
A13.13B$10.A13.4B4.A8.7B.2BAB.A.2A8.2AB.10B$25.4B3.3A6.6B3.2B2.A.A
8.A.AB3.B2A3B$26.4B5.A4.7B4.B.2A2.A7.A6.B2A3B$27.4B3.2A4.7B3.A.A2.
A.A6.2A6.4B$28.4B2.4B.8B3.2A2.A.A16.3B$29.2B2A3.11B8.A18.2B.BA$30.
BABA.12B26.B2ABA.A$31.A15B25.BABABA.A$32.14B10.A13.A2.A.A.A.A.2A$
33.10B11.3A13.4A.2A2.A2.A$32.12B9.A20.A4.2A$31.16B6.2A17.A.A$24.A
6.24B17.2A$24.3A3.23B$27.A2.24B$26.A.B.24B$26.2A27B$24.2A2.A22B.4B
$23.A2.3A3B3.2B3.B7.2B3.4B$24.A4.2B3.4B.3B5.BA2B3.4B$25.4A5.B2AB.B
2AB4.A.A5.4B$27.A7.2A3.2A6.A7.3BA$29.A27.3BA$28.2A28.3AB!
