#CSYNTH gun_1200 costs 1968 cells.
#C period 1200 fullperiod 1200 bbox 48 by 41
#CLL state-numbering golly
x = 48, y = 41, rule = LifeHistory
25.A2.2A$25.4A.A2.2A$2.2A26.A3.A$.A2.A2.2A14.7A.3A4.2B$.A.A2B2.A
13.A2.B3.A.A6.BAB$2A.A.B2.A.2A10.2A2.2A.AB5.2BABA$A2.2A2B2A2.A13.B
2AB2A5.BA3BA$.2A.2AB2.2A15.5B6.BA2B.A$2.A2BAB2A18.3B9.A.2BAB$A3.AB
A.A3.2A5.2A5.5B9.A3BAB$4A3B.A.A2.A4.A2.A3.4BAB10.ABA2B$3.5BA.2A4.B
A.A.A3.3BABA2B8.BAB$2A2B.A2.A.A5.3A.A3.4BABA2B9.2B$A2.B.A3B2.A4.3A
B5.4BA2B5.AB3.B.2AB$.6A.3A6.3B3.10B3.A.A3B5A$5.4B11.14B3.A4B2ABABA
$3.2A3B.2A9.15B3.B.BA2BAB2A$2.A.B.ABA2.A9.15B3.BA2B2A.B$2.BA.2BAB.
A.A10.8B2.4B3.B4A$3.3AB2A.A2.A8.7B5.5B.2BA$2.5B.BA2.2A8.9B4.5B$2.A
3B15.4B4.2A5.4B$.BA.2A14.4B5.A7.4B$.3AB14.4B7.3A5.4B$4B14.4B10.A6.
4B$.2B7.4B3.4B19.4B$2.AB5.B2A4BA3B21.4B$.A.A.3B4A4B2A3B.2A4.2A12.
4B$.2A.4BA6BABA3BA2BA2BA2BAB10.5B$4.3BA3BA6B.2B2AB4AB2A2B10.4BA$4.
3BA3BA3B5.2BAB4ABA2B8.2AB2.ABA$2.2AB.4BA11.B2A2.2AB5.B2.2B3A3.2A$.
A.AB2.BA16.2B7.2A2BA2BABA3.B$.A6.B14.6B5.2A2B2A2B2A$2A6.2B11.10B4.
3B2A2.B$6.B4AB7.BA2BAB2ABA2BAB2.3B$5.B6AB5.2B4AB2AB4A2B$5.BA4BAB6.
BA2BAB2ABA2BAB$7.A2BA10.10B$5.A.A2.A.A10.6B$5.2A4.2A12.2B!
