#CSYNTH gun_1889 costs 10414 cells.
#C period 1889 fullperiod 1889 bbox 127 by 82
#CLL state-numbering golly
x = 127, y = 82, rule = LifeHistory
57.2A11.A$56.B2AB9.A.A$57.3B9.A.A2.2A3.A$56.B.B9.2A.2A2.A2.A.A21.
2A$56.5B8.B2.A.A3.A.A20.B2A2B$56.6B6.2ABA2.4A.A22.4B$56.8B4.2A.A.A
3.A13.A11.4B3.3B$57.13B2.A.AB2.A12.3A8.4B4.5B$55.13B5.A.A2B.A3.A
10.A6.14B$54.15B5.A2B.2A3.3A7.2AB5.14B$54.15B4.3B10.A6.5B3.16B$53.
17B.B.2B10.2A8.5B.16B$53.29B3.4B2A4.22B$52.13B2A16B4.2B2A4.23B$51.
14B2A16B2.7B2.24B4.3B$50.2AB3.27B.7B3.24B.7B$49.A2.A4.35B2.23B.B2A
5B$48.A.2A5.7B2.B2.2B2.19B.25BA2BA5B$48.A7.7B13.43B2A6B$47.2A6.8B
15.48B$54.4B2.2B17.36B.6B.2B$53.4B4.2A15.35B2.8B.B$52.4B6.A15.7B.
26B4.6B.B2A$51.4B5.A15.2AB.3B4.25B8.B3.A.A$50.4B6.2A13.A.AB9.25B
12.2A$49.4B22.A10.5B2.19B4.B$48.4B22.2A10.2A6.20B.B2A$47.4B32.A3.A
6.22B2A$46.4B33.4A6.24B$45.4B43.25B$44.4B35.2A6.24B$43.4B35.B2AB4.
22B.B$42.4B37.3B3.10B.12B$41.4B37.B.B3.8B5.11B$40.4B37.14B9.7B$39.
4B36.15B9.8B5.2A$38.4B36.15B9.8B6.A$37.4B35.16B11.8B2.BA.A$36.4B
35.16B11.10B.B2A$35.4B35.16B12.12B$34.4B34.17B2.B10.12B$33.4B34.
23B6.2AB2.9B$32.4B34.6B2A17B4.A.AB2.8B$31.4B33.8B2A16B5.A4.8B2.2B$
30.4B6.A18.2A7.27B3.2A4.8B.4B$29.5B4.3A19.A6.28B8.14B$28.8B.A22.A.
AB.28B10.11B2AB$27.9BA.A22.2AB.28B10.11B2A2B$26.8B.2BAB24.24B2.B.B
12.14B$25.8B3.2B25.23B2.3B15.11B$9.2A13.8B3.2B26.23B2.B2AB13.13B$
7.2B2AB11.8B3.B2AB26.21B4.2A13.14B$7.4B11.8B5.2A28.16B.B.B2A17.14B
$7.5B9.8B19.A17.16B2.BA.A9.A7.13B$7.7B6.8B.3B.B12.3A17.11B2.2B6.A
9.3A3.14B$8.6B3.18B10.A20.10B11.2A11.A2.9B$8.24B2A2B5.B3.2A11.A8.
9B23.A2.10B$7.25B2A2B3.8B11.3A7.ABA4B19.2A3.2A11B$7.29B.8B16.A5.B
2AB.B21.A2.2A2.11B$7.38B15.2A4.3BA25.2A2.2A10B$6.20B2.2B.15B14.9B
6.2A20.A.A.B.8B$5.18B8.17B14.6B7.A21.A2.A3.6B$4.17B11.19B2.2B2.B3.
6B5.2A.A22.2A5.4B$4.16B12.35B4.A2.A19.2A8.4B$4.16B13.7B.27B3.B2A
19.B2AB6.4B$2.2AB.7B.8B10.25B2A14B20.4B5.4B$.A.AB3.4B4.B3.2A9.26B
2A13B22.2B5.4B$.A4.5B9.A11.8B2.29B15.A7.4B2.4B$2A4.2A13.3A8.6B11.
2B.B.17B14.A.A5.5B.4B$7.A15.A9.5B10.3B4.15B16.A.14B$4.3A26.4B7.2A.
2BA5.15B17.14B$4.A29.3B7.A.2BA.A5.13B18.14B$32.4B9.A2.BA.A2.13B20.
15B$32.2A12.A3.A.A.2A4.8B18.3B2A12B$33.A10.A.4A2.AB2A6.6B18.3B2A
13B$30.3A10.A.A3.A.A2.B8.5B16.2AB.11B2.4B$30.A12.A.A2.A2.2A.2A9.B.
B15.A.AB2.8B5.4B$44.A3.2A2.A.A9.3B16.A5.10B4.4B$52.A.A9.B2AB14.2A
5.B.B5.2A5.4B$53.A11.2A23.3B4.A7.3BA$89.B2AB5.3A5.3BA$90.2A8.A6.3A
B!
