#CSYNTH gun_1969 costs 5544 cells.
#C period 1969 fullperiod 1969 bbox 77 by 72
#CLL state-numbering golly
x = 77, y = 72, rule = LifeHistory
60.B.B$59.B2A3B$59.A2BA2B10.2A$58.2B2A4B2.2B5.A$47.2A9.13B.BA.A$
43.2A3.A6.16B.B2A$43.A2.A7.BA12BA4B$45.3A5.BABA10BABA4B$41.4A3.2B
3.BABA11BA4B$40.A4.3A2B3.2BA15B.B2A$39.A2.3AB.A23B.BA.A$40.2A3.2A
19B2.2B5.A$42.2A21B10.2A$42.A.B.19B$43.A5.3B2A11B$40.3A6.4B2A4B3.
4B.2A$40.A9.2BA5B3.B2A3B.A$49.9B4.2AB2.A$9.2A11.A25.10B8.A$8.B2AB
9.A.A23.10B5.5A.A$9.3B9.A.A2.2A3.A3.A10.7BA3B5.A4.A.A$8.B.B9.2A.2A
2.A2.A.A2.3A7.7BABA2B7.A2.A.A$8.5B8.B2.A.A3.A.A5.A5.8BABA2B6.2A3.A
$8.6B6.2ABA2.4A.A5.2A.13BA3B$8.8B4.2A.A.A3.A7.18B.B2A$9.13B2.A.AB
2.A8.15B2.BA.A$7.13B5.A.A2B.A7.5B.7B7.A$6.15B5.A2B.2A6.7B.6B7.2A$
6.5B3A7B4.3B10.6B3.4B$5.5BA2BA8B.B.2B10.7B4.4B$5.4BA3BA20B4.6B5.4B
$4.5BA25B2.7B6.4B$3.6BA3BA21B2.7B7.4B$2.2AB3.2BA2BA21B.9B7.4B$.A2.
A4.2B3A31B8.4B$A.2A5.6B3.B2.2B2.20B4.B4.4B$A7.6B14.19B.B2A4.4B$.3A
3.9B14.19B2A5.4B$3.A3.4B3.2A15.17B.B7.4B$6.5B3.A15.17B11.4B$5.7B3.
3A12.17B12.4B$5.8B4.A10.2AB.15B13.4B$2.B.8B15.A.AB4.12B14.4B$.2A
10B14.A9.11B14.4B$.2AB.9B12.2A8.13B14.4B$2.B2.9B8.2A12.12B16.4B$5.
8B9.A14.10B18.4B$5.9B5.BA.A15.9B19.4B$4.10B.3B.B2A10.A5.9B20.4B$3.
17B12.3A3.9B21.4B$3.17B15.A3.5B25.4B$3.16B15.2A3.4B27.4B$.19B14.9B
6.2A20.4B$.21B14.6B7.A22.4B$2A23B2.2B2.B3.6B5.2A.A23.3BA$2AB.32B3A
2B4.A2.A25.ABA$.B3.9B.21BA2BA2B3.B2A27.2A$7.6B2.21BA3BA6B29.B$4.2B
.6B2.25BA5B$3.2A7B4.20BA3BA4B$3.2AB.6B10.4B.8BA2BA5B$4.B.6B12.2B3.
7B3A5B$6.6B11.3B3.15B$7.5B7.2A.2BA5.13B$8.4B7.A.2BA.A2.13B$9.5B6.A
2.BA.A.2A4.8B$12.2A7.A4.AB2A6.6B$12.A6.A.5A2.B8.5B$13.3A2.A.A4.A.
2A.A.2A5.B.B$15.A3.A2.2A.A2.A.2A.A4.3B$20.2A.A.2A11.B2AB$39.2A!
