#CSYNTH gun_207 costs 3410 cells.
#C period 207 fullperiod 207 bbox 62 by 55
#CLL state-numbering golly
x = 62, y = 55, rule = LifeHistory
19.B9.AB5.2A$18.3A7.A.2A2B.A2.A$15.BA4B7.2A.5A.2A$14.ABA2BA5.5B2.A
2.A.A$14.B3.B4.BA3B4.A2BA.BA$13.AB4A4BABA3B4.AB.A3B$12.AB.3AB.2BA
2BA4B6.2B2A$2.A2.A7.BA.B2.4B2A4B8.A.2BA$2.6A3.A2BA7.6B10.A3BA$8.A
2.AB9.5B12.A.A$.A.AB2A.A3.A8.7B$A.2A.B.A.3A8.4B.4B$A4.A.A.A9.4B3.
4B$.4AB.A10.4B5.4B$2.B.AB.ABA7.4B7.4B$.2A.AB2.2B6.4B9.4B$.3BA2.A2B
A4.4B11.4B$.AB5.A.A3.4B13.4B$AB7.A3.4B15.4B$A.AB2.B5.4B17.4B$.2AB.
3B3.4B19.4B18.A$3.6B.4B21.4B11.2A3.A.A$3.10B23.4B11.A3.A2.A$3.2B2A
5B25.4B10.A.2A.A.A$4.A2BA3B27.4B10.A.A.A.2A$4.BABA4B27.4B10.2B2A.A
2.A$5.BA6B27.4B10.4B2.2A$5.3B2.4B27.4B6.7B$5.3B3.4B27.4B3.8B$5.B.B
4.4B22.2A3.4B.8B$2A2.3A6.4B22.A4.2B2A8B$A2.5BA5.4B6.2A13.A.AB2.BAB
A7B.2B$.3A.3BAB5.2BAB5.A15.2AB.2BA11B2A$4.A2.B.A.2A3.2B2A6.A15.16B
2A$.3A2.B5A5.2A2B4.2A15.14B.2B$.A4.A.B4.A4.4B2.2B17.13B$6.A3B3A.A
4.8B15.14B.2B$5.B.B.A4.A5.7B13.18B2A$.2A.ABABA2.2A.2A5.7B2.B2.2B2.
19B.B2A$A.2B.A2.A.2A.A2.A4.35B2.B$.A2.2A.A.A4.2AB3.27B.8B$2.A3.2A.
A5.14B2A16B2.7B$3.2A4.A.A4.13B2A16B2.7B$5.2A.A.4A3.29B3.7B$5.A.2A
5.A2.17B.4B11.6B.BA$9.AB2A.A3.15B3.2B12.7BA.A$9.A.B.A4.15B3.3B11.
8BA$7.2A2.A7.13B5.A2B.2A7.6B.B$6.A2.4A8.13B2.A.A2B.A7.5B$7.2A3.A.
2B5.7B4.2A.A.AB2.A8.6B$10.2A.4A4.5B6.2ABA4.A7.2AB.5B$7.3A.A.A2.B2.
6B8.B2.5A.A4.A.AB3.4B$7.A2.B2.ABA2B.2A7.2A.A.2A.A4.A.A3.A7.3BA$8.A
BA2BA.ABAB.A7.A.2A.A2.A.2A2.A3.2A8.3BA$9.BABA5.2A15.2A.A.2A15.3AB!
