#CSYNTH gun_2664 costs 3185 cells.
#C period 2664 fullperiod 2664 bbox 49 by 65
#CLL state-numbering golly
x = 49, y = 65, rule = LifeHistory
30.2B$28.6B$28.7B$8.A18.9B$6.5A8.B8.9B$5.A5.A6.BAB7.10B$4.A.AB3A6.
BABA6.12B$4.A.A.B6.3BABAB4.9B.4B$2.2A.2A.A6.4BA2B2.4B2A3B4.4B$3.A.
A.2AB4.A12BA2BA2B5.4B$3.A.A2BA3B.ABA12B2A2B7.4B$2.2A.A2BA4BABA15B
9.4B$3.A.A.2AB3.BA18B8.4B$3.A.2A.A5.10B.B5.2A9.4B$4.A.A.B6.10B6.A
11.4B$2.A.A.AB3A7.8B6.3A9.4B$2.2A.A5.A4.6B.4B7.A10.3BA$5.A.4A5.2A
6.4B10.2A6.ABA$5.2A.A8.A7.4B9.A8.2A$14.3A9.4B10.A7.B$14.A5.2A5.4B
5.5A$21.A5.4B4.A$.4B4.A11.A.AB.7B2.B3A$.3BAB3.3A10.2AB.7B3.2B.A$4A
BA6.A11.12B4A$3A.A.AB3.2A11.7B2A3BAB2.2A$.B3.ABAB2.6B7.7B2A2B.B3A
2.A$6.A2B4.8B3.10B3.B.A.2A$5.2A2B2.16B2A2B8.A$4.B2A2B.4BA11BA2BAB
7.2A$5.2A3.4BA11B.2AB$9.4BABA8B3.3B3.2A$9.4B2A9B4.2B2.A2.A$10.3B2A
6B3.AB4.BA.A.A$12.7B4.B2A4.3A.A$12.8B4.2AB3.3AB$12.9B3.BA5.3B$13.
9B$13.10B$9.B2AB4.7B16.2A$8.B4A5.7B14.B2A2B$8.A2BABA5.7B14.4B$6.BA
.A.B2A6.7B14.A2B$5.BABA3.B8.7B8.B3.ABAB$5.2AB14.7B6.2AB.A.BA$5.3AB
14.7B5.2ABA2B$5.BABAB14.7B5.3B2A$7.2A16.7B4.4B$26.10B$27.9B$28.9B$
21.2A6.8B$22.A7.7B$22.A.AB2.11B$23.2AB.13B$25.15B$25.14B3.2A$25.
14B.A2BAB$26.7B2A3B2.4B$28.5B2AB4.3B$32.6B2.2ABA3.B$36.2A3.BA.A.B
2A$36.A6.A4BA$37.3A3.BA3B$39.A4.A2BA!
