#CSYNTH gun_1394 costs 6900 cells.
#C period 1394 fullperiod 1394 bbox 100 by 69
#CLL state-numbering golly
x = 100, y = 69, rule = LifeHistory
68.2A$45.2A21.A.A$44.A.A23.A4.2A$38.2A4.A21.4A.2A2.A2.A$36.A2.A2.
2A.4A17.A2.A.A.A.A.2A$36.2A.A.A.A.A2.A19.BABABA.A$39.A.ABABAB22.B
2ABA.A$39.A.AB2AB24.2B.BA$40.AB.2B24.3B$43.3B14.2A6.4B8.A$34.A8.4B
6.2A6.A6.B2A3B6.3A$32.3A6.3B2AB6.A7.A.AB3.B2A3B9.A$31.A9.3B2AB3.BA
.A8.2AB.10B6.A.A$30.A.A6.10B.B2A11.13B5.A.AB$29.BA.A5.13B13.14B5.A
3B$28.3BA5.14B13.15B6.4B$26.4B6.15B15.8B2.4B5.6B$24.6B5.4B2.8B17.
6B5.4B4.7B$23.7B4.4B5.6B16.9B4.4B2.8B.4B.B$16.B.4B.8B2.4B4.9B14.4B
4.2A5.17B.B2A$15.2AB.17B5.2A4.4B12.4B5.A7.18B2A$15.2A18B7.A5.4B10.
4B7.3A4.16B.2B$16.2B.16B4.3A7.4B8.4B10.A4.16B$19.16B4.A10.4B6.4B
16.15B$20.15B16.4B4.4B15.2AB.12B$21.12B.B2A15.4B2.4B15.A.AB2.11B$
21.11B2.BA.A15.8B16.A5.10B$22.10B5.A16.6B16.2A5.2B2A6B$22.6B2A2B5.
2A16.3AB23.3B2A6B$22.6B2A3B21.3BA2B23.10B$22.10B21.3BA4B22.8B.B2A.
A$18.A.2AB.8B20.4B2.4B20.7B3.B2AB3A$16.3AB2AB3.7B18.4B4.4B19.6B6.B
4.A$15.A4.B6.6B17.4B6.4B19.6B4.2A.3A$16.3A.2A4.6B17.4B8.4B18.5B4.A
2.2A$18.2A2.A4.5B16.4B10.4B16.8B.A.A$21.A.A.8B14.4B12.4B15.8BA.A.
2A.A$18.3A.A.A8B8.A4.4B14.4B5.2A7.6B.2BAB.A.2A$17.A2.A.BA2B.6B6.3A
3.4B16.4B5.A6.7B2.2B2.A$16.A.A.A2.2B2.7B4.A5.4B18.4B4.A.AB3.7B3.B.
2A$15.A.A2.2A.B3.7B4.2A3.4B20.4B4.2AB2.8B2.A.A2.2A$15.A.A.A2.A.A2.
8B.4B2.4B22.4B5.11B2.2A2.A2.A$16.2A.2A2.2A2.11B3.4B24.4B4.11B7.2A$
27.12B.4B26.4B3.11B$27.16B28.4B.11B$17.A10.14B30.4B.7B9.2A$17.3A
11.10B32.12B7.A.A$20.A9.12B32.13B5.A$19.2A6.16B32.14B.B2A$19.24B6.
A25.16B$12.2A7.23B3.3A23.B.14B.B2A$11.B2AB5.24B2.A25.2A16BA2.A$11.
4B5.24B.B.A24.2A17B2A2.A$12.2B5.27B2A25.11B5.2B.A.2A$4.A7.4B2.4B.
22BA2.2A23.4B2.6B5.B.A$3.A.A5.5B.4B3.2B7.B3.2B3.3B3A2.A28.6B6.2A$
4.A.14B3.2BAB5.3B.4B3.2B4.A30.2B2A.A$5.14B5.A.A4.B2AB.B2AB5.4A30.A
.A.A.3A$5.14B6.A6.2A3.2A7.A31.A.2A.A4.A$5.15B24.A33.A4.A3.2A$4.3B
2A12B23.2A31.2A4.2A$4.3B2A13B$2.2AB.11B2.4B$.A.AB2.8B5.4B$.A5.10B
4.4B$2A5.B.B5.2A5.4B$8.3B4.A7.3BA$7.B2AB5.3A5.3BA$8.2A8.A6.3AB!
