#CSYNTH gun_9130 costs 2838 cells.
#C period 9130 fullperiod 9130 bbox 66 by 43
#CLL state-numbering golly
x = 66, y = 43, rule = LifeHistory
55.2A$28.2A23.3A.A$27.A.A16.A5.A4.3A$27.A17.A.A4.A.2A4.A$25.B2A17.
A.A3.2A.A.4A$20.3B.2B18.2A.2A.2B2.B.B$19.7B4A13.A4.A3B3ABA.4A$19.
5B.BA2.A14.3A2B2A.B.2AB2A2.A$18.8B2.A17.A.B2ABA5B$18.8B3.3A17.BABA
.4B$12.B3.11B4.A23.B6.2A$10.17B27.B5.BAB.A$10.9B2A6B13.2A11.4B3.B
2A.A$7.B.9B2AB2A6B12.A5.11B2.B.B.2A$6.2A7B4AB3A2B2.2A.A10.A.AB.11B
2.2B2A2.A$6.2A5B2AB2A2B2A2B3.2AB3A9.2AB.7B2A3B.BA2.2A$7.9B2AB2A3B
4.B4.A10.6B2A2BA4BAB2A$7.4B.4B2ABA5B2.2A.3A11.6BAB2A6BA2.2A$10.7BA
BA4B4.A.A13.6BA2BA6B2.A2.A$9.5BA3BA4B5.A.A15.5B4A5B3.2A$10.5B3A5B
6.A16.5B4A4B$11.11B26.7BAB$11.11B26.3BA5B$3.A6.5B3A5B25.BA7B$2.A.A
5.4BA3BA5B23.2BABA4B$2.A.A4.4BABA7B2.7B.B13.9B$.2A.2A2.5BAB2A4B4.
13B.B6.2BA6B$.A2.B4.3B2AB2A28B.2BA4B$2.AB2A3.2B2A2B2AB2A32B$A.A.2A
2.2B3AB4A32B$2A2.6B2AB2A12B2A22B$6.6B2A13B2A16B3.4B$6.28B3.2B2.4B
4.4B$.A4.11B3.B2.10B8.4B5.4B$.3A3.8B9.6B11.2B2AB5.4B$4.A2.8B10.3B
12.A.A2BAB5.4B$3.A2.AB.5B11.B12.3A.A.2AB6.4B$3.4A7B10.2A11.A4.A2.
4B5.4B$7.2B.3B11.A13.3A.A4.2A6.4B$5.2AB17.A14.2A5.A8.4B$5.A18.2A
22.3A6.3BA$3.A.A44.A7.3BA$3.2A54.3AB!
