#CSYNTH gun_7095 costs 3528 cells.
#C period 7095 fullperiod 7095 bbox 84 by 42
#CLL state-numbering golly
x = 84, y = 42, rule = LifeHistory
73.2A$71.3A.A$64.A5.A4.3A$8.A54.A.A4.A.2A4.A$7.BAB53.A.A3.2A.A.4A$
7.BA53.2A.2A.BA2.A.A$5.ABA2B51.A4.A4B2ABA.4A$.2A.B2A.A53.5ABA.A.5A
2.A$A.6A56.A.5BA4B$A4.2B60.2A2B.4B$.4A20.A47.B6.2A$2.B.AB17.3A46.B
5.BAB.A$.2A.AB16.A35.2A11.4B3.B2A.A$.3BA17.2A35.A5.11B2.B.B.2A$.AB
17.4B35.A.AB.11B2.2B2A2.A$AB9.B3.B.5B38.2AB.7B2A3B.BA2.2A$A.AB3.
17B4.3B9.A21.10BA4BAB2A$.2AB.20B3.3B9.3A19.7BA8BA2.2A$3.23B2A4B11.
A18.7B2A7B2.A2.A$3.23B3ABABAB8.2A20.5BABA6B3.2A$3.23B2ABA4B8.4B18.
6B3A4B$4.23BA4BAB10.2B20.2B2A2BA2B$3.25BABA7B4.8B16.4BABA2B$4.6B2.
17BA9B2.11B3.2A9.5BA3B$5.3B6.17B.20B2.B2AB7.2B3AB2AB$16.6B2.9BA18B
3.3B7.6B2AB$17.4B4.7BABA17B4.B2.2B3.3B2A2BAB$29.BA4BA27B.4BABA$29.
4BAB2A32BA$29.BABAB3A31B$31.4B2A32B$32.3B3.25B3.4B$32.3B4.17B.B9.
4B$41.5B.5B16.4B$39.4B6.B19.4B$39.2A9.A19.4B$40.A8.BAB19.4B$37.3A
7.BA.2A20.4B$37.A9.2A2B.A20.4B$48.B2.A.A20.3BA$50.A2.A21.3BA$51.2A
23.3AB!
