#CSYNTH gun_8231 costs 13462 cells.
#C period 8231 fullperiod 8231 bbox 127 by 106
#CLL state-numbering golly
x = 127, y = 106, rule = LifeHistory
37.2A2.A$36.A.4A$36.A$34.2A.7A$32.A2.A.A3.B2.A$32.2A2.BA.2A2.2A$
36.2AB2AB6.2A$36.5B8.A$37.3B7.A$36.5B6.5A$36.BA4B9.A$34.2BABA3B3.
4AB$34.2BABA4B2.A2.AB$35.2BA4B4.4B$34.15B$33.14B2A.A.2A$32.11BA3B
2A.2A.A$31.11BABAB.B$30.4B2.7BAB$14.2A13.4B5.7B$14.A13.4B4.9B$9.2A
5.A10.4B5.2A4.4B$9.A5.2A9.4B7.A5.4B$6.2A.A.3B11.4B5.3A7.4B$6.A2.A.
2A2B2A7.4B6.A10.4B$8.2A.A.2B2AB5.4B19.4B$11.A.4B5.4B21.4B$11.2A.4B
3.4B23.4B$4.2A8.3BA6B25.4B25.A11.2A$3.A.A8.2BABA4B27.4B23.A.A9.B2A
B$3.A8.B.3BA4B12.2A15.4B10.A3.A3.2A2.A.A9.3B$2A.AB.B3.11B13.A.A15.
4B7.3A2.A.A2.A2.2A.2A9.B.B$.A.A.2AB.12B15.A4.2A10.4B5.A5.A.A3.A.A
2.B8.5B$.A.A.2A14B11.4A.2A2.A2.A9.5B2A.BA5.A.4A2.AB2A6.6B$2A.A2.5B
2A8B11.A2.A.A.A.A.2A10.3BABAB2A7.A3.A.A.2A4.8B$A2.4A3BA2BA5B.B2A
11.BABABA.A14.2BA3B8.A2.BA.A2.13B$.2A2.BAB.2B2A6B.BA.A11.B2ABA.A
15.2B2AB7.A.2BA.A5.13B$3.2A6.7B5.A12.2B.BA15.3BABAB6.2A.2BA5.15B$
3.A7.2B.4B5.2A10.3B19.3B2AB10.3B4.15B$5.A9.4B7.2A6.4B19.3B2A2B10.
2B.B.17B$4.2A10.4B7.A6.B2A3B17.6B4.29B$17.4B6.A.AB3.B2A3B17.7B2.
16B2A13B$18.4B6.2AB.10B15.3B2A2B2.16B2A14B$19.4B7.13B13.4B2A3B.27B
3.B2A$20.4B6.14B12.36B4.A2.A$21.4B5.15B6.B4.20B2.2B2.B2.7B5.2A.A$
22.4B6.8B2.4B4.2AB.6B3A10B13.7B7.A$23.4B5.6B5.4B3.2A6B2A3BA7B15.8B
6.2A$24.4B3.9B4.4B3.B.5B2ABAB2A5B17.2B2.4B$25.4B.4B4.2A5.4B5.2A2BA
B2A2BA6B15.2A4.4B$26.7B5.A3.A3.4B4.2A8BA6B15.A6.4B$27.5B7.4A4.4B3.
7BA2BA4B.B2A15.A5.4B$27.5B16.4B2.10BAB4.BA.A13.2A6.4B$26.7B4.4A8.
11BA3B9.A22.4B$25.4B.4B3.A2.3A7.8BA5BA8.2A22.4B$24.4B3.4B8.A7.13BA
33.4B$23.4B5.4B6.A.A7.7BA2BAB35.4B$22.4B7.4B5.A.AB7.6B2ABA37.4B$
21.4B9.4B5.A3B7.4BAB2AB38.4B$20.4B11.4B6.4B5.4B3A2B39.4B$19.4B13.
4B5.6B5.6B41.4B$18.4B15.4B4.7B.2B2.5B42.4B$17.4B17.4B2.8B.9B43.4B$
6.A9.4B19.18B2A4B43.4B$6.3A6.4B21.16BA2BA4B43.4B$9.A4.4B22.17B2A2.
4B43.4B10.2A$8.2A3.4B8.2A8.2A2.19B4.4B43.4B9.A$8.8B8.A.A8.A2.A17B
7.4B43.4B10.A$4.2A4.5B5.2A2.A12.2A.15B9.4B36.2A5.4B5.5A$3.A.BAB.5B
6.A.A.2A16.12B11.4B36.A5.4B4.A$3.A.2AB2.5B6.2A.A2.A15.10B13.4B35.A
.AB.7B2.B3A$2.2A.B.B3.5B3.3B.B2.2A15.2B2A6B14.4B35.2AB.7B3.2B.A$.A
3.2A2B2.5B3.4B19.3B2A6B15.4B36.12B4A$2.3A2.AB.13B.B18.10B16.4B35.
7B2A3BAB2.2A$5.2ABA13B.B2A17.8B.B2A.A13.4B34.7B2A2B.B3A2.A$4.A2.A
5BA10B2A16.7B3.B2AB3A12.4B33.10B3.B.A.2A$4.2A2.4BABA7B.2B17.6B6.B
4.A12.4B31.8B8.A$8.4BABA7B21.6B4.2A.3A14.4B29.9B7.2A$9.4BA7B22.5B
4.A2.2A17.4B27.4B2.3B$11.9B3.2A17.8B.A.A21.4B25.4B3.5B$8.B.10B.B2.
A8.A8.8BA.A.2A.A18.4B23.4B7.2A$7.2A12B3A9.3A6.6B.2BAB.A.2A19.4B21.
4B8.A$7.2AB.8B.BA14.A4.7B2.2B2.A23.4B19.4B10.3A$8.B3.6B4.2A11.2A4.
7B3.B.2A24.4B10.A6.4B13.A$13.4B6.A11.4B.8B2.A.A2.2A23.4B7.3A5.4B$
14.4B4.A14.11B2.2A2.A2.A23.4B5.A7.4B$15.4B3.2A12.12B7.2A25.4B4.2A
5.4B$16.2B2A16.12B35.9B4.4B$17.BABA15.11B37.6B5.4B$18.A3B13.9B12.
2A26.8B2.4B$19.4B9.2B.10B11.A25.15B$20.4B7.16B.B4.BA.A25.14B$21.4B
3.23B2.B2A26.13B$22.32B26.2AB.10B$23.32B24.A.AB3.B2A3B$24.31B24.A
6.B2A3B$25.30B23.2A6.4B$27.28B32.3B$28.17B5.B.4B32.2B.BA$28.14B11.
4B30.B2ABA.A$28.14B12.4B28.BABABA.A$32.3B4.2B14.4B25.A2.A.A.A.A.2A
$33.B6.2B14.4B24.4A.2A2.A2.A$39.B2AB14.3BA27.A4.2A$40.2A16.3BA24.A
.A$59.3AB23.2A!
