#CSYNTH gun_9630 costs 7171 cells.
#C period 9630 fullperiod 9630 bbox 71 by 101
#CLL state-numbering golly
x = 71, y = 101, rule = LifeHistory
27.A13.2A$27.3A11.A.A$30.A13.A3.2A$23.2A4.2A11.2A.A.A.A$21.A2B.A3.
5B6.BA.B.A.A$16.2A2.4BA6.3BAB4.BA3BA.2A$16.A2.ABABA6.3BABA5BAB.2BA
BAB$17.2A2BAB6.4BA2BA2B.B2A2BA2B2AB$20.2AB7.4B2A3B2.2A2.A3B2A$17.
5AB8.6B11.B2AB$16.A2.3B10.5B12.A.A$15.A.A2B.B9.7B12.A$14.A2.A.A2BA
7.4B.4B$14.2A2.3ABA6.4B3.4B$18.B3A6.2A2B5.4B$20.B6.ABAB7.4B$20.3B
3.3BA9.4B$20.3B2.4B11.4B7.A$20.BA6B13.4B6.3A$19.BABA4B15.4B8.A$19.
A2BA3B17.4B6.A.A$18.2B2A5B17.4B5.A.AB$18.10B17.4B5.A3B$18.6B.4B17.
4B6.4B$16.2AB.3B3.4B17.4B5.6B$15.A.AB2.B5.4B17.4B4.7B$15.A12.4B17.
4B2.8B.4B.B$14.2A13.4B11.2A4.17B.B2A$30.4B8.A2.A5.18B2A$24.2A5.4B
5.5A6.16B.2B$25.A5.4B4.A11.16B$25.A.AB.7B2.B3A8.15B$26.2AB.7B3.2B.
A5.2AB.12B$28.12B4A4.A.AB2.11B$28.7B2A3BAB2.2A2.A5.10B$28.7B2A2B.B
3A2.A.A5.2B2A6B$28.10B3.B.A.A.A5.3B2A6B$27.8B8.A2.A7.10B$26.9B7.2A
10.8B.B2A.A$14.A10.4B2.3B19.7B3.B2AB3A$12.3A9.4B3.5B17.6B6.B4.A$
11.A11.4B7.2A18.6B4.2A.3A$11.2A9.4B8.A19.5B4.A2.2A$9.4B8.4B10.3A
15.8B.A.A$8.2AB9.4B13.A6.A8.8BA.A.2A.A$8.A.AB7.4B21.3A6.6B.2BAB.A.
2A$9.2AB6.4B25.A4.7B2.2B2.A$9.3B5.4B4.2A19.2A4.7B3.B.2A$10.4B2.4B
5.A15.A4.4B.8B2.A.A2.2A$10.9B3.BA.A15.3A4.11B2.2A2.A2.A$5.3B.12B.B
2A19.A2.12B7.2A$5.2A16B20.2A2.12B$4.ABA16B20.B3.11B$4.BA16B19.3B4.
7B$4.19B16.6B3.8B$2.2AB2.18B11.10B2.9B$.A.AB3.20B2.2B3.23B$.A7.31B
2A16B.B$2A8.7B.22B2A17B2A$10.6B2.41B2A$10.5B3.42B$11.3B5.36B2.5B$
9.7B10.4B.13B5.5B6.2A$9.2A.B.2A11.4B4.B.7B3.3B.2B7.A$10.A3.A13.4B
15.2A12.3A$7.3A5.3A10.5B11.A3.A14.A$7.A9.A3.B7.5B10.4A$20.BAB5.7B$
20.3A4.4B.4B8.2A$19.5B3.3A3.4B6.B2AB$19.5B2.B2ABA3.4B5.4B$18.2B3A
2B.A3BA4.4B5.2B$18.7B.A2BA6.4B2.4B7.A$17.3BABA3B.3B7.4B.5B5.A.A$
17.3BABA3B.3B8.14B.A$18.7B.A2BA9.14B$18.2B3A2B.A3BA8.14B$19.5B2.B
2ABA7.15B$19.5B3.3A7.12B2A3B$20.3A4.3B6.13B2A3B$20.BAB5.B6.4B2.11B
.B2A$21.B12.4B5.8B2.BA.A$33.4B4.10B5.A$18.A13.4B5.2A5.B.B5.2A$18.
3A10.4B7.A4.3B$21.A8.4B5.3A5.B2AB$20.2A7.4B6.A8.2A$20.5B3.4B$11.2A
9.3B2.4B$10.A.A8.9B$10.A8.B.8B$7.2A.AB.B3.BA9B$8.A.A.2AB.3A9B$8.A.
A.2A2B2A10B$7.2A.A2.5BA9B$7.A2.4A3BA8B.B2A$8.2A2.BAB.BA8B.BA.A$10.
2A6.7B5.A$10.A7.2B.3BA5.2A$11.A10.3BA$10.2A11.3AB!
