#CSYNTH gun_1939 costs 9167 cells.
#C period 1939 fullperiod 1939 bbox 103 by 89
#CLL state-numbering golly
x = 103, y = 89, rule = LifeHistory
34.A11.2A$11.A11.A.A7.A.A9.B2AB$9.3A11.2A.A.2A3.A.A9.3B$8.A5.2A10.
A.A.A.2A.2A9.B.B$2.2B4.2A5.A7.2A.A3.A.A2.B8.5B$.9B5.A.2A3.A2.A.4A
2.AB2A6.6B$.7B8.A.A4.A3.A3.A.A.2A4.8B$.9B8.A.3A3.A2.BA.A2.13B$.10B
.3B2.2A.A4.A.2BA.A5.13B$.2B3A7BAB.5B4.2A.2BA5.15B$2BA2B3A5BA6B9.3B
4.15B$BA3BABA5BA6B10.2B.B.17B$.4BA14B3.29B$2B2ABABA3B3A6B2.16B2A
13B$.3B3ABA2B3A6B2.16B2A14B28.2A$.4B.ABA2.B2A7B.27B3.B2A21.A.2A.A.
A$2.2B7.2A2BA32B4.A2.A20.2A.A.A$11.2AB2A16B2.2B2.B3.6B5.2A.A23.2AB
$12.B2A14B14.6B7.A23.2B$12.15B14.9B6.2A22.4B2.B$12.14B15.2A4.4B30.
8B$12.15B15.A5.4B18.A10.8B$11.16B12.3A7.4B11.2A3.A.A8.8B2A$10.2A.
3B3.6B.B2A10.A10.4B11.A3.A2.A6.2B2A3B.B2A$10.2A2B2AB3.4B2.BA.A21.
4B10.A.2A.A.A6.BABA4B.B$11.3B2A5.4B4.A22.4B10.A.A.A.2A5.ABA4B$6.2A
.6B7.4B3.2A22.4B10.2B2A.A2.A3.BA7B$6.A2.2A2.B9.4B27.4B10.4B2.2A4.
8B$7.3A.AB11.4B27.4B6.A2BA3B9.7B$10.B.A12.4B27.4B3.2BA2BA2B10.8B$
7.5A14.4B22.2A3.4B.2BA3BAB11.8B$7.A19.4B22.A4.5B3A4B11.7B$10.2A16.
4B21.A.AB2.3BA2BA3BA.2A8.7B$10.2A17.4B10.A10.2AB.5B4A6BA7.8B$30.4B
7.3A12.10B2A5BA6.10B$31.4B5.A15.14B.2A8.10B$32.4B4.2A15.10BABA10.
7B.4B$25.2A6.9B14.8BA5B.2B7.6B3.4B$26.A7.6B14.11B2A5B2A6.6B4.4B$
26.A.2A5.6B3.B2.2B2.12BA6B.B2A6.6B5.4B$27.A2.A4.28BA3B2AB2.B6.8B5.
4B$28.2AB3.27B.2B3A3B10.8B5.4B$29.14B2A16B2.7B9.9B6.4B$30.13B2A16B
2.7B9.9B7.4B$31.29B3.7B9.10B7.4B$31.17B.B.2B11.6B.BA6.5B2A3B8.4B$
32.15B4.3B10.7BA.A5.5B2A4B8.4B$32.15B5.A2B.2A6.BA6BA6.11B9.3BA$33.
13B5.A.A2B.A6.2B2A2B.B7.12BA8.ABA$35.13B2.A.AB2.A7.B2A2B12.8B2.3A
7.2A$34.8B4.2A.A.A3.A8.6B4.2A5.7B6.A7.B$34.6B6.2ABA2.4A.A4.2AB.5B
2.B2AB4.6B6.2A$34.5B8.B2.A.A3.2A3.A.AB3.4B.3B5.6B$34.B.B9.2A.2A.A.
A6.A7.4B.B5.8B$35.3B9.A.A3.A.3A2.2A8.8B.8B$34.B2AB9.A.A4.A2.A12.9B
A7B$35.2A11.A6.2A12.9BABA6B$69.9BABA7B$70.9BA7B$71.8B.7B$72.16B4.
2A$73.3B.10B5.A$73.3B2.9B2.BA.A$74.B3.9B2.B2A3.A$77.13B4.A.A.2A$
77.13B3.A2.A.A.A$76.14B2.A3.A3.A$75.A13B4.3A.3A$73.3A.12B6.A.A$72.
A5.5B.5B6.ABAB3A$72.2A6.2B2.6B6.2ABA2.A$84.7B4.4B2.2A$83.16B$82.
13BA2B$78.16BABAB$77.17BA2BA$77.18B2AB$77.21B$79.17B.B2A$81.13B3.B
A.A$79.4B3.10B4.A$79.2A6.4B3.2A4.2A$80.A5.A3.2B2.A$77.3A4.3A2.B2A
3.3A$77.A5.A6.A.A5.A$83.2A3.A.A.6A$88.2A$94.2A$94.2A!
