#CSYNTH gun_2099 costs 12257 cells.
#C period 2099 fullperiod 2099 bbox 119 by 103
#CLL state-numbering golly
x = 119, y = 103, rule = LifeHistory
35.2A3.2A$33.3A.A2.2A$32.A4.A$32.A2.2A.4A$31.2A.A.A.A2.A4.2A$32.A.
ABABAB7.A$32.A.AB2AB6.A$33.AB.2B7.5A$36.3B10.A$36.4B3.4AB$34.3B2AB
3.A2.AB$34.3B2AB4.4B$32.15B3.2A$31.14B2A.A2.A$30.11BA3B2A.2A$29.
11BABAB.B$28.4B2.7BAB$12.2A13.4B5.7B$12.A13.4B4.9B$7.2A5.A10.4B5.
2A4.4B$7.A5.2A9.4B7.A5.4B$4.2A.A.3B11.4B5.3A7.4B$4.A2.A.2A2B2A7.4B
6.A10.2B2A$6.2A.A.2B2AB5.4B19.BABA$9.A.4B5.4B21.A3B$9.2A.4B3.4B23.
4B$12.3BA6B25.4B25.A11.2A$2A.2A7.2BABA4B27.4B23.A.A9.B2AB$2A.A8.3B
A4B12.2A15.4B10.A3.A3.2A2.A.A9.3B$3.A.B3.10B13.A.A15.4B7.3A2.A.A2.
A2.2A.2A9.B.B$3.3AB.2B2A7B15.A4.2A10.4B5.A5.A.A3.A.A2.B8.5B$.2A2.B
A3B2A7B11.4A.2A2.A2.A9.7B.2A5.A.4A2.AB2A6.6B$A2.4A12B11.A2.A.A.A.A
.2A10.9B7.A3.A.A.2A4.8B$2A.A.2B3.7B.B2A11.BABABA.A14.6B8.A2.BA.A2.
13B$.A2.3AB2.7B.BA.A11.B2ABA.A15.5B7.A.2BA.A5.13B$.A5.A4.4B5.A12.
2B.BA15.7B6.2A.2BA5.15B$2.5A5.4B5.2A10.3B19.6B10.3B4.15B$4.A8.4B7.
2A6.4B19.7B10.2B.B.17B$14.4B7.A6.B2A3B17.6B4.29B$15.4B6.A.AB3.B2A
3B17.7B2.16B2A13B$16.4B6.2AB.10B15.7B2.16B2A14B$17.4B7.13B13.9B.
27B3.B2A$18.4B6.14B12.36B4.A2.A$19.4B5.15B6.B4.20B2.2B2.B3.6B5.2A.
A$20.4B6.8B2.4B4.2AB.19B14.6B7.A$21.4B5.6B5.4B3.2A19B14.9B6.2A$22.
4B3.9B4.4B3.B.17B15.2A4.4B$23.4B.4B4.2A5.4B5.17B15.A5.4B$24.7B5.A
3.A3.4B4.17B12.3A7.4B$25.5B7.4A4.4B3.15B.B2A10.A10.4B$25.5B16.4B2.
12B4.BA.A21.4B$24.7B4.4A8.15B9.A22.4B$23.4B.4B3.A2.3A7.15B8.2A22.
4B$22.4B3.4B8.A7.14B33.4B$21.4B5.4B6.A.A7.12B35.4B$20.4B7.4B5.A.AB
7.10B37.4B$19.4B9.4B5.A3B7.9B38.4B$18.4B11.4B6.4B5.9B39.4B10.2A$
17.4B13.4B5.6B5.6B41.4B9.A$16.4B15.4B4.7B.2B2.5B42.4B10.A$15.4B17.
4B2.8B.9B36.2A5.4B5.5A$4.A9.4B19.24B36.A5.4B4.A$4.3A6.4B21.24B35.A
.AB.7B2.B3A$7.A4.4B22.19B2.4B35.2AB.7B3.2B.A$6.2A3.4B8.2A13.18B4.
4B36.12B4A$6.8B8.A.A13.16B7.4B35.7B2A3BAB2.2A$2.2A4.5B5.2A2.A13.2A
B.13B9.4B34.7B2A2B.B3A2.A$.A.BAB.5B6.A.A.2A11.A.AB2.11B11.4B33.10B
3.B.A.2A$.A.2AB2.5B6.2A.A2.A9.A5.10B13.4B31.8B8.A$2A.B.B3.5B3.3B.B
2.2A8.2A5.2B2A6B14.4B29.9B7.2A$A2.2A2B2.5B3.4B19.3B2A6B15.4B27.4B
2.3B$.2A2.AB.13B.B18.10B16.4B25.4B3.5B$3.2ABA13B.B2A17.8B.B2A.A13.
4B23.4B7.2A$.2A2.A5BA10B2A16.7B3.B2AB3A12.4B21.4B8.A$A2.A2.4BABA7B
.2B17.6B6.B4.A12.4B19.4B10.3A$.2A3.4BABA7B21.6B4.2A.3A14.4B10.A6.
4B13.A$7.4BA7B22.5B4.A2.2A17.4B7.3A5.4B$9.9B3.2A17.8B.A.A21.4B5.A
7.4B$6.B.10B.B2.A8.A8.8BA.A.2A.A18.4B4.2A5.4B$5.2A12B3A9.3A6.6B.2B
AB.A.2A19.9B4.4B$5.2AB.8B.BA14.A4.7B2.2B2.A23.6B5.4B$6.B3.6B4.2A
11.2A4.7B3.B.2A23.8B2.4B$11.4B6.A11.4B.8B2.A.A2.2A19.15B$12.4B4.A
14.11B2.2A2.A2.A18.14B$13.4B3.2A12.12B7.2A19.13B$14.4B16.12B26.2AB
.10B$15.2B2A15.11B26.A.AB3.B2A3B$16.BABA13.9B12.2A15.A6.B2A3B$17.A
3B9.2B.10B11.A15.2A6.4B$18.4B7.16B.B4.BA.A24.3B$19.4B3.23B2.B2A26.
2B.BA$20.32B27.B2ABA.A$21.32B25.BABABA.A$22.3BABA25B23.A2.A.A.A.A.
2A$23.3B2A6BA18B23.4A.2A2.A2.A$25.B2A5BA19B27.A4.2A$26.17B5.B.4B
24.A.A$26.5BA8B11.4B23.2A$26.4BA2BA6B12.4B$30.ABA4.2B14.4B$31.A6.
2B14.3BA$37.B2AB14.3BA$38.2A16.3AB!
