#CSYNTH gun_1236 costs 4087 cells.
#C period 1236 fullperiod 1236 bbox 61 by 67
#CLL state-numbering golly
x = 61, y = 67, rule = LifeHistory
33.A5.A.2A.A2.A2.2A3.2A$33.3A3.2A.A.4A2.A.A.A.A$36.A6.A4.2B2.A.A$
35.2A7.3A.A3B2ABA2.2A$35.5B6.3A3B4.B2.A$37.3BAB5.3B9A$36.3BABAB3.
2B4.AB$35.4BA2BA3B2AB4.ABA.2A$36.4B2A3B.2A6.2A.2A$37.6B$38.5B$37.
7B$36.4B.4B13.2A$35.4B3.4B12.A$34.4B5.4B5.B2.BA.A$33.4B7.4B3.3B.B
2A$32.4B9.4B.6B$31.4B11.10B$30.4B13.5B2A2B$11.2A16.4B15.3BA2BA$4.
2A3.2B2AB14.4B15.4BABAB$3.B2AB2.4B14.4B15.6BAB6.A$4.2B3.6B.B9.4B
15.4B2.2B5.3A$5.2B2.10B6.4B15.4B3.2B4.A$4.4BA10B5.4B4.A10.4B5.B4.
2A$.B.4B2A3B2A4B2A3.4B5.3A7.4B5.2AB.4B$2A4BA4BAB2A3B2A2.4B9.A5.4B
6.2AB2AB$2AB.3B2AB2A7B2.4B9.2A4.4B8.B.BA.A$.B3.3BA3BA11B10.9B6.A5.
BA.A$5.18B13.6B5.3A8.A$6.19B2.2B2.B3.6B5.A11.2A$6.35B4.A.B2A$7.7B.
27B3.B2A2.A$7.2B3AB2.16B2A14B2.2A$6.B2A2BAB.17B2A13B$6.2B3AB.32B$
7.2BA6B7.2B.B.17B4.A$7.8B7.3B4.15B4.A.A$6.8B4.2A.2BA5.15B4.A.A$6.
7B5.A.2BA.A5.13B4.2A.A.2A$6.6B7.A2.BA.A2.13B3.2BA3.A.A.A$5.7B8.A3.
A.A.2A4.8B.AB5A.B.A.A$5.7B6.A.4A2.AB2A6.6BA2BA.B2.2B3A.A$.B3.7B5.A
.A3.A.A2.B7.4B3.2B2A2B2A.A.BA$2AB.8B5.A.A2.A2.2A.2A5.4B5.5B.A.A$2A
10B6.A3.2A2.A.A5.4B5.ABA3BA.AB$.B.9B14.A.A4.4B5.A2.ABA.A.A.BA$4.7B
16.A4.4B5.A.2A3.A2.A.2A$4.4B23.4B6.A3.3A3.A$5.4B7.A13.4B6.2A3.A4.
2A$6.B2A7.3A10.4B$7.A11.A8.4B$8.3A7.2A7.4B$11.A6.5B3.4B$4.2A2.2A.A
8.3B2.4B$4.A3.A.A8.9B$6.A.A8.B.8B$5.2A.AB.B3.BA9B$6.A.A.2AB.3A9B$
6.A.A.2A2B2A10B$5.2A.A2.5BA9B$5.A2.4A3BA8B.B2A$6.2A2.BAB.BA8B.BA.A
$8.2A6.7B5.A$8.A7.2B.3BA5.2A$10.A9.3BA$9.2A10.3AB!
