#CSYNTH gun_1113 costs 4026 cells.
#C period 1113 fullperiod 1113 bbox 66 by 61
#CLL state-numbering golly
x = 66, y = 61, rule = LifeHistory
28.2A$27.B2AB$28.2B13.A$23.B3.2B12.3A$22.2AB.4B10.A9.2A$22.2A8B8.
2A8.A.A$23.B.B2A6B2.2B.3B3.2A5.A$26.2A14B.BA.AB3.2A.2A$26.5BA12B2A
2B2.B.A.A.A2.2A$22.7B2AB2A14B.3A2.A.4A.A$22.10B2A12B.BAB2.2A7.A$
21.2A5BA3BABA8B4.B4A2.7A.2A$21.2A14B.4B5.B.B.A.A2.B3.A.A2.A$22.B.
5BA5B2.4B7.2A.A2.A2.2A.AB2.2A$24.6B3AB2.4B9.A2.2A2.B2AB2A$25.6B2A
6B8.A.A7.5B$24.2B2A10B9.2A9.3B$25.13B7.2A10.2A3B$25.BABA9B2.2A2.A
2.2A7.B2AB2A$27.2A.8B2.A.A2.A3.A6.2ABA4B$30.8B3.B.2A.2A.A5.9B$29.
9B2.2B2.A.A2.A.AB3.7B$28.8BAB.2BAB.A2.A2.2AB.10B$27.4B.5B2ABA.A.3A
5.13B$26.4B2.4B2A2B.A.A8.13BA$25.4B4.5B4.A2.2A5.11BABA$24.4B5.6B4.
2A.3A5.8B2.2A$9.A13.4B5.6B6.B4.A4.6B5.B$9.3A10.4B6.7B3.B2AB3A4.9B$
12.A8.4B8.8B.B2A.A5.4B4.2A$11.2A7.4B9.10B8.4B5.A$11.5B3.4B9.3B2A6B
7.4B7.3A$13.3B2.4B4.2A5.2B2A6B6.4B10.A$3.2A7.9B6.A5.10B5.4B$3.A8.
8B7.A.AB2.11B3.4B$2A.A.B3.10B9.2AB.12B2.4B$A2.3AB.2B2A7B11.19B$.2A
2.BA3B2A7B11.18B$3.4A12B11.17B3.2A$3.A.2B3.7B.B2A9.16B3.A.A$4.3AB
2.7B.BA.A7.16B4.A$7.A4.4B5.A6.4B2.8B.2B3.2A$2.5A5.4B5.2A4.4B4.7B2.
3BA$2.A10.4B9.4B5.6B2.3B4A$4.A9.4B7.4B6.4B4.B2A.B2.A$3.2A10.4B5.4B
5.A3B5.A.AB3A2.A$16.4B3.4B5.A.AB4.3A.B.B2.2A$17.4B.4B6.A.A4.A4.2AB
2A$18.7B4.2A.2A6.4A4.A$19.5B6.A13.4A$18.6B6.A.2A8.A2.A$17.4B2A3B3.
2A.A.A7.2A$16.4BA2BA2B.2B3.A2.A$17.3BABA5B2ABA.A.A$18.3BAB3.2BAB.A
.A.2A$16.5B5.BA.A2B.A$16.2A8.2ABA.A.A$17.A4.2A.A.A.A.2A$14.3A5.A.
2A.A2.A$14.A13.A.A$29.A!
