#CSYNTH gun_4637 costs 13886 cells.
#C period 4637 fullperiod 4637 bbox 131 by 106
#CLL state-numbering golly
x = 131, y = 106, rule = LifeHistory
42.2A2.A$41.A.4A$41.A$39.2A.7A$37.A2.A.A3.B2.A$37.2A2.BA.2A2.2A$
41.2AB2AB$41.5B$42.3B$41.5B$41.BA4B$39.2BABA3B6.2A$39.2BABA4B5.A$
40.2BA4B3.BA.A$39.10B.B2A$38.13B$37.14B$36.15B$35.4B2.8B$34.4B5.6B
$33.4B4.9B$32.4B5.2A4.4B$31.4B7.A5.4B$16.A13.4B5.3A7.4B$16.3A10.4B
6.A10.4B$19.A8.4B19.4B$18.2A7.4B21.4B$18.5B3.4B23.4B$9.2A9.3B2.4B
25.4B$8.A.A8.9B27.4B25.A11.2A$8.A8.B.8B29.4B23.A.A9.B2AB$5.2A.AB.B
3.11B14.2A15.2B2A10.A3.A3.2A2.A.A9.3B$6.A.A.2AB.12B14.A.A15.BABA7.
3A2.A.A2.A2.2A.2A9.B.B$6.A.A.2A14B16.A4.2A10.A3B5.A5.A.A3.A.A2.B8.
5B$5.2A.A2.5B2A8B12.4A.2A2.A2.A9.7B.2A5.A.4A2.AB2A6.6B$5.A2.4A3BA
2BA5B.B2A10.A2.A.A.A.A.2A10.9B7.A3.A.A.2A4.8B$6.2A2.BAB.2B2A6B.BA.
A11.BABABA.A14.6B8.A2.BA.A2.13B$8.2A6.7B5.A12.B2ABA.A15.5B7.A.2BA.
A5.13B$8.A7.2B.4B5.2A12.2B.BA15.7B6.2A.2BA5.15B$10.A9.4B17.3B19.6B
10.3B4.15B$9.2A10.4B7.2A6.4B19.7B10.2B.B.17B$22.4B7.A6.B2A3B17.6B
4.29B$23.4B6.A.AB3.B2A3B17.7B2.16B2A13B$24.4B6.2AB.10B15.7B2.16B2A
14B$25.4B7.13B13.9B.27B3.B2A$26.4B6.14B12.36B4.A2.A$27.4B5.15B6.B
4.2B3A15B2.2B2.B3.6B5.2A.A$28.4B6.8B2.4B4.2AB.2B2ABA13B14.6B7.A$
29.4B5.6B5.4B3.2A4B3A12B14.9B6.2A$30.4B3.9B4.4B3.B.17B15.2A4.4B$
31.4B.4B4.2A5.4B5.17B15.A5.4B$32.7B5.A3.A3.4B4.BABA13B12.3A7.4B$
33.5B7.4A4.4B3.AB2A11B.B2A10.A10.4B$33.5B16.4B2.BA10B4.BA.A21.4B$
32.7B4.4A8.7BA7B9.A22.4B$31.4B.4B3.A2.3A7.6B2A7B8.2A22.4B$30.4B3.
4B8.A7.7B2A5B33.4B$29.4B5.4B6.A.A7.6BAB2A2B35.4B$28.4B7.4B5.A.AB7.
BA3BA2BAB37.4B$27.4B9.4B5.A3B7.B2ABABA2B38.4B$26.4B11.4B6.4B5.3B3A
3B39.4B$25.4B13.4B5.6B5.6B41.4B$24.4B15.4B4.7B.2B2.5B42.4B$23.4B
17.4B2.8B.9B43.4B$22.4B19.24B43.4B10.2A$21.4B21.24B43.4B9.A$20.4B
22.19B2.4B43.4B10.A$19.4B23.18B4.4B36.2A5.4B5.5A$18.4B24.16B7.4B
36.A5.4B4.A$17.4B23.2AB.13B9.4B35.A.AB.7B2.B3A$16.4B23.A.AB2.11B
11.4B35.2AB.7B3.2B.A$3.2A10.4B24.A5.10B13.4B36.12B4A$4.A9.4B24.2A
5.2B2A6B14.4B35.7B2A3BAB2.2A$2.A10.4B31.3B2A6B15.4B34.7B2A2B.B3A2.
A$2.5A5.4B5.2A26.10B16.4B33.10B3.B.A.2A$7.A4.4B5.A27.8B.B2A.A13.4B
31.8B8.A$4.3AB2.7B.BA.A26.7B3.B2AB3A12.4B29.9B7.2A$3.A.2B3.7B.B2A
27.6B6.B4.A12.4B27.4B2.3B$3.4A12B30.6B4.2A.3A14.4B25.4B3.5B$.2A2.B
A3B2A7B30.5B4.A2.2A17.4B23.4B7.2A$A2.3AB.2B2A7B29.8B.A.A21.4B21.4B
8.A$2A.A.B3.10B20.A8.8BA.A.2A.A18.4B19.4B10.3A$3.A8.8B19.3A6.6B.2B
AB.A.2A19.4B10.A6.4B13.A$3.2A7.9B21.A4.7B2.2B2.A23.4B7.3A5.4B$13.
3B2.4B19.2A4.7B3.B.2A24.4B5.A7.4B$11.5B3.4B18.4B.8B2.A.A2.2A23.4B
4.2A5.4B$11.2A7.4B19.11B2.2A2.A2.A23.9B4.4B$12.A8.4B17.12B7.2A25.
6B5.4B$9.3A10.4B16.12B34.8B2.4B$9.A13.2B2A15.11B33.15B$24.BABA13.
9B12.2A22.14B$25.A3B9.2B.10B11.A23.13B$26.4B7.16B.B4.BA.A21.2AB.
10B$27.4B3.23B2.B2A21.A.AB3.B2A3B$28.32B23.A6.B2A3B$29.32B21.2A6.
4B$30.3BABA25B30.3B$31.3B2A6BA18B31.2B.BA$33.B2A5BA19B30.B2ABA.A$
34.17B5.B.4B28.BABABA.A$34.5BA8B11.4B25.A2.A.A.A.A.2A$34.4BA2BA6B
12.4B24.4A.2A2.A2.A$38.ABA4.2B14.4B27.A4.2A$39.A6.2B14.3BA24.A.A$
45.B2AB14.3BA23.2A$46.2A16.3AB!
