#CSYNTH gun_717 costs 5355 cells.
#C period 717 fullperiod 717 bbox 85 by 63
#CLL state-numbering golly
x = 85, y = 63, rule = LifeHistory
29.2A$28.A.A$22.2A4.A24.2A$20.A2.A2.2A.4A20.A.A$8.A11.2A.A.A.A.A2.
A22.A4.2A$7.BAB13.A.ABABAB20.4A.2A2.A2.A$7.BA14.A.AB2AB21.A2.A.A.A
.A.2A$5.ABA2B14.AB.2B24.BABABA.A15.A$.2A.B2A.A18.3B24.B2ABA.A14.BA
B$A.6A10.A8.4B6.2A16.2B.BA16.AB$A4.2B9.3A6.3B2AB6.A16.3B18.2BABA$.
4A10.A9.3B2AB3.BA.A7.2A6.4B19.A.2AB.2A$2.B.AB8.A.A6.10B.B2A9.A6.B
2A3B7.A10.6A.A$.2A.AB7.BA.A5.13B11.A.AB3.B2A3B7.3A9.2B4.A$.3BA7.3B
A5.14B12.2AB.10B8.A10.4A$.AB7.4B6.15B14.13B6.A.A8.BA.B$AB6.6B5.4B
2.8B16.14B5.A.AB7.BA.2A$A.AB3.7B4.4B5.6B16.15B5.A3B7.A3B$.2AB3.8B
2.4B4.9B17.8B2.4B6.4B7.BA$3.17B5.2A4.4B16.6B5.4B5.6B6.BA$3.16B7.A
5.4B14.9B4.4B4.7B3.BA.A$3.16B4.3A7.4B12.4B4.2A5.4B2.8B3.B2A$3.16B
4.A10.4B10.4B5.A7.17B$4.15B16.4B8.4B7.3A5.16B$5.12B.B2A15.4B6.4B
10.A5.16B$5.11B2.BA.A15.4B4.4B17.16B$.2A3.10B5.A16.4B2.4B18.15B$2.
A3.6B2A2B5.2A16.8B17.2AB.12B$.A4.6B2A3B23.6B17.A.AB2.11B$.2A3.10B
25.4B18.A5.10B3.2A$4.2AB.8B24.6B16.2A5.2B2A6B3.A$.2AB2AB3.7B22.8B
21.3B2A6B4.A$2.A.B6.6B21.4B2.4B21.10B3.2A$A3.2A4.6B21.4B4.4B20.8B.
B2A$4A2.A.8B20.4B6.4B18.7B3.B2AB2A$3.A.A.A9B18.4B8.4B17.6B6.B.A$2A
.A.BA2B.7B8.A8.4B10.4B17.6B4.2A3.A$.A.A2.2B3.6B6.3A7.4B12.4B16.8B.
A2.4A$A2.2A.B4.7B4.A9.4B14.4B14.9BA.A.A$A.A2.A.A3.7B4.2A7.4B16.4B
4.A8.7B.2BAB.A.2A$.A.A2.2A3.8B.4B6.4B18.4B3.3A6.6B3.2B2.A.A$2.A8.
11B7.4B20.4B5.A4.7B4.B.2A2.A$11.12B5.4B22.4B3.2A4.7B3.A.A2.A.A$11.
12B4.4B24.4B2.4B.8B3.2A2.A.A$12.11B3.4B26.4B3.11B8.A$15.7B3.4B28.
4B.12B$14.8B2.4B30.16B$13.14B32.B3A10B10.A$12.16B32.A9B11.3A$10.B.
17B.B28.2BA9B9.A$9.2A17B.B2A26.16B6.2A$9.2A19B2A19.A6.24B$10.18B.
2B20.3A3.23B$8.5B2.13B26.A2.24B$8.2A6.9B28.A.B.24B$9.A6.9B28.2A27B
$6.3A8.7B27.2A2.A22B.4B$6.A11.5B27.A2.3A3B3.2B3.B7.2B3.4B$19.6B26.
A4.2B3.4B.3B5.BA2B3.3BA$23.2A27.4A5.B2AB.B2AB4.A.A5.ABA$23.A30.A7.
2A3.2A6.A7.2A$24.3A29.A27.B$26.A28.2A!
