#CSYNTH gun_865 costs 6300 cells.
#C period 865 fullperiod 865 bbox 75 by 84
#CLL state-numbering golly
x = 75, y = 84, rule = LifeHistory
19.2A$19.A.A5.2A13.2A13.A$21.A4.A.A12.A.A11.3A$17.4A.2A2.A8.2A3.A
13.A$17.A2.A.A.A.2A7.A.A.A.2A11.2A$19.BABABA.A10.A.A.B.AB6.5B5.AB$
20.B2ABA.A9.2A.A3BAB4.BA3B6.A.2AB$21.2B.BA9.BABA2B.BA5BABA3B6.4AB
2.2A$20.3B11.B2A2BA2B2AB.2BA2BA4B6.2B3A2.A$11.2A6.4B11.2A3BA2.2A2.
3B2A4B8.3B3A$12.A6.B2A3B8.B2AB11.6B9.2BA$12.A.AB3.B2A3B8.A.A12.5B
10.2AB3A$13.2AB.10B7.A12.7B10.3B2.A$15.13B18.4B.4B9.B.2BA.A$15.14B
16.4B3.4B7.2A2B.A2.A$15.15B14.4B5.4B6.5A2.2A$17.8B2.4B12.4B7.4B6.
4B$17.6B5.4B10.4B9.4B6.B$16.9B4.4B8.4B11.4B3.3B$3.2A10.4B4.2A5.4B
6.4B13.4B2.3B$4.A9.4B5.A7.4B4.4B15.6BAB$2.A10.4B7.3A5.4B2.4B17.4BA
BAB$2.5A5.4B5.3A2.A6.8B19.3BA2BA$7.A4.4B5.A3.A8.6B19.5B2A2B$4.3AB
2.7B.BA.A.2A10.4B19.10B$3.A.2B3.7B.B2A.A11.6B17.4B.6B$3.4A12B3.A
10.8B15.4B3.3B.B2A$.2A2.BA3B2A7B3.3A7.4B2.4B13.4B5.B2.BA.A$A2.3AB.
2B2A7B6.A5.4B4.4B11.4B12.A$2A.A.B3.10B5.2A4.4B6.4B9.4B13.2A$3.A8.
8B4.9B8.4B7.4B$3.2A7.9B5.6B10.4B5.4B$13.3B2.4B2.8B11.4B3.4B4.2A$
11.5B3.15B10.4B.4B4.A.A$11.2A7.14B11.7B3.3A$12.A8.13B12.5B3.A3.A$
9.3A10.10B.B2A10.5B4.3A.A$9.A14.3B2AB3.BA.A8.7B5.A.AB$24.3B2AB6.A
7.4B.4B5.A3B$26.4B6.2A5.4B3.4B6.4B$26.3B13.4B5.4B5.6B$23.AB.2B13.
4B7.4B4.7B$22.A.AB2AB11.4B9.4B2.8B.4B.B$22.A.ABABAB9.4B11.17B.B2A$
19.2A.A.A.A.A2.A6.4B13.18B2A$19.A2.A2.2A.4A5.4B14.16B.2B$21.2A4.A
8.4B15.16B$27.A.A5.4B16.15B$28.2A4.4B15.2AB.12B$33.4B15.A.AB2.11B$
32.4B16.A5.10B$31.4B16.2A5.2B2A6B$30.4B23.3B2A6B$29.4B25.10B$28.4B
26.8B.B2A.A$27.4B26.7B3.B2AB3A$26.4B27.6B6.B4.A$25.4B29.6B4.2A.3A$
24.4B30.5B4.A2.2A$10.A12.4B30.8B.A.A$10.3A9.4B22.A8.8BA.A.2A.A$13.
A7.4B23.3A6.6B.2BAB.A.2A$12.2A6.4B27.A4.7B2.2B2.A$12.5B2.4B6.2A19.
2A4.7B3.B.2A$14.8B7.A16.2A2.4B.8B2.A.A2.2A$13.8B5.BA.A16.A5.11B2.
2A2.A2.A$12.8B2.3B.B2A19.A2.12B7.2A$11.BA14B20.2A2.12B$9.B2A2B3A
10B20.B3.11B$9.2B2AB2ABA8B19.3B4.7B$7.2AB.4BABA9B16.6B3.8B$6.A.AB
2.17B11.10B2.9B$6.A5.20B2.2B3.23B$5.2A6.31B2A16B.B$14.7B.22B2A17B
2A$14.6B2.41B2A$13.6B3.42B$13.4B6.36B2.5B$13.2B2AB12.4B.13B5.5B6.
2A$11.2AB.2A14.4B4.B.7B3.3B.2B7.A$10.A.AB18.4B15.2A12.3A$10.A22.3B
A15.A14.A$9.2A23.3BA11.3A$35.3AB10.A!
