#CSYNTH gun_844 costs 4760 cells.
#C period 844 fullperiod 844 bbox 70 by 68
#CLL state-numbering golly
x = 70, y = 68, rule = LifeHistory
29.2A$28.B2AB11.2A.A.2A$29.3B4.A.2A.A2.A.2A2.A3.A$28.B.B5.2A.A.2A.
A4.A.A2.3A$28.5B8.B2.5A.A6.A$28.6B6.2ABA4.A7.2A$28.8B4.2A.A.AB2.A
6.5B$29.13B2.A.A2B.A7.4B$27.5BA7B5.A2B.2A7.5B$26.5B3A7B3.3B11.6B$
26.4B2A2BA6B3.2B12.6B.B$25.4BA3B2A7B.4B10.6B.B2A$25.3B2A24B4.7B2A$
24.3B3A25B2.6B.2B$23.5B2A25B2.6B$22.2AB3.BA3B2A20B.9B3.B$21.A2.A4.
B2A2BA31B.B2A$20.A.2A5.2B3AB3.B2.2B2.23B2A$20.A7.4BAB14.21B$19.2A
6.9B14.19B$26.4B4.2A15.16B$25.4B5.A15.17B$24.4B7.3A12.17B$23.4B10.
A10.2AB.3B.10B$22.4B21.A.AB5.9B$21.4B22.A9.8B$20.4B22.2A8.9B2.B$
19.4B33.9B.B2A$19.4B34.10B2A$18.5B35.8B.B$15.9B33.8B$15.9B34.7B$
15.9B35.5B$15.10B34.4B$14.12B33.4B$13.13B8.2A22.4B$14.11B9.A22.4B$
15.12B4.BA.A21.4B$15.15B.B2A10.A10.4B$15.17B12.3A7.4B$15.17B15.A5.
4B$12.B.17B15.2A4.4B$11.2A19B14.9B6.2A$11.2AB.19B14.6B7.A$12.B4.
20B2.2B2.B3.6B5.2A.A$17.36B4.A2.A$17.9B.27B3.B2A$18.7B2.16B2A14B$
18.7B2.16B2A13B$12.2A4.6B4.29B$11.B2AB3.7B10.2B.B.17B$11.4B3.6B10.
3B4.15B$12.2B3.7B6.2A.2BA5.15B$4.A7.4B2.5B7.A.2BA.A5.13B$3.A.A5.5B
.6B8.A2.BA.A2.13B$4.A.19B7.A3.A.A.2A4.8B$5.17B.2A5.A.4A2.AB2A6.6B$
5.14B4.A5.A.A3.A.A2.B8.5B$5.15B4.3A2.A.A2.A2.2A.2A9.B.B$4.3B2A12B
5.A3.A3.2A2.A.A9.3B$4.3B2A13B16.A.A9.B2AB$2.2AB.11B2.4B16.A11.2A$.
A.AB2.8B5.4B$.A5.10B4.4B$2A5.B.B5.2A5.4B$8.3B4.A7.3BA$7.B2AB5.3A5.
3BA$8.2A8.A6.3AB!
