#CSYNTH gun_6930 costs 2480 cells.
#C period 6930 fullperiod 6930 bbox 62 by 40
#CLL state-numbering golly
x = 62, y = 40, rule = LifeHistory
51.2A$49.3A.A$42.A5.A4.3A$41.A.A4.A.2A4.A$41.A.A3.2A.A.4A$40.2A.2A
.AB2.B.A$39.A4.B5ABAB.4A$40.3AB2AB.B.ABABA2.A$42.A.AB8A$45.4B.3AB$
51.B6.2A$50.B5.BAB.A$36.2A11.4B3.B2A.A$37.A5.A10B2.B.B.2A$37.A.AB.
B2A8B2.2B2A2.A$38.2AB.B3A2B3A3B.BA2.2A$18.A21.5B5A5BAB2A$18.3A19.
6BA9BA2.2A$21.A18.4BA11B2.A2.A$8.AB10.2A20.A7BA5B3.2A$7.B.2A9.4B
18.A4B2ABA4B$7.2A.B11.2B20.4B3A2B$8.BA3.3B4.8B16.ABAB2A3B$11.BA5B.
11B3.2A9.A8B$9.4BA16B2.B2AB7.2BAB2A3B$4.4B2A20B3.3B7.3B3A3B$3.4B3A
20B4.B2.2B3.9B$4.4B5A28B.7B$5.4BA2BA35B$6.4B3A11B2A20B$4.20B3A20B$
2A2.12B3.6B2A14B3.4B$A2.AB2A8B3.7B2AB2A4B.B9.4B$.3ABABA11.5B.2BA3B
15.4B$5.A.A9.4B3.7B16.4B$3.2A.A10.2A6.4B.B2A15.4B$2.A.A.A.A9.A7.B
3.BA.A15.4B$3.A3.2A6.3A7.BAB5.A16.3BA$15.A9.BAB5.2A16.3BA$26.A25.
3AB!
