#CSYNTH gun_140 costs 1290 cells.
#C period 140 fullperiod 140 bbox 43 by 30
#CLL state-numbering golly
x = 43, y = 30, rule = LifeHistory
19.AB.2A$18.B2A2.A$18.5A$17.5B6.A$11.4B2.5B5.A.A$10.6B2.5A4.A.A$8.
9B.B2A2.A2.2A.2A$7.12BAB.2A3.B5.A$2A5.11B8.2AB5A$.A6.10B8.BA.A$.A.
AB2.11B8.4B.B2A$2.2AB.4B3A4B11.B2.BA.A$4.5BA3BA4B8.7B.3A$4.4BA5BA
3B6.BA7BA3.A$4.4BA5BA4B4.2A2B2A3B.B2A2.A$4.4BA5BA5B3.B2A2BA3B3.A.
2A$5.4BA3BAB2.4B3.BA6B3.A$6.4B3A5.4B3.B6A2.2A.4A$4.5B.3B6.4B3.B3A
4BA.BA2.A$4.2A7.A2BA3.4B3.BAB2.3BA$5.A7.4B4.5B.2B3.3BA.AB$2.3A7.A
4BA4.5B5.2BA.B3AB$2.A7.3A.2A.3A3.4B7.2A.B.2A$9.A3.A2.A3.A3.4B7.A.A
.ABA$10.A.2A.B4A.A3.4B6.A.2AB2.A$9.2A.A2.BA2.B.A4.4B6.A3.3A$12.A3.
BABA.A.A3.4B6.3A$12.2A2.BAB.A.2A4.3BA8.A$18.A.A8.3BA6.2A$19.2A9.3A
B!
