#CSYNTH gun_1147 costs 8556 cells.
#C period 1147 fullperiod 1147 bbox 138 by 62
#CLL state-numbering golly
x = 138, y = 62, rule = LifeHistory
53.2A30.2A20.2A$53.A.A28.A.A20.A.A$29.2A24.A4.2A16.2A4.A24.A4.2A$
28.A.A20.4A.2A2.A2.A12.A2.A2.2A.4A16.4A.2A2.A2.A$22.2A4.A22.A2.A.A
.A.A.2A12.2A.A.A.A.A2.A16.A2.A.A.A.A.2A$20.A2.A2.2A.4A20.BABABA.A
18.A.ABABAB20.BABABA.A$20.2A.A.A.A.A2.A21.B2ABA.A18.A.AB2AB22.B2AB
A.A$23.A.ABABAB24.2B.BA20.AB.2B24.2B.BA$23.A.AB2AB24.3B26.3B22.3B
7.A$24.AB.2B16.2A6.4B26.4B6.2A4.2A6.4B7.3A$19.A7.3B16.A6.B2A3B22.
3B2AB6.A6.A6.B2A3B8.A$17.3A7.4B6.2A7.A.AB3.B2A3B22.3B2AB3.BA.A6.A.
AB3.B2A3B7.A.A$16.A8.3B2AB6.A9.2AB.10B18.10B.B2A8.2AB.10B5.A.AB$
15.A.A7.3B2AB3.BA.A11.13B16.13B12.13B5.A3B$14.BA.A5.10B.B2A12.14B
14.14B12.14B6.4B$13.3BA5.13B14.15B12.15B12.15B5.6B$11.4B6.14B16.8B
2.4B10.4B2.8B16.8B2.4B4.7B$9.6B5.15B16.6B5.4B8.4B5.6B16.6B5.4B2.8B
.4B.B$8.7B4.4B2.8B17.9B4.4B6.4B4.9B14.9B4.17B.B2A$.B.4B.8B2.4B5.6B
16.4B4.2A5.4B4.4B5.2A4.4B12.4B4.2A5.18B2A$2AB.17B4.9B14.4B5.A7.4B
2.4B7.A5.4B10.4B5.A6.16B.2B$2A18B5.2A4.4B12.4B7.3A5.8B5.3A7.4B8.4B
7.3A3.16B$.2B.16B6.A5.4B10.4B10.A6.6B6.A10.4B6.4B10.A3.15B$4.16B3.
3A7.4B8.4B19.4B19.4B4.4B11.A.2AB.12B$5.15B3.A10.4B6.4B19.6B19.4B2.
4B10.2A.A.AB2.11B$6.12B.B2A.A11.4B4.4B19.8B19.8B11.A2.A5.10B$6.11B
2.BA.A.2A10.4B2.4B19.4B2.4B19.6B14.2A5.2B2A6B$7.10B5.A2.A11.8B19.
4B4.4B19.4B21.3B2A6B$7.6B2A2B5.2A14.6B19.4B6.4B10.A6.6B21.10B$7.6B
2A3B21.4B19.4B8.4B7.3A5.8B20.8B.B2A.A$7.10B21.6B6.A10.4B10.4B5.A7.
4B2.4B18.7B3.B2AB3A$3.A.2AB.8B20.8B5.3A7.4B12.4B4.2A5.4B4.4B17.6B
6.B4.A$.3AB2AB3.7B18.4B2.4B7.A5.4B14.9B4.4B6.4B17.6B4.2A.3A$A4.B6.
6B17.4B4.4B5.2A4.4B16.6B5.4B8.4B16.5B4.A2.2A$.3A.2A4.6B17.4B6.4B4.
9B17.8B2.4B10.4B14.8B.A.A$3.2A2.A4.5B16.4B8.4B5.6B16.15B12.4B4.A8.
8BA.A.3A$6.A.A.8B14.4B10.4B2.8B16.14B14.4B3.3A6.6B.2BAB.A2.A$2.A.
2A.A.A8B8.A4.4B12.15B14.13B16.4B5.A4.7B2.2B2.A.A.A$2.2A.A.BA2B.6B
6.3A3.4B14.14B12.2AB.10B18.4B3.2A4.7B3.B.2A2.A.A$5.A2.2B2.7B4.A5.
4B16.13B11.A.AB3.B2A3B21.4B2.4B.8B2.A.A2.A.A.A$5.2A.B3.7B4.2A3.4B
18.10B.B2A9.A6.B2A3B22.4B3.11B2.2A2.2A.2A$3.2A2.A.A2.8B.4B2.4B21.
3B2AB3.BA.A7.2A6.4B25.4B.12B$2.A2.A2.2A2.11B3.4B22.3B2AB6.A16.3B
26.B3A12B$3.2A7.12B.4B25.4B6.2A16.2B.BA24.A13B10.A$12.16B26.3B24.B
2ABA.A24.A9B11.3A$13.15B23.AB.2B24.BABABA.A23.12B9.A$16.12B22.A.AB
2AB21.A2.A.A.A.A.2A19.16B6.2A$15.15B6.2A12.A.ABABAB20.4A.2A2.A2.A
12.A6.24B$14.16B6.A10.2A.A.A.A.A2.A22.A4.2A14.3A3.23B$13.18B2.BA.A
10.A2.A2.2A.4A20.A.A23.A2.24B$11.B.19B.B2A13.2A4.A24.2A23.A.B.24B$
10.2A22B21.A.A47.2A27B$10.2A22B22.2A45.2A2.A22B.4B$11.23B68.A2.3A
3B3.2B3.B7.2B3.4B$9.5B2.17B70.A4.2B3.4B.3B5.BA2B3.4B$9.2A6.15B72.
4A5.B2AB.B2AB4.A.A5.3BA$10.A9.4B2.4B76.A7.2A3.2A6.A7.ABA$7.3A13.B
3.5B76.A27.2A$7.A15.2A5.2A75.2A28.B$24.A5.A$21.3A7.3A$21.A11.A!
