#CSYNTH gun_1382 costs 6499 cells.
#C period 1382 fullperiod 1382 bbox 97 by 67
#CLL state-numbering golly
x = 97, y = 67, rule = LifeHistory
44.2A20.2A$43.A.A20.A.A$37.2A4.A24.A4.2A$35.A2.A2.2A.4A16.4A.2A2.A
2.A$35.2A.A.A.A.A2.A16.A2.A.A.A.A.2A$38.A.ABABAB20.BABABA.A$38.A.A
B2AB22.B2ABA.A$39.AB.2B24.2B.BA$42.3B22.3B7.A$33.A8.4B6.2A4.2A6.4B
7.3A$31.3A6.3B2AB6.A6.A6.B2A3B8.A$30.A9.3B2AB3.BA.A6.A.AB3.B2A3B7.
A.A$29.A.A6.10B.B2A8.2AB.10B5.A.AB$28.BA.A5.13B12.13B5.A3B$27.3BA
5.14B12.14B6.4B$25.4B6.15B12.15B5.6B$23.6B5.4B2.8B16.8B2.4B4.7B$
22.7B4.4B5.6B16.6B5.4B2.8B.4B.B$15.B.4B.8B2.4B4.9B14.9B4.17B.B2A$
14.2AB.17B5.2A4.4B12.4B4.2A5.18B2A$14.2A18B7.A5.4B10.4B5.A6.16B.2B
$15.2B.16B4.3A7.4B8.4B7.3A2.17B$18.16B4.A10.4B6.4B9.A2.A16B$19.15B
16.4B4.4B8.A3.2A.14B$20.12B.B2A15.4B2.4B9.2A7.12B$20.11B2.BA.A15.
8B20.10B$16.2A3.10B5.A16.6B21.2B2A6B$17.A3.6B2A2B5.2A16.4B21.3B2A
6B$16.A4.6B2A3B21.3A3B21.10B$16.2A3.10B21.3BA4B20.8B.B2A.A$19.2AB.
8B20.3BA2.4B18.7B3.B2AB3A$16.2AB2AB3.7B18.4B4.4B17.6B6.B4.A$17.A.B
6.6B17.4B6.4B17.6B4.2A.3A$15.A3.2A4.6B17.4B8.4B16.5B4.A2.2A$15.4A
2.A.8B16.4B10.4B14.8B.A.A$18.A.A.A9B14.4B12.4B4.A8.8BA.A.2A.A$15.
2A.A.BA2B.7B8.A4.4B14.4B3.3A6.6B.2BAB.A.2A$16.A.A2.2B3.6B6.3A3.4B
16.4B5.A4.7B2.2B2.A$15.A2.2A.B4.7B4.A5.4B18.4B3.2A4.7B3.B.2A$15.A.
A2.A.A3.7B4.2A3.4B20.4B2.4B.8B2.A.A2.2A$16.A.A2.2A3.8B.4B2.4B22.4B
3.11B2.2A2.A2.A$17.A8.11B3.4B24.4B.12B7.2A$26.12B.4B26.16B$26.16B
27.15B$16.A10.14B28.12B$16.3A11.10B19.2A6.15B$19.A9.12B19.A6.16B$
18.2A6.16B18.A.AB2.18B$12.2A4.24B6.A12.2AB.19B.B$11.B2AB5.23B3.3A
14.22B2A$11.4B4.24B2.A17.22B2A$12.2B5.24B.B.A16.23B$4.A7.4B2.27B2A
17.17B2.5B$3.A.A5.5B.4B.22BA2.2A16.15B6.2A$4.A.14B3.2B7.B3.2B3.3B
3A2.A17.4B2.4B9.A$5.14B3.2BAB5.3B.4B3.2B4.A16.5B3.B13.3A$5.14B4.A.
A4.B2AB.B2AB5.4A17.2A5.2A15.A$5.15B4.A6.2A3.2A7.A20.A5.A$4.3B2A12B
22.A19.3A7.3A$4.3B2A13B21.2A18.A11.A$2.2AB.11B2.4B$.A.AB2.8B5.4B$.
A5.10B4.4B$2A5.B.B5.2A5.4B$8.3B4.A7.3BA$7.B2AB5.3A5.3BA$8.2A8.A6.
3AB!
