#CSYNTH gun_19 costs 10030 cells.
#C period 19 fullperiod 38 bbox 118 by 85
#CLL state-numbering golly
x = 118, y = 85, rule = LifeHistory
54.A3.2A$53.A.A.A.3A$34.2A17.A.A.A4.A$35.A2.A15.A.A.ABABA$32.3A3.
3A15.A.A.2A4.2A$20.2A9.A3.3A3.A13.ABA4B4.A$21.A2.A6.2A2BA2.3A12.3B
A2B4.2A.A$18.3A3.3A6.4B.A13.5B4.A.2BA15.A22.A$17.A3.3A3.A2.A.2A.2A
BA13.6B2.A3B15.3A3.2B12.2B3.3A$17.2ABAB2.3A3.2A.5A11.14BA14.A5.BA
2B10.2BAB5.A$19.2B2A.A8.B3A4B6.13B3AB13.B2A4.3A2B8.2B3A4.2AB$16.A.
2A.ABAB9.9B.2B.4B3A11B10.5B2.BAB3AB8.B3ABAB2.5B$16.2A.2A3B10.4BA5B
A5B2A3BA5B.4B9.3B4.BA4BA2B4.2BA4BAB4.3B$19.8B6.4BABA2BABA2B2AB3A2B
A4B3.4B7.5B3.2BA3B2A2B2.2B2A3BA2B3.5B$20.4B3A2B4.5BA2BA2BA2B2A3BA
4B2A5.4B5.3B2A2B2.2B2A3BA6BA3B2A2B2.2B2A3B$13.A6.14B.6B2AB2.BA2BA
9BA4.4B3.3B2ABA8B2A8B2A8BAB2A3B$13.3A3.4BABAB2A6B3AB2A4B.2BA12B5.
4B3.3BABA5B5A8B5A5BABA3B$16.A2.4B2AB3A6B2ABABA4B4.2A10BA5.4B3.5B.B
.22B.B.5B$15.2A3.B2A6B.14B8.2BA3B.B2A6.3BA3.3B4.22B4.3B$15.4BA2BA
2BA5B4.2B3A4B8.2A3B3.B3.2A3.ABAB3.2B7.3B3.10B7.2B$17.2BABA2BABA4B
6.8B8.5B5.A2.A3.2A2B20.4B$16.A.BA5BA4B10.3B2A.2A5.2BA3B3.A.A2.A3.
4B18.6B$15.A.A3.9B9.BABA.2A.A6.BABAB2.AB.2A.A4.4B16.A7B$16.A6.4B3A
B8.A.2A2B11.A.A.B2.A2.A6.4B14.BABA2.4B$26.5A.2A3.3A2.BAB2A7.A.A.3A
3.BA8.4B12.2B2A4.4B$25.AB2A.2A.A2.A3.3A3.A7.2A.A3.B2.A10.4B10.4B6.
4B$22.A2.A.4B6.3A3.3A3.2A6.A.2A.AB12.4B8.4B3.2A3.2B2A9.A$22.4A2.A
2B2A7.3A5.A.A6.2A.A.A14.3BA6.4B3.A2.A3.BABA6.3A$26.3A3.A6.A2.A2.4A
12.A3.2A11.3BA4.4B3.A.A2.A3.A3B4.A$24.A4.3A8.A.A.A4.A14.A.A2.2A8.
3AB2.4B3.AB.2A.A4.4B3.2A$21.A2.2A.A.A11.A.A.ABABA13.A2.A.A.A9.3B.
4B3.B2.A2.A6.8B$19.3A4.2A15.A.A.2A4.2A8.2ABA.2A5.3B2.3BA3B3.2A3.BA
8.5B4.2A$7.2A9.A3.3A3.A13.ABA4B4.A12.4B4.8BA3B3.A2.B2.A3.2A5.5B.BA
B.A$8.A2.A6.4AB2.3A12.3BA2B4.BA.A9.2A.2A2B4.8B3A2B3.2A.AB3.B2A2B2.
5B2.B2A.A$5.3A3.3A6.B3A.A13.5B4.B.B2A8.A2.2A2B.4B.13B4.A.A5.4B.B3A
B3.B.B.2A$4.A3.3A3.A2.A.2A.B2AB13.6B2.3AB10.2A2.2B.2B2A14B2A2.A2.
2A2B3.4BA4B2.B3A2.A$4.2ABAB2.3A3.2A.ABABA11.9B3ABAB16.2BA2BA.12B2A
2.3A2.A2B.5BA2BA2B.AB2.2A$6.2B2A.A8.3BA4B6.10BA4BAB10.2A2.2B.2B2A
7BA5B.B6.2ABA5B2A3BA2BA2B2A$3.A.2A.ABAB9.7B2A.2B.5B2A5BA5B9.A2.2A
2B.4B.A4BA5B7.A2.A5BA4BA3BABA2.2A$3.2A.2A3B10.4BA4BA4B2ABA2BA6B.4B
10.2A.2A2B3.A5BA3B9.2A.6BA3BABA2B2A2.A2.A$6.8B6.4BABA3BA3BA3BA2BA
5B3.4B12.4B2.A2BA3B.5B11.5BA4BA3BAB3.2A$7.9B4.5BA4BA10BA4B5.4B8.2A
BA.2A3.3BA2B4.2A13.4B2A4B2AB$A6.4B3A4BA2B.A5B2AB2.2B2A3BA7B4.4B7.A
2.A.A.A2.A3B2AB3.A16.4BA3BA$3A3.4BA3BA5BA2BA3BA4B.3BA2BA2B6A5.4B7.
A.A2.2A2.BA3BA5.3A13.4BA3BA$3.A2.4BA3BA2BA5BA3BA4B4.B2A2B2A5BA5.3B
A7.2A7.B3AB7.A13.5B3AB$2.2A3.B2A5BA.2BA4B3A4B8.BA2B2A.2BA6.3BA15.
6B21.7B$2.5BA4BA5B4.9B8.B3AB3.A8.3AB14.6B15.2A4.7B$4.3BA3BABA4B6.
8B8.3A2B12.4B12.7B12.2A2.A4.5B$3.A.2BA4BA4B10.3B2A.2A5.B2A3B3.BA7.
4B11.6B12.A.A.A7.4B$2.A.A3.2A7B9.BABA.2A.A6.B2ABA2.ABAB7.4B11.6B
11.A.2B2AB2.2B.4B$3.A6.4BA3B5.A2.A.2A2B11.A.A.B4.A7.4B10.5B10.A.A.
2B.2A3B2A3B$13.ABABA5.4A2.BAB2A7.A.A.3A4.2B7.4B8.2BA3B10.2A.2AB3A
4BA4B$12.B2AB.3A7.3A3.A7.2A5.B3.2A8.4B7.BABA2B13.A.B3A5B2A2B5.A$
12.A.3AB2.A4.2A3.3A14.2A3.B10.4B6.BA4B13.A2.BA3BA2BA2BAB3.A.A$10.
3A2.B4A.A2.A3.2A17.2B2.A6.AB4.3BA4.BA3B2A11.2A.3A.2BABA2BABAB3.A.A
$9.A3.3A3.A.A3.3A2.A15.A2.AB.A4.BA.A4.ABAB3.2BA2B2A12.A.A3.3BA2BA
2BAB.B2A.2A$10.3A3.3A3.3A3.A.A15.BAB2.2A3.A2.AB5.2A2B3.BA4B12.A.A
3.6B2A4BA2.A$12.A2.A3.3A2.BAB2A.2A3.2A2.A7.A8.2B2.A6.4B.7B13.A5.3B
2A7BA.A$16.3A2.A.2A2B2.A2.A2.A3.3A14.2A3.B6.5B2A2B2A19.2BABA6B2ABA
.2A$18.A2.BABA.2A.A2.A3.3A3.A7.2A5.B3.2A6.4B6A20.3B.5BA.BA.A.A$22.
3B2A.A4.3A2.B4A7.A.A.3A4.2B7.3A3BAB14.2A5.3A3B2.B2A2B.A$12.A6.8B8.
A.3AB11.A.A.B4.A7.3BA2B14.2A2.A5.4B6.A.A.A$11.A.A3.9B9.B2AB.2A.A6.
BABAB2.ABAB7.3BA4B12.A.A.A6.4B5.A2.2A$12.A.5B3A4B10.ABABA.2A5.3BA
2B3.BA7.4B2.3BA11.A.2B2AB2.3B3A5.2A$13.5BA3BA4B6.4BA3B8.5B12.4B4.
3BA8.A.A.AB.A5B.3B$11.7BA3BA4B4.2A7B8.5B3.B8.4B6.3AB7.2A.AB2A6BABA
2B$11.2A3.2A5B2A.4BA4BA4B8.6B.B2A6.4B8.4B9.A.A7B2A3B5.A$12.A2.A4BA
4BA4BA3BABA3BA4.11B2A5.4B10.4B8.A2.A4B2A6B3.A.A$9.3A3.A3BABA3BA4BA
4BA4BA.15B5.4B12.2BAB5.2A.2AB.BA2BA2BA3B3.A.A$9.A6.4BA4BA4B.2A5B2A
2.7B3A5B4.2A2B14.2B2A5.A.A3.BABA2BABA2B.3A.2A$16.7B2A4.4BA3BA10BA
3BA2B5.ABAB16.2A2B4.A.A3.BA2BA2BA3BAB2.A$15.3BA4B6.4BA3BA9BA5BA2B
3.3BA18.4B4.A5.2B2A5B3AB.A$12.2A.ABABA10.4B3A9BA3BA3BA2B.4B20.4B9.
4BA4B3AB2A.2A$12.A.2A.B2AB9.9B.2B.3BA2BABA2BA6B22.3BA9.3B2A3B2A.2B
.A.A$15.B3A.A8.8B6.3BA3BA3BA5B24.ABAB8.3B.2B2.B2A2B.A$13.4AB2.3A3.
2A.2A3B11.2BA5BA6B25.2A2B7.3B7.A.A.A$13.A3.3A3.A2.A.2A.ABAB13.A5B
2.4B26.4B5.A.2B6.A2.2A$14.3A3.3A6.2B2A.A13.BA2BA4.B.B2A25.4B3.A.A.
B2A4.2A$17.A2.A6.2ABAB2.3A12.BABA2B4.BA.A25.BABA3.A2.BA.A$16.2A9.A
3.3A3.A13.ABA4B4.A26.B2AB8.A$28.3A3.3A15.A.A.2A4.2A26.A3B7.2A$31.A
2.A15.A.A.ABABA32.4B$30.2A17.A.A.A4.A33.3BA$49.A.A.A.3A35.3BA$50.A
3.2A38.3AB!
