#CSYNTH gun_1141 costs 10080 cells.
#C period 1141 fullperiod 1141 bbox 120 by 84
#CLL state-numbering golly
x = 120, y = 84, rule = LifeHistory
48.2A$48.A2.2A$19.2A16.A11.2A.3A$19.A.A15.3A10.B4.A$21.A4.2A12.A7.
B2AB3A12.A11.2A$17.4A.2A2.A2.A9.2A2.4B.B2A.A13.A.A9.B2AB$17.A2.A.A
.A.A.2A9.10B17.A.A9.3B$19.BABABA.A14.8B15.3A.2A9.B.B$20.B2ABA.A11.
11B14.A4.B8.5B$21.2B.BA11.12B2.4B9.3AB2A6.6B$20.3B14.18B11.A.2A4.
8B$11.2A6.4B14.19B12.13B$12.A6.B2A3B14.17B14.13B$12.A.AB3.B2A3B14.
17B13.15B$13.2AB.10B11.18B2.B10.15B$15.13B6.B3.23B5.B.17B$15.14B4.
2AB.28B3A3BA13B$15.15B3.2A21B2A5B5A2BABA13B$17.8B2.4B3.22B2A4B2A8B
A14B$17.6B5.4B2.3B.25B2A4B3A10B3.B2A$16.9B4.4B5.26BA3B2A11B4.A2.A$
3.2A10.4B4.2A5.4B5.26B2.2B2.B3.6B5.2A.A$4.A9.4B5.A7.4B4.8B3.7B2.4B
13.6B7.A$2.A10.4B7.3A5.4B2.5B8.6B17.9B6.2A$2.5A5.4B5.3A2.A6.3BA4B
11.3B19.2A3.4B$7.A4.4B5.A3.A8.ABA3B13.B21.A3.5B$4.3AB2.7B.BA.A.2A
10.2A2B33.3A3.9B$3.A.2B3.7B.B2A.A11.6B32.A5.9B$3.4A12B3.A10.8B37.
9B$.2A2.BA3B2A7B3.3A7.4B2.4B35.10B$A2.3AB.2B2A7B6.A5.4B4.4B33.12B$
2A.A.B3.10B5.2A4.4B6.4B22.2A8.13B$3.A8.8B4.9B8.4B22.A9.11B$3.2A7.
9B5.6B10.4B7.2A12.A.AB4.12B$13.3B2.4B2.2B2A4B11.4B6.A14.2AB.15B$
11.5B3.6BA2BA5B10.4B6.A15.17B$11.2A7.14B11.4B4.2A15.17B$12.A8.5B3A
5B12.4B2.2B17.17B.B$9.3A10.10B.B2A3.2A6.8B15.19B2A$9.A14.6B3.BA.A
3.A7.7B13.19B.B2A$24.6B6.A3.A.2A5.7B2.B2.2B2.20B4.B$26.4B6.2A3.A2.
A4.18B2A2BA13B$26.3B13.2AB3.18B3A2B2A2B.9B$23.AB.2B15.14B2A8B2A2B
3AB2.7B$22.A.AB2AB15.13B2A8B2A2B2A2B2.7B$22.A.ABABAB15.29B4.6B$19.
2A.A.A.A.A2.A13.17B.B.2B10.7B$19.A2.A2.2A.4A14.15B4.3B10.6B$21.2A
4.A18.15B5.A2B.2A6.7B$27.A.A17.13B5.A.A2B.A7.5B$28.2A19.13B2.A.AB
2.A8.6B2.2B$48.8B4.2A.A.A3.A7.13B$48.6B6.2ABA2.4A.A5.2A.11B$48.5B
8.B2.A.A3.A.A5.A5.8B6.2A$48.B.B9.2A.2A2.A2.A.A2.3A4.2B.3B2A4B4.A$
49.3B9.A.A2.2A3.A3.A5.2A4BA2BA4B4.A$48.B2AB9.A.A17.2AB.2BA2BA3B4.
2A$44.2A3.2A11.A19.B2.3B2A2B5.2B$44.A.A38.8B2.5B6.3B5.2A$46.A39.
15B4.4B5.A$46.2A6.2BAB13.B.7B5.2B2AB.10B4.5B.BA.A$48.A2B2.2BABAB6.
B.13B4.3B2A13B3.5B.B2A$46.3A5BABA45B3.7B$45.A2.B.4B2A45B3.8B$45.2A
3.50B3.8B4.2A$51.25B2A33B3.A.A$51.25B2A33B3.A$50.4B.B.11B3.41B.2A$
51.4B2.10B5.10B2.B3.B2.B3.18B$51.2B2AB4.2B2.4B7.6B14.18B3.2A$53.2A
10.4B8.3B13.5B3.12B.B2.A$66.4B9.B13.2A7.12B3A$67.4B8.2A13.A8.9B.BA
$68.4B8.A10.3A4.2A3.9B3.2A$69.4B6.A11.A6.A4.9B4.A$70.4B5.2A14.2A.A
4.2B2A3B.B2A2.A.2A$71.4B20.A2.3A.2BA2BA2B.BA.A.A.2A$72.4B20.2A2.BA
3BABAB5.A.A$73.4B21.4A4BA4B3.A.A$74.4B20.A.4B5.2A4.A$75.4B17.A.A.
2A7.A$76.3BA16.2A2.A9.3A$77.3BA19.A.A9.A$78.3AB19.2A!
