#CSYNTH gun_1474 costs 6612 cells.
#C period 1474 fullperiod 1474 bbox 87 by 76
#CLL state-numbering golly
x = 87, y = 76, rule = LifeHistory
70.B.B$69.B2A3B$69.A2BA2B10.2A$68.2B2A4B2.2B5.A$7.A49.2A9.13B.BA.A
$7.3A22.2A19.2A3.A6.16B.B2A$10.A5.2A14.A20.A2.A7.14BA4B$9.2A4.A.3A
13.A17.2A2.3A5.14BABA4B$9.4B2.A4.A11.2A13.2A.A2.2A3.2B3.15BA4B$11.
B2A.A.3A12.B8.2A4.A.2A.A2.3A2B3.18B.B2A$11.B2ABA.A12.3B7.A.A8.A.2A
B.A23B.BA.A$12.2BA2B11.6B6.BA9.A3.2A19B2.2B5.A$13.4B8.10B2.B3.2B6.
2A.2A21B10.2A$13.4B2.2B3.19B2.B3.A2.A.B.19B$13.16B2A16B3.A2.A5.16B
$11.18B2A17B3.2A6.10B3.4B.2A$9.39B12.8B3.B2A3B.A$2.A.2A2.4B2A34B
11.9B4.2AB2.A$2.2A.A5BAB2A33B10.10B8.A$7.4BAB2A4B.13B5.10B9.10B5.
5A.A$7.5BA5B6.B.7B5.10B8.7BA3B5.A4.A.A$8.10B22.8B7.7BABA2B7.A2.A.A
$8.10B22.8B6.8BABA2B6.2A3.A$9.9B21.11B3.10BA3B$9.9B21.11B2.13B.B2A
$9.8B21.26B2.BA.A$10.8B21.4B2A17B7.A$11.6B24.BA2BA16B7.2A$11.6B4.
2A18.BABA11B.4B$11.6B4.A17.4BA10B4.4B$10.7B.BA.A17.2A3.10B5.4B$10.
6B2.B2A19.A3.10B6.4B$11.8B18.3A4.8B.B2A5.4B$11.8B18.A7.7B.BA.A5.4B
$10.8B26.8B4.A6.4B$10.7B28.8B3.2A6.4B$.2A7.6B30.B3A3B12.4B$2.A6.7B
27.3BA2BA4B12.4B$2.A.AB3.7B26.4B2A2BA2B14.4B$3.2AB2.8B26.7B2A2B15.
4B$5.11B26.11B16.4B$5.11B26.4BA3B2.B2A15.4B$5.11B26.2B2A3B3.BA.A
15.4B$4.11B27.3B2A2B6.A16.4B$5.7B30.6B7.2A16.4B$2A3.8B28.7B26.4B$.
A4.8B26.8B27.4B$.A.AB.7B7.A18.8B29.4B$2.2AB.8B4.3A18.8B30.4B$4.10B
3.A19.2AB2.6B30.4B$4.10B3.2A17.A.AB.7B31.4B$4.10BA4B17.A4.6B33.4B$
.B.10BABAB18.2A4.6B34.4B$2A10BA2BAB24.6B35.4B$2A11B2A4B21.8B35.3BA
$.B2.16B21.8B35.ABA$3.4B.11B21.9B36.2A$3.2AB2.4B2A5B21.9B37.B$4.A
5.B4A3B22.10B$.3A6.2AB3A2B22.5B2A3B$.A8.B2A3BAB2A5.7B.B6.5B2A4B$
10.B2A4B3A5.13B.12B$10.2B2A2B2A34BA.2A$10.2B3A6B2A27B2.2A.A$10.4BA
3BA3B2A25B$10.8B2AB2A4B2A18B$11.7B4A5B2A16B$12.B2.19B3.2B2.4B$15.
2B3.B2.10B8.4B$16.AB6.6B11.2B2AB$15.A.A7.3B12.A.A2BAB2.2A$15.2A8.B
12.3A.A.2AB3.A2.A$24.2A11.A4.A2.4B.A.A.A$24.A13.3A.A4.2A.A2.A$25.A
14.2A5.A2.A$24.2A22.2A!
