#CSYNTH gun_1995 costs 5025 cells.
#C period 1995 fullperiod 1995 bbox 75 by 67
#CLL state-numbering golly
x = 75, y = 67, rule = LifeHistory
30.A$28.3A$27.A$20.A6.2A$19.A.A3.4B$20.A.5B$21.7B$21.10B.B$21.9B.B
2A$21.3B2A6B2A$21.3B2A4B.2B$16.2B2.10B26.B$15.2A13B24.BA3B$15.2A
13B24.AB3A3.B$16.2B.11B24.5BA.B2A$19.9B.B2A21.B2A3BA2B2A$21.7B.BA.
A20.A2.2BA2B.B$20.7B5.A21.4AB$19.8B5.2A5.2A$18.4B2.4B12.A8.A4.4AB$
17.4B4.4B10.A7.3A3.A2.2BA2B.B$4.2A10.4B6.4B9.2A5.A6.B2A3BA2B2A$5.A
9.4B8.4B10.BA.B.2A6.5BA.B2A$3.A7.2B.4B5.2A3.4B7.8AB6.AB3A3.B$3.2A
6.7B5.A5.4B5.A2.B.3A8.BA3B7.2A$.2A2.BAB.10B.BA.A6.4B4.4A3BA10.B9.A
$A2.4A12B.B2A8.4B7.3AB11.3BA2.2A.A$2A.A2.4B2A9B11.4B4.AB.A2B2.A7B.
5B.2BA$.A.A.2A3B2A9B12.4B3.2A2.B.3BA4B2A2BA5B$.A.A.2AB.12B13.4B6.
2A3BA3B2A2BA6B$2A.AB.B3.11B14.4B4.BA5BA2B2A3BA3B2A$3.A8.B.8B14.4B
2.2BA4BA2B2A4BA3B$3.A.A8.9B14.3B.4BA5B.7BA$4.2A9.3B2.4B10.2B.7B3.A
3B$13.5B3.3BA8.2A5BA2B8.B$13.2A7.B2AB7.2A3B2A2B8.BAB6.A$10.A3.A8.A
BAB7.B.3B2A9.3A3.A2.3A3.2A$10.4A10.4B8.5B8.ABABA2.3A3.A2.A$25.4B6.
7B5.3A.B.3A4.2A.A.A$10.2A4.2A.2A5.4B4.9B3.A4.2A3.4A.A.A2.2A$11.A4.
A.2A.A5.4B2.4B3.4B3.4A.2ABA3.B.A.2A.A$11.A.2A.A4.A6.9B4.4B5.A.A.BA
BABA.AB.A.A$9.2A2.A.A.4A.2A5.6B7.4B3.A2.A.A2.2B5AB.2A$10.A.A2.A.A
2.B.A.A4.7B7.4B3.3A.4A6.A.A$9.A2.2A5BA2BA.A4.7B8.4B5.A4.6A2.A$10.
2A2.B2A2BAB.A.2A2.7B2A8.4B3.A2.2A2.A3.A.A$12.2A2.4B3AB.A2B.2B2AB.
2A9.4B3.2A.2A3.A.A.2A$12.A5.BA3.2A4B.ABAB13.4B9.3A$13.A5.4A2.A2B2.
BAB15.4B7.A10.B$12.2A8.A.2A5.4B14.4B6.2A8.BAB$19.2A.A.A8.2A7.A7.4B
.6B8.3A$19.2A.A.A8.A8.3A6.8B9.5B$23.A10.3A8.A6.10B6.5B$36.A7.2A5.B
.10B4.2B3A2B$44.18BAB3.7B$46.15BABA5BABA3B$45.2B2A12BABA.4BABA3B$
44.2BA2BA12BA4.7B$29.2B13.3B2A4B2.7B5.2B3A2B$27.6B6.2B.9B4.7B6.5B$
25.10B.14B6.3B9.5B$23.3B8A15B7.5B8.3A$22.4BAB4ABA15B10.2A8.BAB$23.
3B8A3B.12B9.A10.B$25.10B4.3BA6B11.3A$27.6B7.3BA5B13.A$29.2B10.3A3B!
