#CSYNTH gun_2394 costs 3300 cells.
#C period 2394 fullperiod 2394 bbox 66 by 50
#CLL state-numbering golly
x = 66, y = 50, rule = LifeHistory
49.2A2.2A.2A$48.A2.A2.A.A.A.2A$48.2A.3A2.A.2A2.A$49.A4.4A3.A.A$47.
A2.B2A.B3.3A2.A$45.4A.B3A2BA2B4.2A$44.A4.AB3.2A.BA$43.A2.2AB.B2AB.
2A4.4A$44.2A2.AB.2A.BAB3.A3.A$46.B2A.4A.2BABA.AB$30.2A9.2A3.2B.A4B
2ABA2B.2A$30.A.A8.A2.A2B.A.4B6.3A$32.A2.2A6.2A.AB3.2A8.B$31.2A.A.A
9.A4.2B$30.B.B.A8.3A5.5B3.B$30.B2ABA8.A6.4B2A6B$24.5B.BAB.A.2A.A
10.3BA2B2A4B$22.B2A7B2AB.A.2A7.B.3BA5BA4B.B$18.6BA10B.A9.5BA2B2A2B
A5B2A$17.4B3A11B2A8.5B2AB2AB3A5B2A$17.3BA2BA4BA5B.B9.5BA2BA11B$17.
4B2A2B.2B2A4B10.6BAB2AB.3B2.4B$15.B.5BA4BA2BA3B8.9B2A6B$14.2A11B3A
4B6.6B2A9B$14.A.10BA9B4.3B.B2ABA6B$11.2A.A.B2A7B2AB3.13BA2BA5B$11.
A.2A.A.BAB.5B4.9B3AB2AB2A5B$16.AB2AB9.10BA2B2A2BA5B$16.A.B.B8.4B2.
5BA5BA3B.B$14.A.A.2A8.4B3.6B2A2BA3B$14.2A2.A8.4B4.8B2A4B4.2A$18.A.
A5.4B5.2A.2B3.5B6.A$11.A7.2A4.4B7.A9.2B4.A6.2A$11.3A10.4B5.3A10.2A
3.A.4A2.A$14.A8.4B6.A11.4B2.A2.A2.A.A$13.2A7.4B17.2A4B3AB2A.BA.2A$
13.5B3.4B10.A5.A2B.4A.A2.3A.B2.A$4.2A9.3B2.4B10.A.A3.A2BAB.2A.2BAB
2.A.2A$3.A.A8.9B10.A2.A2.BA.2A.B2ABAB.A.A2.A$3.A8.B.8B10.A3.2A2.BA
.2A2.B2.A.A.2A3.A$2A.AB.B3.BA9B12.3A3.AB.5B.2A2BAB4.2A$.A.A.2AB.3A
9B7.2A6.4AB2.A3BA3.3B$.A.A.2A2B2A10B7.A2.3ABA2.B6.A.3A2B2ABA2.2A$
2A.A2.5BA9B8.2A3.A.BA5.A.2AB.2A3.A.BA.A$A2.4A3BA8B.B2A8.2AB2.BA3.A
2BAB2.BA4.A.2AB$.2A2.BAB.BA8B.BA.A7.A.A.BAB2.BA2B4.BAB4.AB$3.2A6.
7B5.A8.ABABA4.A7.A$3.A7.2B.3BA5.2A$5.A9.3BA$4.2A10.3AB!
