#CSYNTH gun_6560 costs 7198 cells.
#C period 6560 fullperiod 6560 bbox 122 by 59
#CLL state-numbering golly
x = 122, y = 59, rule = LifeHistory
79.3B9.2A24.A$76.4B3A9.A23.A.A$76.3A4B8.A23.2BAB$75.A3BA2B9.2A23.
2B$68.A5.BA3BAB11.B21.7B$67.A.A3.2A5B2A10.3B19.7B$67.BA3BA4BAB3A9.
6B16.7B2A$68.4BA3BABA5B3.B2.2B2A6B11.9B2A$67.5BA4BA13BA2BA6B3.2B2.
11B.B$66.BA5B3A15BA4BA21B$66.A.A3.20B6A20B$67.A.A2.6BA16BAB2A19B$
68.2A2.5B3A15BABA20B$72.23B2A20B$72.15B5.13B.4B$68.A.2A2B.12B5.7B.
B4.BA2B$66.3AB2AB3.11B17.2A2B$65.A4.B6.10B16.2B2A$66.3A.2A6.8B16.
4B$68.A.A10.4B16.4B$59.A8.A.A9.4B16.4B$43.2A13.A.A8.A9.4B16.4B9.A$
25.2A17.A13.A.A17.4B16.4B9.A.A$26.A17.A.AB9.2A.3A14.4B16.4B10.A.A$
7.A17.A19.2AB.3B6.B4.A12.4B16.8B6.2A.3A$7.3A15.2A20.7B3.2AB3A12.4B
16.10B6.B4.A$10.A15.B20.9B.2A.A13.4B17.11B3.B2AB3A$9.2A15.3B19.7B.
3B14.4B4.B.7B5.12B.2B2A.A$9.4B12.6B16.10B15.4B.13B5.6B3A6B$11.5B.B
3.B2.10B11.13B4.B2.34BAB3A6B$10.19BABA3B3.2B2.16B3.4BABA2B2A26BA
11B2.2A$11.17B2AB2A5B2A18B3.4BA2B2A27B2A11B2.A.A$11.2BA15BA7BA2BA
11B.12BA2B2A2BA13B2A10B2A10B3.A.A$10.2B2A17B2A4BA2B2A10B.4B2.7B2A
2BABA13B2A11BA14BAB$2.2B6.ABA2BA9BA5B2A3BA2B2A15B2.BA14B2.2B3.34B$
2.3B3.BA6B2A7BABA3BA4B4A15B3.ABA10B11.10B2.B3.16B$2B3A3.2B2A3BABA
3B5.4BA8B.4B6.4B4.ABA8B16.6B9.13BAB$2B3AB3.2B7A3B5.A6B.B5.3B6.4B6.
A8B19.3B10.9B3.A.A$.B3A.B2.5BABA2B19.4B6.4B7.10B20.B11.7B5.A$3.B.
3A2B.6B21.2A7.4B9.9B20.2A9.7B$4.B3A2B2.5B22.A6.4B11.8B21.A8.BA5B$
5.3A2B4.B15.B2A3.3A6.4B12.7B21.A9.BA5B$5.3B5.2A15.3AB2.A7.4B14.5B
22.2A9.A2B$6.2B3.A4BA12.A.2AB9.4B17.2B$10.BA4BAB10.A.A.2B8.4B$10.B
A4BAB10.A2.A2.2B5.4B$12.A2BA13.2A3.3B3.4B$10.A.A2.A.A16.B2A.5B$10.
2A4.2A3.2A.2A7.BA2BA4B$21.2A.A8.2B2A4B$24.A.B3.2A8B$24.2A2B.3BA7B$
22.2A2.A2BAB2A7B$21.A2.AB2A12B$21.2A.A.AB3.7B.B2A$22.A2.3AB2.7B.BA
.A$22.A5.A4.2BAB5.A$23.5A5.3BA5.2A$25.A8.3AB!
