#CSYNTH gun_9840 costs 3723 cells.
#C period 9840 fullperiod 9840 bbox 73 by 51
#CLL state-numbering golly
x = 73, y = 51, rule = LifeHistory
44.2B17.2B$28.A13.6B15.BAB$28.3A11.7B12.2BABA$19.A11.A9.9B11.BA3BA
$18.A.A9.2A10.9B11.BA2B.A$17.A2.A9.5B7.10B12.A.2BAB$17.4A.2A8.3B6.
12B12.A3BAB$21.A.A5.7B4.9B.4B12.ABA2B$14.2A3.A.A7.7B2.4B2A3B4.4B
11.BAB$14.A2.3A2BA5.A12BA2BA2B5.4B11.2B$15.2A3.2B.A2B.ABA12B2A2B7.
4B5.AB3.B.2AB$17.B6A3BABA15B9.4B3.A.A3B5A$15.2ABA.4B3.BA18B8.4B3.A
4B2ABABA$14.A2.2A2.B6.10B.B5.2A9.4B3.B.BA2BAB2A$.4B9.2A13.10B6.A
11.4B3.BA2B2A.B$.4AB26.8B6.3A9.4B3.B4A$A4BA24.6B.4B7.A10.5B.2BA$A
2B.A.AB22.2A6.4B18.5B$.A3.ABAB22.A7.4B11.2A5.4B$6.BAB19.3A9.4B10.A
7.4B$5.2BAB3.3B13.A5.2A5.4B.2B7.A7.4B$4.A2BAB3.4B19.A5.7B6.2A8.4B$
5.2A2.8B.4B13.A.AB.6B2A2B.BAB2.2A7.4B$9.16B11.2AB.5BA2BA3B4A2.A7.
4B$9.17B12.8B2A5B2.A.2A8.4B$11.15B12.14B2A.A.A10.4B$11.16B2.2A7.
12B.B2A.A.A11.3BA$10.17B.B2AB6.11B3.B.BA.2A11.ABA$9.18B2.3B5.4B2A
2B.B8.A15.2A$8.18B4.B2.2B.4BA2BAB8.A.A16.B$7.20B.12B.2AB9.2A$7.19B
2.11B2.3B3.2A$5.11BA22B3.2B2.A2.A$5.10B3A14B3A4B5.BA.A.A$4.10BA2BA
16BA2B.B2A3.3A.A$4.9B3A17BA4.BA.A2.3AB$4.8B.BA2BA15B8.A3.3B$2.2AB.
5B.3B3A14B9.2A$.A.AB.4B3.5BA4BA7B$.A5.3B2.3B2AB3A2BA6B$2A5.2B3.3BA
13B$12.4B2AB2A7B$13.3B2A2BA7B5.2A.2A$13.5BA11B2.2BA.A$14.4BABA9B2.
BAB.A$17.2B2A.8B.4B.A.2A$23.4B3.2BABA.A.A$24.3B4.A.A.2A.A$32.2A3.A
$34.3A$34.A!
