#CSYNTH gun_1195 costs 8075 cells.
#C period 1195 fullperiod 1195 bbox 95 by 85
#CLL state-numbering golly
x = 95, y = 85, rule = LifeHistory
77.2A$66.2A7.2B2AB$65.B2AB6.4B$66.2B4.6B4.2A$65.2B4.8B2.B2AB$63.
17B.3B$62.18B2.B.2B$60.27B$59.17BA11B$58.16B2AB2A10B$57.20B2A10B$
56.4B3.10BA3BABA9B$55.4B5.B.16B.B4.B2A$54.4B9.2B.4BA5B8.BA.A$45.A
7.4B15.3B3AB12.A$43.3A6.4B15.5B2A4B9.2A$42.A8.4B16.2A10B$41.A.A6.
4B17.12B$40.BA.A5.4B19.11B2.2A2.2A.2A$39.3BA5.4B18.A2BA.8B2.A.A2.A
.A.A$37.4B6.4B19.AB4.7B3.B.2A2.A.A$35.6B5.4B21.A4.7B2.2B2.A.A.A$
34.7B4.4B19.3A6.4BAB.2BAB.A2.A$27.B.4B.8B2.4B20.A8.5B2ABA.A.3A$26.
2AB.17B30.4B2A2B.A.A$26.2A18B32.5B4.A2.2A$27.2B.16B32.6B4.2A.3A$
30.16B31.6B6.B4.A$31.15B31.7B3.B2AB3A$32.12B.B2A30.8B.B2A.A$32.11B
2.BA.A29.10B$33.10B5.A28.3B2A6B$33.6B2A2B5.2A21.2A5.2B2A6B$33.6B2A
3B28.A5.10B$33.10B29.A.AB2.11B$29.A.2AB.8B30.2AB.12B$27.3AB2AB3.7B
31.15B$26.A4.B6.6B31.16B$27.3A.2A4.6B32.16B.2B$29.2A2.A4.5B32.18B
2A$32.A.A.2B2A4B30.17B.B2A$28.A.2A.A.AB2A5B8.A20.4B2.8B.4B.B$28.2A
.A.BA2B.BA4B6.3A19.4B4.7B$31.A2.2B2.7B4.A21.4B5.6B$31.2A.B3.7B4.BA
19.4B6.4B$29.2A2.A.A2.8B.A2BA18.4B5.A3B$28.A2.A2.2A2.11B19.4B5.A.A
B$29.2A7.12B17.4B6.A.A$38.10B2A16.4B8.A$39.4B2A5B15.4B6.3A$28.2A
12.B3A5B13.4B7.A$29.A11.5BA4B.2B9.4B$29.A.AB4.B.16B7.4B$30.2AB2.6B
ABA3BA10B3.4B$32.10B2A20B$31.11B2AB2A16B$31.13BA17B$31.30B$31.28B$
30.4B.B5.17B$29.4B11.14B$28.4B12.14B$2A.2A22.4B14.2B4.3B$2A.2AB20.
4B3.A10.2B6.B$5.2AB4.A12.4B4.3A7.B2AB$5A2BA4.3A9.4B8.A7.2A3.2A$A3.
A.2BA6.A7.4B8.2A11.A.3A$2.A2.3B6.2A6.4B9.5B8.A4.A$.5AB7.6B.4B7.A4.
3BAB5.2A.3A$A4.B.A8.8B6.3A3.3BABAB2.2BA.BA$A.ABA3BA4.10B6.A5.4BA2B
A4B2A$.2A.3BAB3.10B.B5.2A5.4B2A5B2A.AB$4.A.AB3.BA18B6.6B2.2BA.BAB
2A$.5A5BABA15B9.5B4.2A.A.2B$.A2.BA4B.ABA12B2A2B7.7B4.A.A.ABA$2.4A
2B4.A12BA2BA2B5.4B.4B3.A.3A2.A$A.A2.A2B5.7B2.4B2A3B4.4B3.4B3.A3.3A
$2A2.2A7.7B4.9B.4B5.4B3.3A$5.A.A8.3B6.12B7.4B5.A$3.A2.A.A5.5B7.10B
9.4B3.2A$3.2A.A.A5.2A10.9B11.4B$5.A.A7.A9.9B13.4B$5.A6.3A11.7B15.
3BA$4.2A6.A13.6B17.3BA$28.2B20.3AB!
