#CSYNTH gun_1209 costs 5520 cells.
#C period 1209 fullperiod 1209 bbox 80 by 69
#CLL state-numbering golly
x = 80, y = 69, rule = LifeHistory
48.2A$47.A.A$41.2A4.A$39.A2.A2.2A.4A$39.2A.A.A.A.A2.A$42.A.ABABAB$
42.A.AB2AB$43.AB.2B$46.3B$46.4B6.2A$44.3B2AB6.A$44.3B2AB3.BA.A$42.
10B.B2A$33.A7.13B$31.3A6.14B$30.A8.15B$29.A.A6.4B2.8B$28.BA.A5.4B
5.6B$27.3BA5.4B4.9B$25.4B6.4B5.2A4.4B$23.6B5.4B7.A5.4B$22.7B4.4B5.
3A7.4B$15.B.4B.8B2.4B6.A10.4B$14.2AB.17B19.4B$14.2A18B21.4B$15.2B.
16B22.4B$18.16B23.4B$19.15B24.4B$20.12B.B2A23.4B$20.11B2.BA.A23.4B
$21.10B5.A24.4B10.2A$21.6B2A2B5.2A24.4B9.A$21.6B2A3B31.4B10.A$21.
10B26.2A5.4B5.5A$17.A.2AB.8B27.A5.4B4.A$15.3AB2AB3.7B26.A.AB.7B2.B
3A$14.A4.B6.6B27.2AB.7B3.2B.A$15.3A.2A4.6B30.12B4A$17.2A2.A4.5B30.
7B2A3BAB2.2A$20.A.A.8B29.7B2A2B.B3A2.A$16.A.2A.A.A8B8.A20.10B3.B.A
.2A$16.2A.A.BA2B.6B6.3A19.8B8.A$19.A2.2B2.7B4.A21.9B7.2A$19.2A.B3.
7B4.2A19.2A2B2.3B$17.2A2.A.A2.8B.4B18.ABAB3.5B$16.A2.A2.2A2.11B19.
3BA7.2A$17.2A7.12B17.4B8.A$26.12B16.4B10.3A$27.11B15.4B13.A$16.2A
12.9B13.4B$17.A11.10B.2B9.4B$11.A5.A.AB4.B.16B7.4B$11.3A4.2AB2.23B
3.4B$14.A5.32B$13.2A4.32B$13.5B.31B$4.2A9.3B.30B$3.A.A8.33B$3.A8.B
.8B.B5.17B$2A.AB.B3.BA9B11.14B$.A.A.2AB.3A9B11.14B$.A.A.2A2B2A10B
12.2B4.3B$2A.A2.5BA9B11.2B6.B$A2.4A3BA8B.B2A8.B2AB$.2A2.BAB.BA8B.B
A.A8.2A$3.2A6.7B5.A$3.A7.2B.3BA5.2A$5.A9.3BA$4.2A10.3AB!
