#CSYNTH gun_8127 costs 4940 cells.
#C period 8127 fullperiod 8127 bbox 95 by 52
#CLL state-numbering golly
x = 95, y = 52, rule = LifeHistory
26.A$24.3A$23.A$23.2A$2A19.4B50.A$.A10.B3.B.5B40.A9.3A$.A.AB3.12BA
4B4.3B9.A20.A.A7.A$2.2AB.13BABA4B3.3B9.3A18.A.A7.2A$4.14BA14B11.A
15.3A.2A3.5B$4.15BABA13B8.2A14.A4.B4.3B$4.15BA15B8.4B13.3AB2AB.2BA
2B3.2A$5.10BA4B3A12B10.2B15.A.2AB.BABA2B.A2B3.4B$4.10B2A5BA17B4.8B
15.2BA3BAB2.2BAB.4A.B$5.6B2.27B2.11B3.2A8.2BA3BA2B2.B.3A2.4A$6.3B
6.2B3A12B.12B3A5B2.B2AB7.2BA3BA2B2.2A.2A2.3A.A$17.6B2.28B3.3B8.2BA
BA3B3.A.B2.B2.BA$18.4B4.17BA9B4.B2.2B5.3BA4B3.A.5A$30.12B3A19B.9B
5.2A.2B$30.15BA22B.5B$30.13BABA5BA20B$32.14BA4BA19B12.A$33.3B3.4BA
BA5BA12B3.4B10.3A$33.3B4.4BA12B.B9.4B8.A$42.5B.5B16.4B7.2A$40.4B6.
B19.4B3.5B$40.2A9.B19.4B2.3B9.2A$41.A8.BAB19.9B8.A.A$38.3A7.2A.2A
20.8B.B8.A$38.A9.5AB20.11B3.B.BA.2A$49.B.2A21.12B.B2A.A.A$51.AB21.
14B2A.A.A$52.2B20.8B2A5B2.A.2A$51.ABA18.2AB.5BA2BA3B4A2.A$52.A18.A
.AB.6B2A2B.BAB2.2A$64.A6.A5.7B6.2A$64.3A3.2A5.4B.2B7.A$67.A8.4B9.A
$66.2A7.4B10.2A$66.5B3.4B$57.2A9.3B2.4B$56.A.A8.9B$56.A8.B.8B$53.
2A.AB.B3.BA9B$54.A.A.2AB.3A9B$54.A.A.2A2B2A10B$53.2A.A2.5BA9B$53.A
2.4A3BA8B.B2A$54.2A2.BAB.BA8B.BA.A$56.2A6.7B5.A$56.A7.2B.3BA5.2A$
57.A10.3BA$56.2A11.3AB!
