#CSYNTH gun_2020 costs 5950 cells.
#C period 2020 fullperiod 2020 bbox 85 by 70
#CLL state-numbering golly
x = 85, y = 70, rule = LifeHistory
63.2A$59.A.A2.A$57.3A.2A11.A$56.A4.B10.3A$31.2A11.A12.3AB2AB7.A$
30.B2AB9.A.A13.A.2AB.4B2.2A$31.3B9.A.A17.10B$30.B.B9.2A.3A15.8B$
30.5B8.B4.A14.11B$30.6B6.2AB3A9.4B2.12B$30.8B4.2A.A11.18B$31.13B
12.19B$29.13B14.17B$28.15B13.17B$28.15B10.B2.18B$27.17B.B5.23B3.B$
27.48B.B2A$26.13B2A13B2A21B2A$25.9B2A3B2A13B2A22B$24.2AB3.3BABA38B
.3B5.2A$23.A2.A4.4BA38B9.A$22.A.2A5.7B2.B2.2B2.26B4.B2.BA.A$22.A7.
7B12.4B2.7B3.8B3.3B.B2A$21.2A6.8B18.6B8.5B.6B$28.4B2.2B21.3B11.10B
$27.4B4.2A21.B13.5B2A2B$26.4B6.A36.3BA2BA$25.4B5.A37.4BABAB$24.4B
6.2A35.6BAB$23.4B43.4B2.3B$22.4B43.4B3.3B$22.4B42.4B6.B$21.5B41.4B
6.4B$18.9B39.4B6.5A2.2A$18.9B38.4B7.2A2B.A2.A$18.9B37.4B9.B.2BA.A$
18.10B35.4B10.3B2.A$17.12B33.4B10.2AB3A$16.13B8.2A22.4B11.2BA$17.
11B9.A22.4B12.3B3A$18.12B4.BA.A13.2A6.4B12.2B3A2.A$18.15B.B2A15.A
5.4B12.4AB2.2A$18.17B15.A6.4B12.A.2AB$18.17B15.2A4.4B14.AB$15.B.
17B17.2B2.4B$14.2A19B15.8B6.2A$14.2AB.19B13.7B7.A$15.B4.20B2.2B2.B
2.7B5.2A.A$20.36B4.A2.A$20.9B.27B3.B2A$21.7B2.16B2A14B$11.B2A7.7B
2.16B2A13B$11.3AB6.6B4.29B$10.A.2AB6.7B10.2B.B.17B$9.A.A.2B6.6B10.
3B4.15B$9.A2.A2.2B3.7B6.2A.2BA5.15B$10.2A3.3B3.5B7.A.2BA.A5.13B$4.
2A9.B2A.7B8.A2.BA.A2.13B$3.A.A8.BA2BA9B7.A3.A.A.2A4.8B$3.A8.B.2B2A
7B.2A5.A.4A2.AB2A6.6B$2A.AB.B3.BA9B5.A5.A.A3.A.A2.B8.5B$.A.A.2AB.
3A9B6.3A2.A.A2.A2.2A.2A9.B.B$.A.A.2A2B2A10B8.A3.A3.2A2.A.A9.3B$2A.
A2.5BA9B20.A.A9.B2AB$A2.4A3BA8B.B2A19.A11.2A$.2A2.BAB.BA8B.BA.A$3.
2A6.7B5.A$3.A7.2B.3BA5.2A$4.A10.3BA$3.2A11.3AB!
