#CSYNTH gun_5743 costs 12810 cells.
#C period 5743 fullperiod 5743 bbox 122 by 105
#CLL state-numbering golly
x = 122, y = 105, rule = LifeHistory
37.2A2.A$36.A.4A$36.A$34.2A.7A$32.A2.A.A3.B2.A$32.2A2.BA.2A2.2A$
36.2AB2AB6.2A$36.5B8.A$37.3B7.A$36.5B6.5A$36.BA4B9.A$34.2BABA3B3.
4AB$34.2BABA4B2.A2.AB$35.2BA4B4.4B$34.15B3.2A$33.14B2A.A2.A$32.11B
A3B2A.2A$31.11BABAB.B$30.4B2.7BAB$29.4B5.7B$28.4B4.9B$27.4B5.2A4.
4B$26.4B7.A5.2B2A$11.A13.4B5.3A7.2A2B$11.3A10.4B6.A10.BA2B$14.A8.
4B19.4B$13.2A7.4B21.4B$13.5B3.4B23.4B$4.2A9.3B2.4B25.4B$3.A.A8.9B
10.2A15.4B25.A11.2A$3.A8.B.8B11.A.A15.4B23.A.A9.B2AB$2A.AB.B3.11B
14.A4.2A10.4B10.A3.A3.2A2.A.A9.3B$.A.A.2AB.12B10.4A.2A2.A2.A9.4B7.
3A2.A.A2.A2.2A.2A9.B.B$.A.A.2A14B10.A2.A.A.A.A.2A10.4B5.A5.A.A3.A.
A2.B8.5B$2A.A2.5B2A8B6.2A4.BABABA.A14.7B.2A5.A.4A2.AB2A6.6B$A2.4A
3BA2BA5B.B2A5.A5.B2ABA.A15.9B7.A3.A.A.2A4.8B$.2A2.BAB.2B2A6B.BA.A
2.A8.2B.BA17.6B8.A2.BA.A2.13B$3.2A6.7B5.A2.2A6.3B21.5B7.A.2BA.A5.
13B$3.A7.2B.4B5.2A.A6.4B20.7B6.2A.2BA5.15B$5.A9.4B7.A6.B2A3B19.6B
10.3B4.15B$4.2A10.4B6.A.AB3.B2A3B19.7B10.2B.B.17B$17.4B6.2AB.10B
17.6B4.29B$18.4B7.13B16.7B2.16B2A13B$19.4B6.14B15.7B2.16B2A14B$20.
4B5.15B13.9B.27B3.B2A$21.4B6.8B2.4B12.36B4.A2.A$22.4B5.6B5.4B6.B4.
20B2.2B2.B2.7B5.2A.A$23.4B3.9B4.4B4.2AB.19B13.7B7.A$24.4B.4B4.2A5.
4B3.2A19B15.8B6.2A$25.7B5.A7.4B3.B.17B17.2B2.4B$26.5B7.3A5.4B5.17B
15.2A4.4B$26.5B9.A6.4B4.17B15.A6.4B$25.7B16.4B3.15B.B2A15.A5.4B$
24.4B.4B16.4B2.12B4.BA.A13.2A6.4B$23.4B3.4B7.A8.15B9.A22.4B$22.4B
5.4B6.3A7.15B8.2A22.4B$21.4B7.4B8.A7.14B33.4B$20.4B9.4B6.A.A7.12B
35.4B$19.4B11.4B5.A.AB7.10B37.4B$18.4B13.4B5.A3B7.9B38.4B$17.4B15.
4B6.4B5.9B39.4B10.2A$4.2A10.4B17.4B5.6B5.6B41.4B9.A$5.A9.4B19.4B4.
7B.2B2.5B42.4B10.A$3.A10.4B21.4B2.8B.9B36.2A5.4B5.5A$3.5A5.4B5.2A
16.24B36.A5.4B4.A$8.A4.4B5.A18.24B35.A.AB.7B2.B3A$5.3AB2.7B.BA.A
18.19B2.4B35.2AB.7B3.2B.A$4.A.2B3.7B.B2A18.19B4.4B36.12B4A$4.4A12B
16.2A.A17B7.4B35.7B2A3BAB2.2A$2.2A2.BA3B2A7B16.A.2A.15B9.4B34.7B2A
2B.B3A2.A$.A2.3AB.2B2A7B23.12B11.4B33.10B3.B.A.2A$.2A.A.B3.10B24.
10B13.4B31.8B8.A$4.A8.8B23.2B2A6B14.4B29.9B7.2A$4.2A7.9B21.3B2A6B
15.4B27.4B2.3B$14.3B2.4B21.10B3.2A.2A8.4B25.4B3.5B$12.5B3.4B20.8B.
B2A2.A.A10.4B23.4B7.2A$12.2A7.4B18.7B3.B2ABA2.A11.4B21.4B8.A$13.A
8.4B17.6B6.B.A.A13.4B19.4B10.3A$10.3A10.4B17.6B4.2A2.A15.4B10.A6.
4B13.A$10.A13.4B16.8B.A2.2A17.4B7.3A5.4B$25.4B14.9BA.A.A19.4B5.A7.
4B$26.4B4.A8.7B.2BAB.A20.4B4.2A5.4B$27.4B3.3A6.6B3.2B2.A.2A18.9B4.
4B$28.4B5.A4.7B4.B.2A2.A19.6B5.4B$29.4B3.2A4.7B3.A.A2.A21.8B2.4B$
30.4B2.4B.8B3.2A2.A20.15B$31.2B2A3.11B8.3A17.14B$32.BABA.12B10.A
17.13B$33.A15B26.2AB.10B$34.14B10.A15.A.AB3.B2A3B$35.10B11.3A15.A
6.B2A3B$34.12B9.A17.2A6.4B$33.16B6.2A25.3B$26.A6.24B26.2B.BA$26.3A
3.23B27.B2ABA.A$29.A2.24B25.BABABA.A$28.A.B.24B23.A2.A.A.A.A.2A$
28.2A27B22.4A.2A2.A2.A$26.2A2.A22B.4B25.A4.2A$25.A2.3A3B3.2B3.B7.
2B3.4B22.A.A$26.A4.2B3.4B.3B5.BA2B3.4B21.2A$27.4A5.B2AB.B2AB4.A.A
5.4B$29.A7.2A3.2A6.A7.3BA$31.A27.3BA$30.2A28.3AB!
