#CSYNTH gun_1055 costs 5727 cells.
#C period 1055 fullperiod 1055 bbox 83 by 69
#CLL state-numbering golly
x = 83, y = 69, rule = LifeHistory
65.2A$54.2A7.2B2AB$53.B2AB6.4B$54.2B4.6B4.2A$53.2B4.8B2.B2AB$51.
17B.3B$50.18B2.B.2B$40.A7.27B$38.3A6.29B$37.A8.31B$36.A.A6.32B$35.
BA.A5.4B3.26B$34.3BA5.4B5.B.16B.B4.B2A$32.4B6.4B9.2B.10B8.BA.A$30.
6B5.4B15.7B12.A$29.7B4.4B15.5B2A4B9.2A$22.B.4B.8B2.4B16.4BABA5B$
21.2AB.17B17.4BA7B$21.2A18B19.3BABA5B8.A$22.2B.16B17.4B.3BA4B3.2A
2.A.A$25.17B16.2A4.ABA4B3.A.A2.A.A$26.16BA.2A13.A4.2BA4B4.B.2A2.A$
27.14B.2A.A10.3A6.2BA3B3.2B2.A.A$27.12B17.A8.7B.2BAB.A.2A$28.10B
27.9BA.A.A$28.6B2A2B28.8B.A2.4A$8.2A3.2A13.6B2A3B27.6B4.2A3.A$8.A.
A.A.A13.10B27.6B6.B.A$10.A.A11.A.2AB.8B27.7B3.B2AB2A$5.2A2.A.2BA8.
3AB2AB3.7B27.8B.B2A$4.A.A2.A.ABA7.A4.B6.6B27.10B3.2A$3.A2.A.2A.A
10.3A.2A4.6B27.3B2A6B4.A$4.3A2.AB2A11.2A2.A4.5B28.2B2A6B3.A$7.2A2B
2AB13.A.A.8B27.10B3.2A$6.A2.A.2A10.A.2A.A.A8B8.A17.12B$6.2A2.2AB
10.2A.A.BA2B.3BA2B6.3A12.2A.14B$10.2B14.A2.2B2.4BA2B4.A13.A2.A16B$
10.2B14.2A.B3.4BABA4.2A12.2A2.17B$11.B12.2A2.A.A2.4BA3B.4B17.16B.
2B$10.2AB10.A2.A2.2A2.5BABA3B19.18B2A$.2A6.A2BAB5.2A3.2A7.7BA4B17.
17B.B2A$2.A4.3B2A3B4.A13.5BABA4B16.4B2.8B.4B.B$2.A.AB.8B.BA.A14.4B
2A5B15.4B4.7B$3.2AB.8B.B2A4.2A12.9B13.4B5.6B$5.12B7.A11.10B.2B9.4B
6.4B$5.12B7.A.AB4.B.16B7.4B5.A3B$5.12B3.A4.2AB2.23B3.4B5.A.AB$7.
10B3.3A4.32B6.A.A$9.7B7.A2.32B8.A$9.8B5.2A2.31B6.3A$8.5B.4B4.34B7.
A$8.6B.4B5.30B$7.6B3.4B2.9B5.17B$3.B2.3BA3B4.15B7.14B$.7BABA2B5.
14B7.14B$.7BABA2B6.13B8.2B4.3B$9BA3B7.10B.B2A5.2B6.B$11B.B2A7.3B2A
B3.BA.A3.B2AB$.9B2.BA.A6.3B2AB6.A4.2A$.7B7.A8.4B6.2A$2.6B7.2A7.3B$
3.4B14.AB.2B$4.4B12.A.AB2AB$5.4B11.A.ABABAB$6.4B7.2A.A.A.A.A2.A$7.
4B6.A2.A2.2A.4A$8.3BA7.2A4.A$9.3BA12.A.A$10.3AB12.2A!
