#CSYNTH gun_2731 costs 15876 cells.
#C period 2731 fullperiod 2731 bbox 147 by 108
#CLL state-numbering golly
x = 147, y = 108, rule = LifeHistory
78.2A$23.2A11.A42.A$22.B2AB9.A.A39.A$23.3B9.A.A2.2A3.A31.5A$22.B.B
9.2A.2A2.A2.A.A12.A21.A$22.5B8.B2.A.A3.A.A10.3A15.4AB$22.6B6.2ABA
2.4A.A10.A18.A2.AB$22.8B4.2A.A.A3.A12.2A18.6B3.2A$23.13B2.A.AB2.A
9.4B19.6B2.A$21.13B5.A.A2B.A7.3B22.5B3.A$20.15B5.A2B.2A7.4B19.7B2.
2A9.2A$20.8B2A5B4.3B10.5B8.2A8.8B.2B10.A$19.9B2A6B.B.2B11.6B8.A9.
11B6.BA.A$19.13B2A14B2.8B8.A.AB4.15B.2B.B2A$18.13BA2BA24B8.2AB.23B
$17.13B2AB2A23B11.25B$16.2AB3.10BA16B.7B12.25B$15.A2.A4.35B12.24B$
14.A.2A5.6B3.B2.2B2.19B11.26B$14.A7.6B14.17B8.24B.4B$13.2A6.9B14.
15B.2B2.20B.B.2B4.4B$20.4B4.2A15.38B11.4B$19.4B5.A16.8B.20B.9B11.
4B$18.4B7.3A11.8B3.2B2A16B2.7B13.4B$17.4B10.A11.2A3.B5.2B2A16B2.7B
14.4B$16.4B24.A10.18B4.6B15.4B$3.2A10.4B22.3A12.B.3B.4B10.7B16.4B$
4.A9.4B23.A20.3B12.6B17.4B$2.A10.4B43.4B13.7B11.A5.4B$2.5A5.4B5.2A
37.2A16.5B10.3A6.4B$7.A4.4B5.A39.A16.6B8.A10.4B$4.3AB2.7B.BA.A36.
3A15.9B7.2A10.4B$3.A.2B3.7B.B2A37.A17.2A.7B3.5B11.4B$3.4A12B22.A
11.2A22.A5.4B2.3B14.4B$.2A2.BA3B2A7B21.A.A9.B2AB18.3A7.9B7.2A5.4B$
A2.3AB.2B2A7B9.A3.A3.2A2.A.A9.3B19.A10.8B8.A6.4B$2A.A.B3.10B7.3A2.
A.A2.A2.2A.2A9.B.B30.10B3.B.A.2A4.4B$3.A8.8B5.A5.A.A3.A.A2.B8.5B
30.7B2A2B.B3A2.A5.4B$3.2A7.12B.2A5.A.4A2.AB2A6.6B30.7B2A3BAB2.2A7.
4B$13.3B2.9B7.A3.A.A.2A4.8B30.12B4A10.4B$11.5B3.6B8.A2.BA.A2.13B
29.2AB.7B3.2B.A11.4B7.2A3.2A$11.2A7.5B7.A.2BA.A5.13B26.A.AB.7B2.B
3A13.4B6.A.A.A.A$12.A6.7B6.2A.2BA5.15B25.A5.4B4.A17.4B7.A.A$9.3A8.
6B10.3B4.15B24.2A5.4B5.5A13.4B5.A.BAB$9.A10.7B10.2B.B.17B29.4B10.A
14.4B4.B2A2B$20.8B2.29B28.4B9.A17.4B4.2B$20.25B2A13B26.4B10.2A16.
5B3.4B$20.25B2A14B24.4B21.2A5.8B.6B$19.37B3.B2A22.4B22.A2.AB2.17B
7.2A$19.36B4.A2.A20.4B24.3AB.20B4.A.A$14.B4.20B2.2B2.B3.6B5.2A.A
18.4B28.22B3.A$13.2AB.21B12.6B7.A17.4B26.3AB.22B2.2A$13.2A24B9.9B
6.2A15.4B26.A2.AB2.23B2.A$14.B.23B9.2A4.4B21.4B27.2A5.23B2A.A$17.
15B2A7B8.A5.4B19.4B34.6B2.16B.A.3A$17.15B2A8B4.3A7.4B6.A10.4B34.7B
.17BA.B3.A$17.25B4.A10.4B5.3A7.4B34.7B2.18B2A.A.A$17.12B4.8B17.4B
7.A5.4B34.8B.13B2A4B.A.2A$16.11B6.8B18.4B5.2A4.4B34.4B3.B.14B2A2B.
B.A$15.13B6.3B.4B18.4B4.9B34.4B7.14B.B.2A.A$16.12B11.4B18.4B5.6B
34.4B12.11B2.A2.2A$17.10B13.4B18.4B2.8B33.4B14.7B.2BA.A.A$17.9B15.
4B18.15B30.4B15.9BA.A2.A$17.9B16.4B18.14B29.4B16.8B.BA3.2A$17.9B
17.4B18.13B28.4B17.7B$20.5B19.4B18.10B.B2A25.4B17.7B$21.4B20.4B18.
2BA4B3.BA.A23.4B17.3BA3B$21.4B21.4B16.2BABA4B5.A22.4B17.2A.ABA.2A$
22.4B21.4B15.2BABA3B6.2A20.4B18.2A.A.ABABA$23.4B21.4B16.BA4B27.4B
22.A.A.A.A$24.4B21.4B15.5B27.4B23.A.A.A.3A$25.4B21.4B15.3B27.4B25.
A.A.A3.A$26.4B21.4B13.5B25.4B27.A2.A2.A$27.4B21.2B2A12.2AB2AB23.4B
31.A.A$28.4B21.2A2B7.2A2.BA.2A2.2A19.4B33.A$29.4B21.BA2B6.A2.A.A3.
B2.A18.4B$30.4B21.4B7.2A.7A18.4B$31.4B21.4B8.A24.4B$32.4B21.4B7.A.
4A18.4B$33.4B21.4B7.2A2.A17.4B$34.4B21.4B27.4B$35.4B21.4B25.4B$36.
4B21.4B23.4B$37.4B21.4B21.4B$38.4B21.4B19.4B$39.4B21.4B6.A10.4B$
40.4B21.4B5.3A7.4B$41.4B21.4B7.A5.4B$42.4B21.4B5.2A4.4B$43.4B21.4B
4.9B$44.4B21.4B5.6B$45.4B21.4B2.8B$46.4B21.15B$47.4B21.14B$48.4B
21.13B$49.4B21.10B.B2A$50.4B22.3B2AB3.BA.A$51.4B21.3B2AB6.A$52.4B
22.4B6.2A$53.4B21.3B$54.4B17.AB.2B$55.4B15.A.AB2AB$56.4B14.A.ABABA
B$57.4B10.2A.A.A.A.A2.A$58.4B9.A2.A2.2A.4A$59.3BA10.2A4.A$60.3BA
15.A.A$61.3AB15.2A!
