#CSYNTH gun_1554 costs 4753 cells.
#C period 1554 fullperiod 1554 bbox 97 by 49
#CLL state-numbering golly
x = 97, y = 49, rule = LifeHistory
39.2A15.2A$38.B2A2B11.2B2AB$39.4B11.4B$40.3B11.2BA$35.B3.3AB11.BAB
A3.B$18.4B12.2AB.A.2A13.AB.A.B2A12.4B$18.3BAB11.2A2B2A17.2BAB2A11.
B4A$17.4ABA12.3B2A17.2A3B12.A4BA$17.3A.A.AB10.4B19.4B10.BA.A.2BA$
18.B3.ABAB6.2B7.2A11.2A7.2B6.BABA3.A$23.A2B5.5B5.A13.A5.5B5.BAB$
22.2A2B5.6B.BA.A13.A.AB.6B5.BA2B$21.B2A2B2.9B.B2A15.2AB.9B2.BA2BA$
22.2A2.13B19.13B2.2A$26.10B2AB19.B2A10B$26.10B2AB19.B2A10B$26.13B
19.13B$25.13B21.13B$24.14B18.A2.14B$23.7B.7B16.3A2.7B.7B$22.7B2.7B
15.A5.7B2.7B$13.A7.7B4.5B4.2A10.2A5.5B4.7B7.A$11.3A6.7B5.5B5.A7.5B
5.5B5.7B6.3A$10.A8.7B4.B.5B5.A.AB3.2A2B7.5B.A4.7B8.A$10.2A6.7B3.B
3A2.4B5.2AB2.B2A3B5.4B2.A2BA3.7B6.2A$7.5B5.7B4.3AB3.4B5.10B4.4B3.A
2BA4.7B5.5B$6.4B6.7B6.B6.4B5.10B2.4B6.A6.7B6.4B$6.2BA2B4.7B15.4B4.
9B2.4B15.7B4.5B$5.2BABA2B2.7B17.4B4.13B17.7B2.7B$5.B2A2BAB.7B19.4B
3.12B19.7B.7B$5.BA3B2A7B21.4B3.10B21.8B3A3B$5.4B3A6B23.4B.B2.7B23.
6BA3BA2B$4.B2A2B3A2BA2B25.13B25.4BA5BA2B$4.B2A2B3ABABAB26.11B26.3B
A3BA3BAB$4.BABAB2ABA3BA27.10B26.3BA2BABA2BAB$4.2B4A3BABAB2.2A23.9B
23.2A2.3BA3BA3BAB$2.2AB.2BA5BA2.A2BAB21.9B23.B2A2B2.2BA5BA.B2A$.A.
AB.6B5.4B23.9B23.4B5.A3BAB.BA.A$.A5.5B5.3B25.7B25.3B5.B3AB5.A$2A7.
2B6.2ABA3.B20.8B19.B3.3AB6.2B7.2A$4.4B10.BA.A.B2A19.9B17.2AB.A.2A
10.B2AB$3.B4A12.A4BA19.10B16.2A2B2A12.4AB$3.A4BA11.BA3B21.3B3.4B
16.3B2A11.ABA2BA$.BA.A.2BA12.A2BA28.4B15.4B12.2AB.A.AB$BABA3.A46.
4B31.B3.ABAB$BAB52.4B35.B2A$BA2B52.3BA33.B3A$BA2BA52.3BA31.BABAB$
2.2A54.3AB31.2A!
