#CSYNTH gun_1937 costs 9120 cells.
#C period 1937 fullperiod 1937 bbox 95 by 96
#CLL state-numbering golly
x = 95, y = 96, rule = LifeHistory
42.2A20.2A$41.A.A20.A.A$35.2A4.A24.A4.2A$33.A2.A2.2A.4A16.4A.2A2.A
2.A$33.2A.A.A.A.A2.A16.A2.A.A.A.A.2A$36.A.ABABAB20.BABABA.A$36.A.A
B2AB22.B2ABA.A$37.AB.2B24.2B.BA$32.A7.3B22.3B$30.3A7.4B6.2A4.2A6.
4B$29.A8.6B6.A6.A6.B2A3B$28.A.A7.6B3.BA.A6.A.AB3.B2A3B$27.BA.A5.
10B.B2A8.2AB.10B13.A$26.3BA5.5B3A5B12.13B10.3A$24.4B6.14B12.14B8.A
$22.6B5.6BA2BA5B12.15B7.2A$21.7B4.4B2.2B2A4B16.8B2.4B3.5B$14.B.4B.
8B2.4B5.6B16.6B5.4B2.3B$13.2AB.17B4.9B14.9B4.9B7.2A$13.2A18B5.2A4.
4B12.4B4.2A5.8B8.A$14.2B.16B6.A5.4B10.4B5.A7.10B3.B.A.2A$17.16B3.
3A7.4B8.4B7.3A4.7B2A2B.B3A2.A$18.15B3.A10.4B6.4B10.A4.7B2A3BAB2.2A
$19.12B.B2A.A11.4B4.4B16.12B4A$19.11B2.BA.A.2A10.4B2.4B15.2AB.7B3.
2B.A$20.10B5.A2.A11.4BA3B15.A.AB.7B2.B3A$20.6B2A2B5.2A14.3B2AB16.A
5.4B4.A$20.6B2A3B21.BABA16.2A5.4B5.5A$20.10B21.6B21.4B10.A$16.A.2A
B.8B20.8B19.4B9.A$14.3AB2AB3.7B18.4B2.4B6.A10.4B10.2A$13.A4.B6.6B
17.4B4.4B5.3A7.A3B$14.3A.2A4.6B17.4B6.4B7.A5.BABA$16.2A2.A4.5B16.
4B8.4B5.2A4.2B2A$19.A.A.5BA2B14.4B10.4B4.9B$16.3A.A.A4BABAB8.A4.4B
12.4B5.6B$15.A2.A.BA2B.4BAB6.3A3.4B14.4B2.8B$14.A.A.A2.2B2.2A3BAB
4.A5.4B16.15B$13.A.A2.2A.B3.2A2BA2B4.2A3.4B18.14B$13.A.A.A2.A.A2.
4BA3B.4B2.4B20.13B$14.2A.2A2.2A2.11B3.4B22.10B.B2A$25.2A2B2A6B.4B
25.3B2AB3.BA.A$25.6A10B26.3B2AB6.A$15.A10.BA12B29.4B6.2A$15.3A11.
10B30.3B$9.A8.A9.12B26.AB.2B$9.3A5.2A6.16B24.A.AB2AB$12.A4.24B6.A
17.A.ABABAB3.2A$11.2A6.23B3.3A16.2A.A.A.A2.A2.A10.A$11.5B2.24B2.A
20.A2.2A.5A10.5A$13.3B2.24B.B.A17.A.A4.A14.A5.A$3.2A7.32B2A16.A.A.
3A3.4A9.4A2.A$3.A8.8B.22BA2.2A14.A.A3.5A2.A10.AB.A.2A$2A.A.B3.10B
3.2B7.B3.2B3.3B3A2.A14.2A10.A.AB7.4A3.A$A2.3AB.2B2A7B2.2BAB5.3B.4B
3.2B4.A22.A5.2AB.4B.2AB2.A.A$.2A2.BA3B2A7B3.A.A4.B2AB.B2AB5.4A23.
3A5.2BA3BA2BAB2A.2A$3.4A12B4.A6.2A3.2A7.A28.A4.2BA3BA2BA$3.A.2B3.
7B.B2A21.A29.2A4.2BA3BA2BAB2A.2A$4.3AB2.7B.BA.A20.2A28.6B2.4B.2AB
2.A.A$7.A4.4B5.A52.5B7.4A3.A$2.5A5.4B5.2A50.7B6.AB.A.2A$2.A10.4B
56.8B4.4A2.A$4.A9.4B55.9B3.A5.A$3.2A10.4B53.11B3.5A$16.4B53.6B.4B
4.A$17.4B52.5B3.4B$18.4B35.A12.8B4.4B$19.4B34.3A8.10B5.4B$20.4B36.
A6.12B5.4B$21.4B22.2A10.2A6.13B5.4B$22.2BAB22.A10.5B3.12B7.4B$23.
2B2A21.A.AB9.4B2.13B7.4B$24.2A2B10.A10.2AB.3B4.20B8.4B$25.4B7.3A
12.7B.23B7.4B$26.4B5.A15.3B2A23BA4B6.4B$27.4B4.2A15.BAB2A21BABA4B
6.3BA$20.2A6.9B14.B2ABABA20BABA4B7.ABA$21.A7.6B14.3BA2BAB2A20BA4B
9.2A$21.A.2A5.6B3.B2.2B2.10B2A7B.B3.B.2B3.5B12.B$22.A2.A4.19BA3B4A
6B6.3B7.B$23.2AB3.19BA7B.6B6.B2AB5.3B$24.14B2A8B3A5B2.B.5B5.2A6.B
2AB$25.13B2A16B7.2A14.2A$26.29B8.A$26.17B.B.2B16.3A$27.15B4.3B17.A
$27.15B5.A2B.2A$28.13B5.A.A2B.A$30.13B2.A.AB2.A$29.8B4.2A.A.A3.A$
29.6B6.2ABA2.4A.A$29.5B8.B2.A.A3.A.A$29.B.B9.2A.2A2.A2.A.A$30.3B9.
A.A2.2A3.A$29.B2AB9.A.A$30.2A11.A!
