#CSYNTH gun_2018 costs 9042 cells.
#C period 2018 fullperiod 2018 bbox 137 by 66
#CLL state-numbering golly
x = 137, y = 66, rule = LifeHistory
43.2A20.2A$42.A.A20.A.A46.2A4.2A$36.2A4.A24.A4.2A41.A4.A3.2A$34.A
2.A2.2A.4A16.4A.2A2.A2.A39.A.2A.A4.A$34.2A.A.A.A.A2.A16.A2.A.A.A.A
.2A40.A.A.A.3A$37.A.ABABAB20.BABABA.A44.2B2A.A$37.A.AB2AB22.B2ABA.
A43.6B6.2A$38.AB.2B24.2B.BA38.4B2.6B5.B.A$33.A7.3B22.3B41.11B5.2B.
A.2A$31.3A7.4B6.2A4.2A6.4B40.2A17B2A2.A$30.A8.3B2AB6.A6.A6.B2A3B
38.2A16BA2.A$29.A.A7.3B2AB3.BA.A6.A.AB3.B2A3B39.B.14B.B2A$28.BA.A
5.10B.B2A8.2AB.10B39.16B$27.3BA5.13B12.13B38.14B.B2A$25.4B6.14B12.
14B36.13B5.A$23.6B5.15B12.15B34.12B7.A.A$22.7B4.4B2.8B16.8B2.4B32.
4B.7B9.2A$15.B.4B.8B2.4B5.6B16.6B5.4B30.4B.11B$14.2AB.17B4.9B14.9B
4.4B28.4B3.11B$14.2A18B5.2A4.4B12.4B4.2A5.4B26.4B4.11B7.2A$15.2B.
16B6.A5.4B10.4B5.A7.4B24.4B5.11B2.2A2.A2.A$18.16B3.3A7.4B8.4B7.3A
5.4B22.4B4.2AB2.8B2.A.A2.2A$19.15B3.A10.4B6.4B10.A6.4B20.4B4.A.AB
3.7B3.B.2A$20.12B.B2A.A11.4B4.4B19.4B18.4B5.A6.7B2.2B2.A$20.11B2.B
A.A.2A10.4B2.4B21.4B16.4B5.2A7.6B.2BAB.A.2A$16.2A3.10B5.A2.A11.8B
23.4B14.4B15.8BA.A.2A.A$17.A3.6B2A2B5.2A14.6B25.4B12.4B16.8B.A.A$
16.A4.6B2A3B21.3AB27.4B10.4B18.5B4.A2.2A$16.2A3.10B21.3BA2B27.4B8.
4B19.6B4.2A.3A$19.2AB.8B20.3BA4B27.4B6.4B19.6B6.B4.A$16.2AB2AB3.7B
18.4B2.4B27.4B4.4B20.7B3.B2AB3A$17.A.B6.6B17.4B4.4B27.4B2.4B22.8B.
B2A.A$15.A3.2A4.6B17.4B6.4B27.8B23.10B$15.4A2.A.8B16.4B8.4B27.6B
23.3B2A6B$18.A.A.A9B14.4B10.4B27.4B18.2A5.2B2A6B$15.2A.A.BA2B.7B8.
A4.4B12.4B25.6B18.A5.10B$16.A.A2.2B3.6B6.3A3.4B14.4B23.8B17.A.AB2.
11B$15.A2.2A.B4.7B4.A5.4B16.4B21.4B2.4B17.2AB.12B$15.A.A2.A.A3.7B
4.2A3.4B18.4B19.4B4.4B18.15B$16.A.A2.2A3.8B.4B2.4B20.4B6.A10.4B6.
4B17.16B$17.A8.11B3.4B22.4B5.3A7.4B8.4B10.A5.16B.2B$26.12B.4B24.4B
7.A5.4B10.4B7.3A5.18B2A$26.16B26.4B5.2A4.4B12.4B5.A7.17B.B2A$16.A
10.14B28.4B4.9B14.4B4.2A5.4B2.8B.4B.B$16.3A11.10B30.4B5.6B16.9B4.
4B4.7B$19.A9.12B30.4B2.8B17.6B5.4B5.6B$18.2A6.16B30.15B15.8B2.4B6.
4B$12.2A4.24B6.A24.14B13.15B5.A3B$11.B2AB5.23B3.3A25.13B13.14B5.A.
AB$11.4B4.24B2.A29.10B.B2A11.13B6.A.A$12.2B5.24B.B.A30.3B2AB3.BA.A
8.2AB.10B8.A$4.A7.4B2.27B2A30.3B2AB6.A7.A.AB3.B2A3B7.3A$3.A.A5.5B.
4B.22BA2.2A30.4B6.2A6.A6.B2A3B7.A$4.A.14B3.2B7.B3.2B3.3B3A2.A29.3B
14.2A6.4B$5.14B3.2BAB5.3B.4B3.2B4.A27.AB.2B24.3B$5.14B4.A.A4.B2AB.
B2AB5.4A27.A.AB2AB24.2B.BA$5.15B4.A6.2A3.2A7.A29.A.ABABAB22.B2ABA.
A$4.3B2A12B22.A28.2A.A.A.A.A2.A19.BABABA.A$4.3B2A13B21.2A27.A2.A2.
2A.4A17.A2.A.A.A.A.2A$2.2AB.11B2.4B51.2A4.A21.4A.2A2.A2.A$.A.AB2.
8B5.4B56.A.A23.A4.2A$.A5.10B4.4B56.2A21.A.A$2A5.B.B5.2A5.4B78.2A$
8.3B4.A7.3BA$7.B2AB5.3A5.3BA$8.2A8.A6.3AB!
