#CSYNTH gun_1423 costs 7708 cells.
#C period 1423 fullperiod 1423 bbox 94 by 82
#CLL state-numbering golly
x = 94, y = 82, rule = LifeHistory
24.2A11.A$23.B2AB9.A.A$24.3B9.A.A2.2A3.A$23.B.B9.2A.2A2.A2.A.A21.
2A$23.5B8.B2.A.A3.A.A20.B2A2B$23.6B6.2ABA2.4A.A22.4B$23.8B4.2A.A.A
3.A13.A11.4B3.3B$24.13B2.A.AB2.A12.3A8.4B4.5B$22.13B5.A.A2B.A3.A
10.A6.14B$21.15B5.A2B.2A3.3A7.2AB5.14B$21.15B4.3B10.A6.5B3.16B$20.
17B.B.2B10.2A8.5B.16B$20.29B3.4B2A4.22B$19.13B2A16B4.2B2A4.23B$18.
14B2A16B2.7B2.24B4.3B$17.2AB3.27B.7B3.24B.7B$16.A2.A4.35B2.23B.B2A
5B$15.A.2A5.7B2.B2.2B2.19B.25BA2BA5B$15.A7.7B13.43B2A6B$14.2A6.8B
15.48B$21.4B2.2B17.36B.6B.2B$20.4B4.2A15.35B2.8B.B$19.4B6.A15.7B.
26B4.6B.B2A$18.4B5.A15.2AB.3B4.25B8.B3.A.A$17.4B6.2A13.A.AB9.25B
12.2A$16.4B22.A10.5B2.19B4.B$15.4B22.2A10.2A6.20B.B2A$4.A9.4B32.A
3.A6.22B2A$4.3A6.4B33.4A6.24B$7.A4.4B43.25B$6.2A3.4B8.2A25.2A6.24B
$6.8B8.A.A24.B2AB4.22B.B$2.2A4.5B5.2A2.A27.3B3.10B.12B$.A.BAB.5B6.
A.A.2A25.B.B3.8B5.11B$.A.2AB2.5B6.2A.A2.A22.14B9.7B$2A.B.B3.5B3.3B
.B2.2A20.15B9.8B5.2A$A2.2A2B2.5B3.4B24.15B9.8B6.A$.2A2.AB.13B.B20.
16B11.8B2.BA.A$3.2ABA13B.B2A18.16B11.10B.B2A$.2A2.A5BA10B2A17.16B
12.12B$A2.A2.4BABA7B.2B16.17B2.B10.12B$.2A3.4BABA7B18.23B6.2AB2.9B
$7.4BA7B18.6B2A17B4.A.AB2.8B$9.9B3.2A12.8B2A16B5.A4.8B2.2B$6.B.10B
.B2.A3.2A7.27B3.2A4.8B.4B$5.2A12B3A5.A6.28B8.14B$5.2AB.8B.BA7.A.AB
.28B10.11B2AB$6.B3.6B4.2A6.2AB.28B10.11B2A2B$11.4B6.A8.24B2.B.B12.
14B$12.4B4.A9.23B2.3B15.11B$13.4B3.2A8.23B2.B2AB13.13B$14.4B13.21B
4.2A13.14B$15.4B13.16B.B.B2A17.14B$16.4B13.16B2.BA.A9.A7.13B$17.4B
6.A5.11B2.2B6.A9.3A3.14B$18.4B5.3A3.10B11.2A11.A2.9B$19.4B7.A3.9B
23.A2.10B$20.4B5.2A4.ABA4B19.2A3.2A11B$21.4B4.6B2AB.B21.A2.2A2.11B
$22.4B5.5BA25.2A2.2A10B$23.4B2.8B27.A.A.B.8B$24.15B25.A2.A3.6B$25.
14B26.2A5.4B$26.13B22.2A8.4B$27.10B.B2A19.B2AB6.4B$29.3B2AB3.BA.A
18.4B5.4B$29.3B2AB6.A19.2B5.4B$31.4B6.2A10.A7.4B2.4B$31.3B18.A.A5.
5B.4B$28.AB.2B20.A.14B$27.A.AB2AB20.14B$27.A.ABABAB19.14B$24.2A.A.
A.A.A2.A17.15B$24.A2.A2.2A.4A16.3B2A12B$26.2A4.A20.3B2A13B$32.A.A
16.2AB.11B2.4B$33.2A15.A.AB2.8B5.4B$50.A5.10B4.4B$49.2A5.B.B5.2A5.
4B$57.3B4.A7.3BA$56.B2AB5.3A5.3BA$57.2A8.A6.3AB!
