#CSYNTH gun_1080 costs 1800 cells.
#C period 1080 fullperiod 1080 bbox 45 by 40
#CLL state-numbering golly
x = 45, y = 40, rule = LifeHistory
29.A2.2A$29.4A.A$34.A$27.7A.2A.A$26.A2.B3.A.A.2A$26.2A2.2A.AB$29.B
2AB2A6.2A$10.2B18.5B5.B2A2B$8.6B17.3B7.2A2B$6.10B14.5B6.BA2B$4.BA
2BA4BA2BAB11.4BAB5.BABA$3.3A2B6A2B3A2.2A6.3BABA2B3.2ABA$4.BA2BA4BA
2BAB4.A5.4BABA2B2.4B$6.10B6.A.AB3.4BA2B3.4B$8.6B9.2AB.11B.2B2AB$2A
8.2B.2B10.14B2.2A$A.A7.5B10.14B$.AB2.13B.B5.15B$2.6BA3B4AB2ABA2B4.
8B2.4B$2.B3A2BA3BA4B2AB2A2B3.6B5.4B$.B3AB3A3BA4BA2B3A2B.9B4.4B$.AB
A2B2A5BAB2A3B2A7B4.2A5.4B$B3A24B5.A7.3BA$B2A2B.2B2.B2.2B2.2B5.B2A
7.3A5.ABA$2.BA5.3B12.A2BA8.A6.2A$9.B2AB10.B2A2B16.B$10.2A10.2AB2A
2B.B2A.A$20.BA3B2A2B.B2AB3A$20.BA3B2A4B.B4.A$21.A7B.B2A.3A$22.B2A
4B3.A.A$18.AB2.9B.A$17.A.A3B4.2B2A.2A$13.B3.3ABAB3.BA2.A$12.3A3.B
4A4.2A.A$13.2B.B2AB.BA6.A$13.4B2A.3A.A4.A.A$14.BAB.2B2A.A.A4.2A$
13.A.A3.B4.A$13.2A!
