#CSYNTH gun_4608 costs 2805 cells.
#C period 4608 fullperiod 4608 bbox 55 by 51
#CLL state-numbering golly
x = 55, y = 51, rule = LifeHistory
35.2A$35.A.A.2A.A$37.A.A.2A$36.B2A$28.2A7.2B$26.2B2AB4.3B$2.A9.A
13.4B5.4B$2.3A5.3A13.6B3.3B$5.A3.A16.6B2.5B.B$4.2A.B.2A15.17B$4.7B
16.16B$6.3B17.10BA5B2A$4.7B15.9BABA4B2A$3.4BA4B8.2A4.8B2AB2A4B$3.
3BABA3B3.2A2.A2.A5.13B$4.3BA3B4.A.A2.A.A5.13B$4.7B5.B.2A.A4.17B$3.
9B3.2B2.A5.2A16B$.17B.A5.2A16B$.15B2A.2A5.3B3A11B$2BA13B2A.A6.11BA
2BA2B$.ABA8BA2B.B4.A6.B.8BABA2B$BABA7BABAB5.2A9.3B.3B3A3B$.BA8B2A
3B4.A9.4B.10B$3.13B.BA.A10.3B.10B7.2A$5.11B.B2A10.2B4.10B3.2A2.A$
5.2B2A9B8.2A2.2AB4.9B2.B2A.A$5.BA2BA8B8.A2.A.A7.7B2.3B.2A$6.B2A9B
5.2A.A.2A.A.A8.4B.B3A.A$7.11B5.A.2A.A3.2A7.4B.2B3A.A$10.8B10.A11.
4B3.A.B.2A.A$10.9B9.3A8.4B5.2A3.2A$9.5B2.4B11.A6.4B8.2A$9.6B2.4B9.
2A5.4B9.A.3A$8.6B4.4B8.5B.4B14.A$4.B2.3BA3B5.4B9.7B$2.7BABA2B6.4B
7.7B3.2A$2.7BABA2B7.4B4.BA7B4.A$.9BA3B8.4B2.BABA7B.A$.11B.B2A7.7B
2A8B2A$2.9B2.BA.A7.15B3.A$2.7B7.A5.2B.15B2A.A$3.6B7.2A3.2A14B.BA.A
2.A$4.4B13.2AB.11B3.BA2.2A$5.4B13.B.11B$6.4B8.2A4.4B4.5B$7.4B6.A2.
A2.5B7.2A$8.4B6.2A2.A.2AB8.A$9.3BA6.A.2A.A11.3A$10.3BA5.A2.A.A.A
11.A$11.3AB5.2A3.2A!
