#CSYNTH gun_156 costs 1632 cells.
#C period 156 fullperiod 156 bbox 48 by 34
#CLL state-numbering golly
x = 48, y = 34, rule = LifeHistory
35.2A7.A$32.2A2.A5.3A$30.3A.2A5.A$25.A3.A4.B6.2A$24.A.A3.3AB2AB.5B
$24.A.A5.A.2AB.3A$23.2A.2A6.3BA3BA$23.A2.B9.BA3BA$24.AB2AB5.B.2B3A
B$22.A.A.2AB.B.9B$22.2A4.4BA2BA5B$28.4BA2BA6B$28.3BA3BA7B3.2A$28.
5B2A7B4.A$27.6B3A4B3.BA.A$26.7B3A4B3.B2A$11.A13.8BA2BA7B$11.3A10.
4B2.4B3A7B$14.A8.4B3.4B3A6B$13.2A7.A3B2.7B2A5B$13.5B3.A3B2.7BA3BA
3B$4.2A9.3B2.B3A4.6BA2BA4B$3.A.A8.9B6.5BA2BA4B4.2A$3.A8.B.8B7.9B.B
.B2A.A.A$2A.AB.B3.BA9B7.B3A2B.B5.B2ABA$.A.A.2AB.3A9B7.A3BAB9.B2.A$
.A.A.2A2B2A10B7.A3BA3B6.2A.2A$2A.A2.5BA9B8.3A.B2A.A5.A.A$A2.4A3BA
8B.B2A4.5B.B2AB3A3.A.A$.2A2.BAB.BA8B.BA.A3.2A6.B4.A3.A$3.2A6.7B5.A
4.A5.2A.3A$3.A7.2B.3BA5.A.3A5.A2.2A$5.A9.3BA5.2A7.2A$4.2A10.3AB!
