#CSYNTH gun_291 costs 4484 cells.
#C period 291 fullperiod 291 bbox 76 by 59
#CLL state-numbering golly
x = 76, y = 59, rule = LifeHistory
46.2A$46.A.A$48.A4.2A$44.4A.2A2.A2.A10.A$44.A2.A.A.A.A.2A9.BAB$46.
BABABA.A13.AB$47.B2ABA.A12.2BABA$31.2A15.2B.BA14.A.2AB.2A$30.A.A
14.3B7.A10.6A.A$24.2A4.A7.2A6.4B7.3A9.2B4.A$22.A2.A2.2A.4A4.A6.B2A
3B8.A10.4A$22.2A.A.A.A.A2.A4.A.AB3.B2A3B7.A.A8.BA.B$25.A.ABABAB7.
2AB.10B5.A.AB7.BA.2A$25.A.AB2AB10.13B5.A3B7.A3B$26.AB.2B11.14B6.4B
7.BA$29.3B10.15B5.6B6.BA$29.4B6.2A3.8B2.4B4.7B3.BA.A$27.3B2AB6.A4.
6B5.4B2.8B3.B2A$27.3B2AB3.BA.A3.9B4.17B$25.10B.B2A3.4B4.2A5.16B$
24.13B4.4B5.A6.16B$23.14B3.4B7.3A2.17B$22.15B2.4B9.A2.A16B$21.4B2.
8B3.4B8.A3.2A.14B$20.4B5.6B2.4B9.2A7.12B$19.4B4.13B20.10B3.2A$18.
4B5.2A4.6B21.2B2A6B3.A$17.4B7.A5.A3B21.3B2A6B4.A$16.4B5.3A5.B2A3B
21.10B3.2A$2A13.4B6.A6.BABA4B20.8B.B2A$.A12.4B13.4B2.4B18.7B3.B2AB
2A$.A.AB2.B5.4B13.4B4.4B17.6B6.B.A$2.2AB.3B3.4B13.4B6.4B17.6B4.2A
3.A$4.6B.4B13.4B8.4B16.8B.A2.4A$4.10B13.4B10.4B14.9BA.A.A$4.2B2A5B
13.4B12.4B4.A8.7B.2BAB.A.2A$5.A2BA3B13.4B14.4B3.3A6.6B3.2B2.A.A$5.
BABA4B11.4B16.4B5.A4.7B4.B.2A2.A$6.BA6B9.4B18.4B3.2A4.7B3.A.A2.A.A
$6.3B2.4B7.4B20.4B2.4B.8B3.2A2.A.A$3.A2.3B3.4B5.4B22.4B3.11B8.A$2.
ABA.B.B4.4B3.4B24.4B.12B$2.A3BAB6.4B.4B26.16B$3.2B.2A7.7B28.B3A10B
10.A$2.ABA.2AB7.5B30.A9B11.3A$.A.2B2A2.A5.6B29.2BA9B9.A$BA.A2B4A4.
4B2A4B2.B2.2A18.16B6.2A$.B2A.B7.4BA2BA2B.BAB4AB10.A6.24B$2.4A.3A4.
3BABA3B3A2BA.A11.3A3.23B$2.BA.2A.A6.3BAB4.B20.A2.24B$4.B5.A2.5B5.
3A2B16.A.B.24B$3.AB4.2A2.2A7.A.3A.A.2A12.2A27B$3.A.2A.A5.A6.A.2B.A
.2A.A10.2A2.A22B.4B$4.A2.2A.4A7.2A2.3A13.A2.3A3B3.2B3.B7.2B3.4B$5.
A3.A.A12.A3.3A11.A4.2B3.4B.3B5.BA2B3.3BA$A.3A4.A15.3A2.A12.4A5.B2A
B.B2AB4.A.A5.ABA$2A.A4.2A17.A17.A7.2A3.2A6.A7.2A$5.A41.A27.B$4.2A
40.2A!
