#CSYNTH gun_7759 costs 12915 cells.
#C period 7759 fullperiod 7759 bbox 123 by 105
#CLL state-numbering golly
x = 123, y = 105, rule = LifeHistory
37.2A2.A$36.A.4A$36.A$34.2A.7A$32.A2.A.A3.B2.A$32.2A2.BA.2A2.2A$
36.2AB2AB6.2A$36.5B8.A$37.3B7.A$36.5B6.5A$36.BA4B9.A$34.2BABA3B3.
4AB$34.2BABA4B2.A2.AB$35.2BA4B4.4B$34.15B3.2A$33.14B2A.A2.A$32.11B
A3B2A.2A$31.11BABAB.B$30.4B2.7BAB$14.2A13.4B5.7B$14.A13.4B4.9B$9.
2A5.A10.4B5.2A4.4B$9.A5.2A9.4B7.A5.4B$6.2A.A.3B11.4B5.3A7.4B$6.A2.
A.2A2B2A7.4B6.A10.4B$8.2A.A.2B2AB5.4B19.4B$11.A.4B5.4B21.4B$11.2A.
4B3.4B23.4B$4.2A8.3BA6B25.2B2A25.A11.2A$3.A.A8.2BABA4B10.2A15.BABA
23.A.A9.B2AB$3.A8.B.3BA4B11.A.A15.A3B10.A3.A3.2A2.A.A9.3B$2A.AB.B
3.11B14.A4.2A10.4B7.3A2.A.A2.A2.2A.2A9.B.B$.A.A.2AB.12B10.4A.2A2.A
2.A9.4B5.A5.A.A3.A.A2.B8.5B$.A.A.2A14B10.A2.A.A.A.A.2A10.7B.2A5.A.
4A2.AB2A6.6B$2A.A2.5B2A8B12.BABABA.A14.9B7.A3.A.A.2A4.8B$A2.4A3BA
2BA5B.B2A11.B2ABA.A15.6B8.A2.BA.A2.13B$.2A2.BAB.2B2A6B.BA.A.2A8.2B
.BA17.5B7.A.2BA.A5.13B$3.2A6.7B5.A.A8.3B19.7B6.2A.2BA5.15B$3.A7.2B
.4B5.A2.A6.4B20.6B10.3B4.15B$5.A9.4B5.A.A6.B2A3B18.7B10.2B.B.17B$
4.2A10.4B3.2A.A.AB3.B2A3B18.6B4.29B$17.4B6.2AB.10B16.7B2.16B2A13B$
18.4B7.13B15.7B2.16B2A14B$19.4B6.14B13.4BA4B.27B3.B2A$20.4B5.15B
12.4BABA29B4.A2.A$21.4B6.8B2.4B6.B4.6BA13B2.2B2.B2.7B5.2A.A$22.4B
5.6B5.4B4.2AB.19B13.7B7.A$23.4B3.9B4.4B3.2A19B15.8B6.2A$24.4B.4B4.
2A5.4B3.B.17B17.2B2.4B$25.7B5.A7.4B5.17B15.2A4.4B$26.5B7.3A5.4B4.
3B2A12B15.A6.4B$26.5B9.A6.4B3.2BA2BA9B.B2A15.A5.4B$25.7B16.4B2.A
11B4.BA.A13.2A6.4B$24.4B.4B7.A8.5BA9B9.A22.4B$23.4B3.4B6.3A7.3BA7B
2A2B8.2A22.4B$22.4B5.4B8.A7.2BA9BAB33.4B$21.4B7.4B6.A.A7.2BA9B35.
4B$20.4B9.4B5.A.AB7.4BA5B37.4B$19.4B11.4B5.A3B7.4B2A2BA38.4B$18.4B
13.4B6.4B5.5BABAB39.4B$17.4B15.4B5.6B5.6B41.4B$16.4B17.4B4.7B.2B2.
5B42.4B10.2A$5.A9.4B19.4B2.8B.9B43.4B9.A$5.3A6.4B21.24B43.4B10.A$
8.A4.4B23.24B36.2A5.4B5.5A$7.2A3.4B8.2A14.19B2.4B36.A5.4B4.A$7.8B
8.A.A9.2A2.19B4.4B35.A.AB.7B2.B3A$3.2A4.5B5.2A2.A11.A2.A17B7.4B35.
2AB.7B3.2B.A$2.A.BAB.5B6.A.A.2A12.2A.15B9.4B36.12B4A$2.A.2AB2.5B6.
2A.A2.A15.12B11.4B35.7B2A3BAB2.2A$.2A.B.B3.5B3.3B.B2.2A16.10B13.4B
34.7B2A2B.B3A2.A$A3.2A2B2.5B3.4B21.2B2A6B14.4B33.10B3.B.A.2A$.3A2.
AB.13B.B18.3B2A6B15.4B31.8B8.A$4.2ABA13B.B2A18.10B16.4B29.9B7.2A$
3.A2.A5BA10B2A18.8B.B2A.A13.4B27.4B2.3B$3.2A2.4BABA7B.2B18.7B3.B2A
B3A12.4B25.4B3.5B$7.4BABA7B21.6B6.B4.A12.4B23.4B7.2A$8.4BA7B23.6B
4.2A.3A14.4B21.4B8.A$10.9B3.2A19.5B4.A2.2A17.4B19.4B10.3A$7.B.10B.
B2.A18.8B.A.A21.4B10.A6.4B13.A$6.2A12B3A10.A8.8BA.A.2A.A18.4B7.3A
5.4B$6.2AB.8B.BA12.3A6.6B.2BAB.A.2A19.4B5.A7.4B$7.B3.6B4.2A13.A4.
7B2.2B2.A23.4B4.2A5.4B$12.4B6.A12.2A4.7B3.B.2A24.9B4.4B$13.4B4.A
13.4B.8B2.A.A2.2A23.6B5.4B$14.4B3.2A14.11B2.2A2.A2.A22.8B2.4B$15.
4B17.12B7.2A21.15B$16.4B16.12B30.14B$17.2B2A15.11B31.13B$18.BABA
13.9B12.2A18.2AB.10B$19.A3B9.2B.10B11.A18.A.AB3.B2A3B$20.4B7.16B.B
4.BA.A18.A6.B2A3B$21.4B3.23B2.B2A18.2A6.4B$22.32B29.3B$23.32B29.2B
.BA$24.3BABA25B28.B2ABA.A$25.3B2A6BA18B27.BABABA.A$27.B2A5BA19B25.
A2.A.A.A.A.2A$28.17B5.B.4B24.4A.2A2.A2.A$28.5BA8B11.4B27.A4.2A$28.
4BA2BA6B12.4B24.A.A$32.ABA4.2B14.4B23.2A$33.A6.2B14.3BA$39.B2AB14.
3BA$40.2A16.3AB!
