#CSYNTH gun_1345 costs 7600 cells.
#C period 1345 fullperiod 1345 bbox 100 by 76
#CLL state-numbering golly
x = 100, y = 76, rule = LifeHistory
52.2A$51.B2AB11.2A.A.2A15.A$52.3B4.A.2A.A2.A.2A2.A14.3A$51.B.B5.2A
.A.2A.A4.A.A9.2A5.A$51.5B8.B2.5A.A10.A5.2A4.2B$51.6B6.2ABA4.A4.2A
3.2A.A5.9B$51.8B4.2A.A.AB2.A3.A4.A.A8.7B$52.13B2.A.A2B.A3.3A.A8.9B
$50.13B5.A2B.2A5.A.2A2.3B.10B$49.15B3.2AB9.5B.10B2A2B$49.15B3.2A
11.14BA2BA2B$48.17B.2A2B10.14BA2BA2B$48.20BA8B3.15B2A2B$47.13B2A
16B2.20B$46.14B2A16B2.3BA15B$45.2AB3.27B.3B3A4B2.3B.4B$44.A2.A4.
29B2ABA4B7.2B$43.A.2A5.7B2.B2.2B2.11B3A2BABA2B$43.A7.7B13.11BA4BA$
31.A10.2A6.8B15.5BA2B3A2BAB$30.A.A3.2A11.4B2.2B17.4B4AB3A2B$29.A2.
A3.A11.4B4.2A15.15B$29.A.A.2A.A10.4B6.A15.16B$28.2A.A.A.A10.4B6.A
14.2AB.6B3.3B.2A$26.A2.A.2A2B10.4B7.2A12.A.AB2.4B3.B2A2B2A$26.2A2.
4B10.4B22.A4.4B5.2A3B$30.7B6.4B22.2A3.4B7.6B.2A$31.8B3.4B27.4B9.B
2.2A2.A$32.8B.4B3.2A22.4B11.BA.3A$32.12B4.A22.4B12.A.B$29.2B.11B2.
BA.A13.2A6.4B14.5A$28.2A14B.B2A15.A5.4B19.A$28.2A16B15.A6.4B16.2A$
29.2B.14B15.2A4.4B17.2A$32.13B17.2B2.4B$29.2B.14B15.8B6.2A$28.2A
18B13.7B7.A$28.2AB.10B2A3BA3B2.2B2.B2.7B5.2A.A$29.B2.10B2AB2AB2A
17B4.A2.A$32.8B.BA7BA17B3.B2A$32.7B2.2A6BA7B2A14B$32.7B2.B2A2B2A9B
2A13B$32.7B3.2A2B2A23B$29.AB.6B11.4B.17B$28.A.A7B12.2B3.15B$29.A8B
11.3B3.15B$30.B.6B7.2A.2BA5.13B$33.5B7.A.2BA.A2.13B$32.6B8.A2.BA.A
.2A4.8B$31.5B.B2A7.A4.AB2A6.6B$30.4B3.BA.A4.A.5A2.B8.5B$29.4B7.A3.
A.A4.A.2A.A.2A5.B.B$28.4B8.2A3.A2.2A.A2.A.2A.A4.3B$2A.2A22.4B15.2A
.A.2A11.B2AB$2A.2AB20.4B3.A31.2A$5.2AB4.A12.4B4.3A20.A$5A2BA4.3A9.
4B8.A18.A.A$A3.A.2BA6.A7.4B8.2A17.B2AB$2.A2.3B6.2A6.4B9.5B7.2A2.A
3B2A$.5AB7.6B.4B7.A4.3BAB4.B2A2BA2B2AB$A4.B.A8.8B6.3A3.3BABA5BAB.
2BABAB$A.ABA3BA4.10B6.A5.4BA2BA2B.BA3BA.2A$.2A.3BAB3.10B.B5.2A5.4B
2A3B.BA.B.A.A$4.A.AB3.BA18B6.6B5.2A.A.A.A$.5A5BABA15B9.5B7.A.A.2A$
.A2.BA4B.ABA12B2A2B7.7B6.A.A$2.4A2B4.A12BA2BA2B5.4B.4B6.2A$A.A2.A
2B5.7B2.4B2A3B4.4B3.4B$2A2.2A7.7B4.9B.4B5.4B$5.A.A8.3B6.12B7.4B$3.
A2.A.A5.5B7.10B9.4B$3.2A.A.A5.2A10.9B11.4B$5.A.A7.A9.9B13.4B$5.A6.
3A11.7B15.3BA$4.2A6.A13.6B17.3BA$28.2B20.3AB!
