#CSYNTH gun_1145 costs 5900 cells.
#C period 1145 fullperiod 1145 bbox 100 by 59
#CLL state-numbering golly
x = 100, y = 59, rule = LifeHistory
56.2A11.A$55.B2AB9.A.A$56.3B9.A.A2.2A3.A$55.B.B9.2A.2A2.A2.A.A$55.
5B8.B2.A.A3.A.A$7.2A5.2A2.2A.2A32.6B6.2ABA2.4A.A$7.A2.2A.A2.A2.A.
2A32.8B4.2A.A.A3.A$8.2A.A.2A.2A.A36.13B2.A.AB2.A15.2A$4.2A3.A.A2.A
.A2.A.2A31.13B5.A.A2B.A14.A$.A2.A2.A.BAB3A.A.2A.BA30.15B5.A2B.2A
11.BA.A$.3A2.2ABA2B.A2B2A.B2A31.15B4.3B12.2A.B2A$4.2A2.5A2B.2B3A
31.17B.B.2B12.B2A2B$3.A2.A.B6AB.2B2A31.22BA6B6.4B$4.2A4.2B.2A3.B
32.13B2A5B5A6B3.6B$10.2B38.9B3A2BA11BA5B2.6B$11.B37.2AB3.6BA12B2A
6B.7B$2A8.2AB35.A2.A4.4BA12B2A13B2AB$A.A6.A2BAB5.2A26.A.2A5.6B3.B
2.2B2.A14BA2BA2B$2.A4.3B2A3B4.A27.A7.6B14.13BA5B$2.A.AB.8B.BA.A26.
2A6.9B14.13B3A2B$3.2AB.8B.B2A34.4B4.2A15.12BAB2A2B$5.12B35.4B5.A
15.10B3A4BAB$5.12B34.4B7.3A12.9BA2BA5BA$5.12B33.4B10.A10.2AB.3B2.B
A3BA6B$7.10B32.4B21.A.AB6.2A8B.2BA$9.7B32.4B22.A8.BA8B2.2A.A$9.8B
21.2A7.4B22.2A7.2BA4BAB7.A$8.5B.4B13.A5.B2AB5.4B31.4BA2BA2B7.2A$8.
6B.4B10.3A5.3B5.4B31.4B.2BA3B$7.6B3.4B8.A9.B.B3.4B31.4B3.B.B$3.B2.
3BA3B4.4B7.2A6.3BA2B.4B31.4B5.3B$.7BABA2B5.4B3.5B6.2BA2BA4B31.4B5.
B2AB$.7BABA2B6.9B5.4BA4BA2B7.2A22.4B7.2A$9BA3B7.9B3.BABA6BAB8.A22.
4B$11B.B2A6.11BA2BA5B2A6.BA.A21.4B$.9B2.BA.A5.11BA2BABA3BAB2.3B.B
2A10.A10.4B$.7B7.A4.12BA4BA2BA9B12.3A7.4B$2.6B7.2A2.2A12BA3B3A10B
15.A5.4B$3.4B12.2A13BABA12B15.2A4.4B$4.4B12.15B2A13B14.9B6.2A$5.4B
11.10B.7BA13B14.6B7.A$6.4B12.B3.4B5.BA2BA14BA2.2B2.B3.6B5.2A.A$7.
4B14.B2A2B6.B2A13B2A12BA4B4.A2.A$8.4B14.2A9.7B.6B2A12BA6B3.B2A$9.
4B24.6B2.5BA11BA2B3A9B$10.4B22.6B3.6B5A5B2A13B$11.4B21.4B6.6BA22B$
12.4B20.2B2AB12.2B.B.17B$13.4B17.2AB.2A12.3B4.15B$14.4B15.A.AB11.
2A.2BA5.15B$15.4B14.A14.A.2BA.A5.13B$16.4B12.2A15.A2.BA.A2.13B$17.
4B29.A3.A.A.2A4.8B$18.4B26.A.4A2.AB2A6.6B$19.4B24.A.A3.A.A2.B8.5B$
20.4B23.A.A2.A2.2A.2A9.B.B$21.3BA23.A3.2A2.A.A9.3B$22.3BA30.A.A9.B
2AB$23.3AB30.A11.2A!
