#CSYNTH gun_2940 costs 2950 cells.
#C period 2940 fullperiod 2940 bbox 59 by 50
#CLL state-numbering golly
x = 59, y = 50, rule = LifeHistory
19.AB.2A$18.B2A2.A$18.5A12.2A.2B$17.5B13.A2.2AB$11.4B2.5B14.2AB2A$
10.B2A3B2.5A14.2B2AB$8.3BA2BA2B.B2A2.A13.2B2AB2.4B$7.3BA4BA3BAB.A.
A11.2AB2A2.6B$2A5.4BA3BA2B5.2A10.A2.2AB.2B3A4B$.A6.3BA3BA2B17.2A.
5B3A6B$.A.AB2.5BABA3B3.4A16.2A9B5.2A$2.2AB.7BA3B4.A3.A15.B2A7B6.A$
4.3BA10B6.2A10.2A3.2B5A4B2.BA.A$4.2BAB3A7B6.5B7.A5.2B4A5B.B2A$4.BA
5BA7B7.2B2A3.BA.A4.4B3A7B$4.2BA5BA7B5.3B2AB2.B2A5.6BA4B2AB$5.3BA2B
A3B2.2BAB4.10B5.6B2A4B2AB$6.3B2A2B5.2B2A2.10B5.6B3A7B$4.5B.3B6.2A
2B2.9B4.4B2.2B5A3B$4.2A7.A2BA3.13B4.A3B5.2BA4B$5.A7.4B4.12B3.BABA
6.3B.5B$2.3A7.A4BA4.10B3.2B2A3.4B7.2A$2.A7.3A.2A.3A3.7B2.B.4B4.4A
7.A$9.A3.A2.A3.A3.13B4.A4BA7.3A$8.A.4AB.2A.2A4.11B3.3A.2B.3A7.A$8.
A.B2.AB2.A.A5.4B3A3B3.A3.B2.B3.A$6.A.A.ABAB3.A.A6.9B3.2A.2A.B4A.A$
6.2A.A.BAB4.A8.A5BA2B3.A.A2.AB2.B.A$9.A.A14.BA5BAB4.A.A3.B3A.A.A$
9.2A16.A5BA6.A4.2BA.A.2A$16.2A8.8B13.B.A$15.B2AB6.4B3A2B14.2A$15.
4B5.10B$16.2B5.4B3.3B$7.2A7.4B2.4B12.2B$7.A.A5.5B.4B11.6B$8.A.14B
10.10B$9.14B9.2A3BA2BA3B2A$9.14B8.B5A4B5AB$9.15B8.2A3BA2BA3B2A$8.
3B2A12B9.10B$8.3B2A13B10.6B$6.2AB.11B2.4B11.2B$5.A.AB2.8B5.4B7.2AB
2.B2A$5.A5.10B4.4B4.BA8BAB$4.2A5.B.B5.2A5.5B.BA2BA4BA2BAB$12.3B4.A
7.7BA8BAB$11.B2AB5.3A5.3BA2B.2A4.2A$12.2A8.A6.3BA$30.3AB!
