#CSYNTH gun_525 costs 2560 cells.
#C period 525 fullperiod 525 bbox 64 by 40
#CLL state-numbering golly
x = 64, y = 40, rule = LifeHistory
45.A$43.5A.A$37.A4.A5.2A$36.A.A4.A.2A$36.A.A3.2A.A.5A$35.2A.2A.2B
2.B.B4.A$34.A4.A3B3ABA.3A$35.3A2B2A.B.2AB2A$37.A.B2ABA5B$19.2B19.B
ABA.4B$17.6B23.2B$15.2A6B2A19.6B$13.BA2BA4BA2BAB17.8B7.B$12.2BA2BA
4BA2BA2B3.2A11.9B5.3A$13.BA2BA4BA2BAB4.2A12.9B4.3B$15.2A6B2A19.4B
3A4B2.A3BA$17.6B6.4A12.2B5A2B3.A3BA$19.2B8.A2.A11.3B6AB2.7B$20.4B
6.B2.5B6.8B2AB.2B3A2B$18.2B2A2B2.12B5.2BAB4AB2A10B$4.2A.BABA6.2BAB
A8B2A7B4.4B6A11B$3.A.A2BA2BA5.2BA2BA6BA2BA6B3.BA3B5A3B.2B3A2B$3.A.
2BAB2AB4.3BABA6B.BABA8B.BA2BA7B2.7B$2.2A.2A6B3.12B.2BA11BAB2A6B4.A
3BA$2BA.B2AB.4B2.4B2A25B3A3B5.A3BA$2B3A3.3A3B.5BA11B.8B.5BABA2B6.
3B$4B.B2AB.A2B.28B.5BA3B6.3A$6B2A.2A2.23B3.4B2.5B9.B$.B2ABA2B.A3.
13BA8B5.4B$.A2BA2BA.A3.11B2AB2A6B6.4B$2.ABAB.2A3.12B2AB2A6B2.2A3.
4B$12.21B.BA2.A4.4B$10.2AB.21B3A6.4B$9.A.AB.21B10.4B$9.A5.12B.4B2.
B2A.A.2A4.4B$8.2A3.12B3.4B4.A.2A.A5.4B$13.2A2.8B4.2B5.A11.4B$14.A
4.5B11.2A12.3BA$11.3A5.3B28.3BA$11.A8.B30.3AB!
