#CSYNTH gun_7040 costs 2744 cells.
#C period 7040 fullperiod 7040 bbox 49 by 56
#CLL state-numbering golly
x = 49, y = 56, rule = LifeHistory
33.B$23.B7.B3A$14.2A6.3B3.3B3ABAB$15.A6.3A.4B3AB3A$15.A.AB2.B3A4B
2ABAB2A$16.2AB.3BA6BABAB2AB$18.3B2A4BABA4BA2B$18.2BA4BABA4B2A3B$
10.A7.B2ABABA6BA3B.B2A$10.3A6.2ABAB2A4B3AB2.BA.A$13.A4.3AB3A4B.3A
6.A$12.2A3.2BAB3A3B3.3B6.2A$12.8B3AB7.B$14.5B2.B$13.7B$13.8B$13.9B
$13.10B12.3B$11.8B.4B10.3AB$11.3BA4B2.4B9.3A.A$10.BA3BA3B3.4B8.BA.
A.A$2A.2B5.A3BA5B3.4B5.2B2.A2.A$A2.3A2.2B2A7B5.4B3.3B3.2A$.2A3B2.
3A3B2ABA2B5.5B.2AB9.2A$2.4BA6B4ABAB6.4BA2BAB8.A.A$2.4BA.8BABAB7.4B
2A2B.B8.A$.2A3B2.4B2A7B7.11B3.B.BA.2A$A2.3A3.A4BA6B7.12B.B2A.A.A$
2A.2B5.A3BAB2.B.B2A5.14B2A.A.A$7.4B3A6.BA.A4.8B2A5B2.A.2A$7.3A2.2B
9.A2.2AB.5BA2BA3B4A2.A$5.BA3B13.A.A.AB.6B2A2B.BAB2.2A$5.BA3BA11.2A
.A5.7B6.2A$6.A2BA.A13.A5.4B.2B7.A$8.A.A2BA11.2A3.4B9.A$9.A3BAB14.
4B10.2A$10.3BAB13.4B$10.3A4.2A8.4B$11.2B3.B2AB6.4B$16.4B5.4B$17.2B
5.4B$9.A7.4B2.4B$8.A.A5.5B.4B$9.A.14B$10.14B$10.14B$10.15B$9.3B2A
12B$9.3B2A13B$7.2AB.11B2.4B$6.A.AB2.8B5.4B$6.A5.10B4.4B$5.2A5.B.B
5.2A5.4B$13.3B4.A7.3BA$12.B2AB5.3A5.3BA$13.2A8.A6.3AB!
