#CSYNTH gun_1608 costs 3538 cells.
#C period 1608 fullperiod 1608 bbox 58 by 61
#CLL state-numbering golly
x = 58, y = 61, rule = LifeHistory
15.2A$15.A35.2A$5.4B3.BA.A35.A.A$3.6B3.B2A4.4B30.A$2.11B5.6B9.2A6.
A10.BA.2A$2.B2A8B5.8B6.B2AB3.3A9.B.A.2A$.2B2A7B2.14B4.3B3.A11.2A.A
$28B5.B.B2.2A7.A2.BA.4A$.35B.3B5.3A3.2A4.A$.37B6.A8.4A$.12B2A3BA
18B2AB4.2A6.BA.B$.12B2AB2AB2A9B2A5B2AB.5B6.BA.2A$13B2ABA2B2A9B2A5B
.B.4B9.A3B$.8B2A22B.B4.7B9.BA$2.8B2A13B3.B10.7B10.BA$2.22B2A12.13B
3.BA.A$2.7B3ABA10B2A11.16B.B2A$3.6BABA13B11.19B$3.17B2A2B12.19B$3.
17B2A2B11.20B$3.20B11.2B2A17B$3.19B12.2B2A17B$3.19B11.13BABA6B$.2A
B.16B11.2A10BAB3A7B$A.AB3.13B12.2A22B$AB10.7B10.B3.13B2A8B$.AB9.7B
4.B.22B2A8B$.3BA9.4B.B.5B2A9B2A2BAB2A13B$.2A.AB6.5B.B2A5B2A9B2AB2A
B2A12B$2.B.AB6.2A4.B2A18BA3B2A12B$.4A8.A6.37B$A4.2A3.3A5.3B.35B$.
4A.AB2.A7.2A2.B.B5.28B$4.A.2A11.A3.3B4.14B2.7B2A2B$.2A.A.B9.3A3.B
2AB6.8B5.8B2AB$.2A.AB10.A6.2A9.6B4.12B$4.A23.B2A4.4B4.4B2.6B$4.A.A
21.3AB10.4B3.4B$5.2A20.A.2AB9.4B$26.A.A.2B8.4B$26.A2.A2.2B5.4B$27.
2A3.3B3.4B$21.2A9.B2A.5B$20.A.A8.BA2BA4B$20.A8.B.2B2A4B$17.2A.AB.B
3.11B$18.A.A.2AB.12B$18.A.A.2A14B$17.2A.A2.5B2A8B$17.A2.4A3BA2BA5B
.B2A$18.2A2.BAB.2B2A6B.BA.A$20.2A6.7B5.A$20.A7.2B.4B5.2A$21.A9.5B$
20.2A10.5B$29.3B2.4B$24.B2.BA3B3.4B$23.3AB2A2B2A3.4B$23.4A4B2A4.3B
A$24.3B2A2.B6.3BA$24.3B12.3AB!
