#CSYNTH gun_1530 costs 2279 cells.
#C period 1530 fullperiod 1530 bbox 53 by 43
#CLL state-numbering golly
x = 53, y = 43, rule = LifeHistory
36.2A$36.A13.A$37.3A9.A.A$39.A9.BA2B$40.3B7.AB$15.4B16.9B4.3AB$15.
4AB9.4B.11B3.2B$14.A4BA7.18B3.2B$14.A2B.A.AB4.18B4.3AB$15.A3.ABAB
3.18B6.AB$20.BAB3.19B4.BA2B$19.2BAB2.5BA14B4.BAB$18.A2BAB.5B2A16B.
A.A$19.2A2.3B2A10BA7B.BAB$23.2B4A5BAB2ABA5B.2BAB$24.A3BA3B2ABA4BA
3B3.BA$24.BAB2A5BA2B2AB2AB4.B3A$25.2BA9B2AB2AB6.2B$25.13BAB2AB6.2B
$23.16BA2B5.B3A$22.13B.4B7.BA$22.13B11.2BAB$23.7B2.B14.A.A$9.2A12.
7B3.4B11.A$8.B2AB12.5B4.3BAB$2.2B5.2AB13.3B4.4ABA$5B.2B2.A2.2B2.2B
.3B.4B4.3A.A.AB$9B3A16B5.B3.ABAB$.7B2AB2A16B9.A2B$.6B2A3B2A11B.4B
7.2A2B$2.6B2AB2A11B3.4B5.B2A2B$2.21B5.4B5.2A$.AB2.15B9.4B$A.A7.5B
15.4B$2A8.2B.2B16.4B$8.6B18.4B$6.BA6BAB17.4B$4.2B2A6B2A2B16.4B$3.
2B3A6B3A2B16.4B$4.2B2A6B2A2B18.4B$6.BA6BAB21.3BA$8.6B24.3BA$10.2B
27.3AB!
