#CSYNTH gun_357 costs 2295 cells.
#C period 357 fullperiod 357 bbox 51 by 45
#CLL state-numbering golly
x = 51, y = 45, rule = LifeHistory
22.2A$22.2A17.A2.2A$41.4A.A$20.4A3.A18.A$20.A2.AB.A.A10.7A.2A$21.
2B.2B.A10.A2.B3.A.A2.A$22.4B12.2A2.2A.AB2.2A$21.5B15.B2AB2A$20.4B
2AB15.5B$19.5B2A17.3B$19.8B15.2A3B$19.7B15.B2AB2A$18.9B6.2A6.2ABA
4B$16.11B7.A5.9B$8.2A6.12B6.A.AB3.7B$9.A5.13B7.2AB.10B$9.A.AB.15B
8.13B$10.2AB.14B9.13BA$12.14B11.11BABA$12.14B13.8B2.2A$12.13B14.6B
5.B$13.11B14.9B$15.13B9.4B4.2A$15.3B2A5B2A2B7.4B5.A$15.B2A2BA3BA2B
2A.B4.4B7.3A$14.2B2A3BABA3B2A9B10.A$14.2BA2B2A3B2A2BA8B$13.BA2B2A
7B2A2BA5B3.BA2B.2A$10.A.2AB3A9B3ABA3B3.B4A2B.A$9.A2B.3BA5BA5BA3BA
3B2.A5BA.A$9.A9BA5BA6BA3B.A2BA4B.2A$10.2A.BA3BABA3BABA3BABA8B.AB2A
.2BA$13.2A2B2A7B2A2B2A2B2.4B2A3.2A3B$15.17B5.A2B.2ABA.4B$16.5BABAB
.5B8.2A.4BA2BA$16.9B15.A.A5BA$6.ABA3.2A2.5B3AB15.A.2B4AB$5.A2BA2.A
2BAB4.B3AB16.2A.2BAB$.3BA2B.2B2.2BAB5.2B$.2B4A4BA2BAB4.4B$B2A3B4A
3B2AB4.A.A2.A$BA2BA4B4A2B3.3A.4A$BA2B2.2B.2BA3B2.A3.A$BA2BA2.A2BA
6.2A2.A.A$2.2A3.ABA12.2A!
