#CSYNTH gun_747 costs 4400 cells.
#C period 747 fullperiod 747 bbox 88 by 50
#CLL state-numbering golly
x = 88, y = 50, rule = LifeHistory
34.2A.A.2A15.2A5.2A$33.A2.2A.A2.A.2A.A7.A.BABA.A2.A$32.A.A4.A.2A.A
.2A7.2A.2BABA.2A12.A2.2A$17.2A14.A.5A2.B8.6B2.B2.A.A13.4A.A$18.A
16.A4.AB2A6.5B4.4A.AB17.A$18.A.AB12.A2.BA.A.2A4.7B5.2B.B3A9.7A.2A$
19.2AB.B9.A.2BA.A2.13B8.B2AB8.A2.B3.A.A2.A$21.4B8.2A.2BA5.13B7.A.A
2B6.2A2.2A.AB2.2A$21.4B12.3B3.15B7.AB3A8.B2AB2A$5.2A14.5B12.2B3.
15B8.B.B10.5B$3.2B2AB12.6B11.4B.8B2A7B21.3B$3.4B13.8B2.20BABA6B20.
2A3B$2.4B13.33B2A6B18.B2AB2A$3.4B13.30BABA8B9.2A6.2ABA4B$.7B13.7B.
21B2A4B3.B2A9.A5.9B$.7B12.35B4.A2.A8.A.AB3.7B$2A7B11.19B2.2B2.B3.
6B5.2A.A8.2AB.10B$2A9B8.17B14.6B7.A10.13B$.B.11B2.2B.15B14.9B6.2A
9.13BA$4.29B15.2A4.4B16.11BABA$4.20B.8B16.A5.4B17.8B2.2A$4.16B2A2B
3.8B11.3A7.4B16.6B5.B$4.16B2A2B5.B3.2A11.A10.4B14.9B$5.18B10.A24.
4B12.4B4.2A$12.4B.3B.B12.3A2.A19.4B10.4B5.A$13.4B19.A2.3A12.B.3B.
4B8.4B7.3A$14.4B24.A10.22B10.A$15.4B10.A11.2A3.B5.2B2A18B7.A$16.4B
7.3A11.8B3.2B2A18B6.A.A$17.4B5.A16.8B.24B4.A.A$18.4B4.2A15.35B.2A.
2A$11.2A6.9B14.15B.2B2.13B2A2B$12.A7.6B14.17B8.10BABAB$12.A.2A5.6B
3.B2.2B2.19B11.7B.2BAB$13.A2.A4.35B11.7B2.A3.A$14.2AB3.4B2A21B.7B
12.7B3.4A$15.8BABA30B9.2AB.B.3B$16.6B2A33B7.A.AB11.2A$17.6BABA20B
2.8B8.A14.2A$17.7B2A8B.4B11.6B7.2A$7.B.B8.15B3.2B12.5B$6.3ABA7.15B
3.3B12.4B$7.2BA.A7.13B5.A2B.2A8.4B$9.B2AB8.13B2.A.A2B.A9.B.B2A$9.
3AB.2B5.7B4.2A.A.AB2.A12.BA.A$10.BA.4A4.5B6.2ABA4.A16.A$11.A.A2.B
2.6B8.B2.5A.A14.2A$10.2A.ABA2B.2A7.2A.A.2A.A4.A.A$10.A2.A.ABAB.A7.
A.2A.A2.A.2A2.A$11.2A5.2A15.2A.A.2A!
