#CSYNTH gun_7968 costs 2904 cells.
#C period 7968 fullperiod 7968 bbox 66 by 44
#CLL state-numbering golly
x = 66, y = 44, rule = LifeHistory
39.B3.BAB2.A.2A$27.BA9.B2A.4A2.2A.A$10.2A15.2AB2.2A3.ABAB.BA2.2B$
11.A5.2AB6.B2A2.B2AB.A2B.2B2.A.2A.2A$11.A.AB.A2BA.4B2.AB3.4B.A2B5A
.2A.A2.A$12.2AB.4BA6B6.3B3.2B4.A2.A2.2A$14.6B2A5B5.B2AB4.2A2.A2.A$
14.3BA2B3A5B3.BA2BA5.A3.2A$14.2B2A2B2A7B2.BABAB2.3A9.A$15.BA3BA8BA
3BA2B.A11.A.A$16.6B5.ABA3B.2B2.3A8.A.A4.2A$16.B3.4B4.2A6B4.3A4.3A.
2A4.A$16.B5.2A5.5B2AB6.A2.A4.B5.A.2A3.2A$15.2BA4.A7.4B2A4.3A4.3AB
2AB4.A.A4.A$13.2B2A.A4.3A5.4B4.A9.A.2AB6.A.3A$12.2AB2ABA6.A3.6B4.
2A12.4B2.2A.A$12.2AB2A2.2A8.2A.B2.6B12.10B$17.A.A10.A3.5B10.B2.7B.
2B$12.6A.A7.3A3.7B2.B5.13B$12.A5.A8.A4.8B.3B2.16B$15.3A13.9B.10B2A
9B$15.A14.18BA3BA9B$29.4B.14BA3BA8B$28.4B2.5B2A9B2A7B$27.4B3.5BABA
6B2A7B$11.B2A12.4B3.6BAB2A4B2ABA6B$11.3AB10.4B4.7B2A6BABA5B$10.A.
2AB9.4B3.7B2A9B2A5B$9.A.A.2B8.4B2.8BA3BA14B$9.A2.A2.2B5.4B2.9BA3BA
15B$10.2A3.3B3.4B3.9B2A10B.6B$4.2A9.B2A.5B4.16B2.10B$3.A.A8.BA2BA
4B6.13B5.B.5B$3.A8.B.2B2A4B6.2B.7B2.B8.4B$2A.AB.B3.BA9B6.10B12.2B
2AB$.A.A.2AB.3A9B6.A.2A2.4B14.2A$.A.A.2A2B2A10B4.3A.A6.B2A.A$2A.A
2.5BA9B3.A4.A.A4.B2AB3A$A2.4A3BA8B.B2A2.A3.2A.A5.B4.A$.2A2.BAB.BA
8B.BA.2A7.A4.2A.3A$3.2A6.7B5.A8.2A4.A.A$3.A7.2B.3BA5.A.A12.A.A$4.A
10.3BA5.2A13.A$3.2A11.3AB!
