#CSYNTH gun_4259 costs 13482 cells.
#C period 4259 fullperiod 4259 bbox 126 by 107
#CLL state-numbering golly
x = 126, y = 107, rule = LifeHistory
35.2A2.A$34.A.4A$34.A$32.2A.7A$30.A2.A.A3.B2.A$30.2A2.BA.2A2.2A$
34.2AB2AB6.2A$34.5B8.A$35.3B7.A$34.5B6.5A$34.BA4B9.A$32.2BABA3B3.
4AB$32.2BABA4B2.A2.AB$33.2BA4B4.4B$32.15B3.2A$31.14B2A.A2.A$30.11B
A3B2A.2A$29.11BABAB.B$28.4B2.7BAB$12.2A13.4B5.7B$12.A13.4B4.9B$7.
2A5.A10.4B5.2A4.4B$7.A5.2A9.4B7.A5.4B$4.2A.A.3B11.4B5.3A7.4B$4.A2.
A.2A2B2A7.4B6.A10.4B$6.2A.A.2B2AB5.4B19.4B$9.A.4B5.4B21.4B$9.2A.4B
3.4B23.4B$12.3BA6B25.4B$3.2A7.2BABA4B27.4B25.A11.2A$3.A8.3BA4B29.
4B23.A.A9.B2AB$2A.A.B3.10B14.2A15.4B10.A3.A3.2A2.A.A9.3B$A2.3AB.2B
2A7B14.A.A5.2A8.2B2A7.3A2.A.A2.A2.2A.2A9.B.B$.2A2.BA3B2A7B16.A4.A.
A9.2A2B5.A5.A.A3.A.A2.B8.5B$3.4A12B12.4A.2A2.A12.BA5B.2A5.A.4A2.AB
2A6.6B$3.A.2B3.7B.B2A10.A2.A.A.A.2A12.9B7.A3.A.A.2A4.8B$4.3AB2.7B.
BA.A11.BABABA.A14.6B8.A2.BA.A2.13B$7.A4.4B5.A12.B2ABA.A15.5B7.A.2B
A.A5.13B$2.5A5.4B5.2A12.2B.BA15.7B6.2A.2BA5.15B$2.A10.4B17.3B19.6B
10.3B4.15B$4.A9.4B7.2A6.4B19.7B10.2B.B.17B$3.2A10.4B7.A6.B2A3B17.
6B4.29B$16.4B6.A.AB3.B2A3B17.7B2.16B2A13B$17.4B6.2AB.10B15.7B2.16B
2A14B$18.4B7.13B13.9B.27B3.B2A$19.4B6.14B12.36B4.A2.A$20.4B5.15B6.
B4.2B3A15B2.2B2.B2.7B5.2A.A$21.4B6.8B2.4B4.2AB.19B13.7B7.A$22.4B5.
6B5.4B3.2A4B2A13B15.8B6.2A$23.4B3.9B4.4B3.B.4BA2B2A8B17.2B2.4B$24.
4B.4B4.2A5.4B5.3BA13B15.2A4.4B$25.7B5.A3.A3.4B4.2ABA13B15.A6.4B$
26.5B7.4A4.4B3.B2A12B.B2A14.A6.4B$26.5B16.4B2.12B4.BA.A12.2A7.4B$
25.7B4.4A8.15B9.A22.4B$24.4B.4B3.A2.3A7.15B8.2A22.4B$23.4B3.4B8.A
7.5B3A6B33.4B$22.4B5.4B6.A.A7.4BA3B2A2B35.4B$21.4B7.4B5.A.AB7.5BAB
A2B37.4B$20.4B9.4B5.A3B7.2B4A3B38.4B$19.4B11.4B6.4B5.2BA6B39.4B$
18.4B13.4B5.6B5.6B41.4B$17.4B15.4B4.7B.2B2.5B42.4B$4.2A10.4B17.4B
2.8B.9B43.4B$5.A9.4B19.24B43.4B$3.A10.4B21.24B43.4B$3.5A5.4B5.2A
15.19B2.4B43.4B10.2A$8.A4.4B5.A11.2A2.19B4.4B43.4B9.A$5.3AB2.7B.BA
.A11.A2.A17B7.4B43.4B10.A$4.A.2B3.7B.B2A14.2A.15B9.4B36.2A5.4B5.5A
$4.4A12B21.12B11.4B36.A5.4B4.A$2.2A2.BA3B2A7B22.10B3.2A8.4B35.A.AB
.7B2.B3A$.A2.3AB.2B2A7B22.2B2A6B3.A10.4B35.2AB.7B3.2B.A$.2A.A.B3.
10B21.3B2A6B4.A10.4B36.12B4A$4.A8.8B21.10B3.2A11.4B35.7B2A3BAB2.2A
$4.2A7.9B20.8B.B2A15.4B34.7B2A2B.B3A2.A$14.3B2.4B18.7B3.B2AB2A13.
4B33.10B3.B.A.2A$12.5B3.4B17.6B6.B.A15.4B31.8B8.A$12.2A7.4B17.6B4.
2A3.A14.4B29.9B7.2A$13.A8.4B16.8B.A2.4A15.4B27.4B2.3B$10.3A10.4B
14.9BA.A.A19.4B25.4B3.5B$10.A13.4B4.A8.7B.2BAB.A.2A17.4B23.4B7.2A$
25.4B3.3A6.6B3.2B2.A.A19.4B21.4B8.A$26.4B5.A4.7B4.B.2A2.A19.4B19.
4B10.3A$27.2B2A3.2A4.7B3.A.A2.A.A20.4B10.A6.4B13.A$28.BABA2.4B.8B
3.2A2.A.A22.4B7.3A5.4B$29.A3B3.11B8.A24.4B5.A7.4B$30.4B.12B34.4B4.
2A5.4B$31.16B35.9B4.4B$32.14B10.A26.6B5.4B$33.10B11.3A26.8B2.4B$
32.12B9.A27.15B$31.16B6.2A26.14B$24.A6.24B26.13B$24.3A3.23B26.2AB.
10B$27.A2.24B24.A.AB3.B2A3B$26.A.B.24B24.A6.B2A3B$26.2A27B22.2A6.
4B$24.2A2.A22B.4B30.3B$23.A2.3A3B3.2B3.B7.2B3.4B30.2B.BA$24.A4.2B
3.4B.3B5.BA2B3.4B28.B2ABA.A$25.4A5.B2AB.B2AB4.A.A5.4B26.BABABA.A$
27.A7.2A3.2A6.A7.4B23.A2.A.A.A.A.2A$29.A27.4B22.4A.2A2.A2.A$28.2A
28.3BA25.A4.2A$59.3BA22.A.A$60.3AB21.2A!
