#CSYNTH gun_1099 costs 8892 cells.
#C period 1099 fullperiod 1099 bbox 76 by 117
#CLL state-numbering golly
x = 76, y = 117, rule = LifeHistory
46.2A$45.A.A$39.2A4.A$37.A2.A2.2A.4A$37.2A.A.A.A.A2.A$40.A.ABABAB$
40.A.AB2AB$41.AB.2B$44.3B$44.4B6.2A$42.3B2AB6.A$42.3B2AB3.BA.A$40.
10B.B2A$39.13B$24.A13.14B$24.3A10.15B$27.A8.4B2.8B$26.2A7.4B5.6B$
26.5B3.4B4.9B$28.3B2.4B5.2A4.4B$18.2A7.9B7.A5.4B$18.A8.8B5.3A7.4B$
15.2A.A.B3.10B6.A10.4B$15.A2.3AB.2B2A7B18.4B$16.2A2.BA3B2A7B19.4B
10.2A$18.4A12B20.4B9.A$18.A.2B3.7B.B2A19.2B2A10.A$19.3AB2.7B.BA.A
12.2A5.BABA5.5A$22.A4.4B5.A13.A5.BA2B4.A$17.5A5.4B5.2A12.A.AB.6BA
2.AB2A$17.A10.4B19.2AB.7B3.2B.A$19.A9.4B20.5B2A3BA3B2A$18.2A10.2BA
B19.8BA5B2.2A$31.2B2A18.8B3A.2ABA2.A$32.2A2B17.10B3.B.A.2A$33.4B
15.8B8.A$34.4B13.9B7.2A$35.4B11.4B2.3B$36.4B9.4B3.5B$37.4B7.4B7.2A
$38.4B5.4B8.A$39.4B3.4B10.3A$40.4B.4B13.A$41.7B$42.5B$42.5B$41.7B$
40.4B.4B13.A$39.4B3.4B10.3A$38.4B5.4B8.A$18.A18.4B7.4B7.2A$17.A.A
3.2A11.4B9.4B3.5B$16.A2.A3.A11.4B11.4B2.3B$16.A.A.2A.A10.4B13.9B7.
2A.2A$15.2A.A.A.A10.4B15.8B8.A.2A$13.A2.A.2A2B10.4B17.10B3.B.A$13.
2A2.4B10.4B18.7B2A2B.B3A$17.7B6.4B19.7B2A3BAB2.2A$18.8B3.4B20.12B
4A2.A$19.8B.4B3.2A14.2AB.7B3.2B.A.2A$19.12B4.A10.2A2.A.AB.7B2.B3A
2.A$16.2B.11B2.BA.A11.A2.A5.4B4.A5.A$15.2A5BA8B.B2A10.A2.3A5.4B5.
5A$15.2A6BA9B12.3A7.4B8.A$16.2B.3B2A9B15.A5.4B$19.3B2A8B15.2A4.4B$
16.2B.4BA9B14.9B6.2A4.4B$15.2A4BA3BA9B14.6B7.A3.BA4B$15.2AB.6B2A
11B2.2B2.B3.6B5.2A.A2.2A4B2A$16.B2.2BA3B2A27B4.A2.A3.2A2B2A.3A$19.
4B2A2B.20BA6B3.B2A4.BA2B.2B3.A$19.7B2.16B4A12B5.5B.2ABAB$19.7B2.
16B6A9B7.ABAB.BABA$19.7B3.29B7.BAB2A.5B$16.AB.6B11.2B.B.17B7.A3.2B
.2BAB$9.A5.A.A7B10.3B4.15B4.A4.3A.2A2B2A$9.3A4.A8B6.2A.2BA5.15B4.
3A4.2A4B2A$12.A4.B.6B6.A.2BA.A5.13B8.A4.4BAB$11.2A7.BA3B7.A2.BA.A
2.13B9.2A4.4B$11.5B3.2A4B8.A3.A.A.2A4.8B8.6B$13.3B2.2B2AB.B2A4.A.
4A2.AB2A6.6B10.5B$3.2A7.9B3.BA.A3.2A3.A.A2.B8.5B9.7B$3.A8.8B7.A6.A
.A.2A.2A9.B.B9.8B$2A.A.B3.10B8.2A2.3A.A3.A.A9.3B10.9B$A2.3AB.2B2A
7B12.A2.A4.A.A9.B2AB8.11B$.2A2.BA3B2A7B13.2A6.A11.2A10.6B.4B$3.4A
12B45.5B3.3BA$3.A.2B3.7B.B2A27.A12.8B4.ABA$4.3AB2.7B.BA.A26.3A8.
10B5.2A$7.A4.4B5.A29.A6.12B5.B$2.5A5.4B5.2A15.2A10.2A6.13B$2.A10.
4B22.A10.5B3.12B$4.A9.4B21.A.AB9.4B2.13B$3.2A10.4B10.A10.2AB.3B4.
20B$16.4B7.3A12.7B.23B$17.4B5.A15.28BA4B$18.4B4.2A15.26BABA4B$11.
2A6.9B14.27BABA4B$12.A7.6B14.30BA4B$12.A.2A5.6B3.B2.2B2.19B.B3.B.
2B3.5B$13.A2.A4.9BA23B6.3B7.B$14.2AB3.8B2AB2A14B.6B6.B2AB5.3B$15.
17BA14B2.B.5B5.2A6.B2AB$16.12BA3BA14B7.2A14.2A$17.10B5A14B8.A$17.
9B2A6B.B.2B16.3A$18.8B2A5B4.3B17.A$18.15B5.A2B.2A$19.13B5.A.A2B.A$
21.13B2.A.AB2.A$20.8B4.2A.A.A3.A$20.6B6.2ABA2.4A.A$20.5B8.B2.A.A3.
A.A$20.B.B9.2A.2A2.A2.A.A$21.3B9.A.A2.2A3.A$20.B2AB9.A.A$21.2A11.A!
