#CSYNTH gun_2324 costs 2560 cells.
#C period 2324 fullperiod 2324 bbox 64 by 40
#CLL state-numbering golly
x = 64, y = 40, rule = LifeHistory
30.4B$30.4A2B$29.A4BA2B$27.3A.3B2AB$26.A3.2B.ABAB$26.BAB2A.A4B11.A
$27.A2BA.A2BA11.A.A$26.4BA.2ABAB10.A.A4.2A$26.BABA.2B3.A8.3A.2A4.A
$26.B2A3B.3A4.A3.A4.B5.A.2A3.2A$26.2BA4BA4.3A4.3AB2AB4.A.A4.A$27.
2B4A4.A9.A.2AB6.A.3A$29.4B4.2A12.4B2.2A.A$33.6B12.10B$32.5B10.B2.
7B.2B$31.7B2.B5.13B$30.8B.3B2.16B$29.9B.21B$28.15BA4B2A10B$27.4B.
11B2A2BABA9B$26.4B2.6BA5BA2BABA7B$25.4B3.4B3A4BA3B2A6B$9.B2A12.4B
3.4BA14BA4B$9.3AB10.4B4.6B2A3BA4B3A4B$8.A.2AB9.4B3.7BABA2BA5BA6B$
7.A.A.2B8.4B2.9BABA2B2A11B$7.A2.A2.2B5.4B2.10B2A4BA12B$8.2A3.3B3.
4B3.21B.6B$13.B2A.5B4.16B2.10B$2A.2A7.BA2BA4B6.13B5.B.5B$2A.A8.2B
2A4B6.2B.7B2.B8.4B$3.A.B3.2A8B6.10B12.2B2AB$3.2A2B.3BA7B6.A.2A2.4B
14.2A$.2A2.A2BAB2A7B4.3A.A6.B2A.A$A2.AB2A12B3.A4.A.A4.B2AB3A$2A.A.
AB3.7B.B2A2.A3.2A.A5.B4.A$.A2.3AB2.7B.BA.2A7.A4.2A.3A$.A5.A4.2BAB
5.A8.2A4.A.A$2.5A5.3BA5.A.A12.A.A$4.A8.3AB5.2A13.A!
