#CSYNTH gun_1666 costs 4730 cells.
#C period 1666 fullperiod 1666 bbox 86 by 55
#CLL state-numbering golly
x = 86, y = 55, rule = LifeHistory
7.2A$7.2A$13.2A$5.6A.A.A3.2A$4.A5.A.A6.A5.A$5.3A3.2AB2.3A4.3A$8.A
2.2B3.A5.A$.2A4.2A3.4B6.2A38.2A12.A2B3.2A$2.A4.10B3.4B38.A.A2.2A6.
2BAB2.BA2BA$2.A.AB3.13B42.A3.A2.B2A2BA.2B2.4B$3.2AB.17B36.4A.3A3.A
2BABAB2A6B$5.21B34.A2.A.A4.A4B2A2B2A4BA$5.B2A18B36.4B4.6B2ABABA2BA
$5.A2BA17B37.2B5.4B2.2B.A2B2AB$5.BABA16B13.ABAB.2A16.5B4.A2BAB2.BA
2B$5.2BA13B16.A2BA2BA.A15.9B2.2A3.2BA$4.16B17.B2ABA2B.A15.9B$2A2.
4B4.7B17.6B2A.2A8.5B.9B$A2.AB2A6.6B2.2B13.4B.B2AB.A2B5.10B3A4B$.3A
BABA6.5B.5B11.2B3A3.3A3B2.11BA2BA2B2A2B$5.A.A2.A3.12B.2A7.2BA.B2AB
.18BA2B2A2BA2B.2B$3.3A.4A3.13BA2.A7.2A.2A6B.13B3A3BA5B2A$2.A3.A6.
14B2.2A8.A.2BAB2AB2.17B2A4B.B2A$2.2A2.A.A4.13B13.A.A2BA2BA3.23B.B$
7.2A4.13B14.2A.BABA3.16BA6B$11.2AB2.9B3.B20.ABA20B$10.A.AB2.9B2.3B
6.A11.B2A21B$10.A5.10B.3B6.3A8.3BA4.B.14B$9.2A4.16B8.A6.4B7.14B$
16.7B.8B6.2A5.4B9.13B$16.7BA9B5.5B.4B14.11B$15.7BABA9B6.7B14.13B$
16.6BABA9B5.7B3.2A9.14B$16.7BA9B4.BA7B4.A9.9B2A3B$16.8B.8B3.BABA7B
.A9.7BA3BABA.B2A$15.8B5.B.4B.3B2A8B2A7.7B2A6B.BA.A$16.6B5.3B.16B3.
A7.6BABA4B5.A$16.6B4.B2AB2.16B2A.A6.7BA4B6.2A$13.2A2.5B5.2A4.12B.B
A.A2.A6.11B$13.A3.5B12.10B3.BA2.2A6.9B$10.2A.A.8B7.2A2.9B17.7B$10.
A.2A.2A7B6.A2.AB5.5B14.8B$14.A.BA3.4B6.3AB8.2A15.2A5B$11.2A.A.2A4.
4B10.A6.A15.B2A4B$9.A2.A.A.B6.4B6.4A7.3A13.5B$9.2A3.AB2AB5.4B5.A
12.A13.4B$13.A2.2AB6.4B5.A23.A.2B.2B$13.2A3.2BAB4.4B3.2A22.A.A.BA
2.A$17.2B2A2B4.4B27.A3.4A$18.BABAB5.4B$17.2B.AB7.4B29.2A$13.2A2.AB
2A.BA6.4B28.2A$13.A2.A.A.A.2A7.3BA$15.2A.A.A11.3BA$19.2A12.3AB!
