#CSYNTH gun_243 costs 4420 cells.
#C period 243 fullperiod 243 bbox 68 by 65
#CLL state-numbering golly
x = 68, y = 65, rule = LifeHistory
20.A8.2A6.2A8.A$14.2A3.A.A4.A2.A.A4.A.A2.A4.A.A3.2A$14.A3.A.A.A2.A
.A.A2.A2.A2.A.A.A2.A.A.A3.A$10.2A3.A2BA.B.A2.2A.A.A.A2.A.A.A.AB2.A
.A.A2BA3.2A$10.A2.A.A.A.B2A4.A2.AB.2A.A.AB2.A4.3A.B.A.A2.A$12.2A.A
.4A3.AB2ABA2.A2.A2.3B2AB3.2B2A.A.2A$13.A.A.A.2A2.AB.AB.B2A2.A.3A.B
A.2A2.2B.A.A.A$12.A3.A2.BABA.BA5.A.2A.A5.2A.B3A2.A3.A$11.A7.BA.2A
7.A4.A7.AB.2B7.A$12.3A4.B2A.2A4.3A4.3A4.BA.3B4.3A$6.A8.A3.BA2B.A3.
A10.A3.A.4A3.A8.A$6.3A5.2A5.2BA4.2A8.2A4.3A5.2A5.3A$9.A4.5B3.A3.4B
8.4B3.B3.5B4.A$8.2A6.5B4.BAB12.B2A4.5B6.2A$8.4B2.4BA3B3.ABAB4.2A4.
BA2B3.8B2.4B$10.2BA3B2A5B3.ABAB2.A2.A2.BABA3.6B2A5B$10.B2A3B2A5B2.
2A2B.A2.2A2.B.B2AB2.5BABA5B$3.A7.ABA3BABA3B.BAB6A2.5A3BA.3BABA6B7.
A$3.3A6.6B3AB.3A3B4.2A4.4BAB.4BA5B6.3A$6.A7.3BA2BAB2.BAB6A2.5A3BA
2.8B7.A$5.2A6.2B2A3BAB3.2A2B.A2.2A2.B.B2AB3.9B6.2A$5.4B4.2B3ABAB5.
ABAB2.A2.A2.BABA5.8B4.4B$7.BAB3.5BA2B4.ABAB4.2A4.BA2B4.2A2B2ABA3.
2AB$6.BABA4.2BA5B3.BAB12.B2A3.AB2A2B2A4.2BAB$.2A2.BABA5.BAB3A2B4.
4B8.4B4.8B5.ABAB2.2A$.A2.A.2B2A3.BA3B2A2B6.2A8.2A6.9B3.B2AB.B2.A$
2.6ABAB2.BA2BA3B7.A10.A7.8B2.A3B5A$6.3B3A.B3A6B6.3A4.3A6.5BA4B.BA
4B$2.6ABAB.3BABA3BABA7.A4.A7.6BABA3B.A3B5A$.A2.A.2B2A2.5B2A3B2AB
18.5BABA5B2.B2AB.B2.A$.2A2.BABA3.5B2A3BA3B16.ABA3B2A6B3.ABAB2.2A$
6.BABA3.3BA4B2.4B14.B2AB2.8B3.2BAB$7.BAB4.5B5.4B12.3BA5.5B4.2AB$5.
4B3.A3.5B4.5B.4B4.4B4.5B3.B3.4B$5.2A4.A2B5.2A4.4BA.4B3.4B5.2A5.3A
4.2A$6.A3.A.2BAB3.A6.4BA5B.4B7.A3.4A.A3.A$3.3A4.2A.2AB4.3A4.B3A5BA
3B5.3A4.3B.AB4.3A$3.A7.2A.AB7.A5.6BA3B5.A7.2B.BA7.A$2A.A5.AB.ABAB
2.A3.A7.5B3A7.A3.A2.3AB.2A5.A.2A$A2.2AB.BA.BA2.2A.A.A.A8.7B9.A.A.A
.2B2.2A.AB.3A2.A$2.A2.AB2ABA3.4A.A.2A8.6B8.2A.A.2A2B3.B2A3B2.A$.2A
.BA2.A4.2AB.A.A.A2.A6.5B7.A2.A.A.B.3A4.A2.BA.2A$2.A.A.A.2A2.A.B.A
2BA3.2A5.6B7.2A3.A2BA.A.A2.BA.A.A.A$2.A2.A.A.A2.A.A.A3.A8.BA2B14.A
3.A.A.A2.A.A.A2.A$3.A.A2.A4.A.A3.2A7.2A2B15.2A3.A.A4.A2.A.A$4.2A8.
A12.2B2A22.A8.2A$26.4B$11.A13.4B$11.3A10.4B$14.A8.4B$13.2A7.4B$13.
5B3.4B$4.2A9.3B2.4B$3.A.A8.9B$3.A8.B.8B$2A.AB.B3.BA9B$.A.A.2AB.3A
9B$.A.A.2A2B2A10B$2A.A2.5BA9B$A2.4A3BA8B.B2A$.2A2.BAB.BA8B.BA.A$3.
2A6.7B5.A$3.A7.2B.3BA5.2A$5.A9.3BA$4.2A10.3AB!
