#CSYNTH gun_1362 costs 5658 cells.
#C period 1362 fullperiod 1362 bbox 82 by 69
#CLL state-numbering golly
x = 82, y = 69, rule = LifeHistory
34.A.2A.3B$34.2A.A5B$39.5B14.A.2A$40.4B14.2A.A$21.A19.4B22.2A$21.
3A12.B.3B.4B12.3A5.A.A$24.A10.18B4.BA2.A4.A$7.2A14.2A3.B5.2B2A8B2A
2BABAB4.2B2A3.2A$6.B2AB13.8B3.2B2A10B2A2BAB2.3B.B4.B6.2A$7.2B16.8B
.11BA2B2A2BAB.7B2.2B6.A$2.B3.2B17.20BABA2B2A9B2.5B.BA.A$.2AB.4B15.
15B.2B2.24B.B2A$.2A8B11.17B8.23B$2.B.B2A6B2.2B2.19B11.21B$5.2A31B
12.20B$5.24B.7B12.22B$.37B11.22B6.2A$.38B8.2AB.3B4.12B7.A$2A26B2.
8B8.A.AB8.12B4.BA.A$2A14B.4B11.6B8.A11.13B3.B2A$.B.11B2.4B12.5B8.
2A12.12B.3B$3.10B2.4B14.4B20.5B3.10B$4.14B15.3B21.2A6.9B$3.14B17.
4B4.A15.A6.8B$4.13B19.2A4.3A10.3A7.8B.2B$4.13B9.A9.A8.A9.A9.13B$6.
2B.8B7.3A10.3A4.2A19.13B$9.8B6.A15.A4.4B17.14B$8.9B6.2A21.3B15.14B
$7.10B3.5B20.4B14.4B2.10B$7.3B.12B12.2A8.5B12.4B2.11B.B$5.2AB3.13B
11.A8.6B11.4B.14B2A$4.A.AB4.12B8.BA.A8.8B2.26B2A$4.A7.12B4.3B.B2A
8.38B$3.2A6.22B11.37B$11.22B12.7B.24B$12.20B12.31B2A$12.21B11.19B
2.2B2.6B2AB.B$12.23B8.17B11.8B2A$10.2AB.24B2.2B.15B15.4B.B2A$9.A.A
B.5B2.9B2A2BABA20B17.2B3.B$9.A6.2B2.7B.BA2B2A2BA11B.8B16.2B$8.2A6.
B4.B.3B2.BA2B2A10B2A2B3.8B13.B2AB$15.2A3.2A2B4.BABA2B2A8B2A2B5.B3.
2A14.2A$15.A4.A2.AB4.18B10.A$13.A.A5.3A12.4B.3B.B12.3A$13.2A22.4B
19.A$20.A.2A14.4B$20.2A.A15.4B12.A$26.B13.4B9.3A$25.2AB2.BA9.4B7.A
8.A.2A$24.B2AB.BA.A9.4B6.2A5.4A.A$24.B.5BA3.A7.4B.6B4.A5.A.2A$23.
6B.B4.3A6.8B7.5A.A.A$19.B3.5B10.A6.10B6.A.A.A$18.2AB.2A5B8.2A5.B.
10B5.A.BA.A$18.2A2B2A6B7.18BAB3.2BA.B.A$19.B.10B8.15BABA2BA2B3A.2A
$23.2B2.5B6.2B2A12BABA.BA2B3A.A$22.B5.5B4.2BA2BA12BA4.2BA.B.A$21.
2AB5.5B3.3B2A4B2.2BA4B6.A.BA.2A$20.A.B2AB4.14B4.BABA3B6.A.A.A$20.A
4B2A4.12B6.ABAB6.5A.A$18.2A2.BAB2A5.10B7.BAB6.A5.A$19.A.A11.9B8.B
8.5A$19.A.6A7.9B18.A$20.A5.A8.4BA2B$21.3A12.4BAB$23.A14.3AB!
