#CSYNTH gun_1092 costs 3102 cells.
#C period 1092 fullperiod 1092 bbox 66 by 47
#CLL state-numbering golly
x = 66, y = 47, rule = LifeHistory
2.A9.A$2.3A5.3A$5.A3.A$4.2A.B.2A$4.7B$6.3B$4.7B$3.4BA4B8.2A$3.3BAB
A3B3.2A2.A2.A$4.3BA3B4.A.A2.A.A$4.7B5.B.2A.A$3.9B3.2B2.A$.17B.A$.
15B2A.2A$2BA13B2A.A7.4B$.ABA8BA2B.B4.A5.4BAB$BABA7BABAB5.2A4.2A4B
2A$.BA7BA2BA2B4.A3.3A.2A2B2A13.A9.A$3.10BA2B.BA.A2.A3.2B.2BAB13.3A
5.3A$5.6B3A2B.B2A3.BAB2A.5B16.A3.A$5.2BA10B6.ABAB.BABA9.B6.2A.B.2A
$5.BA11B5.5B.2ABAB5.5B5.7B$6.B3A8B5.BA2B.2B3.A4.2BA3B7.3B7.2A$7.B
2A8B5.2A2B2A.3A4.2B3A3B5.5B6.A$10.8B5.2A4B2A5.BA3BA3B4.8B5.A$10.9B
5.BA4B4.A6BA5B2.8B4.2A$9.5B2.4B6.4B4.A3BA2BA16B3.B$9.6B2.4B9.3B.B
5A18B2.2B2.B$8.6B4.4B8.4B.27B.B2A$4.B2.3BA3B5.4B5.36B2A$2.7BABA2B
6.4B4.7B3A24B.2B$2.7BABA2B7.4B2.8B3A14BA9B$.9BA3B8.13BA14B3A8B$.
11B.B2A7.27B3A7B4.2A$2.9B2.BA.A7.36B3.A.A$2.7B7.A8.28B.4B5.A$3.6B
7.2A8.2B2.18B5AB.3B4.2A$4.4B16.A.B3.16BA2BA3BA4.3BA$5.4B14.A.A.A3.
8B2.5BA6BA3.5B2A$6.4B13.A2.2A3.8B4.3BA3BAB5.A2B.B2.A$7.4B11.2A9.5B
5.3B3A2B5.A.BAB2A2.A$8.4B22.3B7.3BA2B4.3A.A.A2.2A$9.4B19.7B5.5B4.A
4.5A$10.4B18.2A.B.2A6.B8.4A4.A$11.3BA18.A3.A20.4A$12.3BA14.3A5.3A
15.A2.A$13.3AB13.A9.A15.2A!
