#CSYNTH gun_3630 costs 2944 cells.
#C period 3630 fullperiod 3630 bbox 64 by 46
#CLL state-numbering golly
x = 64, y = 46, rule = LifeHistory
18.A$17.A.A$17.A.A$12.2A2.2A.2A$11.A.2B.A3.A$9.A2.A.2B.3A27.B.B$2A
7.2A.A.BABA28.B2A3B$.A10.A.3A29.A2BA2B10.2A$.A.AB7.2A3B28.2B2A4B2.
2B5.A$2.2AB.2A5.2B2.2B6.2A7.2A9.13B.BA.A$4.2B2AB8.3B5.A.A2.2A3.A6.
16B.B2A$5.3B9.4B6.A2.A2.A7.BA12BA4B$4.2BAB7.7B4.A.2A2.3A5.BABA10BA
BA4B$4.3AB6.3B3A2B3.A.A2.2A3.2B3.BABA11BA4B$2A.BA.3B3.4BA3BAB3.A.A
.A2.3A2B3.2BA15B.B2A$A2.ABA4B.4BA5BAB3.A.A.2AB.A23B.BA.A$.6AB.6BA
5BAB5.A3.2A19B2.2B5.A$4.4B.6BA5BAB4.A.2A21B10.2A$.2A.A.A3.6BA3BA.B
2A2.A.A.B.19B$.2A.2A4.7B3AB.BA.A.A2.A5.16B$11.4B.4B5.A2.2A6.10B3.
4B.2A$10.4B2.4B5.3A9.8B3.B2A3B.A$9.3B5.4B7.4A4.9B4.2AB2.A$7.BA4B5.
4B5.A3.A3.10B8.A$6.2A5B6.4B4.2A5.10B5.5A.A$6.A.3AB2A6.5B3AB4.7BA3B
5.A4.A.A$4.3A.A2BA.3A5.3B3A5.7BABA2B7.A2.A.A$3.A3.5B4.A4.2B5AB2.8B
ABA2B6.2A3.A$3.A.2A2B.B4A.A2.3B2A3B2A11BA3B$2.2A.AB2.3A3.A3.2B3A3B
3A12B.B2A$2.A2.2B2.2B.3A4.3B2A3B2A12B2.BA.A$3.2A.A5BA4.2AB.2B5A3B.
7B7.A3.A$4.A.A.2B.A4.A.AB3.B3A3B3.6B7.A.3A$4.A.2ABA6.A5.3BA5B3.4B
9.A$3.2A.A.B2A4.2A6.8B4.4B9.A5.2A$6.A.2A13.6B7.4B9.A4.A$6.AB2A14.
5B8.4B5.4A5.A$3.2A.A18.3B10.4B3.A4.2A2.2A$4.A.A.B15.5B10.4B3.3A.A.
A3.2A$3.A2.3A2B12.B2AB2A11.4B4.ABA.2A.A2.A$4.2A3.2A9.2A2.2A.AB2.2A
8.4B4.BA2B3.3A$6.2ABA10.A2.B3.A.A2.A9.4B3.2AB4A$6.A.2AB10.7A.2A12.
11B.A.2A$8.BAB17.A15.3BA2B.A2BAB.A.A$9.B13.4A.A16.3BA3.2A2B.A.A$
23.A2.2A18.3AB3.B2.2A.2A!
