#CSYNTH gun_453 costs 4288 cells.
#C period 453 fullperiod 453 bbox 64 by 67
#CLL state-numbering golly
x = 64, y = 67, rule = LifeHistory
10.A3.2A$9.A.A.A2.A.2A.A$7.3A.A.4A.A.2A$6.A3.2A5B$6.A.2A.AB.4B$7.A
.A.3A.2BAB.2A19.2A$9.A.A.A2B3A2.A8.A6.2A2.A$8.2A.2A.B2A.3A7.3A6.A.
A.A$10.A3.BA3B8.A3.2A6.A.2A$10.A5.2BA8.A.2A2.A4.2A.A2.A$11.2A7.2B
6.A.B.A3.BA.AB2.2A$12.A5.5B6.BA.2A2.3AB$12.A.AB.6B.B5.A2.A2.A3.A$
13.2AB.9B3.2A2B2A.5A$15.14B2A2B3A$15.B2A10B.2A2BA.2B2A$8.A6.B2A9B
3.A.BABA2.A$7.ABA5.10B4.AB4.2A.A.2A.2A$7.2B7.10B4.BA2.2A2.2A.A.2A$
5.BA2BA6.11B3.A.A2.2A2.A.A$.2A.ABA.A7.7B.4B3.B2AB.AB2A.A$A.2A3BA8.
7B2.4B4.A.A2B2.A$A4.AB10.5B4.4B3.A.A2.2A$.4A12.5B5.4B3.A3.A$2.A.2B
11.5B.2A3.4B7.A$.BA.BA10.4B2.A.A4.4B5.2A$.B3A10.4B3.BA6.4B$.2A11.
4B5.2AB5.4B$BA11.4B5.4A6.4B$A.AB2.B5.4B4.AB.B.3A5.4B$.2AB.3B3.4B4.
BA5B2.A5.4B$3.6B.4B6.A2.2AB.2A6.4B$3.10B10.B.A10.4B18.A$3.2B2A5B
10.BAB12.4B11.2A3.A.A$4.A2BA3B11.A2B13.4B11.A3.A2.A$4.BABA4B11.AB
2A12.4B10.A.2A.A.A$5.BA6B12.B.A12.4B10.A.A.A.2A$5.3B2.4B12.2A13.4B
10.2B2A.A2.A$.AB2.3B3.4B27.4B10.4B2.2A$BABA.B.B4.4B27.4B6.7B$.A3BA
B6.4B27.4B3.8B$2.2B.2A7.4B22.2A3.4B.8B$2.2A.2AB7.4B22.A4.2B2A8B$2.
2B.2A9.4B21.A.AB2.BABA7B.2B$3.A2B.2A8.4B10.A10.2AB.2BA11B2A$5.A3B
9.4B7.3A12.16B2A$6.A.2BA8.4B5.A15.14B.2B$8.2A.A.2A5.4B4.2A15.13B$
11.A.A7.9B14.14B.2B$11.A2.3A5.6B14.18B2A$10.2A5.A5.6B3.B2.2B2.19B.
B2A$14.2AB.A4.35B2.B$13.A2.2AB3.27B.8B$13.2A2.14B2A16B2.7B$18.13B
2A16B2.7B$19.29B3.7B$19.17B.4B11.6B.BA$9.B.B8.15B3.2B12.7BA.A$8.3A
BA7.15B3.3B11.8BA$9.2BA.A7.13B5.A2B.2A7.6B.B$11.B2AB8.13B2.A.A2B.A
7.5B$11.3AB.2B5.7B4.2A.A.AB2.A8.6B$12.BA.4A4.5B6.2ABA4.A7.2AB.5B$
13.A.A2.B2.6B8.B2.5A.A4.A.AB3.4B$12.2A.ABA2B.2A7.2A.A.2A.A4.A.A3.A
7.3BA$12.A2.A.ABAB.A7.A.2A.A2.A.2A2.A3.2A8.3BA$13.2A5.2A15.2A.A.2A
15.3AB!
