#CSYNTH gun_702 costs 2655 cells.
#C period 702 fullperiod 702 bbox 59 by 45
#CLL state-numbering golly
x = 59, y = 45, rule = LifeHistory
6.A7.2A10.A.2A4.2A.A$6.3A4.A2BA9.2A2.A2.A2.2A$A8.A4.2BA7.2A3.A4.A
3.2A9.A2.2A$3A5.2A3.A.B7.A3.2A.4A.2A3.A8.4A.A$3.A4.5BA3BA3B3.3A.A.
B2.B.A.3A14.A$2.2A6.2BA9B4.A.A.A2BA.A.A9.7A.2A$2.4B2.3BA2BABA5B5.
2A6B2A9.A2.B3.A.A2.A$4.7BA2BABA9B.2B6A2B9.2A2.2A.AB2.2A$4.7BABA2BA
BA8B3.4B15.B2AB2A$5.11BA2BA7B4.2B17.5B$6.11B2A8B24.3B$8.9B2A7B.3B
20.2A3B$5.B.21B2A2B17.B2AB2A$4.2AB.B2A16BA2BAB.2B6.2A6.2ABA4B$4.2A
2B2ABA16BAB2A2B2A6.A5.9B$5.2B.BA2BA16B2AB.B2A6.A.AB3.7B$8.2B2A21B.
B8.2AB.10B$10.3B.7B2A9B13.13B$13.8B2A11B11.13BA$13.7BA2BA11B10.11B
ABA$3.2A4.2A2.8BABA2BABA7B11.8B2.2A$3.A.A2.A2BAB.9BABA2BA6BAB10.6B
5.B$5.A3.2BAB5.5BABA2BA3B2.2B2A8.9B$5.ABA.2BA2B4.9BA2B5.2A2B6.4B4.
2A$3.2A2.2BABA2B5.3BA3BA5B4.4B4.4B5.A$2.A2.3AB.BAB11.B.A3.2A5.4B2.
4B7.3A$3.2A3.4AB10.A2B4.A7.8B5.3A2.A$5.2ABA5.A8.A2BA4.3A5.7B5.A2.A
$5.A2.A.5A9.2A7.A6.7B.BA.A2.2A$6.A.A.A27.9B.B2A$7.A4.A22.2B.11B$
11.2A21.2A13B$34.2A13B$35.2B2.10B$40.9B.2B$40.11B2A$40.4B2A3B.B2A$
40.4B2A4B.B$40.7B$39.A.5B$38.A.A3.4B$38.2A6.2A$46.A$47.3A$49.A!
