#CSYNTH gun_2026 costs 9453 cells.
#C period 2026 fullperiod 2026 bbox 137 by 69
#CLL state-numbering golly
x = 137, y = 69, rule = LifeHistory
46.2A20.2A39.A$45.A.A20.A.A38.3A$39.2A4.A24.A4.2A35.A$37.A2.A2.2A.
4A16.4A.2A2.A2.A32.2A$37.2A.A.A.A.A2.A16.A2.A.A.A.A.2A32.6B$40.A.A
BABAB20.BABABA.A37.5B11.A$40.A.AB2AB22.B2ABA.A36.7B8.3A$41.AB.2B
24.2B.BA36.9B6.A$44.3B22.3B39.9B6.2A$44.4B6.2A4.2A6.4B36.13B2.5B$
42.3B2AB6.A6.A6.B2A3B31.2B.18B$33.A8.3B2AB3.BA.A6.A.AB3.B2A3B30.2A
19B2A$31.3A6.10B.B2A8.2AB.10B28.2AB.17B2A$30.A8.13B12.13B28.B.17B.
B$29.A.A6.14B12.14B30.16B$28.BA.A5.15B12.15B30.14B$27.3BA5.4B2.8B
16.8B2.4B28.4B2.8B$25.4B6.4B5.6B16.6B5.4B26.4B3.7B$23.6B5.4B4.9B
14.9B4.4B24.4B3.11B$22.7B4.4B5.2A4.4B12.4B4.2A5.4B22.4B4.12B$15.B.
4B.8B2.4B7.A5.4B10.4B5.A7.4B20.4B5.12B7.2A$14.2AB.17B5.3A7.4B8.4B
7.3A5.4B18.4B7.11B2.2A2.A2.A$14.2A18B6.A10.4B6.4B10.A6.4B16.4B6.4B
.8B2.A.A2.2A$15.2B.16B18.4B4.4B19.4B14.4B7.2A4.7B3.B.2A$18.16B19.
4B2.4B21.4B12.4B9.A4.7B2.2B2.A$19.15B20.8B23.4B10.4B7.3A6.6B.2BAB.
A.2A$20.12B.B2A19.6B25.4B8.4B8.A8.8BA.A.2A.A$20.11B2.BA.A19.4B27.
4B6.4B18.8B.A.A$21.10B5.A18.6B27.4B4.4B20.5B4.A2.2A$21.6B2A2B5.2A
16.8B27.4B2.4B21.6B4.2A.3A$21.6B2A3B21.3AB2.4B27.8B21.6B6.B4.A$21.
10B21.3BA4.4B27.6B22.7B3.B2AB3A$17.A.2AB.8B20.3BA6.4B27.4B24.8B.B
2A.A$15.3AB2AB3.7B18.4B8.4B25.6B23.10B$14.A4.B6.6B17.4B10.4B23.8B
21.3B2A6B$15.3A.2A4.6B17.4B12.4B21.4B2.4B14.2A5.2B2A6B$17.2A2.A4.
5B16.4B14.4B19.4B4.4B11.A2.A5.10B$20.A.A.8B14.4B16.4B6.A10.4B6.4B
10.2A.A.AB2.11B$17.3A.A.A8B8.A4.4B18.4B5.3A7.4B8.4B11.A.2AB.12B$
16.A2.A.BA2B.6B6.3A3.4B20.4B7.A5.4B10.4B10.A3.15B$15.A.A.A2.2B2.7B
4.A5.4B22.4B5.2A4.4B12.4B7.3A3.16B$14.A.A2.2A.B3.7B4.2A3.4B24.4B4.
9B14.4B5.A6.16B.2B$14.A.A.A2.A.A2.8B.4B2.4B26.4B5.6B16.4B4.2A5.18B
2A$15.2A.2A2.2A2.11B3.4B28.4B2.8B17.9B4.17B.B2A$26.12B.4B30.15B16.
6B5.4B2.8B.4B.B$26.16B32.14B16.8B2.4B4.7B$16.A10.14B34.13B14.15B5.
6B$16.3A11.10B36.10B.B2A12.14B6.4B$19.A9.12B37.3B2AB3.BA.A11.13B5.
A3B$18.2A6.16B36.3B2AB6.A9.2AB.10B5.A.AB$12.2A4.24B6.A31.4B6.2A7.A
.AB3.B2A3B7.A.A$11.B2AB5.23B3.3A31.3B16.A6.B2A3B8.A$11.4B4.24B2.A
31.AB.2B16.2A6.4B7.3A$12.2B5.24B.B.A29.A.AB2AB24.3B7.A$3.2A7.4B2.
27B2A29.A.ABABAB24.2B.BA$3.A.A5.5B.4B.22BA2.2A24.2A.A.A.A.A2.A21.B
2ABA.A$4.A.14B3.2B7.B3.2B3.3B3A2.A23.A2.A2.2A.4A20.BABABA.A$5.14B
3.2BAB5.3B.4B3.2B4.A26.2A4.A22.A2.A.A.A.A.2A$5.14B4.A.A4.B2AB.B2AB
5.4A33.A.A20.4A.2A2.A2.A$5.15B4.A6.2A3.2A7.A36.2A24.A4.2A$4.3B2A
12B22.A62.A.A$4.3B2A13B21.2A61.2A$2.2AB.11B2.4B$.A.AB2.8B5.4B$.A5.
10B4.4B$2A5.B.B5.2A5.4B$8.3B4.A7.3BA$7.B2AB5.3A5.3BA$8.2A8.A6.3AB!
