#CSYNTH gun_1412 costs 4125 cells.
#C period 1412 fullperiod 1412 bbox 75 by 55
#CLL state-numbering golly
x = 75, y = 55, rule = LifeHistory
39.A$39.3A$30.A11.A$30.3A8.2A5.4B$33.A7.11B$32.2A3.B5.11B$32.8B2.
11B2A$12.A21.19B2A$12.3A5.2A12.20B$15.A3.B2AB10.B2A17B$14.2A4.3B8.
B3AB2A14B13.A$14.5B2.B2.2B2.4BABAB2A15B10.3A$16.14B2ABA12B4.4B8.A$
15.2A21B.6B6.4B7.2A$15.2A3B2A7BA8B2.B.5B5.4B3.5B$16.B.2B2A16B7.2A
6.4B2.3B$18.19B8.A8.9B7.2A$22.8B16.3A6.8B8.A$21.8B19.A7.10B3.B.A.
2A$21.7B28.7B2A2B.B3A2.A$8.2A.2A2.2A5.7B27.7B2A3BAB2.2A$9.A.A2.A.A
5.8B26.12B4A$9.A2.2A.B5.9B8.2A10.2A2.2AB.7B3.2B.A$10.A.A2.2B3.9B9.
A11.A2.A.AB.7B2.B3A$9.2A.A.BA2B.12B4.BA.A13.2A5.4B4.A$9.A2.A.A.A
17B.B2A15.A5.4B5.5A$7.A.A.2A.2A.19B15.A6.4B10.A$7.2A.A8.17B15.2A4.
4B9.A$10.A7.17B17.2B2.4B10.2A$10.A.AB4.18B15.8B6.2A$11.2AB.23B13.
7B7.A$13.2B2A3B.20B2.2B2.B2.7B5.2A.A$13.BA.A2B3.35B4.A2.A$14.2A5.
9B.27B3.B2A$22.7B2.16B2A14B$22.7B2.16B2A13B$11.B2A8.6B4.29B$11.3AB
7.7B10.2B.B.17B$10.A.2AB7.6B10.3B4.15B$9.A.A.2B6.7B6.2A.2BA5.15B$
9.A2.A2.2B5.5B7.A.2BA.A5.13B$10.2A3.3B3.6B8.A2.BA.A2.13B$4.2A9.B2A
.10B7.A3.A.A.2A4.8B$3.A.A8.BA2BA7B.2A5.A.4A2.AB2A6.6B$3.A8.B.2B2A
4B5.A5.A.A3.A.A2.B8.5B$2A.AB.B3.BA9B7.3A2.A.A2.A2.2A.2A9.B.B$.A.A.
2AB.3A9B9.A3.A3.2A2.A.A9.3B$.A.A.2A2B2A10B21.A.A9.B2AB$2A.A2.5BA9B
22.A11.2A$A2.4A3BA8B.B2A$.2A2.BAB.BA8B.BA.A$3.2A6.7B5.A$3.A7.2B.3B
A5.2A$5.A9.3BA$4.2A10.3AB!
