#CSYNTH gun_9847 costs 9030 cells.
#C period 9847 fullperiod 9847 bbox 105 by 86
#CLL state-numbering golly
x = 105, y = 86, rule = LifeHistory
29.2A11.A$28.B2AB9.A.A$29.3B9.A.A2.2A3.A$28.B.B9.2A.2A2.A2.A.A$28.
5B8.B2.A.A3.A.A$28.6B6.2ABA2.4A.A$28.8B4.2A.A.A3.A$29.13B2.A.AB2.A
15.2A$27.13B5.A.A2B.A14.A$26.15B5.A2B.2A11.BA.A$26.15B4.3B12.2A.B
2A$25.17B.B.2B12.B2A2B14.2A$25.20BAB2A5B6.4B14.2A$24.13B2A6B4A6B3.
6B19.2A$23.14B2A6BA3BA5B2.6B7.B5.4A2.A.A$22.2AB3.18B3A6B.7B6.3A3.A
3.A2.A$21.A2.A4.17B3A15B6.2B3.2A3.2A.A$20.A.2A5.7B2.B2.2B2.BA18B5.
7B5.A.A$20.A7.7B13.21B2.4B7.A.AB$19.2A6.8B15.27B6.A3B$26.4B2.2B17.
28B6.4B$25.4B4.2A15.30B5.6B$24.4B6.A15.31B4.7B$23.4B6.A14.2AB.3B2.
25B2.8B.4B.B$22.4B7.2A12.A.AB6.19B3.17B.B2A$21.4B22.A8.12B2.4B6.
18B2A$11.2A7.4B22.2A7.12B3.2B2AB5.16B.2B$10.B2AB5.4B31.10B8.2A6.
16B$10.3B5.4B31.4B.6B16.15B$11.B.B3.4B31.4B3.B.B16.2AB.12B$9.6B.4B
31.4B5.3B14.A.AB2.11B$2A7.10B31.4B5.B2AB14.A5.10B$.A7.9B7.2A22.4B
7.2A14.2A5.2B2A6B$.A.AB2.10B8.A22.4B30.3B2A6B$2.2AB.10B6.BA.A12.2A
7.4B32.10B$4.12B2.3B.B2A14.A6.4B33.8B.B2A.A$4.19B15.A6.4B33.7B3.B
2AB3A$4.19B15.2A4.4B34.6B6.B4.A$4.18B17.2B2.4B36.6B4.2A.3A$5.18B
15.8B6.2A29.5B6.A.A$6.19B13.7B7.A29.6B6.A.A$7.19BAB2.2B2.B2.7B5.2A
.A29.6B7.A$9.15B3A17B4.A2.A29.7B$10.7B.6B3A18B3.B2A30.2B2A3B8.A$
10.6B2.5BA3BA6B2A14B31.3BABA2B5.3A$9.6B3.6B4A6B2A13B32.6BAB4.A$9.
4B6.5B2ABA20B34.2B2AB2AB3.2A$9.2B2AB12.2B.B.17B34.2BA2BAB2.4B$7.2A
B.2A12.3B4.15B33.5B2A2B.3B$6.A.AB11.2A.2BA5.15B33.13B$6.A14.A.2BA.
A5.13B33.16B$5.2A15.A2.BA.A2.13B34.17B$23.A3.A.A.2A4.8B34.16B$21.A
.4A2.AB2A6.6B9.2A13.2A9.15B$20.A.A3.A.A2.B8.5B7.3A15.A10.13B$20.A.
A2.A2.2A.2A9.B.B2.2A2.A4.A12.A12.11B8.A$21.A3.2A2.A.A9.3B3.A3.A.2A
.3A2.2A6.2A7.15B6.3A$29.A.A9.B2AB3.3A.A.A4.A2.A7.B4.20B3.A$30.A11.
2A6.A.A.B.3A3.A.AB4.25B3.2A$50.ABABABA6.2AB2.32B$45.A5.2A.2A9.33B$
45.3A3.4B10.35B$48.A4.3B9.36B$47.2A3.3B2A4.2A2.36B$47.8B2AB2.B2A2B
.35B$49.2B2A5B3.4B2.32B.B2A$45.B2.3B2A4B3.5B3.11B.19B.BA.A$44.2AB.
11BA5B4.4B2.23B5.A$44.2A6BA5BABA3B6.4B3.13B.7B5.2A$45.2B.3BABA4BAB
A3B.2B4.4B3.3B4.4B.3B.3B$48.3BABA5BA6B2A4.4B3.4B4.B3.3B2.2B$47.5BA
11B.B2A5.4B4.2A7.B2AB.B2AB$47.5B3.4B2A3B2.B7.4B3.A9.2A3.2A$47.4B3.
5B2A2B12.4B3.3A$47.2B2AB2.B2A8B11.4B4.A$49.2A4.2A3B3.2A12.4B$56.3B
4.A14.4B$57.4B3.3A12.4B$56.2A.2A5.A13.4B$55.ABABABA19.4B$53.3A.B.A
.A20.4B$52.A4.A.A.3A19.4B$53.3A.2A.A3.A19.4B$55.A4.A2.2A20.3BA$57.
3A26.3BA$56.2A29.3AB!
