#CSYNTH gun_219 costs 3770 cells.
#C period 219 fullperiod 219 bbox 65 by 58
#CLL state-numbering golly
x = 65, y = 58, rule = LifeHistory
19.B9.AB5.2A$18.3A7.A.2A2B.A2.A$15.BA4B7.2A.5A.2A$14.ABA2BA5.5B2.A
2.A.A$14.B3.B4.BA3B4.A2BA.BA$13.AB4A4BABA3B4.AB.A3B$12.AB.3AB.2BA
2BA4B6.2B2A$2.A2.A7.BA.B2.4B2A4B8.A.2BA$2.6A3.A2BA7.6B10.A3BA$8.A
2.AB9.5B12.A.A$.A.AB2A.A3.A8.7B$A.2A.B.A.3A8.4B.4B$A4.A.A.A9.4B3.
4B$.4AB.A10.4B5.4B$2.B.AB.ABA7.4B7.4B$.2A.AB2.2B6.4B9.4B$.3BA2.A2B
A4.4B11.4B$.AB5.A.A3.4B13.4B$AB7.A3.4B15.4B$A.AB2.B5.4B17.4B$.2AB.
3B3.4B19.4B$3.6B.4B21.4B$3.10B23.4B$3.2B2A5B25.4B18.A$4.A2BA3B27.
4B11.2A3.A.A$4.BABA4B27.4B11.A3.A2.A$5.BA6B27.4B10.A.2A.A.A$5.3B2.
4B27.4B10.A.A.A.2A$.BA2.3B3.4B27.4B10.2B2A.A2.A$2A2B.B.B4.4B27.4B
10.4B2.2A$.BAB3A6.4B27.4B6.7B$2.AB.2B7.4B27.4B3.8B$2.2B.2BA7.2BAB
22.2A3.4B.8B$2.2A.AB9.2B2A22.A4.2B2A8B$3.B2A.AB8.2A2B21.A.AB2.BABA
7B.2B$5.B2AB9.4B10.A10.2AB.2BA11B2A$6.B.B2A8.4B7.3A12.16B2A$8.BA.A
8.4B5.A15.14B.2B$11.A9.4B4.2A15.13B$11.2A.2A6.9B14.14B.2B$15.A7.6B
14.18B2A$15.A.2A5.6B3.B2.2B2.19B.B2A$16.A2.A4.35B2.B$17.2AB3.27B.
8B$18.14B2A16B2.7B$19.13B2A16B2.7B$20.29B3.7B$20.17B.4B11.6B.BA$
10.B.B8.15B3.2B12.7BA.A$9.3ABA7.15B3.3B11.8BA$10.2BA.A7.13B5.A2B.
2A7.6B.B$12.B2AB8.13B2.A.A2B.A7.5B$12.3AB.2B5.7B4.2A.A.AB2.A8.6B$
13.BA.4A4.5B6.2ABA4.A7.2AB.5B$14.A.A2.B2.6B8.B2.5A.A4.A.AB3.4B$13.
2A.ABA2B.2A7.2A.A.2A.A4.A.A3.A7.3BA$13.A2.A.ABAB.A7.A.2A.A2.A.2A2.
A3.2A8.3BA$14.2A5.2A15.2A.A.2A15.3AB!
