#CSYNTH gun_5580 costs 2714 cells.
#C period 5580 fullperiod 5580 bbox 59 by 46
#CLL state-numbering golly
x = 59, y = 46, rule = LifeHistory
42.2A$41.B2AB$24.A16.3B$17.A4.3A17.A$16.A.A2.A14.B3.BABAB$15.A2.A
2.A.2A10.2AB.BA3BAB$15.A.A.2A.A.A10.2A2B2ABAB2A.BA3.2A$14.2A.A.2B.
A13.B.BA2BAB4A.A2.A$17.A2.B.2A14.2AB6A.2A3.3A$17.A.3A.A2.2A9.B5A3B
4.3A3.A$16.2A.A.2AB3.A10.2A6B4.A2.2A.A$11.2A2.A3.3B2A2.A11.8B5.B2A
B.2A$2.2A2B4.A.AB2.3A.A2B3.4A8.6B2A.B3.BAB2A2.A$2.3A.BA2B3A5.8A4.A
3.2B2.3B5A3B.3AB.A.A$.2AB.ABA2B2A6.B4AB2.A2.2A2.5B5AB2A7B.2A.2A$A
2.3A.B.A.2BA8.B.ABA2.9B2ABA2BA5B5.A.A$3A3.AB3A3BA6.AB.2B5.7B2ABAB
2A5B5.A.A$3.3A4.A.A.AB4.BA4BAB2.9BA3BA5B7.A$2.A3.4A2.3ABA4.A2B2.2A
2.10BABA5B$2.2A2.A2.A.A2.4B3.BAB.2BA13BA5B$11.A2BA.ABA.A.BA3BA19B
7.2A$10.A2.A2.B2ABAB3A.BAB.12B2.2B4.2A2.A$11.2A4.2A.ABAB.B2A4.B.8B
7.A2.A.A$24.2BAB6.8B4.B.AB2A.A$34.9B.B4A.BAB$34.10B5ABAB$18.2A14.
9B.B3A2B.AB$17.B2AB12.8B5.B.2B3A$11.2B5.2AB13.8B8.3A$9.5B.2B2.A2.
2B2.2B.3B.9B9.B$9.9B3A18B.3A$10.7B2AB2A16B3.B$10.6B2A3B2A11B.4B$
11.6B2AB2A11B3.4B$11.21B5.4B$10.AB2.15B9.4B$9.A.A7.5B15.4B$9.2A8.
2B.2B16.4B$17.6B18.4B$15.BA6BAB17.4B$13.2B2A6B2A2B16.4B$12.2B3A6B
3A2B16.4B$13.2B2A6B2A2B18.4B$15.BA6BAB21.3BA$17.6B24.3BA$19.2B27.
3AB!
