#CSYNTH gun_1950 costs 2907 cells.
#C period 1950 fullperiod 1950 bbox 57 by 51
#CLL state-numbering golly
x = 57, y = 51, rule = LifeHistory
52.B$34.A16.3B$32.5A14.3B$31.A5.A12.5B$20.2A9.B3A2.A12.B3AB$21.A
10.BA.A.2A10.2BABA2B$21.A.AB7.BABA3.A9.2B3A2B$16.A5.2AB.4B.2BA2.A.
A9.3B3A3B$16.3A5.9B4A.2A8.3B3A3B$19.A4.B6A3B15.2B3A2B$18.2A4.9B4A.
2A9.2BABA2B$18.6B2.4B.2BA2.A.A11.B3AB$20.5B7.BABA3.A10.5B$19.7B6.B
A.A.2A12.3B$19.8B4.B3A2.A12.4B$7.2B10.9B3.A5.A12.3B$5.6B7.11B3.5A
13.4B$3.10B4.13B4.A14.6B$.2A3BA2BA3B2A.9B2.4B7.2A7.9B$B5A4B5A6BA3B
3.4B7.A7.9BA$.2A3BA2BA3B2A2B.2B3A3B3.4B6.A.AB2.9BABA$3.10B2.4BA2B
2A3B3.4B6.2AB.11B2A$5.6B4.13B3.4B7.3BA9B.B$7.2B6.3B2A8B4.4B6.2BABA
7B$16.2B2A10B3.4B5.2BABA7B$17.B2A6B.2BAB3.4B4.3BA3B2.B$17.B.4B5.3A
4.4B3.6B$17.3B7.5B4.4B.6B$14.ABA4B6.5B5.4B.5B$13.A.BA3BA5.2B3A2B5.
8B$11.3A.A.2A.3A3.7B6.7B$10.A4.A.B2A3.A.3BABA3B4.10B$11.3A.A2B2.2A
.A.3BABA3B4.12B$13.AB2AB2A2.A3.7B5.12B$14.3AB.A.A4.2B3A2B5.12B$15.
2AB.A.2A4.5B4.2AB.8B.B2A$14.2A.B2A2.A4.5B3.A.AB.8B.BA.A$12.A2.B.A
2.2A6.3A4.A4.3B2A3B4.A$12.2ABA.2A.A7.BAB3.2A5.BA2BA6.2A$15.A.A2.A
8.B12.B2A$12.2A.A2.2A23.B$12.A.2A27.2B$43.2B$41.B4AB$39.2B6A2B$37.
3B8A3B$36.3B2A6B2A3B$37.3B8A3B$39.2B6A2B$41.B4AB$43.2B!
