#CSYNTH gun_378 costs 1813 cells.
#C period 378 fullperiod 378 bbox 49 by 37
#CLL state-numbering golly
x = 49, y = 37, rule = LifeHistory
9.A29.A$9.3A25.3A$3.2A7.A23.A7.2A$2.A2.A.3A2.A23.A2.3A.A2.A$.A2.2A
.A2.A.A.2A17.2A.A.A2.A.2A2.A$2.2A2.B.2A2BA2.A17.A2.2ABAB.B2.2A$4.
5AB3.A21.A3.3B3A$4.A2.A.4A23.3AB.B2.A$5.A.BABA27.AB2A.A$2.4A.AB3.
3A19.3A3.2A.4A$.A4.A.B4A2.A17.A2.4AB.B4.A$2.3A.2A.A4.A17.A.A4.A.2A
.3A$4.A.A2BA.3A18.A2.3A.B3A.A$4.A6BA18.3A4.2A5BA$5.A5B18.A8.6B$7.
3BA6.2A10.2A7.4B$2A6.A3B6.A7.5B6.4B6.2A$.A4.7B5.A.AB3.2A2B7.7B4.A$
.A.A10B5.2AB2.B2A3B5.BA8BA.A$2.2A11B5.10B4.2A9B2A$4.12B5.10B2.2B2A
8B$3.9B.3BA4.9B2.4B.9B$3.10B.ABAB4.13B.10B$4.10B.2A2B3.12B.10B$3.
4B2A6B.4B3.10B.5BA6B$2.5BABA5B2.4B.B2.7B2.4BABA6B$.2A3BA2BA5B3.13B
3.3BA8B2A$.2AB.2B2A6B4.11B4.3BA2BA3B.B2A$2.B3.BA6B6.10B5.B2ABA3B3.
B$8.6B6.9B6.BA4B$8.5B6.9B8.5B$9.4B.B5.9B5.A.4B$7.4B2.3AB4.7B4.A2BA
2.4B$7.2A4.B3A4.8B3.A2BA4.2A$8.A6.B5.8BA3.A6.A$5.3A13.9BA10.3A$5.A
16.3B3.3AB11.A!
