#CSYNTH gun_401 costs 4650 cells.
#C period 401 fullperiod 401 bbox 75 by 62
#CLL state-numbering golly
x = 75, y = 62, rule = LifeHistory
25.2A11.A$24.B2AB9.A.A$25.3B9.A.A2.2A3.A$24.B.B9.2A.2A2.A2.A.A$24.
5B8.B2.A.A3.A.A$24.6B6.2ABA2.4A.A$24.8B4.2A.A.A3.A$25.13B2.A.AB2.A
15.2A$23.13B5.A.A2B.A14.A$22.15B5.A2B.2A11.BA.A$22.15B4.3B12.2A.B
2A$21.17B.B.2B12.B2A2B$21.29B6.4B$20.13B2A16B3.6B14.A$19.14B2A16B
2.6B7.B5.3A$18.2AB3.27B.7B6.2AB3.A$17.A2.A4.35B6.2A3.2A$16.A.2A5.
7B2.B2.2B2.20B5.2A5B$16.A7.7B13.21B2.2A2B$15.2A6.8B15.21B2A4B$22.
4B2.2B17.25BABA$21.4B4.2A15.28BA$20.4B6.A15.21BA6BA$19.4B5.A15.2AB
.3B2.14BA2BA2BAB$18.4B6.2A13.A.AB6.19B$17.4B22.A8.12B2.4B$16.4B22.
2A7.12B3.2B2AB$3.2A10.4B31.10B8.2A$4.A9.4B31.4B.6B$2.A10.4B31.4B3.
B.B$2.5A5.4B5.2A24.4B5.3B$7.A4.4B5.A24.4B5.B2AB$4.3AB2.7B.BA.A23.
4B7.2A$3.A.2B3.7B.B2A23.4B$3.4A12B24.ABAB$.2A2.BA3B2A7B23.B2AB$A2.
3AB.2B2A7B22.3BA$2A.A.B3.10B21.4B$3.A8.8B19.4B$3.2A7.9B6.A10.4B$
13.3B2.4B5.3A7.4B$11.5B3.4B7.A5.4B$11.2A7.4B5.2A4.4B$12.A8.4B4.9B$
9.3A10.4B5.6B$9.A13.4B2.8B$24.15B$25.14B$26.13B$27.10B.B2A$29.3B2A
B3.BA.A$29.3B2AB6.A$31.4B6.2A$31.3B$28.AB.2B$27.A.AB2AB$27.A.ABABA
B$24.2A.A.A.A.A2.A$24.A2.A2.2A.4A$26.2A4.A$32.A.A$33.2A!
