#CSYNTH gun_1470 costs 3036 cells.
#C period 1470 fullperiod 1470 bbox 69 by 44
#CLL state-numbering golly
x = 69, y = 44, rule = LifeHistory
60.A$58.3A$8.A37.2A9.A$8.3A36.A9.2A$11.A9.2A24.A.AB2.6B$10.2A9.A
26.2AB.2B3A$10.6B2.BA.A19.2A7.2B2A2BAB$12.5B.B2A20.A8.2BA6B.2B$11.
8B7.2A14.3A5.6BA6B$7.2B.3BAB2A2B8.A11.3A3.A5.2A3BA6B$6.6B4ABAB5.3A
12.A2.ABA.A3.6BA7B$6.BA3BA3BABA5.A3.3A10.A2B.A.A3.3BABA4B3A2B$5.B
2A3BAB4A2B3.A.ABA2.A11.2A.A.2A2.4BA4BA3BAB$4.BA2BA3BAB2A3B3.A.A.2A
B12.2B3A.2BA2.12BA$4.2A7B3A3B2.2A.A.AB15.2B.A3B2.10BA2B$4.2BA10B2.
BAB.BA3B18.A3B3.2BA8B$4.13B2.BA2B.BA15.A2.2A.2BA3.5B2A3B$5.11B3.BA
2B18.4A.2A4.5B.4B2.2B$6.10B3.BAB.BA21.A4.4B6.2BA2BAB$3.2B2.4B.5B4.
2A.3A2.2A10.4A.A3.4B7.3A2B3A$.B4A2B6.4B4.A4.A2.A8.3A2.2A3.4B8.B2A
2B2AB$B6AB7.4B3.A.2A2.2A8.A9.BA2B11.A2BA$BA4BAB8.4B3.2A.2A10.2A7.
2A2B10.A.A2.A.A$2.A2BA11.4B6.A7.5B6.2B2AB10.2A4.2A$A.A2.A.A10.4B5.
A.AB3.2A2B7.5B7.B$2A4.2A10.2A3B5.2AB2.B2A3B5.6BA5.3B$11.B7.BA3B5.
10B4.4B.2BAB4.3B$10.3B5.7B5.10B2.4B3.3A3.2BA2B$10.3B4.4B.4B4.9B2.
4B3.B3AB2.2BA2B$9.2BA2B3.3B3.4B4.13B4.B3AB.2BABA2B$9.B3AB2.2BA2B3.
4B3.12B6.BA2B.3BA3B$8.B2AB2AB.B3AB4.4B3.10B7.3B.4BA4B$8.3AB3A.4B6.
4B.B2.7B8.3B.4BA4B$7.B3AB3AB.3A7.13B9.BA2B.3BA3B$7.B3AB3AB.3A8.11B
9.B3AB.2BABA2B$8.3AB3A.4B9.10B9.B3AB2.2BA2B$8.B2AB2AB.B3AB8.9B11.
3A3.2BA2B$9.B3AB2.2BA2B7.9B12.BAB4.3B$9.2BA2B3.3B9.9B12.A5.3B$10.
3B4.3B10.7B20.B$10.3B5.B11.8B$11.B18.8BA$30.9BA$31.3B3.3AB!
