#CSYNTH gun_374 costs 2968 cells.
#C period 374 fullperiod 374 bbox 56 by 53
#CLL state-numbering golly
x = 56, y = 53, rule = LifeHistory
16.2A$15.B2A2B7.2A7.A$16.4B6.B2AB6.3A$11.2A4.6B4.2B10.A$10.B2AB2.
8B4.2B8.A.A$11.3B.17B6.A.AB$9.2B.B2.18B6.A3B$8.27B6.4B$7.29B5.6B$
6.31B4.7B$6.32B2.8B.4B.B$6.26B3.17B.B2A$4.2AB4.B.16B.B5.18B2A$3.A.
AB8.10B.2B8.16B.2B$3.A12.7B13.16B$2.2A9.11B12.15B$12.12B10.2AB.12B
$12.12B9.A.AB2.11B$3.A8.11B10.A5.10B$2.A.A2.2A3.8B.4B7.2A5.2B2A6B$
.A.A2.A.A3.7B4.2A13.3B2A6B$.A2.2A.B4.7B4.A15.10B$2.A.A2.2B3.6B6.3A
12.8B.B2A.A$.2A.A.BA2B.7B8.A11.7B3.B2AB3A$4.A.A.A9B20.6B6.B4.A$.4A
2.A.8B22.6B4.2A.3A$.A3.2A4.6B22.5B4.A2.2A$3.A.B6.6B20.8B.A.A$2.2AB
2AB3.7B11.A8.8BA.A.2A.A$5.2AB.8B12.3A6.6B.2BAB.A.2A$2.2A3.10B15.A
4.7B2.2B2.A$2.A4.6B2A3B13.2A4.7B3.B.2A$3.A3.6B2A2B5.2A7.4B.8B2.A.A
2.2A$2.2A3.10B5.A10.11B2.2A2.A2.A$6.11B2.BA.A9.12B7.2A$6.12B.B2A
10.12B$5.15B12.11B$4.11B3A2B11.9B12.2A$.2B.11BA4B8.2B.10B11.A$2A
14BA3B7.16B.B4.BA.A$2AB.17B3.23B2.B2A$.B.4B.8B2.32B$8.7B4.5B2A25B$
9.6B5.3BA27B$11.4B6.3BABA5B2A17B$13.3BA6.2BA6B2A17B$14.BA.A6.8BA8B
5.B.4B$15.A.A6.5B2A7B11.4B$16.A7.4BA2BA6B12.4B$17.3A8.ABA4.2B14.4B
$19.A9.A6.2B14.3BA$35.B2AB14.ABA$36.2A16.2A!
