#CSYNTH gun_1755 costs 3400 cells.
#C period 1755 fullperiod 1755 bbox 68 by 50
#CLL state-numbering golly
x = 68, y = 50, rule = LifeHistory
31.2A.2A2.2A5.2A$31.2A.A2.A2.A.2A2.A$34.A.2A.2A.A.2A$31.2A.A2.A.A
2.A.A3.2A$31.AB.2A.A.2BA3B.A2.A2.A$32.BAB.ABABA.2BAB2A2.3A$33.2A3B
.2B5A2.2A$33.BA2B.B2A5B.A2.A$35.B3.AB.2B4.2A8.A2.2A$42.2B14.4A.A$
42.B20.A$41.B2A12.7A.2A$33.2A5.BA2BA6.2A2.A2.B3.A.A2.A$34.A4.2BA2B
A2B4.A3.2A2.2A.AB2.2A$34.A.AB.8B.BA.A6.B2AB2A$11.2A22.2AB.5BA2B.B
2A8.5B$7.A4.A24.7B2A3B11.3B$6.A.A.A26.6BA5B10.2A3B$5.A2.A.5A9.2A7.
A3.12B9.B2AB2A$5.3AB5.A8.B2AB4.3A3.10B3.2A6.2ABA4B$3.2A3.AB2AB10.
3B4.A7.7B6.A5.9B$2.A2.AB2A.2AB11.B.B3.2A5.8B6.A.AB3.7B$3.2A2.B2A4B
5.13B4.4B.5B6.2AB.10B$5.2AB.5B4.5BA6B5.4B.6B8.13B$5.A3.4B5.2B4A8B
2.4B3.6B7.13BA$3.A.A2.B2A2B.6B2A15B4.3BA3B2.B3.11BABA$3.2A4.2A2.5B
2A2BA13B5.2BABA7B3.8B2.2A$13.4B5A2B2A9B6.2BABA7B3.6B5.B$13.4BAB3AB
3A8B7.3BA9B.9B$10.3B.10B2A6B7.2AB.15B4.2A$8.25B.B3.A.AB2.13B5.A$5.
2B.8BA5BABA7B.B2A2.AB6.10B7.3A$4.2A9B2A6B2A9B2A3.2B5.9B10.A$4.2AB.
7BABA5BA8B.2B4.3AB5.B.4B$5.B.25B7.2B.2A6.3B$8.6B2A10B.3B10.B.2A6.
4B$6.8B3AB3ABA4B12.4A8.3B$5.9B2A2B5A4B4.2B5.A4.BA5.B3AB$4.13BA2B2A
5B3.B2AB5.4A.2B4.A3BA$4.14B2A6B.3B4A3B5.A.2A3.A5BA$2.4B2.8B4A2B5.
2BA4BA2B2.2A.A.B4.7B$2.2A6.6BA5B4.A.A.A2BA.A.A2.A.2A4.A7BA$3.A4.
13B3.3A.A.A2.A.A.3A2.A5.A7BA$3A5.2A3.B.B7.A3.2A.4A.2A5.A.A4.7B$A8.
A4.3B7.2A3.A4.A3.2A3.2A4.A5BA$6.3A4.B2AB9.2A2.A2.A2.2A2.A9.A3BA$6.
A7.2A10.A.2A4.2A.A.A10.B3AB$38.A12.3B$51.3B$52.B!
