#CSYNTH gun_495 costs 2068 cells.
#C period 495 fullperiod 495 bbox 44 by 47
#CLL state-numbering golly
x = 44, y = 47, rule = LifeHistory
6.A11.B$5.A.A9.3B$6.A10.3B$16.5B$4.5A7.2BABA$3.A4.AB6.BA6B$.A2.2A
3B7.BA7B4.2A$.2A.A.ABAB6.BA3BAB2A4.A$4.A.2ABAB4.9BA.BA.A$4.A.A.B.A
2.10BAB.B2A$3.2A.A.2A.16B$5.A.A3.6B2AB2A5B$5.A.A3.6BA2B2A5B$6.2A.
2A7B3A4B$8.A.A8BA6B.B$8.A4.16B.B5.2A$7.2A5.B.16B4.A$17.B.6BA8BA.A$
20.4B3A7B2A$18.5B2A2BA6B$18.5B2AB2A6B$18.16B.2A$16.2AB.BA10B2.A.A$
15.A.AB.A9B4.BA$15.A4.2ABA3BAB6.2B$14.2A4.7BAB5.2BA$21.6BAB5.2ABAB
$9.2A13.ABA2B5.BABAB$8.B2AB12.5B6.BA2BA$2.2B5.2AB13.3B8.BA2BA$5B.
2B2.A2.2B2.2B5.4B10.2A$9B3A16B11.B$.7B2AB2A16B10.2B$.6B2A3B2A11B.
4B8.B3A$2.6B2AB2A11B3.4B6.A.3A$2.21B5.4B5.4A2B$.AB2.13B.B9.4B5.2B.
2BA$A.A7.5B15.4B8.2A$2A8.2B.2B16.4B$8.6B18.4B$6.BA6BAB17.4B$4.2B2A
6B2A2B16.4B$3.2B3A6B3A2B16.4B$4.2B2A6B2A2B18.4B$6.BA6BAB21.3BA$8.
6B24.3BA$10.2B27.3AB!
