#CSYNTH gun_1251 costs 5040 cells.
#C period 1251 fullperiod 1251 bbox 72 by 70
#CLL state-numbering golly
x = 72, y = 70, rule = LifeHistory
51.2A$50.A.A$44.2A4.A$42.A2.A2.2A.4A$42.2A.A.A.A.A2.A$45.A.ABABAB$
45.A.AB2AB$46.AB.2B$49.3B$49.4B6.2A$47.3B2AB6.A2.A$47.3B2AB3.BA.A.
2A$45.10B.B2A.A$44.13B3.A$43.14B3.A.AB$34.A7.15B4.3A.B$32.3A6.4B2.
8B8.4A$31.A8.4B5.6B8.BA.3A$30.A.A6.4B4.9B9.BA.AB$29.BA.A5.4B5.2A4.
4B7.3B.2A$28.3BA5.4B7.A5.4B7.2A.AB$26.4B6.4B5.3A7.4B6.BAB2AB$24.6B
5.4B6.A10.4B4.B.A.3AB$23.7B4.4B19.4B3.3B2.BA$16.B.4B.8B2.4B21.4B2.
3B$15.2AB.17B23.6BAB$15.2A18B25.4BABAB$16.2B.16B26.3BA2BA$19.16B
25.5B2A2B$20.15B24.10B$21.12B.B2A21.4B.6B$21.11B2.BA.A19.4B3.3B.B
2A$17.2A3.10B5.A18.4B5.B2.BA.A$18.A3.6B2A2B5.2A16.4B11.BA$17.A4.6B
2A3B21.4B11.2B$17.2A3.10B21.4B10.B3A$20.2AB.8B20.4B10.2A.2B$17.2AB
2AB3.7B18.4B11.2A.B$18.A.B6.6B17.4B13.4A$16.A3.2A4.6B17.4B12.AB4.A
$16.4A2.A.8B16.4B12.A2B3A.A$19.A.A.A9B14.4B12.A.3B.2A$16.2A.A.BA2B
.7B8.A4.2A2B12.B2ABA$17.A.A2.2B3.6B6.3A3.ABAB14.2A$16.A2.2A.B4.7B
4.A5.3BA14.3A$16.A.A2.A.A3.7B4.2A3.4B16.B$17.A.A2.2A3.8B.4B2.4B$
18.A8.11B3.4B$27.12B.4B$27.16B$17.A10.14B$17.3A11.10B$11.A8.A9.12B
$11.3A5.2A6.16B$14.A4.24B6.A$13.2A6.23B3.3A$13.5B2.24B2.A$4.2A9.3B
2.24B.B.A$3.A.A8.32B2A$3.A8.B.8B.22BA2.2A$2A.AB.B3.BA9B3.2B7.B3.2B
3.3B3A2.A$.A.A.2AB.3A9B2.2BAB5.3B.4B3.2B4.A$.A.A.2A2B2A10B3.A.A4.B
2AB.B2AB5.4A$2A.A2.5BA9B4.A6.2A3.2A7.A$A2.4A3BA8B.B2A21.A$.2A2.BAB
.BA8B.BA.A20.2A$3.2A6.7B5.A$3.A7.2B.3BA5.2A$5.A9.3BA$4.2A10.3AB!
