#CSYNTH gun_7380 costs 4536 cells.
#C period 7380 fullperiod 7380 bbox 56 by 81
#CLL state-numbering golly
x = 56, y = 81, rule = LifeHistory
8.2A6.2A$7.A2.A4.A2BA.BA$6.A.2A.A3.A2.3A.A4.3B$6.A.A.A2B.4A.AB2AB
3.4B$5.2A.A.A3BA2BABA3B.8B.4B$3.A2.A.A.A2.B2.A.A.BA2.9BA6B$3.2A3.
4AB4A.A.2A2.8B3A6B$7.A3.A5.2A.A5.4B3A2BA5B$7.2A3.4A4.A5.3B2ABABA2B
A4B$15.A.3A5.3BABABABA2BA4B3.2B5.2A$14.A2.A6.5B2A3BAB2A4B2.3B5.A$
15.2A6.7BA3BABA4B3.4B.BA.A$11.2A9.8BABAB4A4B.5B.B2A$12.A8.12B2A3BA
2B.8B$12.A.AB4.ABA11B2A3BA10B$13.2AB.3B2A12B2A2BA11B$15.6BA12BAB2A
11B$15.34B$15.11B2.19B$15.11B.20B$14.4B.2B2.B4.18B$13.4B5.3B2.18B$
9.2B.4B6.B2AB.17B$5.2A.2A5B8.2A2.16B$5.2A.A5B14.15B$8.A.3B15.17B$
2.2A4.A.AB17.16B$.B2A2B3.2AB20.4B.8B2.2A$2.4B4.3B25.4B3.2B2AB$3.4B
2.4B8.BABA2B4.2B6.3B3.4B$2.4B2.B2A2B6.BA3BA10B10.3B$2.4B3.2A2.7BA
14B10.B3A3.B$.2BA2B8.5BA4BA11B10.2A.A.B2A$.2BA2B7.A6BA10B.4B12.2A
2B2A$2BABA2B5.B2A5BA3BA4B3.5B11.2A3B$B2AB2AB4.BABA5B.BABA2B5.2BA2B
12.4B$A5BA3.4B.6B10.2B3A2B$3BA3B2.4B2.6BA9.2B3A2B$2A3B2A.4B3.B3.AB
AB8.7B$11B4.B4.2A2B7.2A3B2A$.9B4.3A4.4B6.2A3B2A$.4B3AB5.2B.BA3.4B
5.7B$2.2B.AB2A4.A4BA4.4B5.5B$2.5B2A5.2B.A6.4B3.2B2A2B$3.3B2AB5.2A
9.3BA4BABAB$3.BABAB5.BA11.3BA2BA2B2AB9.2A$2.2A2BAB5.BAB11.4A3B2A2B
8.A.A$3.5B6.A13.6B2A2B3.2A2.A$2.7B21.5BA2B3.A2.A.2A$2.7B21.9B4.2A.
A.A$2.7B20.A5BA4B4.B.BAB$2.7B20.A5BA.4B2.5B5.2A$2.B5AB20.BA3BAB2.
9B6.A$2.AB3ABA20.2B3A2B3.B2A6B2.BA.A$3.A3BA21.7B4.2A7B.B2A$3.B3AB
6.B4.2BABAB4.7B3.12B$4.BA2B4.8BA2BA4BA6B4.12B$4.4B4.7B2A5B2A7B4.
12B$5.4B2.2A4B2A3BA9BAB3.2AB.2B2A5B$4.4B3.2AB.4B2A8B.2BAB2.A.AB2.A
BA5B$3.B2A2B4.B4.3BA2BA3B4.2B3.A5.BA6B$4.2A13.2BABAB10.2A6.7B$44.
8B$30.A13.9B.2A$30.3A10.9BA2.A$33.A8.4B.B.3B3A$32.2A7.4B.3B2.B$32.
5B3.4B2.B2AB2.3A$23.2A9.3B2.4B4.2A4.A.A$22.A.A8.9B9.A3.A$22.A8.B.
8B9.A.3A$19.2A.AB.B3.BA9B10.A.A$20.A.A.2AB.3A9B11.A$20.A.A.2A2B2A
10B$19.2A.A2.5BA9B$19.A2.4A3BA8B.B2A$20.2A2.BAB.BA8B.BA.A$22.2A6.
7B5.A$22.A7.2B.3BA5.2A$24.A9.3BA$23.2A10.3AB!
