#CSYNTH gun_1118 costs 5170 cells.
#C period 1118 fullperiod 1118 bbox 94 by 55
#CLL state-numbering golly
x = 94, y = 55, rule = LifeHistory
7.A33.A$A6.3A29.3A6.A$3A7.A27.A7.3A$3.A5.2A27.2A5.A$2.2A5.5B21.5B
5.2A$2.4B5.6B15.6B5.4B$4.3B2.8B3.BA5.AB3.8B2.3B$4.10BA5BA.A3.A.A5B
A2BA7B43.A$5.5B2A2BA6BA5.A6BA3BA5B42.5A$6.4B2A2BA4B.B7.B.4BA2B2A4B
42.A5.A$2A2.B2.11B13.11B2.B2.2A25.2A9.B3A2.A$A2.2A11B17.11B2A2.A
26.A10.2B.A.2A$.2ABA11B17.11BAB2A27.A.2A7.2B2A3.A$4.12B17.12B25.A
5.A2B.4B.2BA2.A.A$.3A.12B4.A5.A4.12B.3A22.3A5.2BA5B2AB2A.2A$.A2.A
2.10B3.A.A3.A.A3.10B2.A2.A25.A4.3BA4BAB$2.A.A3.10B2.A2.A.A2.A2.10B
3.A.A25.2A4.ABA5B2AB2A.2A$3.A4.12B.3A.3A.12B4.A26.6B2.4B.2BA2.A.A$
9.12B3.A3.12B34.5B7.2B2A3.A$9.11BABA.A.ABA11B33.7B6.2B.A.2A$9.11B
2A.A.A.2A11B33.8B4.B3A2.A$7.11B2.B2.A.A2.B2.11B31.9B3.A5.A$4.B.4BA
2B2A4B4.A.A4.4B2A2BA4B.B27.11B3.5A$3.A6BA2B2A5B4.A4.5BA3BA6BA27.6B
.4B4.A$2.A.A5BA10B7.7BA2BA5BA.A26.5B3.4B$3.AB3.8B2.4B5.4B2.8B3.BA
11.A12.8B4.4B$8.6B5.4B2A7B3.6B16.3A8.6B3AB5.4B$11.5B4.3B4A4B2.5B
22.A6.6BA3BAB5.4B$14.2A5.3B4AB4.2A12.2A10.2A6.6B2AB2A2B5.4B$14.A7.
3B2AB6.A13.A10.5B3.10BAB7.4B$15.3A5.4B4.3A14.A.AB9.4B2.B3A9B7.4B$
17.A6.4B3.A6.A10.2AB.3B4.20B8.4B$25.4B7.3A12.7B.3B2AB3A14B7.4B$26.
4B5.A15.10BA6BA3BA5BA5B6.3BA$27.4B4.2A15.10B2A2B2A3B2A4BABA5B6.ABA
$20.2A6.9B14.12B3A5BA5BAB2A4B7.2A$21.A7.6B14.29B2A4B9.B$21.A.2A5.
6B3.B2.2B2.19B.B3.B.2B3.5B$22.A2.A4.3BA11BAB2A14B6.3B7.B$23.2AB3.
5B2A9BA3BABA4B.6B6.B2AB5.3B$24.9B2A3B2A11BA4B2.B.5B5.2A6.B2AB$25.
13B2A9BABA4B7.2A14.2A$26.19BABA7B8.A$26.17B.B.2B16.3A$27.15B4.3B
17.A$27.15B5.A2B.2A$28.13B5.A.A2B.A$30.13B2.A.AB2.A$29.8B4.2A.A.A
3.A$29.6B6.2ABA2.4A.A$29.5B8.B2.A.A3.A.A$29.B.B9.2A.2A2.A2.A.A$30.
3B9.A.A2.2A3.A$29.B2AB9.A.A$30.2A11.A!
