#CSYNTH gun_2420 costs 3304 cells.
#C period 2420 fullperiod 2420 bbox 59 by 56
#CLL state-numbering golly
x = 59, y = 56, rule = LifeHistory
41.2A$31.A4.B3.A.A$24.2A4.A.A.B3A.ABA$24.A.A4.A.2BA.AB2A2B$26.A6.
2B.B3A.2B$25.A.2A4.2A3B3.3A$25.A2.AB3.3ABAB3.B$22.2A.2A2B4.B3A.A$
23.A.9B2.2A$21.A.A3.7B$19.3A.2AB.2B5AB11.A$18.A4.B.4B5ABA8.3A$19.
3AB2AB.2BA2BA2BA7.A$21.A.2AB.6BA9.2A7.A$28.4BA7.5B6.A.A$28.2BAB8.
3B8.A.3A$29.BAB6.7B5.2A4.A$28.4B6.8B5.B.3A$11.2A.2A11.7B.11B4.2ABA
$8.2A2.A.A11.4B.15B3.2BAB$7.A2.2A3.A9.A3B.10BA5B3.BA3B$7.A.A2.2A.A
8.A3B2.9B3A4B3.BA.3A$5.2A.A.A.A.A8.B3A4.7B5A3B3.2B2A.3A$5.A2.A.A.
2B8.4B6.5B2A3B2A3B3.A.B4.A$7.A.ABAB8.6B5.4B3A3B3A3B.BA2B3A.A$6.2A.
A.A2B6.8B5.4B2A3B2A3B.2BA2B2.A.2A$4.A2.A.2A3B5.10B6.3B5A4B2.B2AB2A
3.A$4.2A2.6B4.12B8.B3A2B.B3.BAB2.A.2A$8.8B.14B7.2B2AB8.2A.A.A$10.
22B7.3BA2B7.A.A.A$10.18B.4B8.ABA4B4.A2.A$10.11B2A3B4.4B8.A.A.2A3.
2A$7.13BA2BA2B5.4B5.A.A.ABABA$6.B2A12B2A2B7.4B4.2A.A4.A$5.BA2BA14B
9.4B6.A.3A$5.2B2A17B8.4B5.A.A$5.14B5.2A9.4B5.A$3.13B8.A11.4B$.BA
12B10.3A9.4B$BABA11B12.A10.4B$.ABA11B.B22.4B$2BA13B2A.2A19.4B$.15B
2A.A2.A18.4B$.17B.A.2A19.4B$3.9B3.2B2.A23.4B$4.7B5.B.2A24.4B$4.3BA
3B4.A.A2.2A23.4B$3.3BABA3B3.2A2.A2.A23.4B$3.4BA4B8.2A25.4B$4.7B37.
4B$6.3B40.4B$4.7B39.4B$4.2A.B.2A40.4B$5.A3.A42.3BA$2.3A5.3A40.3BA$
2.A9.A41.3AB!
