#CSYNTH gun_9200 costs 3264 cells.
#C period 9200 fullperiod 9200 bbox 68 by 48
#CLL state-numbering golly
x = 68, y = 48, rule = LifeHistory
52.A$4.2A4.2B4.2A32.3A$3.A2.A.6B.A2.A30.A$3.3A2.6B2.3A30.2A$6.10A
30.5B12.A$5.A2.6A2.A28.4B12.3A$5.2A.B4AB.2A27.6B2.A7.A$10.2B32.6B.
A2BA5.2A$10.2B30.12BAB2.4B4.2A$11.B29.9B2A2BAB.3B6.A$10.2AB12.B4.B
10.14B.5B2.BA.A$.2A6.A2BAB5.2A2.BA3BA2BAB6.17BA5B.B2A$2.A4.3B2A3B
4.A2.B2A3BABABAB4.17B2A7B$2.A.AB.8B.BA.A3.BA6BAB4.12BA4BA2BA6B$3.
2AB.8B.B2A4.B2AB2A4B4.12B3A2B2A8B$5.12B7.2ABA4B5.11BAB2A3B2A6B$5.
12B7.BAB2A3B3.2AB.22B$5.12B8.2B3AB3.A.AB3.17B$7.10B9.4B4.A5.13B2A
3B$9.7B11.2A4.2A4.13BA4B$9.8B5.AB3.B.3B8.16B$8.5B.4B3.A.A2BA5B8.
16B6.2A$8.6B.4B3.A3BA4B2A8.2B.11B6.A2.A$7.6B3.4B3.B.2A4B2A10.10B9.
A.A$3.B2.3BA3B4.4B3.6B.B10.10B7.3A.2A.2A$.7BABA2B5.4B3.5B11.9B8.A
3.A2.A.A$.7BABA2B6.4B2.3B13.9B8.7A$9BA3B7.5B14.2AB.7B11.2B.3A$11B.
B2A6.5B12.A.AB2.5B7.4A.3B3.A$.9B2.BA.A6.4B12.A6.4B6.A3.4A.4A$.7B7.
A7.4B10.2A6.4B6.2A4.2A.A$2.6B7.2A7.4B9.A8.4B.6B4.2B.A.2A$3.4B18.4B
9.3A6.8B7.A.A.BA$4.4B18.4B11.A6.10B5.2A2B$5.4B18.4B9.2A5.B.10B5.A$
6.4B18.4B8.20B3.B2A$7.4B18.4B9.11B2A3B2A4B2A$8.4B18.4B7.2B2A7BA2BA
2B2A.3B3A$9.4B18.4B5.2BA2BA6BA2BA3B5.A.BA$10.4B18.4B4.3B2A4B2.2B2A
3B4.A.A.2A$11.4B18.4B.9B4.7B3.A.2A$12.4B18.12B6.3B6.A3.3A$13.4B18.
10B7.5B5.3A2.A$14.4B18.9B10.2A7.A$15.4B18.9B9.A$16.3BA18.7B11.3A$
17.3BA18.6B13.A$18.3AB19.2B!
