#CSYNTH gun_912 costs 2867 cells.
#C period 912 fullperiod 912 bbox 61 by 47
#CLL state-numbering golly
x = 61, y = 47, rule = LifeHistory
8.2A.2A2.2A21.A2.2A$4.2A.A.A.A2.A2.A20.4A.A$3.A2.2A.B2.3A.2A25.A$
2.A.A3.B3A4.A19.7A.2A$2.A2.3A3.A.B2A2.A16.A2.B3.A.A2.A$.2A4.2AB3AB
2A.4A14.2A2.2A.AB2.2A$7.BA.BA3.AB4.A16.B2AB2A6.2A$.4A4.AB.4A.3A2.A
16.5B5.B2A2B$.A3.A3.B2A.2B.2A2.2A18.3B7.4B$3.2A.BA2BA.A2BA.2AB12.
2A5.5B6.4B$3.2B.BABAB6A.AB3.2A6.A2.A3.4BAB5.AB2A$3.ABA6.4B.B.B2A2.
A4.BA.A.A3.3BABA2B3.ABAB$4.A8.2B3.AB.2A6.3A.A3.4BABA2B2.2BAB$13.2B
4.A9.3AB5.4BA2B3.2B2A$6.B3.5B5.3A7.3B3.11B.2B2AB$4.8BA3B6.A10.15B
2.2A$4.6B2ABA2B17.15B$.B.7BA2BA3B.B15.15B$2A11BA5BA16.8B2.4B$2A9BA
3B2AB2AB14.7B5.4B$.11B2A4BABA14.9B4.4B$.4B2.3B.3BA7B12.4B4.2A5.4B$
7.6BAB3A6B9.4B5.A7.4B$9.6B3ABA6B6.4B7.3A5.4B$11.7BA3B.3B5.3AB10.A
6.4B$12.ABA4B2A12BA19.4B$12.B2AB2A3BA10BA7.A13.4B$13.A5BA13B5.3A
14.4B$14.B.3BA2BA10B4.A5.2B7.A3.4B$17.2BAB2A10B2A2.2A4.3B5.A.A3.3B
A$11.2A4.3BA8B2.BABA2B.B2.2B2AB5.BA2B2.BABA$11.A6.5B3.B4.BA3.2A3.
2B2ABA5.2B.B2.B2A$5.2A6.A4.2B9.A3.4AB4.4B.A4.3BA2B2.B$6.A2.4A.A3.
2B9.4A5.A5.A.4B2.2BABAB$6.A.A2.B2.A2.4B12.A.3AB6.AB2A4BA2BAB$5.2A.
BA.3BAB6AB8.A.A.A2.A7.B2A2B.BABAB$5.A2.A.ABA2.B.A2BA.2AB5.A.A3.A.A
B6.3B2.2B3AB$7.2A.A2.4A.2B.2A2BA3.A.A5.A.A7.2B2.2B2A$8.A2.A.A.AB4A
.2B.AB2.A8.A12.2B2AB$6.A3.2A.A.A2.A2.2A.2A2.2A2.A20.2A$6.2A4.ABAB
2A.2B3A.2A3.3A$12.2AB3.2A3B2.B4A6.2A$6.2A2.B2A2B2ABA.A6.B2.5A2.A$
6.A.AB.A3.AB.3A.B5.BA.A3.2A$7.3A.A4.2A2.2ABAB3.2A2.3A$9.2A4.3A4.B
3A2.3A.A.A$16.B7.B4.BAB2A!
