#CSYNTH gun_2008 costs 6800 cells.
#C period 2008 fullperiod 2008 bbox 80 by 85
#CLL state-numbering golly
x = 80, y = 85, rule = LifeHistory
39.2A$38.B2AB11.2A.A.2A$39.3B4.A.2A.A2.A.2A2.A3.A$38.B.B5.2A.A.2A.
A4.A.A2.3A$38.5B8.B2.5A.A6.A$38.6B6.2ABA4.A7.2A$38.8B4.2A.A.AB2.A
6.5B$39.13B2.A.A2B.A7.4B$37.13B5.A2B.2A7.5B$36.15B3.3B11.6B$36.15B
3.2B12.6B.B$35.17B.4B10.6B.B2A$35.8B2A19B4.7B2A$34.8B2A21B2.6B.2B$
33.10B2A20B2.6B$32.2AB3.9BA17B.9B3.B$31.A2.A4.37B.B2A$30.A.2A5.6B
3.B2.2B2.23B2A$30.A7.6B14.21B$29.2A6.9B14.19B$36.4B4.2A15.16B$35.
4B5.A15.17B$34.4B7.3A12.17B$33.4B10.A10.2AB.3B.10B$32.4B21.A.AB5.
9B$31.4B22.A9.8B$30.4B22.2A8.9B2.B$29.4B33.9B.B2A$28.4B35.10B2A$
27.4B37.8B.B$26.4B37.8B$25.4B39.7B$24.4B41.5B$23.4B42.4B$22.4B43.
4B$21.4B43.4B$20.4B43.4B$19.4B43.4B$19.4B42.4B$18.5B41.4B$15.9B39.
4B$15.9B38.4B$15.9B37.4B$15.10B35.4B$14.12B33.4B$13.13B8.2A22.4B$
14.11B9.A22.4B$15.12B4.BA.A21.4B$15.15B.B2A10.A10.4B$15.17B12.3A7.
4B$15.17B15.A5.4B$12.B.17B15.2A4.4B$11.2A19B14.9B6.2A$11.2AB.19B
14.6B7.A$12.B4.20B2.2B2.B3.6B5.2A.A$17.36B4.A2.A$17.9B.27B3.B2A$
18.7B2.16B2A14B$18.7B2.16B2A13B$12.2A4.6B4.29B$11.B2AB3.7B10.4B.
17B$11.4B3.6B12.2B3.15B$12.2B3.7B11.3B3.15B$4.A7.4B2.5B8.2A.2BA5.
13B$3.A.A5.5B.6B8.A.2BA.A2.13B$4.A.19B7.A2.BA.A.2A4.8B$5.17B.2A8.A
4.AB2A6.6B$5.14B4.A7.A.5A2.B8.5B$5.15B4.3A3.A.A4.A.2A.A.2A5.B.B$4.
3B2A12B5.A4.A2.2A.A2.A.2A.A4.3B$4.3B2A13B10.2A.A.2A11.B2AB$2.2AB.
11B2.4B28.2A$.A.AB2.8B5.4B$.A5.10B4.4B12.2A$2A5.B.B5.2A5.4B10.B2A
2B$8.3B4.A7.4B10.4B$7.B2AB5.3A5.4B9.4B$8.2A8.A6.4B7.B3A$26.4B6.2B
2A$27.4B4.2A2B$28.4B3.3AB$29.5B.BABAB$30.3BAB2.2A$31.3BA$32.3AB!
