#CSYNTH gun_1743 costs 6885 cells.
#C period 1743 fullperiod 1743 bbox 85 by 81
#CLL state-numbering golly
x = 85, y = 81, rule = LifeHistory
19.2A$6.2A11.A$7.A8.BA.A$7.A.AB.3B.B2A9.2A20.2A$8.2AB.5B12.A7.2A
11.A$10.7B8.2A2.A.AB5.A8.BA.A$11.7B8.A3.2AB5.A.AB.3B.B2A$6.B3.8B5.
3A6.3B4.2AB.5B$2.B2.14B4.A8.2B2A5.7B8.2A$.3B.7BA5B2.3B10.BABA5.7B
8.A$2A9B3A2BA7B10.A3B3.8B5.3A$2A7BA5BABAB3A2B3.2B6.15B4.A$.B.6B5AB
A5B2A7B5.8BA5B2.3B$5.6BA5B.5BA6B2.10B3A2BA7B$5.7B2A5BAB5A14BA5BABA
B3A2B3.2B$6.2B3.2B3ABABA5BA14B5ABA5B2A7B$11.7BA2B3A10B2.6BA5B.5BA
6B$12.3B2.5BA8B5.7B2A5BAB5A6B.B$11.A4.15B6.2B3.2B3ABABA5BA7B2A$9.
3A5.8B3.3BA10.7BA2B3A9B2A$8.A8.7B5.ABAB10.3B2.5BA7B.3B$8.2A8.7B5.
2A2B8.A4.14B2.B$18.5B.B2A4.4B5.3A5.8B3.B$16.2AB.3B.BA.A4.4B3.A8.7B
$15.A.AB8.A5.4B3.3A6.7B$15.A11.2A5.4B4.A6.5B.B2A$14.2A19.4B8.2AB.
3B.BA.A$36.4B6.A.AB8.A$37.4B5.A11.2A$38.4B3.2A8.A$39.4B10.3A$40.4B
8.A$41.4B7.2A$42.4B3.5B$43.4B2.3B9.2A$44.9B8.A.A$45.8B.B8.A$46.11B
3.B.BA.2A$46.3BABA6B.B2A.A.A$46.2BA2BA8B2A.A.A$46.2BA2BA9B2.A.2A$
44.2AB.BA10B4A2.A$43.A.AB.10B.BAB2.2A$43.A5.7B6.2A$42.2A5.4B.2B7.A
$48.4B9.A$47.4B10.2A$42.2B2.4B$41.8B$40.8B$31.2A6.8B$32.A4.9B.2B$
31.A4.12B2A22.A$31.2A4.9B.B2A21.A.A$32.2B5.7B2.B22.A.A$15.2A5.3B6.
5B2.8B24.2A.2A$16.A5.4B4.12B2AB26.B4.A2.2A$16.A.AB.5B4.10B.A2BAB5.
7B.B10.2AB4A2.A$17.2AB.5B3.13B2A3B4.13B.B4.2A.A6.3A$19.7B3.43B3.B
4A2.A$19.8B3.40B5.BA2.A2B$14.2A4.8B3.40B2.8B$14.A.A3.33B2A27B$16.A
3.33B2A16BA9B$16.2A.41B3.2B.5BA7B.B2A$18.18B3.B2.B3.B2.10B9.3BA7B.
BA.A$13.2A3.18B14.6B13.B.7B5.A$13.A2.B.12B3.5B13.3B19.5B5.2A$14.3A
12B7.2A13.B19.8B$16.AB.9B8.A13.2A19.2AB2.4B$14.2A3.9B3.2A4.3A10.A
21.A4.4B$14.A4.9B4.A6.A11.A17.3A6.4B$11.2A.A2.2AB.3B2A2B4.A.2A14.
2A17.A9.4B$11.2A.A.A.AB.2BA2BA2B.3A2.A44.4B$14.A.A5.BABA3BAB2.2A
46.3BA$14.A.A3.4BA4B4A49.ABA$15.A4.2A5.4B.A50.2A$21.A7.2A.A.A49.B$
18.3A9.A2.2A$18.A9.A.A$28.2A!
