#CSYNTH gun_1282 costs 6045 cells.
#C period 1282 fullperiod 1282 bbox 93 by 65
#CLL state-numbering golly
x = 93, y = 65, rule = LifeHistory
24.2A11.A$23.B2AB9.A.A$24.3B9.A.A2.2A3.A$23.B.B9.2A.2A2.A2.A.A2.A$
23.5B8.B2.A.A3.A.A2.3A5.2A$23.6B6.2ABA2.4A.A6.A3.B2AB$23.8B4.2A.A.
A3.A7.2A4.2B$24.13B2.A.AB2.A6.7B$22.13B5.A.A2B.A7.6B$21.15B5.A2B.
2A6.8B$21.15B4.3B10.9B$20.17B.B.2B10.12B$20.29B4.12B$19.13B2A16B2.
12B$18.14B2A16B2.12B$17.2AB3.27B.14B$16.A2.A4.42B$15.A.2A5.7B2.B2.
2B2.21B2.4B$15.A7.7B13.17B4.4B$14.2A6.8B15.16B4.4B$21.4B2.2B17.15B
5.4B13.A$20.4B4.2A15.17B5.4B10.3A$19.4B6.A15.7B.8B7.4B8.A$18.4B5.A
15.2AB.3B4.6B9.4B7.2A$17.4B6.2A3.A9.A.AB9.4B11.4B3.5B$16.4B12.3A7.
A10.6B12.4B2.3B$15.4B16.A5.2A5.A2.A.2AB.B14.9B7.2A$.2A11.4B16.2A7.
2A3.4AB2AB17.8B8.A$.A2.A8.ABAB17.5B4.A9.B20.10B3.B.A.2A$2.5A5.A2BA
5.2A13.4B5.A.A.3A.2A19.7B2A2B.B3A2.A$7.A4.A3B5.A.A11.6B3.2A.2A2.A.
A20.7B2A3BAB2.2A$4.3AB2.7B.BA.A.3A9.6B4.B4.A3.3A17.12B4A$3.A.2B3.
2A4BA.B2A5.A8.7B.B2AB3A7.A10.2A2.2AB.7B3.2B.A$3.3A2BA2BABA2BA2B6.
2A5.2B.6B2.B2A.A6.3A11.A2.A.AB.7B2.B3A$.2A2.5B2A2BAB2AB6.21B7.A16.
2A5.4B4.A$A2.4A.A2B2A2B2A2B8.17B5.B3.2A16.A5.4B5.5A$2A.A.B3.B2AB4A
2B7.2B2A15B2.8B14.A6.4B10.A$3.A8.2A6B5.2BA2BA22B16.2A4.4B9.A$3.2A
7.A8B4.3B2A23B17.2B2.4B10.2A$13.3B2.4B.9B3.19B15.8B6.2A$11.5B3.12B
4.21B13.7B7.A$11.2A7.10B4.25B2.2B2.B2.7B5.2A.A$12.A8.9B3.4B4.34B4.
A2.A$9.3A10.9B.4B6.6B.27B3.B2A$9.A13.7B.4B5.5B.B2.16B2A14B$24.10B
6.2A7.16B2A13B$19.2A5.2B.4B8.A8.29B$18.B2AB6.4B6.3A16.2B.B.17B$18.
4B5.4B7.A17.3B4.15B$19.2B5.4B22.2A.2BA5.15B$11.A7.4B2.4B23.A.2BA.A
5.13B$10.A.A5.5B.4B25.A2.BA.A2.13B$11.A.14B27.A3.A.A.2A4.8B$12.14B
26.A.4A2.AB2A6.6B$12.14B25.A.A3.A.A2.B8.5B$12.15B24.A.A2.A2.2A.2A
9.B.B$11.3B2A12B24.A3.2A2.A.A9.3B$11.3B2A13B31.A.A9.B2AB$9.2AB.11B
2.4B31.A11.2A$8.A.AB2.8B5.4B$8.A5.10B4.4B$7.2A5.B.B5.2A5.4B$15.3B
4.A7.3BA$14.B2AB5.3A5.3BA$15.2A8.A6.3AB!
