#CSYNTH gun_1395 costs 3654 cells.
#C period 1395 fullperiod 1395 bbox 63 by 58
#CLL state-numbering golly
x = 63, y = 58, rule = LifeHistory
39.A3.2A.2A$38.A.A.A.A.A$37.A2.A.A.B.A$36.2B3A.AB.BA.2A$34.B2.BA.B
2A.A.A.A.A$33.2A4B2.BABA.A3.A$33.A.AB5.B2A2.A2.2A$34.2AB4.A3.3A3.A
$34.BA5.4A6.A.2A$29.2A2.4B2.2A4.A4.2A.A$29.A.B2.2A2.B.A.3A4.B.A.B.
A2.A$31.ABA2BABA3.A6.B2ABAB4A$27.5A6B4A6.2BA3B$27.A5.4A11.2BA2B.3A
$30.10A4.B2.2B2A2.A2.A$29.A2.6B2.A2.2AB2A.AB3.2A$29.2A.6B.2A2.A3B.
A$25.2A7.3B7.3BAB$26.A6.4B7.A2BA$26.A.AB2.5B4.2B$27.2AB.7B2.4B$29.
9B.2BA3B14.A$28.12B3A2B12.3A$28.11B5A4B8.A$26.12BA5BA4B7.BA$26.11B
2A2BA2B2A3B5.A2BA$26.10B3ABABA5B3.B.3B3.B$23.2A.11B2A2BA8BA4BA5B$
23.A.13BA10BA12B$24.A2.12BA10BA12B$25.A2.35B$22.3A5.11B3A18B$22.A
7.12BA18B$30.12BA8B5.B.2B$31.20B4.3B$30.6B5.3B3A2B6.B2AB$29.7B5.6B
9.2A$28.4B3.B2A4.4B$27.4B4.BA.A$26.4B8.A$11.A13.4B9.2A$11.3A10.5B$
14.A8.5B7.A$13.2A7.7B5.BAB$13.5B3.4B.B3A4.3B$4.2A9.3B2.4B3.3B3.2BA
2B$3.A.A8.9B3.A3BA2.BABAB$3.A8.B.8B4.B3AB.7B$2A.AB.B3.BA9B6.4B.2B
3A2B$.A.A.2AB.3A9B6.3B.9B$.A.A.2A2B2A10B6.3B.9B$2A.A2.5BA9B6.4B.2B
3A2B$A2.4A3BA8B.B2A3.B3AB.7B$.2A2.BAB.BA8B.BA.A2.A3BA2.BABAB$3.2A
6.7B5.A3.3B3.2BA2B$3.A7.2B.3BA5.2A2.3A4.3B$5.A9.3BA9.B5.BAB$4.2A
10.3AB15.A!
