#CSYNTH gun_1415 costs 7844 cells.
#C period 1415 fullperiod 1415 bbox 106 by 74
#CLL state-numbering golly
x = 106, y = 74, rule = LifeHistory
61.2A11.A$60.B2AB9.A.A$61.3B9.A.A2.2A3.A$60.B.B9.2A.2A2.A2.A.A$60.
5B8.B2.A.A3.A.A12.A$60.6B6.2ABA2.4A.A11.3A$60.8B4.2A.A.A3.A12.A$
61.13B2.A.AB2.A11.2A$59.13B5.A.A2B.A7.5B$58.15B5.A2B.2A6.4B$58.15B
4.3B10.5B$57.17B.B.2B10.3BA2B.B$57.29B3.2B3A4B$56.13B2A16B2.BA2B2A
5B.B$55.14B2A16B2.B3A8B2A$54.2AB3.27B.13B2A$53.A2.A4.39B.B$52.A.2A
5.6B3.B2.2B2.17BA4B$52.A7.6B14.14B2A4B$49.BA.A6.9B14.12BA7B$46.B.B
A.A6.4B4.2A15.4BA6B3A5B$45.2A3BA6.4B5.A15.5BA3B2A3BA4B$45.2AB.3B4.
4B7.3A12.9BA3BA3B2ABA.2A$46.B3.2B3.4B10.A10.2AB.8B3A4B2A.2A.A$49.
4B.4B21.A.AB4.13B$38.2A8.4B.4B22.A6.12B$39.A7.4B.4B22.2A6.2AB.7B$
38.A7.4B.4B32.A3.6B.A$38.2A5.4B.4B30.3A4.5B.A.A$39.2B3.4B.4B31.A6.
4B3.A$38.9B.4B38.4B$7.2A3.2A24.8B.4B38.4B$7.A.A.A.A20.2B.8B.4B38.
4B$9.A.A21.11B.4B38.4B$8.A2B.A2.2A15.16B38.4B$8.ABA.A2.A.A14.6BA8B
38.4B$10.A.2A.A2.A12.7B2A8B36.4B$9.2ABA2.3A12.7BABA7B36.4B$8.B2A2B
2A15.17B35.4B$9.2A.A2.A14.10BA7B33.4B$9.B2A2.2A13.7BA3BA7B32.4B$
10.2B17.6BABABA7B3.2A27.4B$10.2B17.6BA2BA7B4.A27.4B$11.B17.7B3A6B
2.BA.A26.4B$10.2AB17.16B.B2A26.4B$.2A6.A2BAB5.2A11.16B27.4B$2.A4.
3B2A3B4.A11.7BA4BA3B27.4B$2.A.AB.8B.BA.A11.6B2A3B3A4B13.A10.4B$3.
2AB.8B.B2A12.6B2AB6A2B2A12.3A7.4B$5.12B14.10BAB2A3B2A15.A5.4B$5.
12B15.6B6A5B15.2A4.4B$5.12B3.A10.6BA5BA6B14.9B6.2A$7.10B3.3A7.4B.
3BA3BA9B14.6B7.A$9.7B7.A5.4B2.3BA4BA11B2.2B2.B3.6B5.2A.A$9.8B5.2A
4.4B3.4BA3BA27B4.A2.A$8.5B.4B4.9B3.4B2AB2AB.27B3.B2A$8.6B.4B5.6B3.
5BAB2A2B.16B2A14B$7.6B3.4B2.8B3.7BA2B2.16B2A13B$3.B2.3BA3B4.15B2.
3BABA2B4.29B$.7BABA2B5.14B4.6B11.2B.B.17B$.7BABA2B6.13B4.B2A3B10.
3B4.15B$9BA3B7.10B.B2A3.2A2B7.2A.2BA5.15B$11B.B2A7.3B2AB3.BA.A3.5B
5.A.2BA.A5.13B$.9B2.BA.A6.3B2AB6.A6.2A6.A2.BA.A2.13B$.7B7.A8.4B6.
2A5.A8.A3.A.A.2A4.8B$2.6B7.2A7.3B15.3A3.A.4A2.AB2A6.6B$3.4B14.AB.
2B18.A2.A.A3.A.A2.B8.5B$4.4B12.A.AB2AB20.A.A2.A2.2A.2A9.B.B$5.4B
11.A.ABABAB20.A3.2A2.A.A9.3B$6.4B7.2A.A.A.A.A2.A26.A.A9.B2AB$7.4B
6.A2.A2.2A.4A27.A11.2A$8.3BA7.2A4.A$9.3BA12.A.A$10.3AB12.2A!
