#CSYNTH gun_2385 costs 3969 cells.
#C period 2385 fullperiod 2385 bbox 63 by 63
#CLL state-numbering golly
x = 63, y = 63, rule = LifeHistory
36.2A$35.A2.A$34.A.2A.A2.2A$34.A.A2.A3.A$33.2A.2BA.3A$33.A2.A.A.A$
34.3A3BA$36.4B$30.2A2.4A2BA7.2A$30.A2.A2.4BA6.2BA$31.A.2A2.B2AB4.A
2BA$28.3A.A5.A2B3.B2AB$27.A4.A7.B2A3BA2B$25.3A.2A.2A6.B2A2.B.AB$
24.A3.A.2A.2BA4.2B4.2A$23.A2.A5.A3B2.BAB$23.A.3A4BA3BA.ABAB$21.A.A
4.A2BA.6B2AB.2A$21.2A.ABABA.3ABA.7B2A$24.A.B.A.A2.2B2.7B$19.A4.A.A
.A2.2A4.7B3.2A$19.3A3.A.A.A.A5.6B3.B2A2B3.2A$12.2A8.A3.A2.A.A4.8B
3.4B2.B2AB$13.A5.2A.A6.2A4.4B2.10B3.2B$12.A5.A.A.2A10.4B3.10B2.2B$
12.2A4.A2.B11.4B4.11B2A2B$15.2A.2A2B10.4B4.12B2A3B.B$10.5A.A.A.2AB
8.4B5.18B2A$9.A2.B3.B.A.A.AB6.4B7.15B.B2A$9.2A.2B4A.2AB2A5.4B7.8B
3A4B3.B$13.A.B.2BA3BAB3.4B6.10BA6B$12.2B2A3.4BA9B2.14BA4B$12.2B2A
3.4BA30B$13.A.B.2BA3BA31B$9.2A.2B4A.2AB2A.2B2A28B$9.A2.B3.B.A.A.AB
3.2A28B$10.5A.A.A.2AB5.31B$15.2A.2A2B7.3B.4B3.19B$12.2A4.A2.B10.4B
4.19B$12.A5.A.A.2A7.4B3.2AB.16B$13.A5.2A.A7.4B3.A.AB.15B$12.2A8.A
6.4B4.A5.16B2.2A$19.3A6.4B4.2A3.14B.B2A.A.A$19.A7.4B3.A2.A.A.2A12B
.B2ABA$26.4B4.2A2.2AB2AB2.8B4.B2.A$11.A13.4B12.B5.6B4.2A.2A$11.3A
10.5B9.2A.2A4.5B6.A.A$14.A8.5B7.A3.A.A3.9B4.A.A$13.2A7.7B5.BAB2.A.
A3.2AB4.2A5.A$13.5B3.4B.B3A4.3B3.A5.A5.A$4.2A9.3B2.4B3.3B3.2BA2B5.
3A7.3A$3.A.A8.9B3.A3BA2.BABAB5.A11.A$3.A8.B.8B4.B3AB.7B$2A.AB.B3.B
A9B6.4B.2B3A2B$.A.A.2AB.3A9B6.3B.9B$.A.A.2A2B2A10B6.3B.9B$2A.A2.5B
A9B6.4B.2B3A2B$A2.4A3BA8B.B2A3.B3AB.7B$.2A2.BAB.BA8B.BA.A2.A3BA2.B
ABAB$3.2A6.7B5.A3.3B3.2BA2B$3.A7.2B.3BA5.2A2.3A4.3B$5.A9.3BA9.B5.B
AB$4.2A10.3AB15.A!
