#CSYNTH gun_592 costs 3105 cells.
#C period 592 fullperiod 592 bbox 69 by 45
#CLL state-numbering golly
x = 69, y = 45, rule = LifeHistory
58.A$56.3A$30.A24.A$28.3A17.A6.2A$27.A3.2A14.A.A3.4B$26.A.2A3.A14.
A.5B$23.A2.A.A.4A15.7B$23.3A2.B.B18.4B2A4B.B$26.4A.AB3A13.4B2A3B.B
2A$25.A2.A.2A.A2.A12.5BA5B2A$25.2A2.4B2.2A12.6B2AB.2B$8.A20.3B12.
2B2.6BABAB$7.A.A19.4B8.A.2A11BAB$5.3A.A19.4B6.3A.2A13B$4.A4.A.2A
14.7B4.A5.2B.11B$4.ABABA.A.A13.8B4.2A7.9B.B2A$5.2A.A.A15.8B.5B9.7B
.BA.A4.2A$5.4BABA5.3B6.12B10.7B5.A3.B2A2B$8.2BABAB.7B5.12B8.8B5.2A
3.2A2B$4.2B4.A2BA9B3.8B3A2B7.4B2.4B9.BA2B$.B.4B2.5BA8B2.8BA3BAB6.
4B4.4B7.BABA$2A7BA5BA7B3.6BA5BA2B3.4B6.4B6.2ABA$2AB.4BA3BA3BA14BA
3BA3BA2B.4B8.4B4.4B$.B2.4BA2BABA2BA14BA2BABA2BA6B10.4B3.4B$6.2BA3B
A3BA14BA3BA3BA5B12.5B.2B2AB$7.2BA5BA6B3.7BA5BA6B13.5B2.2A$9.BA3BA
8B2.8BA5B2.4B13.5B$9.2B3A8B3.9BA2BA4.B.B2A12.5B$9.12B5.7B.BABA2B4.
BA.A8.3B2.4B$10.12B6.3B5.ABA4B4.A6.3BAB3.4B$8.5B.8B15.A.A.2A4.2A3.
B.2B2A2B3.4B$8.2A4.8B13.A.A.ABABA7.2A2BA3B.B3.4B$9.A4.7B14.2A.A4.A
7.2A2B2A4BA3.3BA$6.3A6.4B19.A.3A9.8BA.A3.ABA$6.A8.4B19.A.A11.3B.B
3.BA5.2A$16.3B20.A15.2B11.B$11.2A2.4B2.2A32.3A$11.A2.A.2A.A2.A30.B
A3B$12.3ABA.4A31.BA3BA$17.B.B2.3A29.A2BA.A$14.4A.A.A2.A31.A.A2BA$
14.A3.2A.A35.A3BAB$15.2A3.A37.3BAB$17.3A38.3A$17.A41.2B!
