#CSYNTH gun_2805 costs 4422 cells.
#C period 2805 fullperiod 2805 bbox 67 by 66
#CLL state-numbering golly
x = 67, y = 66, rule = LifeHistory
47.2A2.A2.A$47.A3.4A$48.3A4.2A$50.B.ABA2.A$36.A9.4A.2B.A.A$34.3A9.
A2.A2BA.A.2A7.2A$33.A16.2AB.A10.A$26.A6.2A15.3B2A7.2A.A$25.A.A3.4B
13.2B2.2B5.2A.2BA$26.A.5B14.3B8.BA3B$27.7B12.B2AB9.3B$27.4B2A4B.B
6.BA2BA2B7.A2BA$27.4B2A3B.B2A5.2B2A4B6.ABAB$27.11B2A5.6B3AB3.3B.AB
.2A$27.9B.2B5.12B.6BA2.A$22.2B2.10B8.6BABAB2A2B.AB2AB2A$21.2A13B8.
6BABAB2A2B.2BAB$21.2A13B6.2AB.8BA2B3.A.A.2A$22.2B.11B5.A.AB.11B4.
2A.2A$25.9B.B2A3.A5.4B.4B$27.7B.BA.A.2A5.A3B2.4B$26.7B5.A.A5.BABA
5.B2A$8.2A8.A6.8B5.A.A4.2B2A5.A4BA$7.B2AB5.3A5.4B2.4B5.A4.4B6.5BAB
$8.3B4.A7.4B4.4B8.4B6.A5B.A$2A5.B.B5.2A5.4B6.4B6.4B5.3A.4A.3A$.A5.
10B4.4B8.4B4.4B5.A4.4AB3.A$.A.AB2.8B5.4B10.4B2.4B6.A.3A2B.3AB.A$2.
2AB.11B2.4B12.3B.4B8.A3.2BA2.2A.2A$4.3B2A13B10.2B.7B10.3A.2A2.BA2.
A$4.3B2A12B10.2A8B13.7A.2A$5.15B11.2A7B15.B.BA.A.A$5.14B5.A7.B.5B
18.ABAB.A$5.14B5.3A7.5B17.BAB.A.2A$4.A.14B7.A5.ABA4B17.2A.A$3.A.A
5.5B.4B5.2A4.B2AB.4B16.BABA$4.A7.4B2.4B4.8BA3.4B18.A.2A$12.2B5.B3A
5.7B4.4B15.B.A.A$11.4B5.A3B2.7BA6.4B12.BAB2A2.A$11.B2AB6.A10BABAB
5.4B11.BA3.2A$12.2A8.10BABA2B5.4B11.AB2A$23.10BA3B6.4B9.2BA.A$24.
10B3.A2BA3.4B8.A2B$25.7B5.A2BA4.4B8.A$24.9B2.2A.2A.2A3.4B$24.2B3A
3B3.2BA2.A2B4.4B$26.3BA2B3.2BA2.A2B5.4B$26.ABA2B4.2A.2A.2A6.4B$27.
BAB7.A2BA9.4B$26.ABA2B6.A2BA9.5B$26.2B2A2B11.B7.5B$22.2A2.2B.AB2.
2A7.3B5.A6B$22.A2.A.A3.B2.A7.3B4.BA2B.4B$24.2A.7A7.2BA2B3.3A3.4B$
26.A14.2BA2B2.B3AB3.4B$26.A.4A8.2BABA2B.B3AB4.4B$27.2A2.A8.3BA3B.
2BAB6.4B$39.4BA4B.3B7.4B$39.4BA4B.3B8.4B$40.3BA3B.2BAB9.4B$40.2BAB
A2B.B3AB9.4B$41.2BA2B2.B3AB10.3BA$41.2BA2B3.3A12.ABA$42.3B4.BAB13.
2A$42.3B5.A15.B$43.B!
