#CSYNTH gun_2048 costs 2684 cells.
#C period 2048 fullperiod 2048 bbox 44 by 61
#CLL state-numbering golly
x = 44, y = 61, rule = LifeHistory
33.8B$5.8B19.3B2A5B$4.5B2A3B5.2A11.B2ABA5B$4.5BAB2AB4.B2AB9.BA2BA
7B$3.7BA2BAB2.4B9.2BA2BA4BA3B$2.3BA4BA2BA2B2.4B9.BA.BA3BA.AB$3.BA.
A3BAB.AB4.3B2.2B7.3A3B2A$5.2A3B3A5.8B$18.10B5.3A3B2A$5.2A3B3A4.11B
3.BA.BA3BA.AB$3.BA.A3BAB.AB2.2B2A4BA2B2.2BA2BA4BA3B$2.3BA4BA2BA2B
2.B2A3B3A3B.BA2BA7B$3.7BA2BAB.7B2AB2A3B.B2ABA5B$4.5BAB2AB.9B3A3B2.
3B2A5B$4.5B2A3B2.9BA2B5.8B$5.8B5.11B$18.11B$18.11B.2A$20.8B2.3B$
20.2B.A4BA3BA$12.2A8.BABA2.A4BA$11.A2BA6.2B2A4.BABA.A$11.B2AB5.4B
7.A.ABAB$12.2B5.4B9.A4BA$4.A7.BA2B2.4B11.A3BA$3.A.A5.BAB2A.4B12.3B
$4.A.6BA3BA3B14.2A$5.8BA5B11.2AB$5.9BA3BA10.B3A$5.3BA5BA4BA9.B2A.A
$4.2B2AB2A6B3AB8.2B.A.A$4.5B2A11B5.2B2.A2.A$2.2AB.11B2.4B3.3B3.2A$
.A.AB2.8B5.5B.2AB9.2A$.A5.10B4.4BA2BAB8.A.A$2A5.B.B5.2A5.4B2A2B.B
8.A$8.3B4.A7.11B3.B.BA.2A$7.B2AB5.3A4.12B.B2A.A.A$8.2A8.A4.14B2A.A
.A$23.8B2A5B2.A.2A$21.2AB.5BA2BA3B4A2.A$20.A.AB.6B2A2B.BAB2.2A$12.
B2A5.A5.7B6.2A$12.3AB3.2A5.4B.2B7.A$11.A.2AB9.4B9.A$10.A.A.2B8.4B
10.2A$10.A2.A2.2B5.4B$11.2A3.3B3.4B$5.2A9.B2A.5B$4.A.A8.BA2BA4B$4.
A8.B.2B2A4B$.2A.AB.B3.BA9B$2.A.A.2AB.3A9B$2.A.A.2A2B2A10B$.2A.A2.
5BA9B$.A2.4A3BA8B.B2A$2.2A2.BAB.BA8B.BA.A$4.2A6.7B5.A$4.A7.2B.3BA
5.2A$6.A9.3BA$5.2A10.3AB!
