#CSYNTH gun_9384 costs 3339 cells.
#C period 9384 fullperiod 9384 bbox 63 by 53
#CLL state-numbering golly
x = 63, y = 53, rule = LifeHistory
52.B6.B$51.3AB2.B3A$43.4B3.B4A2.3A.A$40.2A.4A.AB.BA.4A.2A$39.A.3A
2.4AB3.4B$40.3AB2.B3A$41.B6.B.B$49.2B$48.5B2.2B$47.11B$44.15B$43.
16B$32.4B7.8BA7B$32.4AB5.8B3A5B.2A$31.A4BA5.7BA2B2A4B2.A$31.A2B.A.
AB3.7BABABA4B2.A.A$32.A3.ABAB2.9BAB2A3B3.2A$37.BAB3.5B2A4BA3B$36.
2BAB.8BA7B$4.4B3.B.3B2A4B.B3.4B4.A2BAB.9BA4BA$4.4B.9BA7B.4B5.2A2.
11B2A4B$3.2A10B2A2BA10B2A9.12BA2BA$3.2A11BA2BA10B2A9.AB2A8BA3B$4.B
.11BABA9B.B8.A13BABAB$6.11B2A10B9.5B2A9BAB$23.3B.B.3B4.20B$6.11B2A
13B2.2BA2B6A10B$4.B.11BABA16BA6BA8B$3.2A11BA2BA16B2.6B2.5B$3.2A10B
2A2BA15B4.2BA2B4.2B$4.4B.9BA15B7.2A7.B2AB$4.4B3.B.3B2A4B.3B.B.4B
17.4AB$28.4B17.ABA2BA$27.4B18.2AB.A.AB$11.B2A12.4B20.B3.ABAB$11.3A
B10.4B26.B2A$10.A.2AB9.4B26.B3A$9.A.A.2B8.4B26.BABAB$9.A2.A2.2B5.
4B28.2A$10.2A3.3B3.4B$4.2A9.B2A.5B$3.A.A8.BA2BA4B$3.A8.B.2B2A4B$2A
.AB.B3.BA9B$.A.A.2AB.3A9B$.A.A.2A2B2A10B$2A.A2.5BA9B$A2.4A3BA8B.B
2A$.2A2.BAB.BA8B.BA.A$3.2A6.7B5.A$3.A7.2B.3BA5.2A$4.A10.3BA$3.2A
11.3AB!
