#CSYNTH gun_137 costs 4422 cells.
#C period 137 fullperiod 137 bbox 66 by 67
#CLL state-numbering golly
x = 66, y = 67, rule = LifeHistory
39.2A$38.A.A$32.2A4.A$30.A2.A2.2A.4A$30.2A.A.A.A.A2.A$33.A.ABABAB$
33.A.AB2AB$34.AB.2B$37.3B$37.4B6.2A$35.3B2AB6.A$35.3B2AB3.BA.A$33.
10B.B2A$32.13B$31.14B$30.15B$29.4B2.8B$28.4B5.6B$27.4B4.9B$26.4B5.
2A4.4B$25.4B7.A5.4B$24.4B5.3A7.4B$9.A13.4B6.A10.4B$9.3A10.4B19.4B$
12.A8.4B21.4B$11.2A7.4B23.4B$11.5B3.4B25.2B2A$13.3B2.4B27.BABA$3.
2A7.6BA2B29.A3B$3.A8.4B2A2B31.4B$2A.A.B3.8B2A33.4B$A2.3AB.2B2A7B
34.4B$.2A2.BA3B2A7B35.4B$3.4A12B35.4B$3.A.2B3.7B.B2A33.2BA2B$4.3AB
2.7B.BA.A31.2BABA4B$7.A4.4B5.A31.2BA2BA3B$2.5A5.4B5.2A30.4BA4B$2.A
10.4B35.10B$4.A9.4B33.10B2A$3.2A10.4B22.2A8.9BA2BA$16.4B22.A9.8BAB
A$17.4B7.2A12.A.AB4.11BA$18.4B6.A14.2AB.10B3A2B$19.4B6.A15.12B2A3B
$20.4B4.2A15.17B$21.4B2.2B17.17B.B$14.2A6.8B15.19B2A$15.A7.7B13.
19B.B2A$15.A.2A5.7B2.B2.2B2.20B4.B$16.A2.A4.36B$17.2AB3.27B.9B$18.
32B2.7B$19.31B2.7B$20.8B2A2BA16B4.6B$20.10B4A3B.B.2B10.7B$21.9B2A
2BAB4.3B10.6B$21.13B2A5.A2B.2A6.7B$22.11B2A5.A.A2B.A7.5B$24.10B2AB
2.A.AB2.A8.6B$23.8B4.2A.A.A3.A7.9B$23.6B6.2ABA2.4A.A5.2A.7B$23.5B
8.B2.A.A3.A.A5.A5.4B$23.B.B9.2A.2A2.A2.A.A2.3A7.4B$24.3B9.A.A2.2A
3.A3.A10.3BA$23.B2AB9.A.A23.3BA$24.2A11.A25.3A!
