#CSYNTH gun_4260 costs 4100 cells.
#C period 4260 fullperiod 4260 bbox 82 by 50
#CLL state-numbering golly
x = 82, y = 50, rule = LifeHistory
25.2A3.A$23.3A.A.A.A$22.A4.A.A.A$22.ABABA.A.A41.A2.2A$17.2A4.2A.A.
A43.4A.A$18.A4.4BABA5.2A40.A$18.A.AB4.2BA3B2.B2AB32.7A.2A$19.2AB.B
4.5B2.2B32.A2.B3.A.A2.A$21.4B2.6B.2B33.2A2.2A.AB2.2A$21.BA14B35.B
2AB2A$21.A9B2ABA3B35.5B$20.B3A7B6A2B35.3B$19.4B.5BA3B2A2BA2B26.2A
5.2A3B$18.4B3.4BA5BA2BA2B24.A2.A3.B2AB2A$2.2A13.4B6.9BA5B21.BA.A.A
3.2ABA4B$3.A12.4B7.2BA8B.4B20.3A.A3.9B$3.A.AB2.B5.4B8.2B3A5B3.4B
19.3AB5.7B$4.2AB.3B3.4B3.A3.4B3A4B5.4B7.2A10.3B3.10B$6.6B.4B3.A.A.
9B2.2B5.4B5.B2AB5.A6.3BA10B$6.10B3.A.A2.A7B2.B2A6.4B5.3B5.3A4.2BAB
A9BA$6.2B2A5B4.A2.3A3B.B5.A.A.2A3.4B3.B.B9.A4.BABA7BABA$7.A2BA3B6.
2A3.B2.3B2.A.A.2A.A4.4B.6B6.2A6.A7B2.2A$7.BABA4B8.2A2.B2AB2.2A.A9.
10B6.5B2.7B5.B$8.BA6B4.2A.A4.2A6.A.2A7.12B5.14B$2.2A5.2B2.4B3.A2.A
12.A2.A8.12B3.9B4.2A$.A2.A4.2B3.4B3.2A3.4A5.2A2.A.AB6.22B5.A$.A.A
2.AB.B5.4B6.A3.A10.2AB.3B2.22B6.3A$2A.4A2B2A5.4B6.A15.30B7.A$A5.A.
B2A6.4B4.2A15.31B$.5A2B.B3.A4.4B2.2B17.30B$4.B.AB4.A.A4.8B15.26B2A
2B$3.A2.AB4.A.A5.7B13.21B.6B2A2B$3.3A3.2A.A.2A5.7B2.B2.2B2.20B5.4B
3.B$6.4A.A.A2.A4.35B6.2B2AB$3.3A5.A2.2AB3.27B.7B9.2A$3.A2.4A.A3.
14B2A16B2.6B$6.A2.2A5.13B2A16B3.6B$17.29B6.4B$17.17B.B.2B12.B2A2B$
18.15B4.3B12.2A.B2A$18.15B5.A2B.2A11.BA.A$19.13B5.A.A2B.A14.A$21.
13B2.A.AB2.A15.2A$20.8B4.2A.A.A3.A$20.6B6.2ABA2.4A.A$20.5B8.B2.A.A
3.A.A$20.B.B9.2A.2A2.A2.A.A$21.3B9.A.A2.2A3.A$20.B2AB9.A.A$21.2A
11.A!
