#CSYNTH gun_5162 costs 6174 cells.
#C period 5162 fullperiod 5162 bbox 98 by 63
#CLL state-numbering golly
x = 98, y = 63, rule = LifeHistory
2A$.A26.A$A25.3A$2A23.A$.B23.2A$3B20.4B2.A$5B9.B3.B.5B4.3A10.2A42.
2A$6B2.B.7B2A7B6.A5.2A2.A37.A4.B2AB$2.14BA2BA7B4.2A5.A.A.A36.A.A2.
2B2A$.15BABA8B4.5B3.B.A37.BA2B2.B3A$.16B3A8B5.3B2.2B40.2B4.3B$.10B
ABA4BA2BA9B.9B39.3A2.A4BA$2.8BA2BA4BA3BA20B8.2A27.5BA4BAB$3.27BA7B
AB3A8.A26.A4BABA4BA$6.3BA3BA5BA3BA2B2A2B2A5B2A2BABA4.BA.A23.B.BA4B
A7B2.2A$6.2B2A17BA18BA.B2A22.5BA4BA2B3A2B3.A$4.3B3A17BABAB2A3B2A2B
2A4BA2B23.12B.8B.A.2A$4.B2A4B2A7BA6B2A4BABA4B2A.2AB.AB23.8B3AB2.5B
2A.A2.A$4.A5B4A5B3AB2A4B3A5B5AB3.2A22.B.3A9B2.5B.A.2A$4.4BA15B2A5B
A3B.B3A22.A6.4A2BAB3.3B4.B.2B.A.A$4.5BA2BA7BABA3BA6B.5B7.2A14.3A4.
5ABAB3.5B4.2B2A2.A$2.A2B.2A3B2A7B3ABABA6B.4B6.A2.A17.A4.4BA4B4.2A
4.BAB.2A$.A.2A.BA17BA6B2.4B6.2A.A.2A.A11.2A4.5B2.2A4.A5.B2A.A$.A7.
23B2.5B6.B.A.A.2A11.6B2.B4.A6.3A4.A.A$2A6.23B2.8B2.B2ABA18.5B7.3A
5.A2.A.A.2A$9.5B2AB2A11B2.10B.B2A2.A17.6B8.A8.2A$9.5BA3BA4B3.3B2.
4B3A6B3.2A16.8B$4.2A3.6B3A4B2.3B3.4BA3BA5B15.A.2A2.9B$4.A2.2AB.10B
2.11B2AB2A5B15.2A.A12B$5.AB2AB2.8B2.23B6.2A11.12B$2A.A.A.B6.5B2.
23B7.A12.13B$A.2A.A.2A6.4B2.6BA17BAB.2A.A12.9B.4B$5.A2.A6.4B.6BABA
B3A7B2A3B2A.2BA13.9B2.4B$5.2A7.5B.6BA3BABA7BA2BA5B14.11B2.4B$13.3A
B.3BA5B2A15BA4B14.11B3.4B$5.2A3.B5A5B3A4B2AB3A5B4A5BA14.12B3.4B$4.
BA.B2A.2A4BABA4B2A6BA7B2A4B2AB8.B4.5BA8B3.4B$4.2BA4B2A2B2A3B2ABABA
17B3A3B7.3B3.4B2A4B.4B3.4B$2.2AB.A18BA17B2A2B7.6B2.3BA2BA8B4.4B$.A
.AB4.ABA2B2A5B2A2B2A2BA3BA5BA3BA3B.4B2.7B.3B2A8B.B2A3.4B$.A8.3ABA
7BA52B.BA.A3.4B$2A8.20BA3BA4BA2BA32B4.A4.4B$12.9B.9BA2BA4BABA28BA
4B4.2A4.4B$13.2B2.3B5.8B3A17B2A14B3A4B10.4B$11.A.B3.5B4.8BABA16B2A
14BAB2A3B11.4B$10.A.A.A5.2A4.7BA2BA32B2A6B11.4B$10.A2.2A5.A6.7B2A
7B.B3.10B6A5B2A5B13.4B$9.2A10.3A4.5B.B3.B10.4B2.2BA2B4A8B2AB15.4B$
23.A2.4B20.8B4A3B3A3B2AB.A.A13.4B$26.2A23.14BA5BAB4ABA13.4B$27.A
24.14BAB6AB2ABA14.4B$24.3A22.B3.2B.5B2.BA5B3A2B.BA16.3BA$24.A23.2A
B.3B.4B3.8B2A3B19.ABA$48.2A3BA11.11B.B18.2A$49.B.BA.A10.2B3A7B2A
18.B$52.BA.A9.2B3A5B.B2A$55.A7.2AB.6B4.B$55.2A5.A.AB.4B$62.A5.5B$
61.2A8.2A$71.A$72.3A$74.A!
