#CSYNTH gun_3300 costs 3172 cells.
#C period 3300 fullperiod 3300 bbox 61 by 52
#CLL state-numbering golly
x = 61, y = 52, rule = LifeHistory
31.2B$15.A13.6B$15.3A11.7B$6.2A10.A9.9B$5.A.A9.2A10.9B$5.A.A.2A6.
5B7.10B$6.A.A.A8.3B6.12B$8.A7.7B4.9B.4B$6.2B2AB5.7B2.4B2A3B4.4B$6.
2B3A4.A12BA2BA2B5.4B$5.3B3A2B.ABA12B2A2B7.4B$5.3B3A3BABA15B9.4B$6.
2B3A3.BA18B8.4B$6.2B2AB4.10B.B5.2A9.4B$8.A7.10B6.A11.4B$6.A.A.A8.
8B6.3A9.4B$5.A.A.2A6.6B.4B7.A10.4B$5.A.A9.2A6.4B18.4B$6.2A10.A7.4B
11.2A5.4B$15.3A9.4B10.A7.4B$15.A5.2A5.4B.2B7.A7.4B$22.A5.7B6.2A8.
4B$22.A.AB.10B.BAB2.2A7.4B$23.2AB.12B4A2.A7.4B$25.15B2.A.2A8.4B$
20.A4.2B2A3B2A5B2A.A.A10.4B$18.3A4.BABA3B2A3B.B2A.A.A11.4B$17.A7.
3BA7B3.B.BA.2A10.4BA$17.2A5.8B.B8.A6.B7.BABA$14.5B4.9B8.A.A5.3A5.
3B2A$11.6B5.5B.3B9.2A6.3A4.BA2B.B$4.2A4.9B2.4B3.3B3.2A11.2BA2B3.AB
A$2A2.A4.2BA12B5.2B2.A2.A10.2BA2B2.A3BA$A.A.A3.B2A2B3A7B8.BA.A.A9.
3BA3B.ABABA$2.A.2A2.2BA3B2A6B9.3A.A10.2BABA2B.4B$2.2A.BAB3.3A7B5.
2A3.3AB10.9B.3B$2A2.B2AB3.BA6B6.A2.A3.3B10.9B.3B$.A.3BA2B3.8B5.A.A
.A16.2BABA2B.4B$.A.A3.AB4.8B3.2A.A.A16.3BA3B.ABABA$2A.5A5.8B.2BA2.
A.2A16.2BA2B2.A3BA$2.A11.11BAB2A.BA15.2BA2B3.ABA$2.A.2A9.4B.4BA3BA
2B2.A4.BA.2B5.3A4.BAB$3.A.A8.3B4.3BA2B.A3B4A2.B4AB4.3A5.B$9.B3.2B
7.AB2A2B2.4B2A.BA.BAB6.B$8.2A7B5.BA2.2B2.B.A2.B2.A.A$8.2AB2A2BABA
5.3A.A2B9A.2A$9.3BA.2AB.A6.A.2AB9.A$7.3B.B2ABAB2A6.A4.4A2.2A.A$7.
2A4.B2A10.3A.A2.A2.A.A$8.A6.A.2A9.2A$5.3A5.A.A.2A$5.A7.2A!
