#CSYNTH gun_5428 costs 3082 cells.
#C period 5428 fullperiod 5428 bbox 67 by 46
#CLL state-numbering golly
x = 67, y = 46, rule = LifeHistory
35.AB$.2A31.B.2A$.2AB30.2A.B$3.B2.B.3BA5B.B3.4B9.BA$.10B2A8B.4B12.
B$2A7BAB3A11B2A9.4B$2A11B2A10B2A7.4BAB$.B.9B2A10B.B7.4BABAB$3.9BA
11B9.4BABAB$18.3B.B.3B6.5BA3B$3.9BA14B5.11B$.B.9B2A15B2.11B$2A11B
2A16B.9B$2A7BAB3A20BA7B7.A8.2A$.10B2A22BA5B2A5.A.A4.A3.A$3.B2.B.3B
A5B.3B.B.8BA2BABA3B2AB3.2BAB2.A2BA2.A.AB$.2AB22.6B3AB3A5B4.2B3.A2B
A3.A.AB.B$.2A22.4B.8B2A5B4.4B.A6.A3B2A$14.2A8.4B.16B3.5B7.3B.B2A$
13.B2AB6.4B2.16B2.7B4.4B3.B$13.4B5.4B4.B2A17B2AB5.5B$14.2B5.4B5.B
2A8B2A5B2ABA11B$6.A7.4B2.4B7.10BAB2A3B2A13B$5.A.A5.5B.4B7.13B2A3B
2ABA10B$6.A.14B8.11BAB2A5B2A8B2AB$7.14B9.5B5.B2A17B2AB$7.14B6.B3.
4B4.7B2.16B$7.15B4.2AB.3B7.5B3.16B$6.3B2A12B3.2A3BA6.A.4B4.5B2A8B$
6.3B2A13B3.B.BA.A3.A2BA3.2B4.5B3AB3A2B$4.2AB.11B2.4B5.BA.A2.A2BA2.
BA2B3.B2A3BABA2BA3B$3.A.AB2.8B5.4B7.A3.A4.A.A5.2A5BA5B$3.A5.10B4.
4B6.2A8.A7.7BA3B$2.2A5.B.B5.2A5.4B24.9B$10.3B4.A7.4B22.11B$9.B2AB
5.3A5.4B20.11B$10.2A8.A6.4B20.3BA5B$28.4B20.BABA4B$29.4B19.BABA4B$
30.4B19.BA4B$31.4B18.4B$32.4B18.B$33.4B19.AB$34.3BA17.B.2A$35.3BA
16.2A.B$36.3AB16.BA!
