#CSYNTH gun_3253 costs 13250 cells.
#C period 3253 fullperiod 3253 bbox 125 by 106
#CLL state-numbering golly
x = 125, y = 106, rule = LifeHistory
35.2A2.A$34.A.4A$34.A$32.2A.7A$30.A2.A.A3.B2.A$30.2A2.BA.2A2.2A$
34.2AB2AB$34.5B$35.3B$34.5B$34.BA4B$32.2BABA3B6.2A$32.2BABA4B5.A$
33.2BA4B3.BA.A$32.10B.B2A$31.13B$30.14B$29.15B$28.4B2.8B$12.2A13.
4B5.6B$12.A13.4B4.9B$7.2A5.A10.4B5.2A4.4B$7.A5.2A9.4B7.A5.4B$4.2A.
A.3B11.4B5.3A7.4B$4.A2.A.2A2B2A7.4B6.A10.4B$6.2A.A.2B2AB5.4B19.4B$
9.A.4B5.4B21.4B$9.2A.4B3.4B23.4B$12.3BA6B25.4B25.A11.2A$3.2A7.2BAB
A4B27.4B23.A.A9.B2AB$3.A8.3BA4B12.2A15.4B10.A3.A3.2A2.A.A9.3B$2A.A
.B3.10B13.A.A15.4B7.3A2.A.A2.A2.2A.2A9.B.B$A2.3AB.2B2A7B15.A4.2A
10.4B5.A5.A.A3.A.A2.B8.5B$.2A2.BA3B2A7B11.4A.2A2.A2.A9.2B2A3B.2A5.
A.4A2.AB2A6.6B$3.4A12B11.A2.A.A.A.A.2A10.2A7B7.A3.A.A.2A4.8B$3.A.
2B3.7B.B2A11.BABABA.A14.BA4B8.A2.BA.A2.13B$4.3AB2.7B.BA.A11.B2ABA.
A15.5B7.A.2BA.A5.13B$7.A4.4B5.A12.2B.BA15.7B6.2A.2BA5.15B$2.5A5.4B
5.2A10.3B19.6B10.3B4.15B$.A2.A8.4B7.2A6.4B19.7B10.2B.B.17B$.2A11.
4B7.A6.B2A3B17.6B4.29B$15.4B6.A.AB3.B2A3B17.7B2.16B2A13B$16.4B6.2A
B.10B15.7B2.16B2A14B$17.4B7.13B13.9B.27B3.B2A$18.4B6.14B12.36B4.A
2.A$19.4B5.15B6.B4.BA5B2A11B2.2B2.B2.7B5.2A.A$20.4B6.8B2.4B4.2AB.
2B2A4B3A8B13.7B7.A$21.4B5.6B5.4B3.2A3B2A3BA10B15.8B6.2A$22.4B3.9B
4.4B3.B.B3A3BA9B17.2B2.4B$23.4B.4B4.2A5.4B5.B2A2BA11B15.2A4.4B$24.
7B5.A3.A3.4B4.B2A14B15.A6.4B$25.5B7.4A4.4B3.2B2A11B.B2A15.A5.4B$
25.5B16.4B2.12B4.BA.A13.2A6.4B$24.7B6.2A8.15B9.A22.4B$23.4B.4B5.A
2.A7.15B8.2A22.4B$22.4B3.4B5.2A.A7.6B3A5B33.4B$21.4B5.4B6.A.A7.4BA
2BA4B35.4B$20.4B7.4B5.A.AB7.3BABABA2B37.4B$19.4B9.4B5.A3B7.3BA3BAB
38.4B$18.4B11.4B6.4B5.7BAB39.4B$17.4B13.4B5.6B5.6B41.4B$16.4B15.4B
4.7B.2B2.5B42.4B$3.2A10.4B17.4B2.8B.9B43.4B$4.A9.4B19.24B43.4B$2.A
10.4B21.17BA6B43.4B$2.5A5.4B5.2A15.17BAB2.4B43.4B10.2A$7.A4.4B5.A
11.2A2.19B4.4B43.4B9.A$4.3AB2.7B.BA.A11.A2.A17B7.4B43.4B10.A$3.A.
2B3.7B.B2A14.2A.15B9.4B36.2A5.4B5.5A$3.4A12B21.12B11.4B36.A5.4B4.A
$.2A2.BA3B2A7B22.10B13.4B35.A.AB.7B2.B3A$A2.3AB.2B2A7B22.2B2A6B14.
4B35.2AB.7B3.2B.A$2A.A.B3.10B21.3B2A6B15.4B36.12B4A$3.A8.8B21.10B
3.2A.2A8.4B35.7B2A3BAB2.2A$3.2A7.9B20.8B.B2A2.A.A10.4B34.7B2A2B.B
3A2.A$13.3B2.4B18.7B3.B2ABA2.A11.4B33.10B3.B.A.2A$11.5B3.4B17.6B6.
B.A.A13.4B31.8B8.A$11.2A7.4B17.6B4.2A2.A15.4B29.9B7.2A$12.A8.4B16.
8B.A2.2A17.4B27.4B2.3B$9.3A10.4B14.9BA.A.A19.4B25.4B3.5B$9.A13.4B
4.A8.7B.2BAB.A20.4B23.4B7.2A$24.4B3.3A6.6B3.2B2.A.2A18.4B21.4B8.A$
25.4B5.A4.7B4.B.2A2.A19.4B19.4B10.3A$26.2B2A3.2A4.7B3.A.A2.A22.4B
10.A6.4B13.A$27.BABA2.4B.8B3.2A2.A24.4B7.3A5.4B$28.A3B3.11B8.3A22.
4B5.A7.4B$29.4B.12B10.A23.4B4.2A5.4B$30.16B35.9B4.4B$31.14B10.A26.
6B5.4B$32.10B11.3A26.8B2.4B$31.12B9.A27.15B$30.16B6.2A26.14B$23.A
6.24B26.13B$23.3A3.23B26.2AB.10B$26.A2.24B24.A.AB3.B2A3B$25.A.B.
24B24.A6.B2A3B$25.2A27B22.2A6.4B$23.2A2.A22B.4B30.3B$22.A2.3A3B3.
2B3.B7.2B3.4B30.2B.BA$23.A4.2B3.4B.3B5.BA2B3.4B28.B2ABA.A$24.4A5.B
2AB.B2AB4.A.A5.4B26.BABABA.A$26.A7.2A3.2A6.A7.4B23.A2.A.A.A.A.2A$
28.A27.4B22.4A.2A2.A2.A$27.2A28.3BA25.A4.2A$58.3BA22.A.A$59.3AB21.
2A!
