#CSYNTH gun_8742 costs 6230 cells.
#C period 8742 fullperiod 8742 bbox 89 by 70
#CLL state-numbering golly
x = 89, y = 70, rule = LifeHistory
65.A$65.3A$68.A$67.2A$67.4B$55.2A12.5B$56.A10.2B3A2B$55.A10.3B3A4B
$55.2A4.7BA4BA2B$56.B.10BA2BABA2B$25.2A7.A18.A14BA2B3AB$24.B2AB4.
3A17.ABA11B3A2B2AB$24.3B4.A8.A10.BA2BA.5B2A7B2AB$13.2A10.B.B3.2A5.
3A10.2B2A6BA2BA2BABA2BA2B$12.A2.A2.2A3.10B4.A11.2AB.9BABA2B6A2B$
13.2A2.A.A3.8B6.2A9.A.AB3.8BA3BA3BA4B$15.2A.B3.11B2.4B9.A7.12B3A6B
$15.A2.2B.2A14B7.A2.2A8.7B.4BA7B$12.2A.A.B6A13B5.3A14.3B.10B.3B$
12.A2.A.ABABAB2A11B5.A17.7BA4B.7B8.2A$14.2A.AB2AB2A12B4.B2A16.6B3A
12B7.A$18.AB.BA11BAB.6B17.4BA3BA3BA8B3.BA.A$21.13B2A5B20.2B6A2BABA
9B.B2A$19.6B.8BABA4B.2B17.2BA2BABA2BA2BA6B2A2B$19.2AB4.8B3A6B2A.2A
14.B2A7B2A5B.A2BAB$20.A5.6B2AB2A6B2A.A2.A12.B2A2B3A11BABA$11.A5.3A
5.6BA2BA10B.A.2A2.A8.B3A2BA14BA$11.3A3.A6.7BABA7B.2B2.A5.3A5.2BABA
2BA10B.B$14.A8.4B2.3BA7B3.B.2A8.A4.2BA4BA7B4.2A$13.2A7.4B5.8B3.A.A
2.2A5.2A4.4B3A3B10.A$13.5B3.4B4.10B3.2A2.A2.A4.6B2.2B3A2B10.A$4.2A
9.3B2.4B5.2A3.B.B10.2A7.5B.5B12.2A$3.A.A8.9B7.A4.3B18.6B3.4B$3.A8.
B.8B5.3A4.B2AB17.8B4.2A$2A.AB.B3.11B6.A7.2A12.A.2A2.9B3.A$.A.A.2AB
.12B28.2A.A12B3.3A$.A.A.2A3B2A9B33.12B4.A$2A.A2.4B2A9B33.13B$A2.4A
12B.B2A2.2A27.9B.4B$.2A2.BAB.10B.BA.A2.A27.9B2.4B$3.2A6.7B5.2A28.
11B2.4B$3.A7.2B.4B5.A29.11B3.4B$5.A9.4B6.A27.12B3.4B$4.2A10.4B4.2A
21.B4.14B3.4B$17.4B2.2B21.3B3.10B.4B3.4B$10.2A6.8B18.6B2.15B4.4B$
11.A7.7B12.4B2.7B.13B.B2A3.4B$11.A.2A5.7B2.B2.2B2.29B.BA.A3.4B$12.
A2.A4.9BA35B4.A4.4B$13.2AB3.8B2AB2A33B4.2A4.4B$14.17BA11B2A21B10.
4B$15.12BA3BA11B2A21B11.4B$16.10B5A36B11.4B$16.9B2A6B.B5.26B13.4B$
17.8B2A5B10.B2.20B15.4B$17.15B12.20B.B.B13.4B$18.13B12.24B2A13.4B$
20.13B10.24B2A14.4B$19.8B4.2A.A6.2AB2.5B2.12B.2B16.4B$19.6B6.2AB3A
3.A.AB2.4B3.13B19.3BA$19.5B8.B4.A2.A14.11B.B18.ABA$19.B.B9.2A.3A2.
2A14.12B2A18.2A$20.3B9.A.A20.10B.B2A19.B$19.B2AB9.A.A18.2AB.6B4.B$
20.2A11.A18.A.AB.4B$52.A5.5B$51.2A8.2A$61.A$62.3A$64.A!
