#CSYNTH gun_1218 costs 3655 cells.
#C period 1218 fullperiod 1218 bbox 85 by 43
#CLL state-numbering golly
x = 85, y = 43, rule = LifeHistory
33.2A15.2A$32.B2A2B11.2B2AB$33.4B11.4B$34.3B11.2BA$29.B3.3AB11.BAB
A3.B$12.4B12.2AB.A.2A13.AB.A.B2A12.4B$12.3BAB11.2A2B2A17.2BAB2A11.
B4A$11.4ABA12.3B2A17.2A3B12.A4BA$11.3A.A.AB10.4B19.4B10.BA.A.2BA$
12.B3.ABAB6.2B7.2A11.2A7.2B6.BABA3.A$17.A2B5.5B5.A13.A5.5B5.BAB$
16.2A2B5.6B.BA.A13.A.AB.6B5.BA2B$15.B2A2B2.9B.B2A15.2AB.9B2.BA2BA$
16.2A2.13B19.13B2.2A$20.10B2AB19.B2A10B$13.A6.10B2AB19.B2A10B6.A$
11.3A6.13B19.13B6.3A$10.A8.13B21.13B8.A$10.2A6.14B18.A2.14B6.2A$7.
5B5.7B.7B16.3A2.7B.7B5.5B$6.4B6.7B2.7B15.A5.7B2.7B6.4B$6.2BA2B4.7B
4.5B4.2A10.2A5.5B4.7B4.5B$5.2BABA2B2.7B5.5B5.A7.5B5.5B5.7B2.7B$5.B
2A2BAB.7B4.B.5B5.A.AB3.2A2B7.5B.A4.7B.7B$5.BA3B2A7B3.B3A2.4B5.2AB
2.B2A3B5.4B2.A2BA3.8B3A3B$5.4B3A6B4.3AB3.4B5.10B4.4B3.A2BA4.6BA3BA
2B$4.B2A2B3A2BA2B6.B6.4B5.10B2.4B6.A6.4BA5BA2B$4.B2A2B3ABABAB14.4B
4.9B2.4B14.3BA3BA3BAB$4.BABAB2ABA3BA15.4B4.13B15.3BA2BABA2BAB$4.2B
4A3BABAB2.2A12.4B3.12B12.2A2.3BA3BA3BAB$2.2AB.2BA5BA2.A2BAB12.4B3.
10B12.B2A2B2.2BA5BA.B2A$.A.AB.6B5.4B14.4B.B2.7B14.4B5.A3BAB.BA.A$.
A5.5B5.3B16.13B16.3B5.B3AB5.A$2A7.2B6.2ABA3.B12.11B12.B3.3AB6.2B7.
2A$4.4B10.BA.A.B2A12.10B11.2AB.A.2A10.B2AB$3.B4A12.A4BA12.9B12.2A
2B2A12.4AB$3.A4BA11.BA3B12.9B14.3B2A11.ABA2BA$.BA.A.2BA12.A2BA13.
9B13.4B12.2AB.A.AB$BABA3.A31.7B31.B3.ABAB$BAB36.8B35.B2A$BA2B35.8B
A33.B3A$BA2BA34.9BA31.BABAB$2.2A36.3B3.3AB31.2A!
