#CSYNTH gun_1861 costs 12954 cells.
#C period 1861 fullperiod 1861 bbox 127 by 102
#CLL state-numbering golly
x = 127, y = 102, rule = LifeHistory
57.2A11.A$56.B2AB9.A.A$57.3B9.A.A2.2A3.A$56.B.B9.2A.2A2.A2.A.A21.
2A$56.5B8.B2.A.A3.A.A20.B2A2B$56.6B6.2ABA2.4A.A22.4B$56.8B4.2A.A.A
3.A13.A11.4B3.3B$57.13B2.A.AB2.A12.3A8.4B4.5B$55.13B5.A.A2B.A3.A
10.A6.14B$54.15B5.A2B.2A3.3A7.2AB5.14B$54.15B4.3B10.A6.5B3.16B$53.
17B.B.2B10.2A8.5B.16B$53.29B3.4B2A4.22B$52.13B2A16B4.2B2A4.23B$51.
14B2A16B2.7B2.24B4.3B$50.2AB3.27B.7B3.24B.7B$49.A2.A4.35B2.23B.B2A
5B$48.A.2A5.7B2.B2.2B2.19B.25BA2BA5B$48.A7.7B13.43B2A6B$47.2A6.8B
15.48B$54.4B2.2B17.36B.6B.2B$53.4B4.2A15.35B2.8B.B$52.4B6.A15.7B.
26B4.6B.B2A$51.4B5.A15.2AB.3B4.25B8.B3.A.A$50.4B6.2A13.A.AB9.25B
12.2A$49.4B22.A10.5B2.19B4.B$48.4B22.2A10.2A6.20B.B2A$47.4B32.A3.A
6.22B2A$46.4B33.4A6.24B$45.4B43.25B$44.4B35.2A6.24B$43.4B35.B2AB4.
22B.B$42.4B37.3B3.10B.12B$41.4B37.B.B3.8B5.11B$40.4B37.14B9.7B$39.
4B36.15B9.8B5.2A$38.4B36.15B9.8B6.A$37.4B35.16B11.8B2.BA.A$36.4B
35.16B11.10B.B2A$35.4B35.16B12.12B$34.4B34.17B2.B10.12B$33.4B34.
23B6.2AB2.9B$32.4B34.6B2A17B4.A.AB2.8B$31.4B33.8B2A16B5.A4.8B2.2B$
30.4B25.2A7.27B3.2A4.8B.4B$29.4B27.A6.28B8.14B$28.4B28.A.AB.28B10.
11B2AB$27.4B30.2AB.28B10.11B2A2B$26.4B33.24B2.B.B12.14B$25.4B34.
23B2.3B15.11B$24.4B35.23B2.B2AB13.13B$23.4B37.21B4.2A13.14B$22.4B
39.16B.B.B2A17.14B$21.4B41.16B2.BA.A9.A7.13B$20.4B42.11B2.2B6.A9.
3A3.14B$19.4B43.10B11.2A11.A2.9B$18.4B45.9B23.A2.10B$17.4B47.7B19.
2A3.2A11B$16.4B47.4B.B21.A2.2A2.11B$3.2A10.4B47.4B25.2A2.2A10B$4.A
9.4B47.4B28.A.A.B.8B$2.A10.4B47.4B29.A2.A3.6B$2.5A5.4B5.2A40.4B31.
2A5.4B$7.A4.4B5.A40.4B28.2A8.4B$4.3AB2.7B.BA.A39.4B28.B2AB6.4B$3.A
.2B3.7B.B2A39.4B29.4B5.4B$3.4A12B40.4B31.2B5.4B$.2A2.BA3B2A7B39.4B
24.A7.4B2.4B$A2.3AB.2B2A7B38.4B24.A.A5.5B.4B$2A.A.B3.10B37.4B26.A.
14B$3.A8.8B35.4B28.14B$3.2A7.9B33.4B29.14B$13.3B2.4B31.4B30.15B$
11.5B3.4B29.4B30.3B2A12B$11.2A7.4B27.BA2B31.3B2A13B$12.A8.4B25.2A
2B30.2AB.11B2.4B$9.3A10.4B23.2B2A30.A.AB2.8B5.4B$9.A13.4B21.4B31.A
5.10B4.4B$24.4B19.4B31.2A5.B.B5.2A5.4B$25.4B6.A10.4B40.3B4.A7.4B$
26.4B5.3A7.4B40.B2AB5.3A5.4B$27.4B7.A5.4B42.2A8.A6.4B$28.4B5.2A4.
4B61.4B$29.4B4.9B63.4B$30.4B5.6B65.4B$31.4B2.8B66.4B$32.15B65.4B$
33.14B66.4B$34.13B67.4B$35.10B.B2A66.4B$37.3B2AB3.BA.A66.4B$37.3B
2AB6.A67.4B$39.4B6.2A67.4B$39.3B77.4B$36.AB.2B79.4B$35.A.AB2AB79.
4B$35.A.ABABAB79.4B$32.2A.A.A.A.A2.A78.3BA$32.A2.A2.2A.4A79.ABA$
34.2A4.A84.2A$40.A.A83.B$41.2A!
