#CSYNTH gun_1027 costs 8075 cells.
#C period 1027 fullperiod 1027 bbox 85 by 95
#CLL state-numbering golly
x = 85, y = 95, rule = LifeHistory
36.2A$36.A.A$38.A4.2A$34.4A.2A2.A2.A$34.A2.A.A.A.A.2A$36.BABABA.A$
37.B2ABA.A$38.2B.BA$37.3B$28.2A6.4B$29.A6.B2A3B$29.A.AB3.B2A3B$30.
2AB.10B$32.13B$32.14B$32.15B$34.8B2.4B$34.6B5.4B$33.9B4.3BA$32.4B
4.2A5.ABAB$31.4B5.A7.2A2B$30.4B7.3A5.4B$29.2A2B10.A6.4B13.A$28.2B
2A19.4B10.3A$27.2BAB21.4B8.A$26.4B23.4B7.2A$25.4B25.4B3.5B$24.4B
27.4B2.3B$23.4B29.9B7.2A$22.4B31.8B8.A$21.4B33.8BAB3.B.A.2A$21.4B
33.7BA3B.2B2A2.A$20.5B33.7B2A3B2A2.2A$17.9B32.12B2ABA$17.9B30.2AB.
7B3.2B.A$17.9B29.A.AB.7B2.B3A$17.10B28.A5.4B4.A$16.12B26.2A5.ABAB
5.5A$15.13B8.2A22.B2AB10.A$16.11B9.A22.3BA9.A$17.12B4.BA.A13.2A6.
4B10.2A$17.15B.B2A15.A5.4B$17.17B15.A6.4B$17.13BA3B15.2A4.4B$14.B.
12B2ABAB17.2B2.4B$13.2A12BA3BA2B15.8B6.2A$13.2AB.10BA2B2A4B13.7B7.
A$14.B4.8B2AB2A7B2.2B2.B2.7B5.2A.A15.A$19.10B2A3BA20B4.A2.A14.5A$
19.9B.6B2A19B3.3A14.A5.A$20.7B2.5B2A16BA4BABAB4.2A9.B3A2.A$20.7B2.
22B4A3B2A6.A10.2B.A.2A$20.6B4.19BA2BABA2BAB7.A.2A7.2B2A3.A$9.A10.
7B10.2B.B.6BAB2A2BA4B2.A5.A2B.4B.2BA2.A.A$9.3A8.6B10.3B4.4B3AB2A2B
A2B3.3A5.2BA5B2AB2A.2A$12.A6.7B6.2A.2BA5.3BA6B3A2B6.A4.3BA4BAB$11.
2A7.5B7.A.2BA.A5.6BA2B2A2B6.2A4.ABA5B2AB2A.2A$11.5B3.6B8.A2.BA.A2.
10B2AB8.6B2.4B.2BA2.A.A$13.3B2.9B7.A3.A.A.2A4.A3B3AB9.5B7.2B2A3.A$
3.2A7.12B.2A5.A.4A2.AB2A6.A2BA2B8.7B6.2B.A.2A$3.A8.8B5.A5.A.A3.A.A
2.B8.5B8.8B4.B3A2.A$2A.A.B3.4B3A3B7.3A2.A.A2.A2.2A.2A9.B.B8.9B3.A
5.A$A2.3AB.5B3A3B9.A3.A3.2A2.A.A9.3B8.11B3.5A$.2A2.BA5BA3BA2B21.A.
A9.B2AB8.2BA3B.4B4.A$3.4A6B2ABA2B22.A11.2A9.B3AB3.4B$3.A.2B3.3B3AB
.B2A27.A12.3B2ABAB4.4B$4.3AB2.7B.BA.A26.3A8.4B2A4B5.4B$7.A4.4B5.A
29.A6.4B3A5B5.4B$2.5A5.4B5.2A15.2A10.2A6.2BABA8B5.4B$2.A10.4B22.A
10.5B3.2BA9B7.4B$4.A9.4B21.A.AB9.4B2.BABA9B7.4B$3.2A10.4B10.A10.2A
B.3B4.9BA7B2AB8.4B$16.4B7.3A12.7B.10BA7B4AB7.4B$17.4B5.A15.26B5A2B
6.3BA$18.4B4.2A15.24B2A3B2A2B6.ABA$11.2A6.9B14.24B3A3B3AB7.2A$12.A
7.4BAB14.27B2A3B2AB9.B$12.A.2A5.2B3AB3.B2.2B2.2B3AB3A10B.B3.B.2B3.
5B$13.A2.A4.B2A2BA11B4ABA2BA7B6.3B7.B$14.2AB3.BA3B2A10BABA7B.6B6.B
2AB5.3B$15.5B2A24BA2.B.5B5.2A6.ABAB$16.3B3A17B3A5B7.2A14.2A$17.3B
2A18B2A2B2A8.A$17.4BA3B2A7B.B.2B16.3A$18.4B2A2BA6B4.3B17.A$18.5B3A
7B5.A2B.2A$19.5BA7B5.A.A2B.A$21.13B2.A.AB2.A$20.8B4.2A.A.A3.A$20.
6B6.2ABA2.4A.A$20.5B8.B2.A.A3.A.A$20.B.B9.2A.2A2.A2.A.A$21.3B9.A.A
2.2A3.A$20.B2AB9.A.A$21.2A11.A!
