#CSYNTH gun_1079 costs 5724 cells.
#C period 1079 fullperiod 1079 bbox 108 by 53
#CLL state-numbering golly
x = 108, y = 53, rule = LifeHistory
19.2A$6.2A11.A$7.A8.BA.A$7.A.AB.3B.B2A31.2A$8.2AB.5B20.2A11.A$10.
7B8.2A11.A8.BA.A51.A$11.7B8.A4.2A5.A.AB.3B.B2A50.5A$6.B3.8B5.3A6.A
6.2AB.5B51.A5.A$2.B2.10B2A2B4.A8.A.AB5.7B8.2A30.2A9.B3A2.A$.3B.6B
2A5B2.3B10.2AB6.7B8.A31.A10.2B.A.2A$2A9BA8BA3B11.3B3.8B5.3A32.A.2A
7.2B2A3.A$2A8BA10BA2B3.2B6.BA9B2A2B4.A29.A5.A2B.4B.2BA2.A.A$.B.8B
3AB4AB2A8B5.7B2A5B2.3B30.3A5.2BA5B2AB2A.2A$5.6B2A3BA.A3B2A6B2.10BA
8BA3B32.A4.3BA4BAB$5.8B2AB4AB3A17BA10BA2B3.2B26.2A4.ABA5B2AB2A.2A$
6.2B3.2BA10BA17B3AB4AB2A8B25.6B2.4B.2BA2.A.A$11.3BA8BA10B2.6B2A3BA
.A3B2A6B27.5B7.2B2A3.A$12.3B2.5B2A7B5.8B2AB4AB3A8B.B22.7B6.2B.A.2A
$11.A4.2B2A8BABA6.2B3.2BA10BA8B2A21.8B4.B3A2.A$9.3A5.8B3.B2AB10.3B
A8BA9B2A21.9B3.A5.A$8.A8.7B5.A3B10.3B2.5B2A6B.3B21.11B3.5A$8.2A8.
7B5.4B8.A4.2B2A10B2.B23.6B.4B4.A$18.5B.B2A4.4B5.3A5.8B3.B27.2BA2B
3.4B$16.2AB.3B.BA.A4.4B3.A8.7B16.A12.4BABAB4.4B$15.A.AB8.A5.4B3.3A
6.7B15.3A8.5BA2B2A5.4B$15.A11.2A5.4B4.A6.5B.B2A16.A6.6BA2B2AB5.4B$
14.2A19.4B8.2AB.3B.BA.A2.2A10.2A6.6BAB2AB2A5.4B$36.4B6.A.AB8.A3.A
10.5B3.8B3AB7.4B$37.4B5.A11.2A2.A.AB9.4B2.B3A9B7.4B$38.4B3.2A5.A
10.2AB.3B4.9BA10B8.4B$39.4B7.3A12.7B.9B3A11B7.4B$40.4B5.A15.17B5A
5B3A3B6.3BA$41.4B4.2A15.9B2A4B2ABA2BA3BAB2A4B6.ABA$34.2A6.9B14.20B
2A4BA3BA3B7.2A$35.A7.6B14.29B3A3B9.B$35.A.2A5.6B3.B2.2B2.3B2A14B.B
3.B.2B3.B3AB$36.A2.A4.19B3A11B6.3B7.B$37.2AB3.9BA9BAB3A3B.6B6.B2AB
5.3B$38.10B2A13BAB3A2B2.B.5B5.2A6.B2AB$39.8B2A14B4A3B7.2A14.2A$40.
8B2A14B2A3B8.A$40.17B.B.2B16.3A$41.15B4.3B17.A$41.15B5.A2B.2A$42.
13B5.A.A2B.A$44.13B2.A.AB2.A$43.8B4.2A.A.A3.A$43.6B6.2ABA2.4A.A$
43.5B8.B2.A.A3.A.A$43.B.B9.2A.2A2.A2.A.A$44.3B9.A.A2.2A3.A$43.B2AB
9.A.A$44.2A11.A!
