#CSYNTH gun_34 costs 1922 cells.
#C period 34 fullperiod 34 bbox 62 by 31
#CLL state-numbering golly
x = 62, y = 31, rule = LifeHistory
28.2A6.A$29.A6.3A$29.A.AB6.A$30.3A5.2AB$4.2A26.3A3.5B$5.A2.2A22.2A
2B4.3B$5.A.A.A3.A12.2A5.BA2B2.4B4.2BA2B$6.A.B4.3A11.A5.4B2.4B3.B4A
B$8.3B5.A10.A.AB.7B2A3B.2B2A2BAB$2.2A3.5B3.A2B10.2AB.7BABA2B.BA3BA
2B$.A.BAB.6B2.2ABAB10.11B2A4B3A3B$.A.2AB2.5B4.B2A9.11B2A3B.B3A5B$
2A.B.B3.5B2.4B4.5B.12B.13B3.2A$A2.2A2B2.5B2.4B3.6B2.4B3AB.3B2A11B
2.A2.A$.2A2.AB.13B.8B2.3B3A4B2A7BA4BA2.2A$3.2ABA3B3A4BABAB.8B2.2BA
3BAB.2BABA4BA4BAB2A$.2A2.A3BA3BA4B2A10B2.BA2B2A2B.3B2A4B2A2B.BA2.
2A$A2.A2.2BA5BA3BA3B.3B3A2B2.B4AB3.4B2.2BABA2.2B2A2.A$.2A3.3BA3BA
5B.5BA3BA2B.2BA2B4.4B2.3BAB3.B.B.2A$7.3B3A3B.3BA3BA5BA2B9.3B4.2B2A
B2.B2A.A$9.10B2A4BA3BA2B10.5B2.B2A3B.BAB.A$9.8B.BABA4B3AB.B2A10.B
2A3.5B3.2A$9.8B.12B.BA.A10.A5.3B$10.6B3.4B2.4B5.A11.3A4.B.A$10.5B
4.4B2.4B5.2A12.A3.A.A.A$19.2AB4.4B22.2A2.A$19.BAB2A3.4B25.2A$21.2B
A4.4B$22.A6.3BA$23.3A4.3BA$25.A5.3AB!
