#CSYNTH gun_1275 costs 3807 cells.
#C period 1275 fullperiod 1275 bbox 81 by 47
#CLL state-numbering golly
x = 81, y = 47, rule = LifeHistory
28.A25.2A4.2A$23.2A.2BAB24.A.A2.A.A$23.A.3BA27.A2BA$24.2AB27.BA4BA
B$10.2A13.3B26.B2A2B2AB$8.A4BA12.2A.2A15.4B5.2B2A2B$6.BA6BAB9.B2AB
A.A2.2A9.6B6.2B$4.2BA8BA2B6.2B.B3AB.B2AB6.8B6.2B18.A$3.3BA8BA3B6.
2A.A2B3.3B4.7BA2B5.6B13.3A$4.2BA8BA2B7.2AB2AB2.B.B5.5B2ABA2B3.7B
12.A$6.BA6BAB10.3A2B.14B2ABA3B.10B10.2A$8.A4BA11.A6.11B3A2BA4B.10B
8.4B$10.2A12.A.A4.12BA20B.B3.B.3B3.B$10.2B13.A5.12BABA33B$11.B19.
13B2A18B2A14B$10.2AB17.34BABA14B$.2A6.A2BAB5.2A8.12B3.B.20BA14B$2.
A4.3B2A3B4.A9.9B8.10B.4BA2B3A13B$2.A.AB.8B.BA.A9.8B9.10B.3BAB2A15B
$3.2AB.8B.B2A8.2AB.7B10.7B3.2BAB2A5B5.B.2B$5.12B9.A.AB.7B10.6B5.2B
A7B4.3B$5.12B9.A4.7B13.2B6.8B6.B2AB$5.12B3.A4.2A4.6B14.2B6.6B9.2A$
7.10B3.3A7.6B13.2B2A2B5.4B$9.7B7.A5.4B.4B10.B2A2B2AB$9.8B5.2A4.A3B
4.2A10.BA4BAB$8.5B.4B4.6BABA5.A13.A2BA$8.6B.4B5.4B2A7.3A8.A.A2.A.A
$7.6B3.4B2.8B9.A8.2A4.2A$3.B2.3BA3B4.15B$.7BABA2B5.14B$.7BABA2B6.
13B$9BA3B7.10B.B2A$11B.B2A6.7B3.BA.A$.9B2.BA.A4.9B5.A$.7B7.A4.4B2A
2B6.2A$2.6B7.2A5.2B2A2B$3.4B15.5B$4.4B15.3B$5.4B13.5B$6.4B12.2AB2A
B$7.4B7.2A2.BA.2A2.2A$8.4B6.A2.A.A3.B2.A$9.4B7.2A.7A$10.3BA8.A$11.
3BA7.A.4A$12.3AB7.2A2.A!
