#CSYNTH gun_5712 costs 3243 cells.
#C period 5712 fullperiod 5712 bbox 69 by 47
#CLL state-numbering golly
x = 69, y = 47, rule = LifeHistory
24.2A2.A$23.A.4A$23.A$19.A.2A.7A18.2A$19.2A.A.A3.B2.A15.2B2AB$23.B
A.2A2.2A15.4B$23.2AB2AB18.3B$23.5B19.B3A3.B$24.3B21.2A.A.B2A$23.5B
5.2A15.2A2B2A$23.BA4B3.A2.A14.2A3B$21.2BABA3B3.A.A.AB13.4B$21.2BAB
A4B3.A.3A17.2B$22.2BA4B5.B3A16.2BA2B2.2B$7.2A12.10B3.3B16.3BA2BA4B
$7.A.A10.10BA3B16.6BA2BA5B$10.A2.2A4.10BABA2B15.6B3A2BA4B$8.2A.A2.
A3.11BABAB5.4B7.5BA3B2A5B$7.A.A.2A4.4B2.7BA7.3BAB5.5BA3B2A5B.2A$7.
BAB.B4.4B5.7B5.4ABA5.7BABA6B2.A$.2A5.5B2.4B4.9B5.3A.A.AB3.16B2.A.A
$2.A6.9B5.2A4.4B5.B3.ABAB2.9BA6B3.2A$2.A.AB2.6B2AB7.A5.4B9.A2B3.7B
ABA5B$3.2AB.7B2A5.3A7.4B7.2A2B.8BA2B2A3B$5.12B4.A5.2A3.4B5.B2A2B.
8B2ABA3B$5.12B10.A.A3.4B5.2A2.12B2A3B$5.12B7.2A.A.A4.4B9.11BABA2B$
6.5B2A2B.B2A5.A.A.A.2A3.4B8.12B3AB$6.5BABA2.BA.A6.B.A.A5.4B5.10B3A
BA2BA$6.6BAB5.A5.2A2B2.A5.4B3.11B3A4B$6.7B6.2A4.A2.3AB5.20BAB3A$4.
8B12.2AB3.A5.25B$2A.9B11.B2A3.3B2.5B.18B$A2.A9B11.AB2.B2A3.9B.2B2A
2B2.5B$.3A3B.B.4B11.B2.B2A2.8B4.5B4.2B$4.B2.3B.4B10.A2B.A3.5BA2B6.
2B7.4B$.3A2.B2AB2.4B9.ABA.2A2.4BABA2B14.4AB$A.A4.2A4.4B8.3BA.B2.4B
2A3B13.A4BA$A3.A9.4B6.BA3.A2B2.4BA3B13.A2B.A.AB$.3A.A9.4B4.A.A4.2B
A.6B.B2A.A10.A3.ABAB$3.A.A10.4B3.2A5.2A3.5B.B2AB3A13.BAB$4.A12.4B
15.3B4.B4.A11.2BAB$18.4B12.5B3.2A.3A11.A2BAB$19.4B11.2A7.A.A14.2A$
20.3BA11.A7.A.A$21.3BA7.3A9.A$22.3AB6.A!
