#CSYNTH gun_105 costs 1736 cells.
#C period 105 fullperiod 105 bbox 56 by 31
#CLL state-numbering golly
x = 56, y = 31, rule = LifeHistory
19.2B$17.6B$15.2A6B2A$13.BA2BA4BA2BAB20.2B$12.2BA2BA4BA2BA2B3.2A
12.6B$13.BA2BA4BA2BAB4.2A10.10B$15.2A6B2A16.4BA4BA4B$17.6B6.4A7.3B
2AB4AB2A3B$19.2B8.A2.A8.4BA4BA4B$20.4B6.B2.5B5.10B$18.2B2A2B2.12B
7.6B$4.2A.BABA6.2BABA8B2A7B8.2B$3.A.A2BA2BA5.2BA2BA6BA2BA6B5.3B2.
3B$3.A.2BAB2AB4.3BABA6B.BABA8B.B3A4B3AB$2.2A.2A6B3.12B.2BA9B6A2B6A
$2BA.B2AB.4B2.4B2A20B.B3A4B3AB$2B3A3.3A3B.5BA11B.8B3.2B4.2B$4B.B2A
B.A2B.28B$6B2A.2A2.23B3.4B$.B2ABA2B.A3.13BA8B5.4B$.A2BA2BA.A3.11B
2AB2A6B6.4B$2.ABAB.2A3.12B2AB2A6B2.2A3.4B$12.21B.BA2.A4.4B$10.2AB.
21B3A6.4B$9.A.AB.21B10.4B$9.A5.12B.4B2.B2A.A.2A4.4B$8.2A3.12B3.4B
4.A.2A.A5.4B$13.2A2.8B4.2B5.A11.4B$14.A4.5B11.2A12.3BA$11.3A5.3B
28.3BA$11.A8.B30.3AB!
