#CSYNTH gun_2208 costs 2009 cells.
#C period 2208 fullperiod 2208 bbox 49 by 41
#CLL state-numbering golly
x = 49, y = 41, rule = LifeHistory
2.A9.A$2.3A5.3A$5.A3.A$4.2A.B.2A$4.7B$6.3B$4.7B$3.4BA4B8.2A7.B2A$
3.3BABA3B3.2A2.A2.A6.3AB$4.3BA3B4.A.A2.A.A5.A.2AB2.B$4.7B5.B.2A.A
5.A.A.2B.3B$3.9B3.2B2.A7.A2.A3.3B5.AB$.17B.A8.2A3.5B3.BA.A$.15B2A.
2A11.8B.A.AB$2BA13B2A.A12.3B3A2B2.BA$.ABA8BA2B.B4.A10.B2ABABA2B$BA
BA7BABAB5.2A8.8BAB$.BA8B2A3B4.A8.5BA3BA$3.13B.BA.A6.7BA3B.2B$5.11B
.B2A6.3B2A4BABA4B$5.2B2A9B8.4B2A10B$5.BA2BA8B7.2BA2BA4BA7B4.2A$6.B
2A9B6.6A5B2A5B5.A$7.11B6.3ABA3BA4BA3B3.BA.A$10.8B3.10B2ABAB2A5B.B
2A$10.21BA4B2A7B$9.5B2.13B4A2B3A7B$9.6B2.12B5A11B$8.6B4.11B2A13B$
4.B2.3BA3B6.10BA2BAB2A6B$2.7BABA2B7.5B.3BA4B2A4B$2.7BABA2B7.4B.6B
4A5B$.9BA3B9.B2.9BA4B$.11B.B2A4.BA5.4B.4BAB$2.9B2.BA.A2.2A.B6.B2.
5BA$2.7B7.A2.B.2A10.3BA$3.6B7.2A2.AB9.5B$4.4B23.2A$5.3BA23.A$6.3BA
19.3A$7.3AB18.A!
