#CSYNTH gun_2340 costs 1938 cells.
#C period 2340 fullperiod 2340 bbox 51 by 38
#CLL state-numbering golly
x = 51, y = 38, rule = LifeHistory
35.5BA$27.2B4.6BABAB4.B$26.4B.8B2ABA2B.B2A$26.13B2AB2A3B2A$25.14B
2ABA5B$25.14BABA6B$24.7B4.5BA4.B$24.3BA3B$24.2B3A2B$24.B5AB$13.A
10.2A3B2A$12.A.A9.7B3.3B$12.B2AB9.5B3.5B$13.2A3BA2.2A2.A4B3.5B6.A$
13.B2A2BA2B2A2BA2BA2.2BA4B4.3A$14.BABA2B.BA2B.2BA3B4A3B2.A$15.2A.A
3BAB5.2BA2B2A2B3.2A$16.A.A.B.AB4.3BA4BA2B.3B$14.A.A.A.2A5.5B3ABA4B
6.B$12.4A.A.A6.7BA8B3.B3A$11.A5.A.A5.4B2.3B2A4B2A3.3AB$11.3A3.2A5.
4B5.2B3A5BAB.B$14.A8.4B6.2BA6B2AB$13.2A7.4B7.5BA5BAB$13.5B3.4B8.3B
A3BA2BAB2A$4.2A9.3B2.4B9.4B2A3BA4B$3.A.A8.9B7.2A2.4BA4BA3B$3.A8.B.
8B8.A4.3B2A3B2AB.2A$2A.AB.B3.BA9B6.2A.A.12B4.A$.A.A.2AB.3A9B6.A.2A
.2A5B2.4B3.A.A$.A.A.2A2B2A10B11.A4.2B.B2A2B4.2A$2A.A2.5BA9B11.A.A
6.2A.B2A$A2.4A3BA8B.B2A10.2A9.BA.A$.2A2.BAB.BA8B.BA.A23.A$3.2A6.7B
5.A23.2A$3.A7.2B.3BA5.2A$5.A9.3BA$4.2A10.3AB!
