#CSYNTH gun_1988 costs 7304 cells.
#C period 1988 fullperiod 1988 bbox 88 by 83
#CLL state-numbering golly
x = 88, y = 83, rule = LifeHistory
21.2A$3.2A15.B2AB$2.A2.A14.3B$2B.A.A15.B$B2A.A5.2A7.4B5.2A$B3A5.B
2AB5.5B5.A$.2AB6.B.B3.8B.BA.A$4.3B2.5B.9B.B2A$4.4B.17B41.2A$4.22B
35.A.2A.A.A$3.23B35.2A.A.A$4.21B40.2AB$2.2AB.18B41.2B$.A.AB3.15B
42.4B2.B$.A7.15B42.8B$2A8.14B42.8B$11.14B40.8B2A$12.12B40.2B2A3B.B
2A$4.2A7.11B40.BABA4B.B$3.A2.A2.2A2.11B40.ABA4B$4.2A2.A.A2.8B2.B2A
20.A17.BA7B$6.2A.B3.7B3.BA.A18.A.A17.8B$6.A2.2B2.8B5.A17.A.AB2.2A
14.7B$3.2A.A.BA2B.9B4.2A15.A.2A3.BA14.8B$3.A.2A.A.A12B20.2A.3AB16.
8B$7.A.A.8B.4B21.2B2.5A12.7B$4.2A2.A4.5B3.4B7.A8.4A.BAB4.A12.7B$2.
3A.2A4.6B4.4B6.3A5.A4.A.A.2A15.8B$.A4.A6.6B4.4B8.A5.3A.A.B2A.A13.
10B$2.6AB3.7B5.4B6.A.A6.A.BA4B.A13.10B$4.A.2BA.2A6B7.4B5.A.AB6.BA.
A2BA.A12.7B.4B$8.3BA6B8.4B5.A3B5.2A5B.2A11.6B3.4B$8.3BABA5B8.4B6.
4B3.6A.A13.6B4.4B$8.3BA6B5.2A3.4B5.6B2.3B.A.A13.6B5.4B$8.3B2A5B5.A
5.4B4.7B2.B3.A13.8B5.4B$7.4B3A4B2.BA.A6.4B2.8B.2B4.3A11.8B5.4B$7.
12B.B2A8.16B6.A10.9B6.4B$6.15B11.16B16.9B7.4B$5.16B11.17B15.10B7.
4B$2.2B.16B11.17BA14.5B2A3B8.4B$.2A18B11.18BA13.5B2A4B8.4B$.2AB.
17B8.2AB.12B2.3AB12.11B9.3BA$2.B.4B.8B2.4B6.A.AB2.4B3A4B3.4B11.12B
A.2A5.ABA$9.7B4.4B5.A5.5B2A3B5.4B12.8B2.2A.A6.2A$10.6B5.4B3.2A5.6B
A3B6.4B4.2A5.7B14.B$12.4B6.4B8.5BABA3B7.4B2.B2AB4.6B$14.3BA5.4B8.
6BA3B8.4B.3B5.6B$15.BA.A5.4B7.6B2A.A2B.A5.4B.B5.8B$16.A.A6.4B5.7B
3.B6A4.8B.8B$17.A8.4B4.6B6.A4.A3.9BA7B$18.3A6.4B4.6B4.2A.3A3.9BABA
6B$20.A7.4B3.5B4.A2.2A5.9BABA7B$29.4B.8B.A.A9.9BA7B$30.12BA.A.2A.A
6.8B.7B$25.2A4.9B.2BAB.A.2A7.16B4.2A$26.A5.8B2.2B2.A11.3B.10B5.A$
26.A.AB3.7B3.B.2A11.3B2.9B2.BA.A$27.2AB2.8B2.A.A2.2A10.B3.9B2.B2A$
29.11B2.2A2.A2.A12.13B4.2A$29.11B7.2A13.13B4.A.A2.2A$29.12B20.14B
6.A3.A$28.14B15.2A.A13B3.4A.3A$29.14B8.2A4.A.2A.12B3.A2.A.A$29.15B
7.A11.5B.5B6.ABAB3A$30.15B3.BA.A13.2B2.6B6.2ABA2.A$29.18B.B2A18.7B
4.4B2.2A$28.21B19.16B$27.23B17.13BA2B$27.22B14.16BABAB$27.17B.4B
13.17BA2BA$25.2AB.9B.5B2.3B13.18B2AB$24.A.AB.8B3.B.B6.B2A10.21B$
24.A5.5B5.B2AB5.3AB11.17B.B2A$23.2A5.4B7.2A5.A.2AB13.13B3.BA.A$31.
B15.A.A.2B11.4B3.10B4.A$30.3B14.A2.A13.2A6.4B3.2A4.2A$29.B2AB15.2A
15.A5.A3.2B2.A$30.2A30.3A4.3A2.B2A3.3A$62.A5.A6.A.A5.A$68.2A3.A.A.
6A$73.2A$79.2A$79.2A!
