#CSYNTH gun_3672 costs 3542 cells.
#C period 3672 fullperiod 3672 bbox 77 by 46
#CLL state-numbering golly
x = 77, y = 46, rule = LifeHistory
2.A9.A$2.3A5.3A$5.A3.A$4.2A.B.2A$4.7B32.2A$6.3B26.2A5.A.A$4.7B24.A
.A4.A$3.4BA4B8.2A15.A2.2A.4A$3.3BABA3B3.2A2.A2.A13.2A.A.A.A2.A$4.
3BA3B4.A.A2.A.A14.A.ABABAB4.A$4.7B5.B.2A.A15.A.AB2AB5.3A$3.9B3.2B
2.A18.AB.2B9.A$.17B.A21.3B7.2AB$.15B2A.2A20.4B6.5B$2BA13B2A.A19.6B
8.3B4.A$.ABA8BA2B.B4.A17.2B3AB7.5B3.3A7.A$BABA7BABAB5.2A15.3BA3BA
2B4.A5BA5.A5.A.A$.BA8B2A3B4.A15.3BA5BA5BA5BAB3.2A4.2BAB$3.13B.BA.A
14.4BA5BA5BA5BA4.6B.2B$5.11B.B2A14.5BA5BA3B.B.5B7.6B$5.2B2A9B15.4B
2.BA3BA2B6.3A7.3BA4B$5.BA2BA8B3.A10.4B5.3A4B5.2B7.B.B3A5B$6.B2A9B
3.3A7.4B4.9B14.2B5A4B$7.11B6.A5.4B5.2A4.4B10.B.2BA5BAB.B2A$10.8B5.
2A4.4B7.A5.4B7.5B2A2BA4B.BA.A$10.9B4.9B5.3A7.4B3.2B.4B3ABABA3B4.A$
9.5B2.4B5.6B5.A3.3A5.BA12B2A2BA4B4.2A$9.6B2.4B2.8B4.A.2A3.A5.3A12B
A5B.B2A$8.6B4.15B2.A.A4.A.AB.B4A12B4AB.BA.A$4.B2.3BA3B5.14B3.A2.A
3.2AB.5BA12B3A5.A$2.7BABA2B6.13B4.2A.A4.4BA2B2A12BAB5.2A$2.7BABA2B
7.10B.B2A5.A4.3BABAB3A4B.2B3.4B$.9BA3B8.7B3.BA.A4.A.AB.4BA2B2A5B7.
3B$.11B.B2A5.9B5.A5.2AB.BA5BA2B.B11.B2A$2.9B2.BA.A4.4B2A2B6.2A6.4B
5A2B14.BA.A$2.7B7.A6.2B2A2B14.5B3AB.B17.A$3.6B7.2A5.5B17.4BA3B18.
2A$4.4B16.3B19.6B$5.4B14.5B17.2B.6B$6.4B13.2AB2AB15.BA2B4.2A$7.4B
8.2A2.BA.2A2.2A12.A.A5.A$8.4B7.A2.A.A3.B2.A13.A7.3A$9.4B8.2A.7A24.
A$10.3BA9.A$11.3BA8.A.4A$12.3AB8.2A2.A!
