#CSYNTH gun_9520 costs 4850 cells.
#C period 9520 fullperiod 9520 bbox 97 by 50
#CLL state-numbering golly
x = 97, y = 50, rule = LifeHistory
59.2A4.2A$59.A.A2.A.A$30.2A4.2A23.A2BA$30.A.A2.A.A21.B2A2B2AB$32.A
2BA23.3A2B3A$30.BA4BAB17.AB3.BA2BAB$30.B6AB16.B2A5.2B$31.B4AB3.2B
12.2ABAB4.A23.A$33.2B5.3B10.A2B3A2.5B20.A.A$9.A23.B4.2B2AB9.A.ABAB
A.3B2AB20.A.3A$8.A.A20.5B2.2B2ABA6.BABA.A2.2A4BABAB10.2A3.2A.A4.A$
6.3A.A20.6B.5B.A4.3A2BA3.2A4B2A4B8.A4.A.A.ABABA$5.A4.A.2A3.2A10.2B
AB2A4B2.A.4B2.BAB2A3.3A2BA7B5.BA.A6.A.A.2A5.A$5.ABABA.A.A4.A8.4B2A
6B3.AB2A2B3.2AB3.BA2BAB2A9B.B2A6.ABA4B3.3A$A5.2A.A.A6.A.AB5.3BA4B
3A2B3.B2A2B3.BA6.2A4BABA8B6.3BA2B5.A$3A3.4BABA6.2AB.8BA5BA2B3.3B
13.6BABA8B5.5B4.2B2.A$3.A5.B2ABAB6.10BA3B3A6.2B14.2BA13B5.B3A2B2.
5B.A$2.A2.2B4.BABAB5.12B3A2B22.4BA11B2.3BA3BA7B.2A$.A.5B2.5BA5.16B
22.4BA11B.4BA5BA6B$.2A.12BA2B2.16B23.5B.B3.4B2.4BA5BA5B$4.5B2A2BA
2B2A3B.16B20.4B7.4B3.4BA5BA4B$5.3B3ABABAB3A2B2.4B3.B.5B21.2A8.4B4.
5BA3BA3B4.2A$6.3B2A2BA2B2A3B3.4B7.4B20.A7.4B5.6B3A2B6.A$2.2A4.2BA
5BA4B4.4B8.2A17.3A7.4B7.10B3.2A.A$3.A6.B5A5B5.4B7.A4.2A11.A9.4B9.
3B.7B.2BA$3.A.AB3.2B3A5B7.4B7.3A2.A12.A7.4B12.12B$4.2AB.5BAB.3B9.
4B8.2A11.3A7.4B11.2BAB2ABA2BA2B$5.12B12.4B19.A9.4B8.2A4B2A.2A4B2A$
6.13B11.4B6.2A10.2A7.4B9.2BA2BAB2ABA2B$6.8B.8B8.4B6.A7.5B6.4B9.12B
$10.13B9.4B5.A.AB3.2A2B7.4B9.A2B.7B.3B$12.12B9.4B5.2AB2.B2A3B5.4B
9.A.2A3.10B$10.3B.BA5B.B2A9.4B5.10B4.4B10.A6.2B3A6B$9.5B3A2B3.BA.A
9.4B5.10B2.4B10.2A4.3BA3BA5B$8.5B5AB6.A10.4B4.9B2.4B15.4BA5BA4B$8.
4BA5BA2B4.2A10.4B4.13B15.5BA5BA4B$8.3B2A2BA2B2A3B15.4B3.12B15.6BA
5BA4B$8.2B3ABABAB3A3B15.4B3.10B13.2A.7BA3BA3B$8.3B2A2BA2B2A5B15.4B
.B2.7B14.A.5B2.2B3AB$10.2BA12B.2A13.13B16.A2.2B4.5B$13.A5B2.5B.A
14.11B18.A5.2BA3B$13.BABAB4.2B2.A16.10B15.3A3.4BABA$14.BAB2AB5.A
17.9B16.A5.2A.A.A$16.ABA4B3.3A13.9B22.ABABA.A.A$17.A.A.2A5.A14.9B
21.A4.A.2A$15.A.A.ABABA20.7B23.3A.A$15.2A.A4.A20.8B24.A.A$18.A.3A
21.8BA24.A$18.A.A23.9BA$19.A25.3B3.3AB!
