#CSYNTH gun_4520 costs 3159 cells.
#C period 4520 fullperiod 4520 bbox 81 by 39
#CLL state-numbering golly
x = 81, y = 39, rule = LifeHistory
14.2A5.2B11.2A$4.ABA4BA6BA2B3A2.2A7.A4.3B$3.BA.4ABABA2BABABAB2AB.
2A7.A.A5B$3.2A2B.2A2.B4AB4.B3A10.2A6B$3.2B.2B2AB3.2B8.BAB11.6B$7.A
.A4.2B9.A13.6B$8.A6.B22.8B$14.2AB21.10B$5.2A6.A2BAB5.2A14.12B$6.A
4.3B2A3B4.A10.B4.13B$6.A.AB.8B.BA.A9.2AB.5BA6B2A2B$7.2AB.8B.B2A10.
2A6B3A4BABA2B8.2A4.2A$9.12B13.6BA2B2A9B6.B2AB2.B2AB$9.12B15.3B2A3B
A7B2AB5.3B3.4B9.2A$9.12B3.A10.5B2A9BA2BAB5.B5.2B10.A$11.10B3.3A7.
7B2AB2A6B2A3B2.2B2AB2.5B9.A$13.7B7.A5.4B3.3B3A12B.2B2A2B.5B8.2A$
13.8B5.2A4.4B4.4B2A13B.13B6.B$12.5B.4B4.9B5.16B.16B5.3B$12.6B.4B5.
7B5.13B.13B2A4B4.4B$11.6B3.4B2.8B8.5B.2B2A2B.12B3A3B3.5B$7.B2.3BA
3B4.15B6.5B2.B2A2B2.3B2A6B2AB2A8B$5.7BABA2B5.15B7.2B5.B5.BA2BA9B2A
6B$5.7BABA2B6.14B6.4B3.3B5.B2A7BA3B2A3B$4.9BA3B7.10B3.B2A3.B2AB2.B
2AB6.9B2A2BA6B$4.11B.B2A6.2BA4B5.3AB3.2A4.2A8.2BABA4B3A6B2A$5.9B2.
BA.A4.2BABA4B3.A.2AB19.2B2A6BA5B.B2A$5.7B7.A4.2BABA3B3.A.A.2B20.
13B4.B$6.6B7.2A5.BA4B3.A2.A23.12B$7.4B15.5B5.2A27.10B$8.4B15.3B37.
8B$8.5B13.5B37.6B$9.5B12.2AB2AB37.6B$6.3B2.4B11.BA.2A2.2A34.6B2A$.
B2.BA3B3.4B6.2A.A.A3.B2.A35.5BA.A$3AB2A2B2A3.4B5.A.2A.7A36.3B4.A$
4A4B2A4.3BA8.A50.2A$.3B2A2.B6.3BA7.A.4A$.3B12.3AB7.2A2.A!
