#CSYNTH gun_1121 costs 8255 cells.
#C period 1121 fullperiod 1121 bbox 127 by 65
#CLL state-numbering golly
x = 127, y = 65, rule = LifeHistory
73.2A$24.2A46.A.A$24.A.A.2A36.2A4.A23.2A$18.2A6.A.A35.A2.A2.2A.4A
19.A.A$17.B2AB3.B2A.A35.2A.A.A.A.A2.A21.A4.2A$18.2B4.BAB.2A37.A.AB
ABAB19.4A.2A2.A2.A$19.2B3.2B2A2.A36.A.AB2AB20.A2.A.A.A.A.2A$18.4B
2.2B.A.A38.AB.2B23.BABABA.A$18.4B.3B.A.2A40.3B23.B2ABA.A$17.9B2A.A
2.A38.4B6.2A15.2B.BA$8.2A2.2A.B.11B.A.2A36.3B2AB6.A15.3B7.A$8.A2.A
.A12B3.A39.3B2AB3.BA.A6.2A6.4B7.3A$9.A.A.B.11B2.2A37.10B.B2A8.A6.B
2A3B8.A$8.2A.2A13B40.13B10.A.AB3.B2A3B7.A.A$12.B.12B39.14B11.2AB.
10B5.A.AB$14.8B.4B37.15B13.13B5.A3B$15.8B.4B35.4B2.8B15.14B6.4B$
16.7B2.4B33.4B5.6B15.15B5.6B$13.11B2.4B31.4B4.9B16.8B2.4B4.7B$12.
12B3.4B29.4B5.2A4.4B15.6B5.4B2.8B.4B.B$3.2A7.12B4.4B27.4B7.A5.4B
13.9B4.17B.B2A$2.A2.A2.2A2.11B6.4B25.4B5.3A7.4B11.4B4.2A5.18B2A$3.
2A2.A.A2.8B.4B5.4B23.4B6.A10.4B9.4B5.A6.16B.2B$5.2A.B3.7B4.2A6.4B
21.4B19.4B7.4B7.3A3.16B$5.A2.2B2.7B4.A8.4B19.4B21.4B5.4B10.A3.15B$
2.2A.A.BA2B.6B6.3A6.4B17.4B23.4B3.4B11.A.2AB.12B$2.A.2A.A.A8B8.A7.
4B15.4B25.4B.4B10.2A.A.AB2.11B$6.A.A.8B17.4B13.4B27.7B11.A2.A5.10B
$3.2A2.A4.5B19.4B11.4B29.5B14.2A5.2B2A6B$.3A.2A4.6B20.4B9.4B30.5B
20.3B2A6B$A4.B6.6B20.4B7.4B30.7B20.10B$.3AB2AB3.7B21.4B5.4B30.4B.
4B19.8B.B2A.A$3.A.2AB.8B23.4B3.4B30.4B3.4B17.7B3.B2AB3A$7.10B24.4B
.4B30.4B5.4B9.2A5.6B6.B4.A$7.6B2A3B24.7B30.4B7.4B7.B2AB5.6B4.2A.3A
$7.6B2A2B5.2A19.5B30.4B9.4B7.3B5.5B4.A2.2A$7.10B5.A20.5B29.4B11.4B
5.B.B5.8B.A.A$6.11B2.BA.A19.7B27.4B13.4B4.5B3.8BA.A.2A.A$6.12B.B2A
19.4B.4B25.4B15.4B3.B2A4B.6B.2BAB.A.2A$5.15B20.4B3.4B23.4B17.4B.2B
2A11B2.2B2.A$4.16B19.4B5.4B21.4B19.19B3.B.2A$.2B.16B18.4B7.4B19.4B
21.18B2.A.A2.2A$2A18B6.A10.4B9.4B10.A6.4B23.17B2.2A2.A2.A$2AB.17B
5.3A7.4B11.4B7.3A5.4B25.16B7.2A$.B.4B.8B2.4B7.A5.4B13.4B5.A7.4B27.
15B$8.7B4.4B5.2A4.4B15.4B4.2A5.4B29.13B$9.6B5.4B4.9B17.9B4.4B31.9B
7.2A$11.4B6.4B5.6B19.6B5.4B33.9B6.A$13.3BA5.4B2.8B19.8B2.4B35.9B2.
BA.A$14.BA.A5.15B15.15B37.9B.B2A$15.A.A6.14B15.14B37.4B2A6B$16.A8.
13B15.13B35.B.5BABA5B$17.3A6.10B.B2A11.2AB.10B35.2A6BA8B$19.A8.3B
2AB3.BA.A9.A.AB3.B2A3B37.2A18B$28.3B2AB6.A9.A6.B2A3B38.20B$30.4B6.
2A7.2A6.4B40.21B$30.3B25.3B42.2B.17B$27.AB.2B27.2B.BA37.4B3.B2.13B
$26.A.AB2AB25.B2ABA.A36.2A9.8B.4B$26.A.ABABAB23.BABABA.A37.A9.7B3.
4B$23.2A.A.A.A.A2.A19.A2.A.A.A.A.2A31.3A10.9B2.3BA$23.A2.A2.2A.4A
19.4A.2A2.A2.A31.A19.2A3.ABA$25.2A4.A27.A4.2A53.A5.2A$31.A.A23.A.A
60.3A3.B$32.2A23.2A63.A!
