#CSYNTH gun_7560 costs 3397 cells.
#C period 7560 fullperiod 7560 bbox 79 by 43
#CLL state-numbering golly
x = 79, y = 43, rule = LifeHistory
11.2A5.2B12.2A3.2A$.ABA4BA6BA2B3A2.2A6.A2.A.A.A11.A$BA.4ABABA2BABA
BAB2AB.2A6.A.2A.A11.3A$2A2B.2A2.B4AB4.B3A7.2A2.A.2AB8.A$2B.2B2AB3.
2B8.BAB5.A2.A2.5B7.2A$4.A.A4.2B9.A7.2A4.4B4.5B$5.A6.B21.B.11B$11.
2AB19.2AB.11B3.BA2.2A$10.A2BAB5.2A11.2A14B.BA.A2.A$8.3B2A3B4.A13.
2B.15B2A.A$8.8B.BA.A15.15B3.A$7.9B.B2A15.7B2A8B2A$6.B2A9B16.4B2.BA
BA7B.A$5.BA2BA8B15.4B4.BA7B4.A13.2A$6.B2A9B3.A10.4B7.7B3.2A12.A.A$
8.10B3.3A7.4B9.7B9.A4.BAB.A.2A$10.7B7.A5.4B8.5B.4B7.A.A3.3AB.A.A$
10.8B5.2A4.4B9.2A5.4B6.A.A2.BA2.A.A$9.5B.4B4.9B11.A6.4B4.2A.2A.2AB
2A.A$9.6B.4B5.6B9.3A8.4B3.A3.B2.B3.A$8.6B3.4B2.8B9.A11.4B3.3A.2A.
3A7.A$4.B2.3BA3B4.15B20.4B4.2A2B2A7.3A$2.7BABA2B5.14B10.BA4.AB.6B
4.4B7.A$2.7BABA2B6.13B8.2B2A4B2A8B3.4B7.2A$.9BA3B7.10B.B2A5.2BA8BA
2B.5B6.3B.5B$.11B.B2A6.2BA4B3.BA.A5.2B3A2B3A2B4.4B5.7B$2.9B2.BA.A
4.2BABA4B5.A7.2BA2.A2B7.4B2.10B$2.7B7.A4.2BABA3B6.2A9.2B11.16B$3.
6B7.2A5.BA4B15.6B10.3B2A3BA6B$4.4B15.5B14.2A6B2A9.2BABAB2A6B$5.4B
15.3B13.BA2BA4BA2BAB7.3BAB2A7B$6.4B13.5B11.2BA2BA4BA2BA2B7.2BA4BA
3B.B2A$7.4B12.2AB2AB11.BA2BA4BA2BAB7.3BA7B2.BA.A$8.4B7.2A2.BA.2A2.
2A10.2A6B2A9.3BAB3ABA6.A$9.4B6.A2.A.A3.B2.A12.6B11.4BA2BA2BA5.2A$
10.4B7.2A.7A15.2B7.2A.2A9B2AB$11.4B8.A31.A2.3B.7BAB$12.4B7.A.4A27.
2A2BA2.6B$13.4B7.2A2.A28.3A2B2.4B$14.4B39.3A2B$15.3BA37.2A2BA$16.
3BA35.A2.3B$17.3AB34.2A.2A!
