#CSYNTH gun_9660 costs 3355 cells.
#C period 9660 fullperiod 9660 bbox 55 by 61
#CLL state-numbering golly
x = 55, y = 61, rule = LifeHistory
10.2A$9.A.A$2.A4.A2B.A.2A$.A.A3.AB2A.A.A$.A.A2.2B2.A.A$2A.2A.5A.A
7.2B$A3.B2.B3.A6.6B$.3A.2A.3A7.7B$3.6A8.9B$4.4B10.9B$4.4B10.10B$2A
7.2B6.2B3A7B$.A5.5B4.3BA2BA2B.4B$.A.AB.6B2.4BA2B2A4.4B$2.2AB.12B2A
3B5.4B$4.15BA2B7.4B$4.B2A11BA2B9.4B$4.B2A11BA4B8.4B$4.12B5.2A9.4B$
5.10B6.A11.4B$4.12B6.3A9.4B$4.8B.4B7.A10.4B8.B$4.7B3.4B18.4B5.B2AB
$5.2BA3B4.4B18.4B3.5B$4.3B2AB6.4B10.A7.4B.7B$5.4BAB6.4B9.3A6.11B$
5.7B6.4B11.A6.10B$3.B2.7B6.4B9.2A5.12B$2.2AB.8B6.4B8.4BA11B2AB$2B
2A11B6.4B9.2BA11B2AB$4B.11B6.4B7.2BA15B$6B.5B.4B6.4B5.3B2A12B.B2A$
13B.4B6.4B4.2A2BA4B2.6B.BA.A$2.4B.5B3.4B6.4B.2BA2BA3B4.5B5.A$.12B
3.4B6.7B3A2B6.2B7.2A$.12B4.4B6.10B10.4B$13B5.4B6.9B10.4B$.5B.5B7.
4B6.9B8.6A$6B.6B7.4B6.7B7.3A.2A.3A$6B.6B8.4B6.6B6.A3.B2.B3.A$6B.6B
9.4B7.2B7.A.5A.2A.2A$6B.6B10.4B15.A.A2.2B2.A.A$2B2A2B.2B2A2B11.4B
12.A.A.2ABA3.A.A$BA2BAB.BA2BAB12.4B11.2A.A.2BA4.A$2BA2BA.A2BA2B12.
5B13.A.A$5BA.A5B5.B7.5B12.2A$3B3A.3A3B4.3B5.7B$.3A2B.2B3A5.3A4.4B.
4B$B2A3B.3B2AB3.2BA2B3.B2A3.4B$.2A3B.3B2A4.2BA2B2.B2ABA3.4B$.BAB2A
.2ABAB3.2B3A2B.A3BA4.4B$2.3AB.B3A.B2.7B.4A6.4B$3BA2B.2BA7B3A3B.2AB
7.4B$6B.10B3A3B.2AB8.4B$4B5.5B.7B.4A9.4B$2B2AB3.B2A2B2.2B3A2B.A3BA
9.4B$2.2A5.2A5.2BA2B2.B2ABA10.4B$16.2BA2B3.B2A12.4B$17.3A4.3B13.3B
A$17.3B5.B15.3BA$18.B23.3AB!
