#CSYNTH gun_9720 costs 3139 cells.
#C period 9720 fullperiod 9720 bbox 73 by 43
#CLL state-numbering golly
x = 73, y = 43, rule = LifeHistory
8.A2.A3.2A21.2A2.A$8.6A2.A20.A.4A$6.2A6.2A21.A$5.A2.AB2ABA2.3A16.
2A.7A$4.A.2AB.2A.B2A2.A14.A2.A.A3.B2.A$4.A.A2.4A2.A.A15.2A2.BA.2A
2.2A$3.2A.3A4B3A.2A18.2AB2AB$4.A.A2.4B2.A.A19.5B$4.A.A3.2A3.A.A20.
3B20.2B$5.A4.2B4.A20.5B17.6B$11.B25.2B2A2B14.10B$10.2AB22.4B2A2B6.
2A4.3BABA2BABA3B$9.A2BAB5.2A14.9B5.A4.2ABA2BA2BA2BAB2A$7.3B2A3B4.A
16.7B3.BA.A5.3BABA2BABA3B$7.8B.BA.A15.10B.B2A8.10B$6.9B.B2A15.13B
12.6B$5.B2A9B16.14B11.2B.2B8.2A$4.BA2BA8B15.15B11.5B7.A.A$5.B2A9B
3.A10.4B2.8B8.B.13B2.BA$7.10B3.3A7.4B5.6B5.7BA9BA3B$9.7B7.A5.4B4.
9B3.6B2ABABA3BABAB2AB$9.8B5.2A4.4B5.2A4.4B.7BA4BA3BA4BA2B$8.5B.4B
4.9B3.A3.A5.11BA3BA5BA3BA2B$8.6B.4B5.6B4.4A7.11B3A7B3A4B$7.6B3.4B
2.8B16.3B5.2B2.AB2.B2.BA.5B$3.B2.3BA3B4.15B4.2A7.4B12.3B5.2B$.7BAB
A2B5.14B4.A8.5B10.B2AB$.7BABA2B6.13B6.A.2AB.7B10.2A$9BA3B7.10B.B2A
3.2AB2AB.2BA6B$11B.B2A6.2BA4B3.BA.A5.B.3B3A5B$.9B2.BA.A4.2BABA4B5.
A2.2A.2AB.BA2BA3B$.7B7.A4.2BABA3B6.2A2.A.A3.2B2A3B$2.6B7.2A5.BA4B
10.A.A.9B2.BA$3.4B15.5B12.2A.2A2B4.3BA.A$4.4B15.3B16.A2.AB3.BAB3A
3.B$5.4B13.5B15.A.2A4.4AB3.3A$6.4B12.2AB2AB15.A6.AB.B2AB.2B$7.4B7.
2A2.BA.2A2.2A10.A.A4.A.3A.2A4B$8.4B6.A2.A.A3.B2.A10.2A4.A.A.2A2B.B
AB$9.4B7.2A.7A18.A4.B3.A.A$10.3BA8.A35.2A$11.3BA7.A.4A$12.3AB7.2A
2.A!
