#CSYNTH gun_1243 costs 3360 cells.
#C period 1243 fullperiod 1243 bbox 80 by 42
#CLL state-numbering golly
x = 80, y = 42, rule = LifeHistory
63.B.B$62.B2A3B$62.A2BA2B10.2A$61.2B2A4B2.2B5.A$50.2A9.13B.BA.A$2.
2A42.2A3.A6.16B.B2A$3.A4.3B35.A2.A7.BA12BA4B$3.A.A5B33.2A2.3A5.BAB
A10BABA4B$4.2A6B31.A2.2A3.2B3.BABA11BA4B$6.6B31.A.A2.3A2B3.2BA15B.
B2A$7.6B31.A.2AB.A23B.BA.A$6.8B28.A.A3.2A19B2.2B5.A$6.10B26.2A.2A
10B2A9B10.2A$7.7BA4B26.A.B.9B2A8B$2.B4.6BABA4B22.2A2.A5.5BA10B$.2A
B.11BA4B21.A.2A6.10B3.4B.2A$.2A8BA4BA4B8.2A4.2A16.8B3.B2A3B.A$2.9B
A10B6.B2AB2.B2AB14.9B4.2AB2.A$4.7BA3BA4B2AB5.3B3.4B13.10B8.A$4.8B
3A4BA2BAB5.B5.2B13.10B5.5A.A$2.18B2A3B2.2B2AB2.5B10.7BA3B5.A4.A.A$
2.2A4.18B.2B2A2B.5B9.7BABA2B7.A2.A.A$3.A4.19B.13B6.8BABA2B6.2A3.A$
3A5.16B.16B5.10BA3B$A7.13B.19B4.13B.B2A$10.5B.2B2A2B.18B3.13B2.BA.
A$10.5B2.B2A2B2.3B2A18B.7B7.A$12.2B5.B5.BA2BA4B3A9B3.6B7.2A$11.4B
3.3B5.B2A4BA3BA7B5.4B$11.B2AB2.B2AB6.10BA9B4.4B$12.2A4.2A8.4BA4BA
8B2A4.4B$28.4BA11B.B2A5.4B$29.4BABA6B4.B7.4B$30.4BA7B13.4B$33.10B
13.4B$35.8B14.4B$36.6B16.4B$37.6B16.4B$37.6B2A15.4B$38.5BA.A15.3BA
$38.3B4.A16.3BA$45.2A16.3AB!
