#CSYNTH gun_7000 costs 3392 cells.
#C period 7000 fullperiod 7000 bbox 53 by 64
#CLL state-numbering golly
x = 53, y = 64, rule = LifeHistory
39.2B$23.A13.6B$23.3A11.7B$14.A11.A9.9B$13.A.A9.2A10.9B$12.A2.A9.
5B7.10B$12.4A.2A8.3B6.12B$16.A.A5.7B4.9B.4B$9.2A3.A.A7.7B2.4B2A3B
4.4B$9.A2.3A2BA5.A12BA2BA2B5.4B$10.2A3.2B.A2B.ABA12B2A2B7.4B$12.B
6A3BABA15B9.3BA$10.2ABA.4B3.BA18B8.ABA$9.A2.2A2.B6.10B.B5.2A9.2A$
9.2A13.10B6.A11.B$27.8B6.3A$25.6B.4B7.A$20.2A3.2A6.4B12.3B$20.A.A
3.A7.4B6.B2.2A3B$22.4A9.4B4.2A2B2A2B2A$21.A14.4B3.ABA2BA2B2A$22.A.
4A9.4B3.3A2B2.B$21.2A.A2.3A8.4B2.B2A$25.A4.A8.5B$21.4A.2A2.A2.A6.
5B$21.A2.A.A.A.A.A.A6.4B$23.BABABA.A2.A8.4B$24.B2ABA.A12.4B$17.2A
6.2B.BA14.4B$16.A2.A4.3B7.2A7.6B$14.BA.A.A3.4B8.A7.7B$14.3A.A4.B2A
3B6.A.AB2.9B$14.3AB5.B2A3B7.2AB.11B$15.3B3.3B2A5B7.3BA9B$18.7B2A5B
6.2BABA7B$18.6BABA6B5.2BABA7B$19.7BA7B4.3BA3B2.B$21.8B2.4B3.6B$20.
7B5.4B.6B$20.9B4.4B.5B$2A4.2A11.4B4.2A5.8B$A.A2.A.A10.4B5.A7.7B$2.
A2BA11.4B7.3A3.10B$BA4BAB8.4B3.2A5.A3.6B2A4B$B6AB7.4B3.A.3A7.5BA2B
A3B$.B4A2B6.4B4.A4.A6.5BA2BA3B$3.2B2.4B.5B4.2A.3A5.2AB.4B2A2B.B2A$
6.5B3A2B3.BAB.BA6.A.AB.8B.BA.A$5.4BA4BAB3.BA2B8.A4.8B4.A$4.5BA4BA
2B2.BA2B.BA4.2A5.2B2AB6.2A$4.4BA4BA3B2.BAB.BA3B10.B2A$4.4BAB3A6B2.
2A.A.AB11.B$4.3BA4BABA4B3.A.A.2AB10.2B$5.B2A5B2A4B3.A.ABA2.A9.2B$
6.4BA7B5.A3.3A5.2A2.2AB$6.A2BA9B5.3A8.A2.A.AB$7.AB.9B8.A8.2A2BA2B$
11.8B7.2A5.3A2.2BAB$12.5B.B2A11.A2.A.2A.A$10.6B2.BA.A11.A.A2.A.3A$
10.2A9.A12.2A2.A.2BA$11.A9.2A16.A.A$8.3A26.A.A.A.A$8.A28.2A3.2A!
