#CSYNTH gun_1759 costs 11270 cells.
#C period 1759 fullperiod 1759 bbox 115 by 98
#CLL state-numbering golly
x = 115, y = 98, rule = LifeHistory
45.2A11.A$44.B2AB9.A.A$45.3B9.A.A2.2A3.A$44.B.B9.2A.2A2.A2.A.A21.
2A$44.5B8.B2.A.A3.A.A20.B2A2B$44.6B6.2ABA2.4A.A22.4B$44.8B4.2A.A.A
3.A13.A11.4B3.3B$45.13B2.A.AB2.A12.3A8.4B4.5B$43.13B5.A.A2B.A3.A
10.A6.14B$42.15B5.A2B.2A3.3A7.2AB5.14B$42.15B4.3B10.A6.5B3.16B$41.
17B.B.2B10.2A8.5B.16B$41.29B3.4B2A4.22B$40.13B2A16B4.2B2A4.23B$39.
14B2A16B2.7B2.24B4.3B$38.2AB3.27B.7B3.24B.7B$37.A2.A4.35B2.23B.B2A
5B$36.A.2A5.7B2.B2.2B2.19B.25BA2BA5B$36.A7.7B13.43B2A6B$35.2A6.8B
15.48B$42.4B2.2B17.36B.6B.2B$41.4B4.2A15.35B2.8B.B$40.4B6.A15.7B.
26B4.6B.B2A$39.4B5.A15.2AB.3B4.25B8.B3.A.A$38.4B6.2A13.A.AB9.25B
12.2A$37.4B22.A10.5B2.19B4.B$36.4B22.2A10.2A6.20B.B2A$35.4B32.A3.A
6.22B2A$34.4B33.4A6.24B$33.4B43.25B$32.4B35.2A6.24B$31.4B35.B2AB4.
22B.B$30.4B37.3B3.10B.12B$29.4B37.B.B3.8B5.11B$28.4B37.14B9.7B$27.
4B36.15B9.8B5.2A$26.4B36.15B9.8B6.A$25.4B35.16B11.8B2.BA.A$24.4B
35.16B11.10B.B2A$23.4B35.16B12.12B$22.4B34.17B2.B10.12B$21.4B34.
23B6.2AB2.9B$20.4B34.6B2A17B4.A.AB2.8B$19.4B33.8B2A16B5.A4.8B2.2B$
18.4B25.2A7.27B3.2A4.8B.4B$17.4B27.A6.28B8.14B$16.4B28.A.AB.28B10.
11B2AB$15.4B30.2AB.28B10.11B2A2B$4.A9.4B33.24B2.B.B12.14B$4.3A6.4B
34.23B2.3B15.11B$7.A4.4B35.23B2.B2AB13.13B$6.2A3.4B8.2A27.21B4.2A
13.14B$6.8B8.A.A28.16B.B.B2A17.14B$2.2A4.5B5.2A2.A31.16B2.BA.A9.A
7.13B$.A.BAB.5B6.A.A.2A30.11B2.2B6.A9.3A3.14B$.A.2AB2.5B6.2A.A2.A
28.10B11.2A11.A2.9B$2A.B.B3.5B3.3B.B2.2A29.9B23.A2.10B$A2.2A2B2.5B
3.4B35.7B19.2A3.2A11B$.2A2.AB.13B.B32.4B.B21.A2.2A2.11B$3.2ABA13B.
B2A30.4B25.2A2.2A10B$.2A2.A5BA10B2A29.4B28.A.A.B.8B$A2.A2.4BABA7B.
2B29.4B29.A2.A3.6B$.2A3.4BABA7B31.4B31.2A5.4B$7.4BA7B31.4B28.2A8.
4B$9.9B3.2A26.4B28.B2AB6.4B$6.B.10B.B2.A25.4B29.4B5.4B$5.2A12B3A
25.4B31.2B5.4B$5.2AB.8B.BA26.4B24.A7.4B2.4B$6.B3.6B4.2A23.4B24.A.A
5.5B.4B$11.4B6.A22.4B26.A.14B$12.4B4.A22.4B28.14B$13.4B3.2A20.4B
29.14B$14.4B23.4B30.15B$15.4B21.ABAB30.3B2A12B$16.4B19.B2AB31.3B2A
13B$17.4B6.A10.3BA30.2AB.11B2.4B$18.4B5.3A7.4B30.A.AB2.8B5.4B$19.
4B7.A5.4B31.A5.10B4.4B$20.4B5.2A4.4B31.2A5.B.B5.2A5.4B$21.4B4.9B
40.3B4.A7.4B$22.4B5.6B40.B2AB5.3A5.4B$23.4B2.8B41.2A8.A6.4B$24.15B
57.4B$25.14B58.4B$26.13B59.4B$27.10B.B2A58.4B$29.3B2AB3.BA.A58.4B$
29.3B2AB6.A59.4B$31.4B6.2A59.4B$31.3B69.4B$28.AB.2B71.4B$27.A.AB2A
B71.4B$27.A.ABABAB71.4B$24.2A.A.A.A.A2.A70.4B$24.A2.A2.2A.4A71.4B$
26.2A4.A76.3BA$32.A.A75.3BA$33.2A76.3AB!
