#CSYNTH gun_1185 costs 4485 cells.
#C period 1185 fullperiod 1185 bbox 65 by 69
#CLL state-numbering golly
x = 65, y = 69, rule = LifeHistory
30.A$28.3A$13.2A12.A$11.3A.A11.2A$10.A4.A8.5B$11.3A.2A5.BA3B$13.AB
.A2B2.BABA3B$15.A5BA2BA4B$12.BA.A6B2A4B$10.B3AB.A2B2.6B$10.2A.B.2A
4.5B$9.ABA.A.A4.7B$8.A2.B2A.A3.4B.4B$8.3A3.A3.4B3.4B$11.3A3.4B5.4B
$10.A5.4B7.4B$2A8.2A3.4B9.4B$.A12.4B11.4B$.A.AB2.B5.4B13.4B$2.2AB.
3B3.4B15.4B11.2A$4.6B.4B17.4B11.A$4.10B19.4B10.A.AB2.2A$4.2B2A5B
21.4B10.2AB.A.AB$5.A2BA3B23.4B11.3BAB$5.BABA4B23.4B10.4B$6.BA6B23.
8B2.3B.5B$6.3B2.4B21.21B$6.3B3.4B19.23B5.2A$6.B6.4B18.24B4.A$5.3AB
5.4B18.22B2.BA.A$4.AB3A6.4B19.21B.B2A$4.A2BA.A6.4B10.A7.23B$5.B.2B
A7.4B7.3A8.22B$5.3B2.2A6.4B5.A15.17B$4.B5A2.A6.4B4.2A15.B2A13B$4.B
2A4.A.A6.9B14.2BAB2A11B$4.BA2B3A2.A7.6B14.7BA10B$3.ABABA5.A.2A5.6B
3.B2.2B2.8BABA10B$2.A4B2.2A3.A2.A4.19BABA2B2A11B$.A.2BA4.A4.2AB3.
20B2A5B.9B$2.2A5.A6.14B2A10BA5B2.6B$8.A8.13B2A16B3.6B$8.2A8.29B6.
4B$2.2A9.2A3.17B.B.2B12.B2A2B$2.A.A.4A3.A5.15B4.3B12.2A.B2A$4.A.A
3.A4.A3.15B5.A2B.2A11.BA.A$3.A.A2.BA2B2.2A4.13B5.A.A2B.A14.A$3.A4.
BABABA2.2A4.13B2.A.AB2.A15.2A$2A.2A3.2B2A3BAB.AB.8B4.2A.A.A3.A$.A.
A.2B.2B2AB.B3A9B6.2ABA2.4A.A$.A.A.2A2.B2A3BAB.AB3.4B7.B2.A.A3.A.A$
2.A.A2.A.A.ABA2.2A6.4B5.2A.2A2.A2.A.A$4.A2.2A.A3.2A9.4B5.A.A2.2A3.
A$3.A6.A.2A2.4A6.4B4.A.A12.2B$3.2A5.2A.A2.A2.A7.4B4.A11.6B$28.4B
13.10B$29.4B10.2A3BA2BA3B2A$30.4B8.B5A4B5AB$31.4B8.2A3BA2BA3B2A$
32.4B9.10B$33.4B10.6B$34.4B11.2B$35.4B7.2AB2.B2A$36.4B4.BA8BAB$37.
5B.BA2BA4BA2BAB$38.7BA8BAB$39.3BA2B.2A4.2A$40.3BA$41.3AB!
