#CSYNTH gun_915 costs 3894 cells.
#C period 915 fullperiod 915 bbox 66 by 59
#CLL state-numbering golly
x = 66, y = 59, rule = LifeHistory
7.2A5.2A2.2A.2A$7.A2.2A.A2.A2.A.2A$8.2A.A.2A.2A.A$4.2A3.A.A2.A.A2.
A.2A$.A2.A2.A.BAB3A.A.2A.BA$.3A2.2ABA2B.A2B2A.B2A$4.2A2.5A2B.2B3A$
3.A2.A.B6AB.2B2A$4.2A4.2B.2A3.B$10.2B$11.B$10.2AB13.A$.2A6.B2A2B5.
2A4.A.A$2.A4.8B4.A6.A$2.A.AB.8B.BA.A$3.2AB.2B2A4B.B2A5.5A4.2A$5.3B
ABA6B6.A4.A5.A$5.3B2A7B5.A.BAB7.A.2A.2A.A$5.12B2.A2.A.2AB8.A.A.A.
2A$7.10B.A.A.A.4BA7.AB$9.7B3.A2.A3.BABA5.4B$9.8B5.2A2.A2BA2.2B.4B
5.2A$8.5B.3BA9.2A10B5.A8.A$8.6B.B2AB10.11B.BA.A7.A.A$7.6B3.ABAB9.
10B2.B2A8.A.3A$3.B2.3BA3B4.4B7.14B7.2A.A4.A$.7BABA2B5.4B6.13B8.A.A
.ABABA$.7BABA2B6.4B6.5B3A4B10.A.A.2A$9BA3B7.4B5.12B9.2AB3AB$11B.B
2A6.4B4.4BABABA3B7.A3B2A$.9B2.BA.A6.4B3.4B2AB2A5B4.A3BA4.2B$.7B7.A
7.4B2.2B2A5B2A6B.4BAB2.4B.B$2.6B7.2A7.4B.2AB4A2BA2BA3BA5BA8B2A$3.
4B18.4B5A4BA2BABA7B2ABA3B.B2A$4.4B18.4BAB2A7BABA2BA4B5A2B2.B$5.4B
17.7BA5BA3BA2BA2B4AB2A$6.4B16.4B2.BA4B.6B2A5B2A2B$7.4B13.2AB.B4.A
3BA4.5B2AB2A4B$8.4B11.A.AB4.2A3BA7.3BABABA4B$9.4B10.A4.B3AB2A9.12B
$10.4B8.2A4.2A.A.A10.4B3A5B$11.4B12.ABABA.A.A8.13B$11.5B11.A4.A.2A
7.14B$4.B7.5B11.3A.A8.2AB2.10B$3.3B5.7B12.A.A7.A.AB.11B$3.3A4.4B.
4B12.A8.A5.10B2A6.2A$2.2BA2B3.B2A3.4B19.2A5.4B.2B2.A2BA2.2A2.A$2.
2BA2B2.B2ABA3.4B25.4B5.ABAB3.A.A$.2B3A2B.A3BA4.4B20.2A3.BA7.A4B.A.
2A$.7B.4A6.4B19.A2.A.A.A8.B2A.A$3B3A3B.2AB7.4B20.2A.2A.A7.BAB.A$3B
3A3B.2AB8.4B25.A5.A4.A$.7B.4A9.4B24.2A4.5A$.2B3A2B.A3BA9.4B$2.2BA
2B2.B2ABA10.4B30.A$2.2BA2B3.B2A12.4B28.A.A$3.3A4.3B13.3BA28.A$3.3B
5.B15.3BA$4.B23.3AB!
