#CSYNTH gun_345 costs 3355 cells.
#C period 345 fullperiod 345 bbox 61 by 55
#CLL state-numbering golly
x = 61, y = 55, rule = LifeHistory
33.2A$32.A.A$26.2A4.A$24.A2.A2.2A.4A$24.2A.A.A.A.A2.A$27.A.ABABAB$
27.A.AB2AB$28.AB.2B$31.3B$31.4B6.2A$29.3B2AB6.A$29.3B2AB3.BA.A$27.
10B.B2A$26.13B$25.14B$24.15B15.2A$9.A13.4B2.8B17.A.A$9.3A10.4B5.6B
19.A$12.A8.4B4.9B17.2A.2A$11.2A7.4B5.2A4.4B15.B.A.2A$11.5B3.4B7.A
5.4B13.2A.A$13.3B2.4B5.3A7.4B12.2B.4A$3.2A7.9B6.A10.4B7.2A3.AB4.A$
3.A8.8B19.4B5.B2AB4.4A$2A.A.B3.10B21.4B5.3B3.2A.B$A2.3AB.2B2A7B22.
4B3.B.B4.2A.2B$.2A2.BA3B2A7B23.4B.6B3.B3A$3.4A12B24.10B5.2B$3.A.2B
3.7B.B2A2.2A10.2A7.9B6.BA$4.3AB2.7B.BA.A2.A11.A8.10B2.BA.A$7.A4.4B
5.2A13.A.AB6.10B.B2A$2.5A5.4B5.A15.2AB.3B2.12B$2.A10.4B6.A15.19B$
4.A9.4B4.2A15.19B$3.2A10.4B2.2B17.18B$8.2A6.8B15.18B$9.A7.7B13.19B
$9.A.2A5.7B2.B2.2B2.21B$10.A2.A4.35B$11.2AB3.27B.7B$12.32B2.6B$13.
31B3.6B$14.12B3A14B6.4B$14.9B2A2BA3B.B.2B12.B2A2B$15.8BABA4B4.3B
12.2A.B2A$8.2A5.15B5.A2B.2A11.BA.A$6.A4BA4.13B5.A.A2B.A14.A$4.BA6B
AB4.13B2.A.AB2.A15.2A$2.2BA8BA2B.8B4.2A.A.A3.A$.3BA8BA9B6.2ABA2.4A
.A$2.2BA8BA2B3.4B7.B2.A.A3.A.A$4.BA6BAB6.4B5.2A.2A2.A2.A.A$6.A4BA
9.3BA5.A.A2.2A3.A$8.2A12.3BA4.A.A$23.3AB4.A!
