#CSYNTH gun_918 costs 2623 cells.
#C period 918 fullperiod 918 bbox 61 by 43
#CLL state-numbering golly
x = 61, y = 43, rule = LifeHistory
8.A2.A3.2A$8.6A2.A22.A$6.2A6.2A13.A7.3A$5.A2.AB2ABA2.3A9.A.A5.A$4.
A.2AB.2A.B2A2.A9.BA2B4.2A$4.A.A2.4A2.A.A11.2B.6B$3.2A.3A4B3A.2A11.
6B$4.A.A2.4B2.A.A11.8B18.2A$4.A.A3.2A3.A.A9.9B.B17.A$5.A4.2B4.A10.
11B14.BA.A$11.B13.2AB.4BA5B.B11.B2A$10.2AB11.A.AB.3B3A8B7.3B$9.A2B
AB5.2A3.A4.2BA3BA7B.2B3.4B$7.3B2A3B4.A3.2A4.3B3A17B5.2A$7.8B.BA.A
7.2AB.2BA18B5.A$6.9B.B2A7.A.AB.22B.BA.A$5.B2A9B9.A5.18BA2B.B2A$4.B
A2BA8B8.2A5.17B3A3B4.2A$5.B2A9B3.A10.4B3.2B.7BA3BA2B4.A$7.10B3.3A
7.4B7.8B3A3B.BA.A$9.7B7.A5.4B10.B.5BA4B.B2A$9.8B5.2A4.4B14.11B$8.
5B.4B4.9B15.B.9B$8.6B.4B5.6B17.8B$7.6B3.4B2.8B18.6B$3.B2.3BA3B4.8B
A6B14.6B.2B$.7BABA2B5.5B2A7B14.2A4.2BAB$.7BABA2B6.5BA7B15.A5.A.A$
9BA3B7.10B.B2A10.3A7.A$11B.B2A6.3BA2BA3.BA.A9.A$.9B2.BA.A4.5B2A2B
5.A$.7B7.A4.8B6.2A$2.6B7.2A5.6B$3.4B15.5B$4.4B15.3B$5.4B13.5B$6.4B
12.2AB2AB$7.4B7.2A2.BA.2A2.2A$8.4B6.A2.A.A3.B2.A$9.4B7.2A.7A$10.3B
A8.A$11.3BA7.A.4A$12.3AB7.2A2.A!
