#CSYNTH gun_1139 costs 8357 cells.
#C period 1139 fullperiod 1139 bbox 137 by 61
#CLL state-numbering golly
x = 137, y = 61, rule = LifeHistory
52.2A30.2A20.2A$29.2A21.A.A28.A.A20.A.A$28.A.A23.A4.2A16.2A4.A24.A
4.2A$22.2A4.A21.4A.2A2.A2.A12.A2.A2.2A.4A16.4A.2A2.A2.A$20.A2.A2.
2A.4A17.A2.A.A.A.A.2A12.2A.A.A.A.A2.A16.A2.A.A.A.A.2A$20.2A.A.A.A.
A2.A19.BABABA.A18.A.ABABAB20.BABABA.A$23.A.ABABAB22.B2ABA.A18.A.AB
2AB22.B2ABA.A$23.A.AB2AB24.2B.BA20.AB.2B24.2B.BA$24.AB.2B24.3B26.
3B22.3B7.A$19.A7.3B14.2A6.4B26.4B6.2A4.2A6.4B7.3A$17.3A7.4B6.2A6.A
6.B2A3B22.3B2AB6.A6.A6.B2A3B8.A$16.A8.3B2AB6.A7.A.AB3.B2A3B22.3B2A
B3.BA.A6.A.AB3.B2A3B7.A.A$15.A.A7.3B2AB3.BA.A8.2AB.10B18.10B.B2A8.
2AB.10B5.A.AB$14.BA.A5.10B.B2A11.13B16.13B12.13B5.A3B$13.3BA5.13B
13.14B14.14B12.14B6.4B$11.4B6.14B13.15B12.15B12.15B5.6B$9.6B5.15B
15.8B2.4B10.4B2.8B16.8B2.4B4.7B$8.7B4.4B2.8B17.6B5.4B8.4B5.6B16.6B
5.4B2.8B.4B.B$.B.4B.8B2.4B5.6B16.9B4.4B6.4B4.9B14.9B4.17B.B2A$2AB.
17B4.9B14.4B4.2A5.4B4.4B5.2A4.4B12.4B4.2A5.18B2A$2A18B5.2A4.4B12.
4B5.A7.4B2.4B7.A5.4B10.4B5.A6.16B.2B$.2B.16B6.A5.4B10.4B7.3A5.8B5.
3A7.4B8.4B7.3A3.16B$4.16B3.3A7.4B8.4B10.A6.6B6.A10.4B6.4B10.A3.15B
$5.15B3.A10.4B6.4B19.4B19.4B4.4B11.A.2AB.12B$6.12B.B2A.A11.4B4.4B
19.6B19.4B2.4B10.2A.A.AB2.11B$6.11B2.BA.A.2A10.4B2.4B19.8B19.8B11.
A2.A5.10B$7.10B5.A2.A11.8B19.4B2.4B19.6B14.2A5.2B2A6B$7.6B2A2B5.2A
14.6B19.4B4.4B19.4B21.3B2A6B$7.6B2A3B21.4B19.4B6.4B10.A6.6B21.10B$
7.10B21.6B6.A10.4B8.4B7.3A5.8B20.8B.B2A.A$3.A.2AB.8B20.8B5.3A7.4B
10.4B5.A7.4B2.4B18.7B3.B2AB3A$.3AB2AB3.7B18.4B2.4B7.A5.4B12.4B4.2A
5.4B4.4B17.6B6.B4.A$A4.B6.6B17.4B4.4B5.2A4.4B14.9B4.4B6.4B17.6B4.
2A.3A$.3A.2A4.6B17.4B6.4B4.9B16.6B5.4B8.4B16.5B4.A2.2A$3.2A2.A4.5B
16.4B8.4B5.6B17.8B2.4B10.4B14.8B.A.A$6.A.A.8B14.4B10.4B2.8B15.15B
12.4B4.A8.8BA.A.3A$2.A.2A.A.A8B8.A4.4B12.15B13.14B14.4B3.3A6.6B.2B
AB.A2.A$2.2A.A.BA2B.6B6.3A3.4B14.14B13.13B16.4B5.A4.7B2.2B2.A.A.A$
5.A2.2B2.7B4.A5.4B16.13B11.2AB.10B18.4B3.2A4.7B3.B.2A2.A.A$5.2A.B
3.7B4.2A3.4B18.10B.B2A8.A.AB3.B2A3B21.4B2.4B.8B2.A.A2.A.A.A$3.2A2.
A.A2.8B.4B2.4B21.3B2AB3.BA.A7.A6.B2A3B22.4B3.11B2.2A2.2A.2A$2.A2.A
2.2A2.11B3.4B22.3B2AB6.A6.2A6.4B25.4B.12B$3.2A7.12B.4B25.4B6.2A14.
3B26.B3A12B$12.16B26.3B24.2B.BA24.A13B10.A$13.15B23.AB.2B24.B2ABA.
A24.A9B11.3A$16.12B22.A.AB2AB22.BABABA.A23.12B9.A$15.15B6.2A12.A.A
BABAB19.A2.A.A.A.A.2A19.16B6.2A$14.16B6.A10.2A.A.A.A.A2.A17.4A.2A
2.A2.A12.A6.24B$13.18B2.BA.A10.A2.A2.2A.4A21.A4.2A14.3A3.23B$11.B.
19B.B2A13.2A4.A23.A.A23.A2.24B$10.2A22B21.A.A21.2A23.A.B.24B$10.2A
22B22.2A46.2A27B$11.23B68.2A2.A22B.4B$9.5B2.17B68.A2.3A3B3.2B3.B7.
2B3.4B$9.2A6.15B70.A4.2B3.4B.3B5.BA2B3.4B$10.A9.4B2.4B73.4A5.B2AB.
B2AB4.A.A5.3BA$7.3A13.B3.5B73.A7.2A3.2A6.A7.ABA$7.A15.2A5.2A75.A
27.2A$24.A5.A75.2A28.B$21.3A7.3A$21.A11.A!
