#CSYNTH gun_6551 costs 11865 cells.
#C period 6551 fullperiod 6551 bbox 113 by 105
#CLL state-numbering golly
x = 113, y = 105, rule = LifeHistory
37.2A2.A4.2A$36.A.4A5.A$36.A10.A.2A$34.2A.7A4.A.A$32.A2.A.A3.B2.A$
32.2A2.BA.2A2.2A$36.2AB2AB6.2A$36.5B8.A$37.3B7.A$36.5B6.5A$36.BA4B
9.A$34.2BABA3B3.4AB$34.2BABA4B2.A2.AB$35.2BA4B4.4B$34.15B3.2A$33.
14B2A.A2.A$32.15B2A.2A$31.15B.B$30.4B2.9B$14.2A13.4B5.7B$14.A13.4B
4.9B$9.2A5.A10.4B5.2A4.4B$9.A5.2A9.4B7.A5.4B$6.2A.A.3B11.4B5.3A7.
4B$6.A2.A.2A2B2A7.4B6.A10.4B$8.2A.A.2B2AB5.4B19.4B$11.A.4B5.4B21.
4B$11.2A.4B3.4B23.4B$4.2A8.3BA6B25.4B25.A11.2A$3.A.A8.2BABA4B27.4B
23.A.A9.B2AB$3.A8.B.3BA4B12.2A15.4B10.A3.A3.2A2.A.A9.3B$2A.AB.B3.
11B13.A.A15.4B7.3A2.A.A2.A2.2A.2A9.B.B$.A.A.2AB.12B15.A4.2A10.4B5.
A5.A.A3.A.A2.B8.5B$.A.A.2A14B11.4A.2A2.A2.A9.7B.2A5.A.4A2.AB2A6.6B
$2A.A2.5B2A8B11.A2.A.A.A.A.2A10.9B7.A3.A.A.2A4.8B$A2.4A3BA2BA5B.B
2A11.BABABA.A14.6B8.A2.BA.A2.13B$.2A2.BAB.2B2A6B.BA.A11.B2ABA.A15.
5B7.A.2BA.A5.13B$3.2A6.7B5.A12.2B.BA15.7B6.2A.2BA5.15B$3.A7.2B.4B
5.2A10.3B19.6B10.3B4.15B$5.A9.4B7.2A6.4B19.7B10.2B.B.17B$4.2A10.4B
7.A6.B2A3B17.6B4.29B$17.4B6.A.AB3.B2A3B17.7B2.16B2A13B$18.4B6.2AB.
10B15.7B2.16B2A14B$19.4B7.13B13.9B.27B3.B2A$20.4B6.14B12.36B4.A2.A
$21.4B5.15B6.B4.20B2.2B2.B2.7B5.2A.A$22.4B6.8B2.4B4.2AB.19B13.7B7.
A$23.4B5.6B5.4B3.2A19B15.8B6.2A$24.4B3.9B4.4B3.B.17B17.2B2.4B$25.
4B.4B4.2A5.4B5.17B15.2A4.4B$26.7B5.A3.A3.4B4.17B15.A6.4B$27.5B7.4A
4.4B3.15B.B2A14.A6.4B10.2A$27.5B16.4B2.12B4.BA.A12.2A7.4B9.A$26.7B
4.4A8.15B9.A22.4B10.A$25.4B.4B3.A2.3A7.15B8.2A15.2A5.4B5.5A$24.4B
3.4B8.A7.14B26.A5.4B4.A$23.4B5.4B6.A.A7.12B27.A.AB.7B2.B3A$22.4B7.
4B5.A.AB7.10B29.2AB.7B3.2B.A$21.4B9.4B5.A3B7.9B31.12B4A$20.4B11.4B
6.4B5.9B31.7B2A3BAB2.2A$19.4B13.4B5.6B5.6B32.7B2A2B.B3A2.A$18.4B
15.4B4.7B.2B2.5B32.10B3.B.A.2A$17.4B17.4B2.8B.9B31.8B8.A$6.A9.4B
19.24B29.9B7.2A$6.3A6.4B21.24B27.4B2.3B$9.A4.4B22.19B2.4B25.4B3.5B
$8.2A3.4B8.2A12.19B4.4B23.4B7.2A$8.8B8.A.A8.2A.A17B7.4B21.4B8.A$4.
2A4.5B5.2A2.A10.A.2A.15B9.4B19.4B10.3A$3.A.BAB.5B6.A.A.2A16.12B11.
4B10.A6.4B13.A$3.A.2AB2.5B6.2A.A2.A15.10B13.4B7.3A5.4B$2.2A.B.B3.
5B3.3B.B2.2A15.2B2A6B14.4B5.A7.4B$.A3.2A2B2.5B3.4B19.3B2A6B15.4B4.
2A5.4B$2.3A2.AB.13B.B18.10B16.9B4.4B$5.2ABA13B.B2A17.8B.B2A.A13.6B
5.4B$4.A2.A5BA10B2A16.7B3.B2AB3A11.8B2.4B$4.2A2.4BABA7B.2B17.6B6.B
4.A8.15B$8.4BABA7B21.6B4.2A.3A9.14B$9.4BA7B22.5B4.A2.2A11.13B$11.
9B3.2A17.8B.A.A12.2AB.10B$8.B.10B.B2.A8.A8.8BA.A.2A.A7.A.AB3.B2A3B
$7.2A12B3A9.3A6.6B.2BAB.A.2A7.A6.B2A3B$7.2AB.8B.BA14.A4.7B2.2B2.A
9.2A6.4B$8.B3.6B4.2A11.2A4.7B3.B.2A18.3B$13.4B6.A11.4B.8B2.A.A2.2A
17.2B.BA$14.4B4.A14.11B2.2A2.A2.A15.B2ABA.A$15.4B3.2A12.12B7.2A15.
BABABA.A$16.4B16.12B22.A2.A.A.A.A.2A$17.2B2A15.11B23.4A.2A2.A2.A$
18.BABA13.9B12.2A16.A4.2A$19.A3B9.2B.10B11.A15.A.A$20.4B7.16B.B4.B
A.A15.2A$21.4B3.23B2.B2A$22.32B$23.32B$24.3BABA25B$25.3B2A6BA18B$
27.B2A5BA19B$28.17B5.B.4B$28.5BA8B11.4B$28.4BA2BA6B12.4B$32.ABA4.
2B14.4B$33.A6.2B14.3BA$39.B2AB14.3BA$40.2A16.3AB!
