#CSYNTH gun_279 costs 4248 cells.
#C period 279 fullperiod 279 bbox 72 by 59
#CLL state-numbering golly
x = 72, y = 59, rule = LifeHistory
42.2A$42.A.A$44.A4.2A$40.4A.2A2.A2.A10.A$24.2A14.A2.A.A.A.A.2A9.BA
B$23.A.A16.BABABA.A13.AB$17.2A4.A19.B2ABA.A12.2BABA$15.A2.A2.2A.4A
16.2B.BA14.A.2AB.2A$15.2A.A.A.A.A2.A15.3B7.A10.6A.A$8.A9.A.ABABAB
8.2A6.4B7.3A9.2B4.A$7.ABA8.A.AB2AB10.A6.B2A3B8.A10.4A$7.2B10.AB.2B
11.A.AB3.B2A3B7.A.A8.BA.B$5.BA2BA12.3B11.2AB.10B5.A.AB7.BA.2A$.2A.
ABA.A13.4B6.2A4.13B5.A3B7.A3B$A.2A3BA12.3B2AB6.A5.14B6.4B7.BA$A4.A
B13.3B2AB3.BA.A5.15B5.6B6.BA$.4A13.10B.B2A8.8B2.4B4.7B3.BA.A$2.A.
2B11.13B10.6B5.4B2.8B3.B2A$.BA.BA10.14B9.9B4.17B$.B3A10.15B8.4B4.
2A5.16B$.2A11.4B2.8B9.4B5.A6.16B$BA11.4B5.6B8.4B7.3A2.17B$A.AB2.B
5.4B4.9B6.4B9.A2.A16B$.2AB.3B3.4B5.2A4.4B4.4B8.A3.2A.14B$3.6B.4B7.
A5.4B2.A3B9.2A7.12B$3.10B5.3A7.5B2AB20.10B3.2A$3.2B2A5B6.A10.3BABA
21.2B2A6B3.A$4.A2BA3B19.4B21.3B2A6B4.A$4.BABA4B17.6B21.10B3.2A$5.B
A6B15.8B20.8B.B2A$5.3B2.4B13.4B2.4B18.7B3.B2AB2A$.AB2.3B3.4B11.4B
4.4B17.6B6.B.A$BABA.B.B4.4B9.4B6.4B17.6B4.2A3.A$.A3BAB6.4B7.4B8.4B
16.8B.A2.4A$2.2B.2A7.4B5.4B10.4B14.9BA.A.A$2.2A.2AB7.4B3.4B12.4B4.
A8.7B.2BAB.A.2A$2.2B.2A9.4B.4B14.4B3.3A6.6B3.2B2.A.A$3.A2B.2A8.7B
16.4B5.A4.7B4.B.2A2.A$5.A3B9.5B18.4B3.2A4.7B3.A.A2.A.A$6.A.2BA6.6B
19.4B2.4B.8B3.2A2.A.A$8.2A.A4.4B2A3B.2A15.4B3.11B8.A$11.A3.4BA2BA
3B2AB15.4B.12B$11.2A3.3BABAB2.B2A17.16B$17.3BAB5.2A17.B3A10B10.A$
15.5B6.A.2B2.2B13.A9B11.3A$15.2A8.A.A3B4A11.2BA9B9.A$16.A8.A2.AB2A
.B11.16B6.2A$13.3A8.2A4.2AB5.A6.24B$13.A16.2A6.3A3.23B$29.2AB9.A2.
24B$30.B9.A.B.24B$40.2A27B$38.2A2.A22B.4B$37.A2.3A3B3.2B3.B7.2B3.
4B$38.A4.2B3.4B.3B5.BA2B3.3BA$39.4A5.B2AB.B2AB4.A.A5.ABA$41.A7.2A
3.2A6.A7.2A$43.A27.B$42.2A!
