#CSYNTH gun_1648 costs 3904 cells.
#C period 1648 fullperiod 1648 bbox 61 by 64
#CLL state-numbering golly
x = 61, y = 64, rule = LifeHistory
4.2A3.2A2.A2.A.2A.A5.A$4.A.A.A.A2.4A.A.2A3.3A$6.A.A2.2B4.A6.A$.2A
2.AB2A3BA.3A7.2A$.A2.B4.3B3A6.5B$2.9A3B5.BA3B$7.BA4.2B3.BABA3B$2.
2A.ABA4.B2A3BA2BA4B$2.2A.2A6.2A.3B2A4B$18.6B$18.5B$17.7B$.2A13.4B.
4B$2.A12.4B3.4B$2.A.AB2.B5.4B5.4B$3.2AB.3B3.4B7.4B$5.6B.4B9.4B$5.
10B11.4B$5.2B2A5B13.4B$6.A2BA3B15.4B16.2A$6.BABA4B15.4B14.B2A2B3.
2A$A6.BA6B15.4B14.4B2.B2AB$3A5.2B2.4B15.4B9.B.6B3.2B$3.A4.2B3.4B
15.4B6.10B2.2B$2.2A4.B5.4B10.A4.4B5.11B2A2B$2.4B.B2A5.4B7.3A5.4B3.
3B2ABA5B2A3B.B$4.B2AB2A6.4B5.A9.4B2.B2ABA2BA10B2A$3.A.AB.B8.4B4.2A
9.4B2.A5BA8B.B2A$2.A.AB5.A6.9B10.7BABA2B2A5B3.B$2.A8.3A5.6B13.5B2A
BA3BA5B$.2A11.A5.6B3.B2.2B2.8BABABABA4B$11.2AB.A4.27B3A5B$10.A2.2A
B3.27B.7B$10.2A2.14B2A7BABA6B2.6B$15.13B2A7B2A8B.7B$16.22BA9B.6B$
11.A4.17B.B.2B7.9B$10.A.A4.15B4.3B7.8B$10.A.A4.15B5.A2B.2A4.8B$7.
2A.A.2A4.13B5.A.A2B.A5.7B$6.A.A.A3.A2B3.13B2.A.AB2.A7.6B$5.A.A.B.
5ABA.8B4.2A.A.A3.A8.7B$4.A.3A2B2.B.A2BA6B6.2ABA2.4A.A6.7B$5.AB.A.
2A2B2A2B3.4B7.B2.A.A3.A.A5.7B3.B$8.A.A.5B5.4B5.2A.2A2.A2.A.A5.8B.B
2A$8.BA.A3BABA5.4B5.A.A2.2A3.A6.10B2A$6.AB.A.A.ABA2.A5.4B4.A.A14.
9B.B$6.2A.A2.A3.3A6.4B4.A16.7B$9.A3.3A10.4B12.2A9.4B$9.2A5.A10.4B
10.B2A2B6.4B$13.3A12.4B10.4B6.2AB$13.A15.4B9.4B7.A$17.2B7.A3.4B7.B
3A5.3A$17.BAB5.A.A3.4B6.2B2A5.A$15.2BABA5.BA2B2.5B4.2A2B$15.BA3BA
5.2B.B2.5B3.3AB$16.BA2B.A4.3BA2B2.5B.BABAB$18.A.2BAB2.2BABAB3.5B2.
2A$19.A3BA2B2A2B2A4.4B$20.ABA2B.2AB2A6.4B$20.BAB2.2AB3A7.4B$21.2B
2.3AB10.3BA$25.BABAB10.3BA$27.2A12.3AB!
