#CSYNTH gun_1366 costs 6336 cells.
#C period 1366 fullperiod 1366 bbox 96 by 66
#CLL state-numbering golly
x = 96, y = 66, rule = LifeHistory
43.2A20.2A$42.A.A20.A.A$36.2A4.A24.A4.2A$34.A2.A2.2A.4A16.4A.2A2.A
2.A$34.2A.A.A.A.A2.A16.A2.A.A.A.A.2A$37.A.ABABAB20.BABABA.A$37.A.A
B2AB22.B2ABA.A$38.AB.2B24.2B.BA$33.A7.3B22.3B7.A$31.3A7.4B6.2A4.2A
6.4B7.3A$30.A8.3B2AB6.A6.A6.B2A3B8.A$29.A.A7.3B2AB3.BA.A6.A.AB3.B
2A3B7.A.A$28.BA.A5.10B.B2A8.2AB.10B5.A.AB$27.3BA5.13B12.13B5.A3B$
25.4B6.14B12.14B6.4B$23.6B5.15B12.15B5.6B$22.7B4.4B2.8B16.8B2.4B4.
7B$15.B.4B.8B2.4B5.6B16.6B5.4B2.8B.4B.B$14.2AB.17B4.9B14.9B4.17B.B
2A$14.2A18B5.2A4.4B12.4B4.2A5.18B2A$15.2B.16B6.A5.4B10.4B5.A6.16B.
2B$18.17B2.3A7.4B8.4B7.3A2.17B$19.16BA2.A9.4B6.4B9.A2.A16B$20.14B.
2A3.A8.4B4.4B8.A3.2A.14B$20.12B7.2A9.4B2.4B9.2A7.12B$16.2A3.10B20.
8B20.10B$17.A3.6B2A2B21.6B21.2B2A6B$16.A4.6B2A3B21.3AB21.3B2A6B$
16.2A3.10B21.3BA2B21.10B$19.2AB.8B20.3BA4B20.8B.B2A.A$16.2AB2AB3.
7B18.4B2.4B18.7B3.B2AB3A$17.A.B6.6B17.4B4.4B17.6B6.B4.A$15.A3.2A4.
6B17.4B6.4B17.6B4.2A.3A$15.4A2.A.8B16.4B8.4B16.5B4.A2.2A$18.A.A.A
9B14.4B10.4B14.8B.A.A$15.2A.A.BA2B.7B8.A4.4B12.4B4.A8.8BA.A.2A.A$
16.A.A2.2B3.6B6.3A3.4B14.4B3.3A6.6B.2BAB.A.2A$15.A2.2A.B4.7B4.A5.
4B16.4B5.A4.7B2.2B2.A$15.A.A2.A.A3.7B4.2A3.4B18.4B3.2A4.7B3.B.2A$
16.A.A2.2A3.8B.4B2.4B20.4B2.4B.8B2.A.A2.2A$17.A8.11B3.4B22.4B3.11B
2.2A2.A2.A$26.12B.4B24.4B.12B7.2A$26.16B26.16B$16.A10.14B27.15B$
16.3A11.10B28.12B$19.A9.12B17.2A6.15B$18.2A6.16B17.A6.16B$12.2A4.
24B6.A10.A.AB2.18B$11.B2AB5.23B3.3A11.2AB.19B.B$11.4B4.24B2.A16.
22B2A$12.2B5.24B.B.A15.22B2A$4.A7.4B2.27B2A15.23B$3.A.A5.5B.4B.22B
A2.2A14.17B2.5B$4.A.14B3.2B7.B3.2B3.3B3A2.A14.15B6.2A$5.14B3.2BAB
5.3B.4B3.2B4.A17.4B2.4B9.A$5.14B4.A.A4.B2AB.B2AB5.4A16.5B3.B13.3A$
5.15B4.A6.2A3.2A7.A18.2A5.2A15.A$4.3B2A12B22.A21.A5.A$4.3B2A13B21.
2A17.3A7.3A$2.2AB.11B2.4B39.A11.A$.A.AB2.8B5.4B$.A5.10B4.4B$2A5.B.
B5.2A5.4B$8.3B4.A7.3BA$7.B2AB5.3A5.3BA$8.2A8.A6.3AB!
