#CSYNTH gun_3430 costs 5251 cells.
#C period 3430 fullperiod 3430 bbox 89 by 59
#CLL state-numbering golly
x = 89, y = 59, rule = LifeHistory
10.A67.A$10.3A63.3A$13.A9.2A39.2A9.A$12.2A9.A41.A9.2A$12.B3A2B2.BA
.A41.A.AB2.6B$14.4AB.B2A43.2AB.2BA2B$13.BAB3A2B7.2A29.2A7.3BABA2B$
9.2B.5B2A2B8.A29.A8.6BA2B.2B$8.10B2AB5.3A31.3A5.2BA2BA7B$8.5B3A4B
5.A3.3A25.3A3.A5.A3BA7B$7.2BA4B2A2BA2B3.A.2AB2.A25.A2.ABA.A3.BA3BA
5BA2B$6.2B3A4B2A4B3.A.A.ABA27.A2B.A.A3.2BABA4B2AB2AB$6.B4A5BA4B2.
2A.B.2A29.2A.A.2A2.3BA4BA4BAB$6.BA11B2.2BA.B3AB29.2B3A.2BA2.5BA7B$
6.13B2.3BA.AB33.2B.A3B2.6BA3BA2B$7.11B3.3BA39.A3B3.6B3A2B$8.10B3.
2BA.BA35.2A.2BA3.10B$5.2B2.4B.5B4.2A.3A31.3A.2A4.5B.4B2.2B$3.BA2BA
2B6.4B4.A4.A29.A4.A4.4B6.2BA2BAB$2.A2B2A2BA7.4B3.A.3A31.3A.A3.ABAB
7.3A2B3A$2.A2B2A2BA8.4B3.2A35.2A3.B2AB8.B2A2B2AB$4.4A4.A6.3BA43.3B
A6.A4.A2BA$2.A.A2.A.A2.3A5.3BA41.4B5.3A2.A.A2.A.A$2.2A4.2A5.A5.3AB
2.B33.B2.4B5.A5.2A4.2A$14.2AB5.7B31.A6B5.B2A$14.5B4.4B3A3B23.4BA5B
4.5B$16.5B.12B18.A2.5BA6B.5B$16.6B.2BA5BA2B16.3A2.11B.6B$15.7B.2BA
5BA2B15.A5.B3A3B3AB.7B$14.2A9BA5BAB4.2A10.2A5.17B2A$13.B2A17B5.A7.
5B5.4BA12B2AB$13.14B3A3B5.A.AB3.2A2B7.4BA15B$13.14B.B.4B5.2AB2.B2A
3B5.4B.A.14B$11.2AB.11B5.4B5.10B4.4B5.11B.B2A$7.2A.A.AB3.B.5B8.4B
5.10B2.4B8.5B.B3.BA.A.2A$2A4.A.A.A8.A3B10.4B4.9B2.4B10.4B8.A.A.A4.
2A$A.A2.A.A2.A7.B2AB12.4B4.13B12.4B7.A2.A.A2.A.A$2.A2BA4.2A5.BABA
14.4B3.12B14.4B5.2A4.A2BA$BA4BAB8.4B3.2A11.4B3.10B11.2A3.2B2A8.BA
4BAB$B6AB7.4B3.A.3A10.4B.B2.7B10.3A.A3.BABA7.B2A2B2AB$.B4A2B6.4B4.
A4.A10.13B10.A4.A4.A3B6.3B2A2B$3.2B2.2BAB.5B4.2A.3A12.11B12.3A.2A
4.5B.4B2.2B$6.4BABABAB3.BAB.BA15.10B14.AB.A2B3.10B$5.A3BAB2A2BA3.B
A2B17.9B17.2A2B3.11B$4.A4BAB2A3BA2.BA2B.BA13.9B15.BA.2A2B2.7B3A3B$
4.B2A2BA7B2.BAB.BA3B12.9B12.2ABAB.A2B2.7BABA3B$4.2BA2BA4BA2BAB2.2A
.A.AB13.7B13.2B.A.2A2.9BA2BA2B$4.4BA5BA4B3.A.A.2AB12.8B11.ABA.A.A
3.10BABA2B$5.9BA2BAB3.A.ABA2.A11.9B9.A2.3A.A3.2B3A6BA2B$6.8BA2BA5.
A3.3A11.10B8.3A3.A5.A3BA7B$6.8BABA2B5.3A15.3B3.4B10.3A5.2BABA8B$7.
2B.3BABA3B8.A21.4B8.A8.3B3A3B.2B$11.2BABA3B7.2A22.4B7.2A7.8B$12.B
2A2B.B2A30.4B13.2AB.5B$10.6B2.BA.A30.4B11.A.AB2.6B$10.2A9.A31.4B
10.A9.2A$11.A9.2A31.3BA8.2A9.A$8.3A44.3BA19.3A$8.A47.3AB20.A!
