#CSYNTH gun_1255 costs 8624 cells.
#C period 1255 fullperiod 1255 bbox 98 by 88
#CLL state-numbering golly
x = 98, y = 88, rule = LifeHistory
80.2A$69.2A7.2B2AB$68.B2AB6.4B$69.2B4.6B4.2A$68.2B4.8B2.B2AB$66.
17B.3B$65.18B2.B.2B$63.27B$62.29B$61.31B$60.32B$59.4B3.26B$58.4B5.
B.16B.B4.B2A$57.4B9.2B.10B8.BA.A$56.4B15.3B3AB12.A$55.4B15.4BA2BA
3B9.2A$54.4B16.3BA2B2A4B$45.A7.4B17.3B2A7B$43.3A6.4B19.11B2.2A2.2A
.2A$42.A8.4B18.4B.3BA4B2.A.A2.A.A.A$41.A.A6.4B19.2A4.3B2A2B3.B.2A
2.A.A$40.BA.A5.4B21.A4.2B2A3B2.2B2.A.A.A$39.3BA5.4B19.3A6.6B.2BAB.
A2.A$37.4B6.4B20.A8.8BA.A.3A$35.6B5.4B30.8B.A.A$34.7B4.4B32.5B4.A
2.2A$27.B.4B.8B2.4B33.6B4.2A.3A$26.2AB.17B33.6B6.B4.A$26.2A18B34.
7B3.B2AB3A$27.2B.16B35.8B.B2A.A$30.16B35.10B$31.15B34.3B2A6B$32.
12B.B2A26.2A5.2B2A6B$32.11B2.BA.A26.A5.10B$33.10B5.A26.A.AB2.11B$
33.6B2A2B5.2A26.2AB.12B$33.6B2A3B34.15B$33.10B35.16B$29.A.2AB.8B
35.16B.2B$27.3AB2AB3.7B34.18B2A$26.A4.B6.6B33.17B.B2A$27.3A.2A4.6B
33.4B2.8B.4B.B$29.2A2.A4.5B32.4B4.7B$32.A.A.8B30.4B5.6B$28.A.2A.A.
A8B8.A20.4B6.4B$28.2A.A.BA2B.6B6.3A19.4B5.A3B$31.A2.2B2.3B2A2B4.A
21.4B5.A.AB$31.2A.B3.2B2A3B4.2A19.4B6.A.A$29.2A2.A.A2.4BA3B.4B18.
4B8.A$28.A2.A2.2A2.11B19.4B6.3A$29.2A7.7B2A3B17.4B7.A$38.4B2A2BA3B
16.4B$39.3BA2BA4B15.4B$28.2A12.B3A5B13.4B$29.A11.10B.2B9.4B$29.A.A
B4.B.16B7.4B$30.2AB2.23B3.4B$32.32B$31.32B$31.31B$31.30B$31.28B$
30.4B.B5.17B$29.4B11.14B$28.4B12.14B$2A.2A22.4B14.2B4.3B$2A.2AB20.
4B3.A10.2B6.B$5.2AB4.A12.4B4.3A7.B2AB$5A2BA4.3A9.4B8.A7.2A3.2A$A3.
A.2BA6.A7.4B8.2A11.A.3A$2.A2.3B6.2A6.4B9.5B8.A4.A$.5AB7.6B.4B7.A4.
3BAB5.2A.3A$A4.B.A8.8B6.3A3.3BABAB2.2BA.BA$A.ABA3BA4.10B6.A5.4BA2B
A4B2A$.2A.3BAB3.10B.B5.2A5.4B2A5B2A.AB$4.A.AB3.BA18B6.6B2.2BA.BAB
2A$.5A5BABA15B9.5B4.2A.A.2B$.A2.BA4B.ABA12B2A2B7.7B4.A.A.ABA$2.4A
2B4.A12BA2BA2B5.4B.4B3.A.3A2.A$A.A2.A2B5.7B2.4B2A3B4.4B3.4B3.A3.3A
$2A2.2A7.7B4.9B.4B5.4B3.3A$5.A.A8.3B6.12B7.4B5.A$3.A2.A.A5.5B7.10B
9.4B3.2A$3.2A.A.A5.2A10.9B11.4B$5.A.A7.A9.9B13.4B$5.A6.3A11.7B15.
3BA$4.2A6.A13.6B17.3BA$28.2B20.3AB!
