#CSYNTH gun_5460 costs 4221 cells.
#C period 5460 fullperiod 5460 bbox 67 by 63
#CLL state-numbering golly
x = 67, y = 63, rule = LifeHistory
47.A$47.3A$50.A$30.2A3.2A12.2A$24.2A5.A3.A13.5B.B$24.A.A4.A.A.A15.
6B$26.A2.2A.A.A.2A12.8B$25.2A.A.A.A.A.A.A11.8B$26.A.A3BA.A2BA.A9.
9B$26.A.B.3B.2A2B.A9.8B$24.2A.5A2BA.2B.A.A7.8B$25.A.BABA2B2AB3A.A.
A6.7B$25.A.A6.A.A.A.A2.A4.8B$24.2A.7A2.AB2ABA.3A3.8B$26.A6.A.A2.AB
.A4.A2.5B2AB$26.A.2A2.A2.4AB2A.3A3.5B2A2B$2.A9.A14.A.A3.2A3.3B3A4.
12B$2.3A5.3A22.2A3B.2B6.8BA3B$5.A3.A25.A2.2A2B5.10BA3B$4.2A.B.2A
22.A.A2.3BAB3.B3A3BA3BA5B.B$4.7B22.2A4.BABA3.6BABA9B2A$6.3B31.ABAB
2.BABABA3BA6B.B2A$4.7B30.A6BA3BABA5B4.B$3.4BA4B8.2A18.5B.7BAB2.3B$
3.3BABA3B3.2A2.A2.A9.A6.B2A2B2.9B2.2B$4.3BA3B4.A.A2.A.A9.3A5.2A3.
9B3.4B$4.7B5.B.2A.A13.A8.5B2AB5.A4BA$3.9B3.2B2.A14.2A7.4B.B2AB4.AB
A2BA2B$.17B.A4.2A.2A5.5B3.4B8.3A.2ABABA$.15B2A.3A2.A3.A7.3B2.4B8.A
3.BA.B2AB$2BA13B2A4.A.A.2A7.9B9.4AB.4AB$.ABA8BA2B.B2.2A.A.A.A8.8B
11.A2BA.A2BA$BABA7BABAB5.A.A.A.A.B3.10B11.B4A.B4A$.BA8B2A3B4.A2.A
2.3AB.2B2A7B11.B2AB.AB3.A$3.13B.BA.A3.2A2.BA3B2A7B11.ABAB2A.3A$5.
11B.B2A6.4A12B11.2BA2BABA$5.2B2A9B8.A.2B3.7B.B2A10.A4BA$5.BA2BA8B
9.3AB2.7B.BA.A11.4B$6.B2A9B12.A4.4B5.A$7.11B7.5A5.4B5.2A16.2A$10.
8B6.A2.A8.BABA14.2A6.2A$10.9B5.2A11.B2AB12.A.A$9.5B2.4B18.A3B9.3A.
A.2A.6A$9.6B2.4B18.4B7.A5.A.A.A2.B2.A$8.6B4.4B18.4B6.2A6.2B.2A2.2A
$4.B2.3BA3B5.4B10.A7.4B.6B5.6B$2.7BABA2B6.4B9.3A6.8B7.6BA$2.7BABA
2B7.4B11.A6.10B4.2A5B$.9BA3B8.4B9.2A5.B.10B4.6B$.11B.B2A7.4B8.20B
3.B2AB2A$2.9B2.BA.A7.4B9.16B2A6BA2B$2.7B7.A8.4B7.2B2A9B2A2B2A.5BA
2B$3.6B7.2A8.4B5.2BA2BA7BABA3B4.B2AB2A$4.4B19.4B4.3B2A4B2.2B2A3B5.
6B$5.4B19.4B.9B4.7B4.2A5B$6.4B19.12B6.3B7.6BA$7.4B19.10B7.5B5.6B$
8.4B19.9B10.2A6.2B.2A2.2A$9.4B19.9B9.A5.A.A.A2.B2.A$10.4B19.7B11.
3A.A.2A.6A$11.3BA19.6B13.A.A$12.3BA20.2B16.2A6.2A$13.3AB45.2A!
