#CSYNTH gun_39 costs 858 cells.
#C period 39 fullperiod 39 bbox 33 by 26
#CLL state-numbering golly
x = 33, y = 26, rule = LifeHistory
10.2A6.A$3.A5.B2AB3.3A6.2A$3.3A3.4B2.A6.A2.A.A3.2A$6.A3.2B3.2A4.A.
A.A.3A2.A$5.2AB2.7B4.A2.A.A3.2A$5.7B2AB3.BA.A4.A.AB$7.4BA2BA2B.B2A
3.AB6A$7.5B3A4B5.AB.B.A2.A$7.12B3.2B.B5.2A$.2A3.10BA3B.2A.ABA$A2.A
2.11BA3BA.B2.A$.2A2.A3B2A4BAB2A.2A.3A5.2A$3.2ABA2B2A5B2A5BA6.A.A$.
2A2.AB.2BA5BA4B2.B4.3A$A2.2A2B2.5B3.B2.B3A3.A3.A$2A.B.B3.BABAB5.2A
4BAB.AB2A$.A.2AB2.2B2AB7.B4.AB2A$.A.BAB.4BA9.B2A.A3.3A$2.2A4.5B4.
2A2.2A.A2.2A3.A$6.8B3.A2.A.A.A.2A2.A.A$6.2A3.4B3.A.2AB2A4.3A$7.A4.
4B3.A4.A$4.3A6.4B3.4A4.A.2A$4.A9.3BA4.A5.2A.A$15.3BA5.A$16.3AB3.2A!
