#CSYNTH gun_7260 costs 4080 cells.
#C period 7260 fullperiod 7260 bbox 68 by 60
#CLL state-numbering golly
x = 68, y = 60, rule = LifeHistory
14.A2.A2.2A$14.4A3.A$12.2A4.3A$11.A2.2AB.A$12.A.A.2B.4A$2.2A7.2A.A
.BABA2.A$3.A10.A.3A$3.A.AB7.2A3B26.A2.2A$4.2AB.2A5.2B2.2B24.4A.A$
6.2B2AB8.3B28.A$7.3B9.B2AB20.7A.2A.A$6.2BAB7.2BA2BAB18.A2.B3.A.A.
2A$6.3AB6.A3B2A2B18.2A2.2A.AB$2.2A.BA.3B3.2BA7B21.B2AB2A$2.A2.ABA
4B.BA10B21.5B$3.6AB.2B2A10B22.3B$6.4B.14B14.2A5.5B$3.2A.A.A3.B3A7B
.B2A11.A2.A3.4BAB$3.2A.2A4.11B.BA.A8.BA.A.A3.3BABA2B$13.4B.4B5.A8.
3A.A3.4BABA2B$12.4B2.2BAB5.2A7.3AB5.4BA2B$4.B3.2B.3B5.2B2A14.3B3.
10B$2.B3A.3A5B5.2A2B16.3BA10B$2.B4A.2A5B6.4B15.2BABA10B$.2BA.BABAB
.2AB2A2.A3.4B15.BABA11B$AB.2A.A.4ABA.4A4.4B16.A7B2.4B$2A.A2.A.A2.B
.B10.4B14.7B5.4B$3.A2.A.2A.AB4A8.4B13.9B4.4B$3.A.2A2.A.A4.A9.4B11.
4B4.2A5.4B$4.A2.A3.A.2A11.5B9.4B5.A7.4B$5.2A4.2A.2A3.B7.5B7.4B7.3A
5.4B$18.3A5.7B5.4B10.A6.4B$18.3A4.BA2B.4B3.6B7.2A8.4B$17.2BA2B3.AB
A3.4B.7B7.A10.4B$17.2BA2B2.A3BA3.13B2.BA.A11.4B$16.3BA3B.ABABA4.
13B.B2A13.4B$16.2BABA2B.4B6.10BA3B16.3BA$15.9B.3B7.8BABA2B6.2A3.A
5.ABA$15.9B.3B8.7BABA2B7.A2.A.A5.2A$16.2BABA2B.4B9.7BA3B5.A4.A.A6.
B$16.3BA3B.ABABA9.10B5.5A.A$17.2BA2B2.A3BA10.10B8.A$17.2BA2B3.ABA
12.9B4.2AB2.A$18.3A4.BAB13.8B3.B2A3B.A$18.3A5.B3.A.2A6.10B3.4B.2A$
19.B10.2A2.A5.16B$33.A.B.19B$30.2A.2A21B10.2A$30.A.A3.2A19B2.2B5.A
$32.A.2AB.A23B.BA.A$31.A.A2.3A2B3.18B.B2A$31.A2.2A3.2B3.15BA4B$32.
2A2.3A5.14BABA4B$34.A2.A7.14BA4B$34.2A3.A6.16B.B2A$38.2A9.13B.BA.A
$49.2B2A4B2.2B5.A$50.A2BA2B10.2A$50.B2A3B$51.B.B!
