#CSYNTH gun_854 costs 4740 cells.
#C period 854 fullperiod 854 bbox 79 by 60
#CLL state-numbering golly
x = 79, y = 60, rule = LifeHistory
41.A$41.3A10.A$44.A8.A.A.2A$43.2A8.A.A.2A$43.4B5.2A.A8.2A$45.BAB2.
BAB2.4A5.A$44.BABA.B3ABA3.BA5.A$41.2A.B2A2B.BAB.2ABA2BAB2.2A$41.2A
7B2.2A.A.3BABAB2.2A$42.7B4.A.B2A2BAB4A2.A$35.2A5.7B4.A.A.B2.A.A2.A
.A$35.A7.6B5.2A.4A.A.A2.2A$32.BA.A6.8B6.A4.A.2A.A$29.B.BA.A6.4B2.
4B5.A.2A.A4.A$23.2A3.2A3BA6.4B4.4B5.2A.2A4.2A$23.A.A2.2AB.3B4.4B6.
4B$25.A3.B3.2B3.4B8.4B$25.2A5.4B.4B10.4B$26.2B3.4B.4B12.4B13.A$25.
9B.4B14.4B10.3A$25.8B.4B16.4B8.A$21.2B.8B.4B18.4B7.2A$20.11B.4B20.
4B3.5B$19.16B22.BABA2.3B$19.15B24.B2A6B7.2A$18.17B24.A7B8.A$17.17B
26.10B3.B.A.2A$17.17B26.7B2A2B.B3A2.A$17.18B25.7B2A3BAB2.2A$16.19B
25.12B4A$16.18B3.2A19.2AB.7B3.2B.A$16.17B4.A19.A.AB.7B2.B3A$16.16B
2.BA.A19.A5.4B4.A$17.16B.B2A19.2A5.4B5.5A$19.16B27.4B10.A$18.16B
19.2A6.4B9.A$8.2A8.18B18.A5.4B10.2A$8.A.A7.19B15.A6.4B$11.A2.2A2.
19B15.2A4.4B$9.2A.A2.A3.17B17.2B2.4B$8.A.A.2A4.19B15.8B6.2A$8.BAB.
B4.4B.17B13.7B7.A$2.2A5.5B2.4B2.20B2.2B2.B2.7B5.2A.A$3.A6.9B3.36B
4.A2.A$3.A.AB2.6B2AB3.10B.27B3.B2A$4.2AB.7B2A3.11B.16B2A14B$6.12B
2.10B2.16B2A13B$6.12B3.8B4.29B$6.12B5.6B11.2B.B.17B$7.5B2A2B.B2A3.
6B10.3B4.15B$7.5BABA2.BA.A3.4B7.2A.2BA5.15B$7.6BAB5.A4.5B5.A.2BA.A
5.13B$3.2A2.7B6.2A6.2A6.A2.BA.A2.13B$3.A3.6B15.A8.A3.A.A.2A4.7B$2A
.A.7B17.3A3.A.4A2.AB2A6.5B$A.2A.2A2.4B18.A2.A.A3.A.A2.B8.6B$5.A4.
4B20.A.A2.A2.2A.2A11.2A$5.A.A3.3BA20.A3.2A2.A.A12.A$6.2A4.3BA27.A.
A13.3A$13.3AB27.A16.A!
