#CSYNTH gun_1528 costs 4216 cells.
#C period 1528 fullperiod 1528 bbox 68 by 62
#CLL state-numbering golly
x = 68, y = 62, rule = LifeHistory
27.2A11.A6.2A$26.B2AB9.A.A4.A2.A$27.3B9.A.A3.A.3A2.A$26.B.B9.2A.2A
.A.A5.3A$26.5B8.B2.A.A3.2A5.A$26.6B6.2ABA2.4A.A4.2A$26.8B4.2A.A.A
3.A6.5B$27.13B2.A.AB2.A7.4B$25.13B5.A.A2B.A6.5B$24.15B5.A2B.2A6.6B
$24.15B4.3B10.6B.B$23.7B2A8B.B.2B10.6B.B2A$23.5B2ABA20B4.7B2A$22.
6B2A23B2.6B.2B$21.7B2ABA21B2.6B$20.2AB3.4B2A21B.9B3.B$19.A2.A4.37B
.B2A$18.A.2A5.6B3.B2.2B2.23B2A$18.A7.6B14.21B$17.2A6.9B14.19B$24.
4B4.2A15.16B$23.4B5.A15.17B$22.4B7.3A12.17B$22.4B9.A10.2AB.3B.10B$
21.5B19.A.AB5.9B$18.9B18.A9.8B$18.9B17.2A8.9B2.B$18.9B27.9B.B2A$
18.10B27.10B2A$17.12B27.8B.B$16.13B8.2A16.8B$17.11B9.A18.7B$18.12B
4.BA.A19.5B$18.15B.B2A10.A9.4B$18.17B12.3A7.4B$18.17B15.A5.4B$15.B
.17B15.2A4.4B$14.2A19B14.9B6.2A$14.2AB.19B14.6B7.A$15.B4.20B2.2B2.
B3.6B5.2A.A$20.36B4.A2.A$20.9B.27B3.B2A$21.7B2.16B2A14B$11.B2A7.7B
2.16B2A13B$11.3AB6.6B4.29B$10.A.2AB6.7B10.2B.B.17B$9.A.A.2B6.6B10.
3B4.15B$9.A2.A2.2B3.7B6.2A.2BA5.15B$10.2A3.3B3.5B7.A.2BA.A5.13B$4.
2A9.B2A.7B8.A2.BA.A2.13B$3.A.A8.BA2BA9B7.A3.A.A.2A4.8B$3.A8.B.2B2A
7B.2A5.A.4A2.AB2A6.6B$2A.AB.B3.BA9B5.A5.A.A3.A.A2.B8.5B$.A.A.2AB.
3A9B6.3A2.A.A2.A2.2A.2A9.B.B$.A.A.2A2B2A10B8.A3.A3.2A2.A.A9.3B$2A.
A2.5BA9B20.A.A9.B2AB$A2.4A3BA8B.B2A19.A11.2A$.2A2.BAB.BA8B.BA.A$3.
2A6.7B5.A$3.A7.2B.3BA5.2A$5.A9.3BA$4.2A10.3AB!
