#CSYNTH gun_73 costs 5780 cells.
#C period 73 fullperiod 73 bbox 85 by 68
#CLL state-numbering golly
x = 85, y = 68, rule = LifeHistory
30.2A$29.A.A9.A$25.2A2.A9.3A$25.A.A.2A7.A$27.A.4B5.2A$27.4A4BA4B3.
2A$25.2A2.BA3BABAB5.A.A$24.A2.3A.2BA2BA2B.BA.A.3A$24.2A.A4.2B2A3B.
B2A5.A23.2A$27.A4.9B6.2A23.A$27.2A3.9B6.4B18.BA.A$32.9B8.3B14.2A.B
2A$31.3BA5B2.B2.3B.3BA12.B2A2B$30.3BABA2B3A10B2A7B6.4B$29.4B2A3BA
4B2A6BABA7B3.6B14.A$28.6BA2B2A4B2A16B2.6B7.B5.3A$27.8B3A23B.2BA4B
6.2AB3.A$26.4B2.4BA28B2A3B6.2A3.2A$25.4B6.B.B.5B3.2B2.9B2A2B3A4B5.
2A5B$24.4B6.2BA2B.B13.6B2A5BA7B2.2A2B$23.4B7.BABAB17.5BA4BA10B2A4B
$22.4B3.2A3.BABAB3.2A13.5BA3BA15BABA$21.3AB4.A.BA3BA3BAB.A12.A7BA
19BA$20.3BA6.3AB.3B.B3A13.3BA17BA6BA$19.3BA9.3B.B.3B13.A2B.BAB2.
14BA2BA2BAB$18.4B6.7AB.B7A8.A.2A6.19B$17.4B7.A2.B2.BA.AB2.B2.A8.A
8.12B2.4B$16.4B9.A.A.2A3.2A.A.A8.2A7.12B3.2B2AB$3.2A10.4B11.2A.A5.
A.2A17.10B8.2A$4.A9.4B17.A.A21.4B.6B$2.A10.4B17.2A.2A19.4B3.B.B$2.
5A5.4B5.2A34.4B5.3B$7.A4.4B5.A34.4B5.B2AB$4.3AB2.7B.BA.A33.4B7.2A$
3.A.2B3.7B.B2A33.4B$3.4A12B34.ABAB$.2A2.BA3B2A7B33.B2AB$A2.3AB.2B
2A7B32.3BA$2A.A.B3.10B31.4B$3.A8.6B2A29.4B$3.2A7.5B2A2B27.4B$13.3B
2.BA2B25.4B$11.5B3.4B23.4B$11.2A7.4B21.4B$12.A8.4B19.4B$9.3A10.4B
6.A10.4B$9.A13.4B5.3A7.4B$24.4B7.A5.4B$25.4B5.2A4.4B$26.4B4.9B$27.
4B5.6B$28.4B2.2BA5B$29.7B2A6B$30.5BAB2A5B$31.6B2A5B$32.10B.B2A$34.
6B3.BA.A$34.3B2AB6.A$36.4B6.2A$36.3B$33.AB.2B$32.A.AB2AB$32.A.ABAB
AB$31.2A.A.A.A2.A$32.A2.2A.4A$30.A.A4.A$30.2A5.A.A$38.2A!
