#CSYNTH gun_324 costs 1700 cells.
#C period 324 fullperiod 324 bbox 50 by 34
#CLL state-numbering golly
x = 50, y = 34, rule = LifeHistory
33.A$22.2A7.3A5.A5.A$21.B2AB5.A7.A.A3.A.A$22.4B.2B.2A6.A.A3.A2.A$
23.9B4.3A.A.2A.A.A$13.2A7.10B3.AB3.2A.A.2A$14.A6.10B2A2.2B3A3.AB$
14.A.AB3.4BA3BA3B.4BA.AB2A.2A$15.2AB.5BABAB2A8B.2BA.2A.A$17.6BA8B
2A3B3A.BABA.A.2A$17.6BA4B3A3BA2B2.A.2A.BA2.A$18.4BA4BABA4B2.2A.A2.
A.B3.A$18.4BA3BAB.4B4.A.2A.A.4A$16.BA2.2B4AB.4B4.A4.A.A$16.2AB3.4B
.4B3.3A.3A2.A.2A.A$15.B2A8.5B2.A4.A4.A.A.2A$11.A4.AB7.5B2.B2A3.A.
3A$11.3A10.4B2.5B4.2A$14.A8.4B3.3B$13.2A7.4B3.5B$13.5B3.4B3.A6B$4.
2A9.3B2.4B3.BA7B2.2A4.2A$3.A.A8.9B5.AB3A5B2AB2.A.A$3.A8.B.8B7.BA2B
A6B3.A$2A.AB.B3.BA9B9.2BA2.5B.3A$.A.A.2AB.3A9B10.2B2.7B2.2A$.A.A.
2A2B2A10B15.A2B.2ABA2.A$2A.A2.5BA9B15.B4A3.2A$A2.4A3BA8B.B2A11.A5.
AB2A$.2A2.BAB.BA8B.BA.A10.5A.A2.A$3.2A6.7B5.A14.A.A.A$3.A7.2B.3BA
5.2A11.A4.A$5.A9.3BA17.2A$4.2A10.3AB!
