#CSYNTH gun_1169 costs 7568 cells.
#C period 1169 fullperiod 1169 bbox 86 by 88
#CLL state-numbering golly
x = 86, y = 88, rule = LifeHistory
25.2A11.A$24.B2AB9.A.A$25.3B9.A.A$24.B.B9.2A.3A$24.5B8.B4.A$24.6B
6.2AB3A4.A$24.8B4.2A.A5.A.A$25.13B7.A.A$23.13B8.2A.2A$22.15B8.B5.A
.2A$22.15B7.2AB5A.A$21.17B.B4.2A.A6.3A$21.25B3.B4A2.A$20.13B2A9B5.
BA2.A2B$19.14B2A10B2.8B$18.2AB3.32B$17.A2.A4.22B3A5B$16.A.2A5.6B3.
B2.2B.7BABA3B.B2A$16.A7.6B12.5B3A3B.BA.A$15.2A6.9B11.B.7B5.A$22.4B
4.2A15.5B5.2A$21.4B5.A14.8B13.A$15.A4.4B7.3A11.2AB2.4B10.3A$13.3A
3.4B10.A12.A4.4B8.A$12.A5.4B21.3A6.4B7.2A$12.2A3.4B22.A9.4B3.5B$
10.4B2.4B34.4B2.3B$9.3B3.4B36.9B7.2A$9.BA7B38.8B8.A$7.B2AB2A4B40.
10B3.B.A.2A$6.2B2AB2A4B40.7B2A2B.B3A2.A$7.3BA2BA2B7.A33.7B2A3BAB2.
2A$8.3B2A2B6.3A33.12B4A$7.7B6.A23.2A9.2AB.7B3.2B.A$7.10B3.2A14.2A
6.A9.A.AB.7B2.B3A$A6.5B2A8B13.B2A2B.BA.A9.A5.4B4.A$3A4.4BA2BA5B16.
4B.B2A9.2A5.4B5.5A$3.A.7B2A6B15.8B4.A5.A5.4B10.A4.4B$2.A.17B12.9B
3.3A6.A3.4B9.A4.BA4B$2.2A19B10.9B2.A6.3A3.4B10.2A2.2A4B2A$4.A21B2.
2B2.11B.2A4.A5.4B15.2A2B2A.3A$5A41B4.2A3.4B16.BA2B.2B3.A$A4.2B.4B
2AB.28B4.4B2.4B17.5B.2ABAB$3.2A3.3BAB2A17B2A12B2.AB3.4B19.ABAB.BAB
A$3.A4.3B5A16B2A13BABA6B19.BAB2A.5B$4.A2.5B3A32BAB2A4B20.A3.2B.2BA
B$3.2A3.5BAB.2B6.4B.3B.2B.13B2A3B17.A4.3A.2A2B2A$7.8B6.B3.2B10.7B
2A7B18.3A4.2A4B2A$8.6B6.2AB.3B8.8BA8B22.A4.4BAB$8.BA4B6.2A3BA8.10B
A2BA3B22.2A4.4B$2.2A4.4A3B6.B.BA.A6.12B3A5B20.6B$2.A.A2.BA3BA3B8.B
A.A5.17B2A2B21.5B$4.A2.BA3BA4B10.A3.2AB.15B2A2B20.7B$4.2A2BA2BA6B
9.2A.A.AB3.17B20.8B$8.AB5.4B9.A.A5.10B2A4B.B2A18.9B$4.5AB6.4B8.A.A
6.9B2A2B3.BA.A16.11B$4.A6.A5.4B8.A8.14B4.A17.6B.4B$7.5A6.4B16.8B4.
2A4.2A16.5B3.3BA$7.A11.4B14.9B4.A7.A12.8B4.ABA$9.A10.4B13.8B6.3A4.
3A8.10B5.2A$8.2A11.4B10.2AB.3B11.A7.A6.12B5.B$22.4B8.A.AB.5B4.2A
10.2A6.13B$23.4B7.A7.2A5.A10.5B3.12B$24.4B5.2A7.A6.A.AB9.4B2.13B$
25.4B10.A3.3A4.2AB.3B4.20B$26.4B7.3A5.A6.7B.23B$27.4B5.A15.28BA4B$
28.4B4.2A15.26BABA4B$21.2A6.9B14.27BABA4B$22.A7.6B14.30BA4B$22.A.
2A5.6B3.B2.2B2.19B.B3.B.2B3.5B$23.A2.A4.33B6.3B7.B$24.2AB3.27B.6B
6.B2AB5.3B$25.32B2.B.5B5.2A6.B2AB$26.14BA16B7.2A14.2A$27.12B3A14B
8.A$27.9B3AB2A2B.B.2B16.3A$28.8BA6B4.3B17.A$28.15B5.A2B.2A$29.13B
5.A.A2B.A$31.13B2.A.AB2.A$30.8B4.2A.A.A3.A$30.6B6.2ABA2.4A.A$30.5B
8.B2.A.A3.A.A$30.B.B9.2A.2A2.A2.A.A$31.3B9.A.A2.2A3.A$30.B2AB9.A.A
$31.2A11.A!
