#CSYNTH gun_2030 costs 6336 cells.
#C period 2030 fullperiod 2030 bbox 88 by 72
#CLL state-numbering golly
x = 88, y = 72, rule = LifeHistory
47.2A$46.B2AB11.2A.A.2A$47.3B4.A.2A.A2.A.2A2.A3.A$46.B.B5.2A.A.2A.
A4.A.A2.3A$46.5B8.B2.5A.A6.A$46.6B6.2ABA4.A7.2A$46.8B4.2A.A.AB2.A
6.5B$47.13B2.A.A2B.A7.4B$45.13B5.A2B.2A7.5B$44.15B3.3B11.6B$44.15B
3.2B12.6B.B$43.17B.4B10.6B.B2A$43.21B2A6B4.7B2A$42.13B2A7BABA6B2.
6B.2B$41.14B2A7BA8B2.6B$40.2AB3.27B.BA7B3.B$39.A2.A4.27B3A7B.B2A$
38.A.2A5.6B3.B2.2B2.7B2ABABABA8B2A$38.A7.6B14.4B2ABA3B2A8B$37.2A6.
9B14.3BA2BAB2A9B$44.4B4.2A15.AB2AB2A9B$43.4B5.A15.B2AB4A9B$42.4B7.
3A12.2B4A11B$41.4B10.A10.2AB.3B.10B$40.4B21.A.AB5.9B$39.4B22.A9.8B
$39.4B21.2A8.9B2.B$38.5B31.9B.B2A$35.9B31.10B2A$35.9B32.8B.B$19.2A
14.9B31.8B$7.A5.A.2A.A2.A13.10B31.7B$7.3A3.2A.A.2A.A12.12B31.5B$
10.A7.B2.A.A9.13B8.2A21.4B$3.2A4.2A6.2ABA.2A10.11B9.A22.4B$4.A4.5B
3.2A.A14.12B4.BA.A21.4B$4.A.AB3.8B.A14.15B.B2A10.A10.4B$5.2AB.10B.
2A13.17B12.3A7.4B$7.13B15.17B15.A5.4B$7.B2A10B12.B.17B15.2A4.4B$7.
A2BA9B11.2A19B14.9B6.2A$7.BABA12B8.2AB.19B14.6B7.A$7.2BA10BA3B8.B
4.20B2.2B2.B3.6B5.2A.A$8.11BABA2B4.2A7.36B4.A2.A$6.4B4.5B2A3B4.A8.
9B.27B3.B2A$4.3B2AB5.9B.BA.A9.7B2.16B2A14B$2A.A.A2.A6.9B.B2A10.7B
2.16B2A13B$A.2A.3A6.12B12.6B4.29B$4.A9.12B12.7B10.2B.B.17B$4.A.2A
6.12B3.A8.6B10.3B4.15B$5.A.A4.2AB.10B3.3A5.7B6.2A.2BA5.15B$11.A.AB
3.7B7.A5.5B7.A.2BA.A5.13B$11.A6.8B5.2A4.6B8.A2.BA.A2.13B$10.2A5.5B
.4B4.14B7.A3.A.A.2A4.8B$17.6B.4B5.9B.2A5.A.4A2.AB2A6.6B$16.6B3.4B
2.8B4.A5.A.A3.A.A2.B8.5B$12.B2.3BA3B4.15B3.3A2.A.A2.A2.2A.2A9.B.B$
10.7BABA2B5.14B5.A3.A3.2A2.A.A9.3B$10.7BABA2B6.13B17.A.A9.B2AB$9.
9BA3B7.10B.B2A16.A11.2A$9.11B.B2A7.3B2AB3.BA.A$10.9B2.BA.A6.3B2AB
6.A$10.7B7.A8.4B6.2A$11.6B7.2A7.3B$12.4B14.AB.2B$13.4B12.A.AB2AB$
14.4B11.A.ABABAB$15.4B7.2A.A.A.A.A2.A$16.4B6.A2.A2.2A.4A$17.3BA7.
2A4.A$18.3BA12.A.A$19.3AB12.2A!
