#CSYNTH gun_1221 costs 4560 cells.
#C period 1221 fullperiod 1221 bbox 76 by 60
#CLL state-numbering golly
x = 76, y = 60, rule = LifeHistory
38.2A3.2A.2A$38.A.A.A.A.A$35.2A.A.A.A.A.A$32.A.A2.A.A.A.A.A$30.3A.
2A3.A3.A$29.A4.B3.2A.B.2A$30.3AB2A2.7B3.2A$32.A.2A4.3B4.A.A$34.10B
3.A$36.8B2.2A9.2A$26.2A8.8B.2B10.A$27.A8.12B6.BA.A$27.A.AB5.14B.2B
.B2A$28.2AB.23B$30.25B11.A$9.A20.25B9.3A$9.3A5.2A12.24B8.A$12.A3.B
2AB10.26B7.2A$11.2A4.3B8.24B.4B3.5B$11.5B2.B2.2B2.3B2A15B.B.2B4.4B
2.3B$13.15B3A13B11.9B7.2A$12.2A13BAB3A3B.9B11.8B8.A$12.2A3B2A9BAB
3A2B2.7B13.10B3.B.A.2A$13.B.2B2A9B4A3B2.7B13.7B2A2B.B3A2.A$15.14B
2A3B4.6B13.7B2A3BAB2.2A$19.8B10.7B13.12B4A$18.8B12.6B11.2AB.7B3.2B
.A$18.7B13.7B9.A.AB.7B2.B3A$19.7B12.8B8.A5.4B4.A$10.2A7.8B6.2A2.9B
7.2A5.4B5.5A$11.A6.9B5.B2AB2.7B14.4B10.A$11.A.AB2.9B7.2B5.4B14.4B
9.A$12.2AB.12B6.2B3.B2A2B5.2A6.4B10.2A$14.18B.2BAB3.2A8.A5.4B$14.
20BA.A11.A6.4B$12.B2.2A17B.A12.2A4.4B$11.2AB.2A16B3.3A10.2B2.4B$
11.2A20B5.A9.8B6.2A$12.2B.20B13.7B7.A$16.B.20B2.2B2.B2.7B5.2A.A$
19.35B4.A2.A$18.9B.27B3.B2A$11.A7.7B2.16B2A14B$11.3A5.7B2.16B2A13B
$14.A4.6B4.29B$13.2A4.7B10.2B.B.17B$13.5B.6B10.3B4.15B$4.2A9.10B6.
2A.2BA5.15B$3.A.A8.10B7.A.2BA.A5.13B$3.A8.B.10B8.A2.BA.A2.13B$2A.A
B.B3.BA14B7.A3.A.A.2A4.8B$.A.A.2AB.3A11B.2A5.A.4A2.AB2A6.6B$.A.A.
2A2B2A10B3.A5.A.A3.A.A2.B8.5B$2A.A2.5BA9B4.3A2.A.A2.A2.2A.2A9.B.B$
A2.4A3BA8B.B2A4.A3.A3.2A2.A.A9.3B$.2A2.BAB.BA8B.BA.A15.A.A9.B2AB$
3.2A6.7B5.A16.A11.2A$3.A7.2B.3BA5.2A$5.A9.3BA$4.2A10.3AB!
