#CSYNTH gun_4763 costs 8372 cells.
#C period 4763 fullperiod 4763 bbox 91 by 92
#CLL state-numbering golly
x = 91, y = 92, rule = LifeHistory
74.B.B$73.B2A3B$73.A2BA2B10.2A$72.2B2A4B2.2B5.A$61.2A9.13B.BA.A$
57.2A3.A6.16B.B2A$57.A2.A7.BA12BA4B$55.2A2.3A5.BABA10BABA4B$54.A2.
2A3.2B3.BABA11BA4B$54.A.A2.3A2B3.2BA15B.B2A$55.A.2AB.A23B.BA.A$53.
A.A3.2A19B2.2B5.A$53.2A.2A21B10.2A$56.A.B.19B$53.2A2.A5.16B$53.A.
2A6.10B3.4B.2A$64.8B3.B2A3B.A$63.9B4.2AB2.A$32.2A28.10B8.A$33.A27.
10B5.5A.A$31.A7.2A3.2A6.A7.7BA3B5.A4.A.A$29.4A5.B2AB.B2AB4.A.A5.7B
ABA2B7.A2.A.A$28.A4.2B3.4B.3B5.BA2B3.8BABA2B6.2A3.A$27.A2.3A3B3.2B
3.B7.2B3.10BA3B$28.2A2.A22B.13B.B2A$30.2A36B2.BA.A$30.A.B.24B.7B7.
A$31.A2.24B2.6B7.2A$28.3A3.23B4.4B$28.A6.24B3.4B$35.16B6.2A4.4B$
36.12B9.A6.4B$37.10B11.3A4.4B$36.14B10.A5.4B$35.16B16.4B$34.4B.12B
17.4B$33.4B3.11B18.4B$32.4B2.4B.8B19.4B$31.4B3.2A4.7B20.4B$30.4B5.
A4.7B21.4B$29.4B3.3A6.6B22.4B$28.4B4.A8.7B22.4B$27.4B14.8B22.4B$
26.4B16.8B22.4B$25.4B17.8B23.4B$24.4B17.6B2.B2A22.4B$9.A13.4B18.7B
.BA.A22.4B$9.3A10.4B20.6B4.A23.4B$12.A8.4B21.6B4.2A23.4B$11.2A7.4B
13.2A7.2B2AB7.A23.4B$11.5B3.4B13.A.A2.2A2.3B2AB5.3A24.4B$13.3B2.4B
13.A2.A.A.A2.7B3.A28.4B$3.2A7.9B14.2ABA.AB3.6B4.2A4.2A22.4B$3.A8.
8B18.AB2A2.7B.5B4.A24.4B$2A.A.B3.10B16.2A.A3B3.10B3.BA.A25.3BA$A2.
3AB.2B2A7B14.A2.ABAB.4B.11B.B2A27.ABA$.2A2.BA3B2A7B14.2A2.AB.2B2A
15B30.2A$3.4A12B20.2BA2BA.10B2AB31.B$3.A.2B3.7B.B2A12.2A2.AB.2B2A
11BA2BA$4.3AB2.7B.BA.A11.A2.ABAB.4B.9BABAB$7.A4.4B5.A13.2A.A3B4.
10BA2B$2.5A5.4B5.2A15.AB2A4.12B$2.A10.4B18.2ABA.AB5.5B4.4B$4.A9.4B
17.A2.A.A.A4.4B5.B2A3B$3.2A10.4B17.A.A2.2A3.4B7.A2.A.A.2A$16.4B17.
2A6.4B9.3A.2A.A$17.4B23.4B13.A$18.4B21.4B11.2A.A$19.4B19.4B12.A.A$
20.4B10.A6.4B$21.4B7.3A5.4B$22.4B5.A7.4B$23.4B4.2A5.4B$24.9B4.4B$
25.6B5.4B$25.8B2.4B$23.15B$23.10B3AB$23.7BA4BA$21.2AB.5BA3BA$20.A.
AB3.6B$20.A6.B2A2BA$19.2A6.BA2B$28.ABA$29.2B.2A$28.A4B.A$27.BA3BA.
A$25.A2.B.A.A.A.2A$25.4A.2A2.A2.A$29.A4.2A$27.A.A$27.2A!
