#CSYNTH gun_3564 costs 2852 cells.
#C period 3564 fullperiod 3564 bbox 62 by 46
#CLL state-numbering golly
x = 62, y = 46, rule = LifeHistory
24.2A$22.2B2AB$22.2B2A$22.2BA$4.2A4.2B4.2A4.BABA3.B$3.A2.A.6B.A2.A
4.BA.A.3A12.B2AB$3.3A2.6B2.3A6.AB4A11.B4A$6.10A9.BA3B12.A2BABA$5.A
2.6A2.A9.4B10.BA.A.B2A$5.2A.B4AB.2A5.2A7.2B6.BABA3.B$10.2B11.A5.A
2B2A5.2AB$10.2B11.A.AB.BA3BA5.3AB$11.B12.2AB.6B2AB2.BABAB$10.2AB
13.5BA2BA2BAB2.2A$9.A2BAB5.2A5.4BABA2BABAB$7.3B2A3B4.A6.B2A2BA2BA
2BAB$7.8B.BA.A6.B2A5B2A3B$6.9B.B2A8.2B2AB2A6B$5.B2A9B10.2BABABA7B
7.A$4.BA2BA8B10.7B.7B6.3A$5.B2A9B3.A6.3B3AB2.7B8.A$7.10B3.3A5.5B4.
7B6.2A$9.7B7.A4.5B5.7B5.5B$9.8B5.2A4.5B.B4.7B6.4B$8.5B.4B4.9B2.3AB
3.7B4.5B$8.6B.4B5.6B3.B3A4.7B2.7B$7.6B3.4B2.8B5.B6.7B.7B$3.B2.3BA
3B4.15B11.14B$.7BABA2B5.14B12.13B$.7BABA2B6.13B13.13B$9BA3B7.10B.B
2A11.10B2AB$11B.B2A6.2BA4B3.BA.A10.10B2AB$.9B2.BA.A4.2BABA4B5.A6.
2A2.13B$.7B7.A4.2BABA3B6.2A4.B2A2B2.9B.B2A$2.6B7.2A5.BA4B13.4B5.6B
.BA.A$3.4B15.5B15.A2B5.5B5.A$4.4B15.3B11.B3.ABAB6.2B7.2A$5.4B13.5B
9.2AB.A.BA10.A2BA$6.4B12.2AB2AB8.2ABA2B12.3BAB$7.4B7.2A2.BA.2A2.2A
6.3B2A11.A4BA$8.4B6.A2.A.A3.B2.A6.4B12.2AB.A.AB$9.4B7.2A.7A24.B3.A
B2A$10.4B8.A36.3B$11.3BA7.A.4A30.4B$12.3BA7.2A2.A29.BA2BA$13.3AB
41.2A!
