#CSYNTH gun_3150 costs 2736 cells.
#C period 3150 fullperiod 3150 bbox 72 by 38
#CLL state-numbering golly
x = 72, y = 38, rule = LifeHistory
51.A$44.B5.ABA$43.BAB4.3B$18.A24.3A3.5B$18.3A21.ABABA2.B3AB$21.A
20.BABAB.2B3A2B$8.AB10.2A21.4B.3BA3B$7.B.2A9.4B19.3B.9B$7.2A.B11.
2B19.3B.9B$8.BA3.3B4.8B15.4B.3BA3B$11.7B.4BA6B3.2A7.BABAB.2B3A2B$
9.14BA6B2.B2AB6.ABABA2.B3AB$4.19BA6B3.3B7.3A3.5B$3.27B4.B2.2B4.BAB
4.3B$4.15B3A19B.3B5.ABA$5.40B6.A$6.40B$4.16B4A3B3A17B12.A$2A2.12B
3.AB3A17B3.4B9.3A$A2.AB2A8B3.3B2A11B.B9.4B7.A10.B$.3ABABA11.5B.6B
15.4B6.2A8.BAB$5.A.A9.4B3.7B8.A7.4B.6B8.3A$3.2A.A10.2A6.4B.B2A6.3A
6.8B9.5B$2.A.A.A.A9.A7.B3.BA.A8.A6.10B6.5B$3.A3.2A6.3A7.BAB5.A7.2A
5.B.10B4.2B3A2B$15.A9.BAB5.2A6.18BAB3.7B$26.A16.15BABA5BABA3B$42.
2B2A12BABA.4BABA3B$41.2BA2BA12BA4.7B$26.2B13.3B2A4B2.7B5.2B3A2B$
24.6B6.2B.9B4.7B6.5B$22.10B.14B6.3B9.5B$20.3B8A15B7.5B8.3A$19.4BAB
4ABA15B10.2A8.BAB$20.3B8A3B.12B9.A10.B$22.10B4.3BA6B11.3A$24.6B7.
3BA5B13.A$26.2B10.3A3B!
