#CSYNTH gun_818 costs 5103 cells.
#C period 818 fullperiod 818 bbox 81 by 63
#CLL state-numbering golly
x = 81, y = 63, rule = LifeHistory
26.2A11.A$25.B2AB9.A.A$26.3B9.A.A2.2A3.A$25.B.B9.2A.2A2.A2.A.A$25.
5B8.B2.A.A3.A.A$25.6B6.2ABA2.4A.A$25.8B4.2A.A.A3.A$26.13B2.A.AB2.A
15.2A$24.13B5.A.A2B.A14.A$23.15B5.A2B.2A11.BA.A$23.15B4.3B12.2A.B
2A14.A$22.17B.B.2B12.B2A2B15.A.A$22.29B6.4B15.A.A$21.13B2A16B3.6B
14.2A.2A$20.14B2A16B2.6B16.B$19.2AB3.27B.7B9.2A4.2AB2A$18.A2.A4.
35B6.2B2AB3.2A.A$17.A.2A5.7B2.B2.2B2.20B5.4B5.B3.A$17.A7.7B13.21B.
10B2.2A$16.2A6.8B15.30B$23.4B2.2B17.30B$22.4B4.2A15.31B$21.4B6.A
15.30B$20.4B5.A15.2AB.3B2.22B$19.4B6.2A13.A.AB6.22B$18.4B22.A8.12B
3.9B$17.4B22.2A7.12B5.9B$16.4B31.10B6.5B3.4B$3.2A10.4B31.4B.6B6.2A
7.4B$4.A9.4B31.4B3.B.B9.A8.3BA$2.A10.4B31.4B5.3B5.3A10.ABA$2.5A5.
4B5.2A24.4B5.B2AB5.A13.2A$7.A4.4B5.A24.4B7.2A21.B$4.3AB2.7B.BA.A
23.4B$3.A.2B3.7B.B2A23.4B$3.4A12B24.4B$.2A2.BA3B2A7B23.4B$A2.3AB.
2B2A7B22.4B$2A.A.B3.10B21.4B$3.A8.8B19.4B$3.2A7.9B6.A10.4B$13.3B2.
4B5.3A7.ABAB$11.5B3.4B7.A5.B2AB$11.2A7.4B5.2A4.3BA$12.A8.4B4.9B$9.
3A10.4B5.6B$9.A13.4B2.8B$24.15B$25.14B$26.13B$27.10B.B2A$29.3B2AB
3.BA.A$29.3B2AB6.A$31.4B6.2A$31.3B$28.AB.2B$27.A.AB2AB$27.A.ABABAB
$24.2A.A.A.A.A2.A$24.A2.A2.2A.4A$26.2A4.A$32.A.A$33.2A!
