#CSYNTH gun_3570 costs 3355 cells.
#C period 3570 fullperiod 3570 bbox 61 by 55
#CLL state-numbering golly
x = 61, y = 55, rule = LifeHistory
36.A$24.A9.3A$23.A.A7.A22.B$7.2A14.A.A7.2A20.3B$5.2B2AB11.3A.2A3.
5B20.3B$5.4B11.A4.B4.3B21.5B$5.2BA13.3AB2AB.5B3.AB15.B3AB$5.BABA3.
B10.A.2AB.2BA3B.B2A3.B2AB7.2BABA2B$6.AB.A.B2A13.3B3A2B2.3BA.4A.A5.
2B3A2B$8.2BAB2A13.2BA3BA2B2.A.3B2.3BA3.3B3A3B$8.2A3B14.2BAB2A3B2.
2A.BA2.A2B.A2.3B3A3B$9.4B7.2B6.2B2A4B3.A.B2.B2.2A4.2B3A2B$13.2B4.
5B4.8B3.A.4AB7.2BABA2B$12.BA3B2.6B.9B5.2A.2A9.B3AB$11.BABA14B.5B
19.5B$8.7BA3B2A12B22.3B$7.4BA2BA3BA2BA10B22.4B$7.4B3A5B2A4B3.4B22.
3B$6.18B5.4B21.4B$6.16B8.4B19.6B$6.12B2A2B9.4B18.7B$6.12BABA2B2.2A
5.4B18.6BA$7.12B2AB.2B2AB5.4B7.2A7.5BABA$6.16B.4B7.4B7.A7.6B2A$5.
15B3.3B9.4B6.A.AB2.10B$2A3.16B2.B3A3.B5.4B6.2AB.11B$A.A2.16B3.2A.A
.B2A5.4B7.3BA9B$2.A2.16B5.2A2B2A6.4B6.2BABA7B$2.2A.16B5.2A3B8.4B5.
2BABA7B$4.16B7.4B9.4B4.3BA3B2.B$4.16B21.4B3.6B$4.15B23.4B.6B$5.11B
27.4B.5B$6.2B2.5B29.8B$12.2B31.7B$14.B2AB26.10B$14.4AB25.12B$13.AB
A2BA25.12B$13.2AB.A.AB23.12B$14.B3.ABAB20.2AB.8B.B2A$19.B2A19.A.AB
.8B.BA.A$18.B3A19.A4.3B2A3B4.A$17.BABAB18.2A5.BA2BA6.2A$18.2A28.B
2A$49.B$49.2B$49.2B$47.6B$45.10B$43.BA2BAB2ABA2BAB$42.B2A2BA4BA2B
2AB$43.BA2BAB2ABA2BAB$45.10B$47.6B$49.2B!
