#CSYNTH gun_2861 costs 12180 cells.
#C period 2861 fullperiod 2861 bbox 116 by 105
#CLL state-numbering golly
x = 116, y = 105, rule = LifeHistory
35.2A2.A$34.A.4A$34.A$32.2A.7A$30.A2.A.A3.B2.A$30.2A2.BA.2A2.2A$
34.2AB2AB$34.5B$35.3B$34.5B$34.B2A3B$32.B2A2BA2B6.2A$32.B2A3BA2B5.
A$33.4BA2B3.BA.A$32.2B2A6B.B2A$31.3B2A8B$30.6BA7B$29.15B$28.4B2.8B
$12.2A13.4B5.6B$12.A13.4B4.9B$7.2A5.A10.4B5.2A4.4B$7.A5.2A9.4B7.A
5.4B$4.2A.A.3B11.4B5.3A7.4B$4.A2.A.2A2B2A7.4B6.A10.4B$6.2A.A.2B2AB
5.4B19.4B$9.A.4B5.4B21.4B$9.2A.4B3.4B23.4B$12.3BA6B25.4B$2A.2A7.2B
ABA4B27.4B25.A11.2A$2A.A8.3BA4B29.4B23.A.A9.B2AB$3.A.B3.10B14.2A
15.4B10.A3.A3.2A2.A.A9.3B$3.3AB.2B2A7B14.A.A15.4B7.3A2.A.A2.A2.2A.
2A9.B.B$.2A2.BA3B2A7B16.A4.2A10.4B5.A5.A.A3.A.A2.B8.5B$A2.4A12B12.
4A.2A2.A2.A9.7B.2A5.A.4A2.AB2A6.6B$2A.A.2B3.7B.B2A10.A2.A.A.A.A.2A
10.9B7.A3.A.A.2A4.8B$.A2.3AB2.7B.BA.A11.BABABA.A14.6B8.A2.BA.A2.
13B$.A5.A4.4B5.A12.B2ABA.A15.5B7.A.2BA.A5.13B$2.5A5.4B5.2A12.2B.BA
15.7B6.2A.2BA5.15B$4.A8.4B17.3B19.6B10.3B4.15B$14.4B7.2A6.4B19.7B
10.2B.B.17B$15.4B7.A6.B2A3B17.6B4.29B$16.4B6.A.AB3.B2A3B17.7B2.16B
2A13B$17.4B6.2AB.10B15.7B2.16B2A14B$18.4B7.13B13.9B.27B3.B2A$19.4B
6.14B12.36B4.A2.A$20.4B5.15B6.B4.20B2.2B2.B3.6B5.2A.A$21.4B6.8B2.
4B4.2AB.19B14.6B7.A$22.4B5.6B5.4B3.2A19B14.9B6.2A$23.4B3.9B4.4B3.B
.17B15.2A4.4B$24.4B.4B4.2A5.4B5.17B15.A5.4B$25.7B5.A3.A3.4B4.17B
12.3A7.4B$26.5B7.4A4.4B3.15B.B2A10.A10.4B$26.5B16.4B2.12B4.BA.A21.
4B$25.7B4.4A8.15B9.A22.4B$24.4B.4B3.A2.3A7.15B8.2A22.4B$23.4B3.4B
8.A7.14B33.4B10.2A$22.4B5.4B6.A.A7.12B35.4B9.A$21.4B7.4B5.A.AB7.
10B37.4B10.A$20.4B9.4B5.A3B7.9B31.2A5.4B5.5A$19.4B11.4B6.4B5.9B32.
A5.4B4.A$18.4B13.4B5.6B5.6B33.A.AB.7B2.B3A$17.4B15.4B4.7B.2B2.5B
34.2AB.7B3.2B.A$4.2A10.4B17.4B2.8B.9B36.12B4A$5.A9.4B19.24B35.7B2A
3BAB2.2A$3.A10.4B21.24B34.7B2A2B.B3A2.A$3.5A5.4B5.2A15.19B2.4B33.
10B3.B.A.2A$8.A4.4B5.A16.18B4.4B31.8B8.A$5.3AB2.7B.BA.A16.16B7.4B
29.9B7.2A$4.A.2B3.7B.B2A15.2AB.13B9.4B27.4B2.3B$4.4A12B16.A.AB2.
11B11.4B25.4B3.5B$2.2A2.BA3B2A7B16.A5.10B3.2A8.4B23.4B7.2A$.A2.3AB
.2B2A7B15.2A5.2B2A6B3.A10.4B21.4B8.A$.2A.A.B3.10B21.3B2A6B4.A10.4B
19.4B10.3A$4.A8.8B21.10B3.2A11.4B10.A6.4B13.A$4.2A7.9B20.8B.B2A15.
4B7.3A5.4B$14.3B2.4B18.7B3.B2AB2A13.4B5.A7.4B$12.5B3.4B17.6B6.B.A
15.4B4.2A5.4B$12.2A7.4B17.6B4.2A3.A14.9B4.4B$13.A8.4B16.8B.A2.4A
15.6B5.4B$10.3A10.4B14.9BA.A.A18.8B2.4B$10.A13.4B4.A8.7B.2BAB.A.2A
13.15B$25.4B3.3A6.6B3.2B2.A.A14.14B$26.4B5.A4.7B4.B.2A2.A13.13B$
27.4B3.2A4.7B3.A.A2.A.A11.2AB.10B$28.4B2.4B.8B3.2A2.A.A11.A.AB3.B
2A3B$29.2B2A3.11B8.A12.A6.B2A3B$30.BABA.12B20.2A6.4B$31.A15B29.3B$
32.14B10.A20.2B.BA$33.10B11.3A19.B2ABA.A$32.12B9.A21.BABABA.A$31.
16B6.2A18.A2.A.A.A.A.2A$24.A6.24B18.4A.2A2.A2.A$24.3A3.23B24.A4.2A
$27.A2.24B21.A.A$26.A.B.24B21.2A$26.2A27B$24.2A2.A22B.4B$23.A2.3A
3B3.2B3.B7.2B3.4B$24.A4.2B3.4B.3B5.BA2B3.4B$25.4A5.B2AB.B2AB4.A.A
5.4B$27.A7.2A3.2A6.A7.3BA$29.A27.3BA$28.2A28.3AB!
