#CSYNTH gun_1845 costs 2856 cells.
#C period 1845 fullperiod 1845 bbox 56 by 51
#CLL state-numbering golly
x = 56, y = 51, rule = LifeHistory
6.2A13.2A5.A$3.A.A2.A11.A.BABA.A.A.2A$3.2A2.2A11.2A.2BABA.A.2A$.2A
14.5B2.B2.A.A$A.A.7A.2A2.2A2B4.4A.6A$3A.A5.A.A.B.2BA2B4.2B.A3.B2.A
3.2B5.2A$.BA.A.2A4.A.A3BA2B7.3AB2.2A3.4B2.A.A$5A.A.A3.AB2AB2A3B7.B
A7.8BA$BA2.BA2.A4.2A.3A3B16.7B6.B$B2A3B2.3A5.B2A3B.2B7.A6.6B5.3B$.
A.2A6.A4.B2A2B.4B4.3A7.6B4.BAB$3AB6.2A2.4BA9B.A9.7B3.B3AB$2B8.6BAB
A9B2.A8.3BA3B3.5A$.2B9.4BA2B2A6B4A6.B2.B3A2B2.7B$A2BA7.10BA5BA5.2A
.3A.2ABA2B2.7B$.2A8.3BA4BABA4B.2BA.A2.A.5A15B$.3B.2B4.3BA9B4.2A.2A
4.2B.2ABA12B$.12B2A4BA4B16.B3A3B.7B$14BABA3BA5B13.3BA12B$9B2A4B2AB
A8B12.9B.5A$9B2A4BA4B2A6B12.6B3.B3AB$2.26B12.6B4.BAB$4.B.11BABA6B.
B2A9.7B4.3B$10.8BA7B.BA.A8.7B5.B$12.13B5.A9.6B$5.2A6.5B.5B6.2A7.6B
$6.A5.13B14.6B$6.A.AB.7BA8B12.6B$7.2AB.6BABA11B.B7.4B$9.29B.4B$9.
6B2A4BA4B2A14B$10.8BAB2A4B2A15B$11.5BA3BABA21B$13.4BA4B2A14B3.4B$
4.2A.2A4.9BA3B4.2B2.4B4.4B$2.A2.A.A2B.4BABA4BA3B8.4B5.4B$2.2A5.A5B
A10B8.2B2AB5.4B$6.4A6B2A2BA4B8.A.A2BAB5.4B$6.A2.9BABA6B4.3A.A.2AB
6.4B$7.A.9BA4B2.2A3.A4.A2.4B5.4B$4.3A4.4B.2B2AB4.A5.3A.A4.2A6.4B$
4.A7.2B.3B2AB5.3A4.2A5.A8.4B$15.3B3A.2A4.A12.3A6.4B$6.AB7.3B2AB2AB
A18.A7.4B$.2A2.B3A7.2BA3BA.A27.3BA$.A2.B3.A.2B4.2BA2B.B.A.2A25.ABA
$2.6A.4A4.2B2A2.2A.2A26.2A$7.A.A2.B2.5B35.B$4.2A.A.ABA2B.2A$4.2A.A
.A.ABAB.A$8.A5.2A!
