#CSYNTH gun_810 costs 2236 cells.
#C period 810 fullperiod 810 bbox 52 by 43
#CLL state-numbering golly
x = 52, y = 43, rule = LifeHistory
10.2A35.A$8.A4BA32.A.A$6.BA6BAB30.A.A$4.2BA8BA2B9.A15.2A.A.A.2A$3.
3BA8BA3B8.3A13.A.A.A.A.A$4.2BA8BA2B12.A14.A3.A$6.BA6BAB13.2A13.2A.
B.2A$8.A4BA15.5B4.B2A3.7B$10.2A19.3B3.B3A2B3.BAB$10.2B17.6B2.4BAB
2.2BA2B$11.B17.8B5A2.2BABA2B$10.2AB16.8B4A2B.3BA3B$.2A6.A2BAB5.2A
7.9BAB2A6BA4B$2.A4.3B2A3B4.A8.9BAB2A6BA4B$2.A.AB.8B.BA.A8.7B2A3BAB
2.3BA3B$3.2AB.8B.B2A7.2AB.5BA3BA2B2.2BABA2B$5.12B4.2A2.A.AB.12B3.
2BA2B$5.12B5.A2.A5.5B5AB4.BAB$5.12B3.A2.3A5.4B.2AB2A3.7B$7.10B3.3A
7.4B3.3B4.2A.B.2A$9.7B7.A5.4B4.3B5.A3.A$9.8B5.2A4.4B5.3B3.A.A.A.A.
A$8.5B.4B4.9B5.2A.2A2.2A.A.A.2A$8.6B.4B5.2BA3B6.2A.2A5.A.A$7.6B3.
4B2.4BABAB8.A7.A.A$3.B2.3BA3B4.9B2A4B6.3A6.A$.7BABA2B5.14B5.2A.3A$
.7BABA2B6.13B4.A.B4.A$9BA3B7.10B.B2A2.A.AB2A.A$11B.B2A6.4B2AB3.BA.
A.A.A2.A.2A$.9B2.BA.A4.5B2A2B5.A.A.A.A$.7B7.A4.8B6.2A3.A$2.6B7.2A
5.6B$3.4B15.5B$4.4B15.3B$5.4B13.5B$6.4B12.2AB2AB$7.4B7.2A2.BA.2A2.
2A$8.4B6.A2.A.A3.B2.A$9.4B7.2A.7A$10.3BA8.A$11.3BA7.A.4A$12.3AB7.
2A2.A!
