#CSYNTH gun_2050 costs 4875 cells.
#C period 2050 fullperiod 2050 bbox 65 by 75
#CLL state-numbering golly
x = 65, y = 75, rule = LifeHistory
30.A16.A$29.A.A13.3A$21.A3.2A2.A.A12.A$20.A.A2.A2.2A.2A11.2A$20.A.
A3.A.A2.B8.6B$21.A.4A2.AB2A6.5B$23.A3.A.A.2A4.7B$5.2A15.A2.BA.A2.
13B$6.A14.A.2BA.A5.2BA10B$6.A.AB11.2A.2BA5.A3BA10B$7.2AB.2A12.3B4.
A4BA9B$9.2B2AB12.2B.B.2B3A2BA9B$9.4B6.18BA10B$9.6B3.31B$10.6B2.32B
$10.7B.27B3.B2A$.2A6.35B4.A2.A$2.A5.20B2.2B2.B3.6B5.2A.A$2.A.AB2.
17B14.6B7.A$3.2AB.16B14.9B6.2A$5.17B15.2A4.4B12.A$5.18B15.A5.4B9.
3A$7.16B12.3A7.4B7.A$8.8B2.3B.B2A10.A10.4B6.2A$9.8B5.BA.A13.2A6.4B
2.5B$10.8B7.A3.A10.A7.8B$8.5B2.4B6.A.3A10.A.AB5.8B$8.2A6.4B6.A14.
2AB.3B2.8B$9.A7.4B6.A15.16B$6.3A9.4B4.2A15.18B$6.A12.4B2.2B17.17B$
12.2A6.8B15.16B.B2A$13.A7.7B13.17B2.BA.A$13.A.2A5.7B2.B2.2B2.20B5.
A$14.A2.A4.35B6.2A$15.2AB3.27B.7B$16.14B2A16B2.6B$6.2A9.13B2A16B3.
6B$5.A.A10.29B6.4B$5.A7.2A3.17B.B.2B12.B2A2B$6.4A3.A5.15B4.3B12.2A
.B2A$4.A.A3.A4.A3.15B5.A2B.2A11.BA.A$3.A.A2.BA2B2.2A4.13B5.A.A2B.A
14.A$3.A4.BABABA2.2A4.13B2.A.AB2.A15.2A$2A.2A3.2B2A3BAB.AB.8B4.2A.
A.A3.A$A2.A.2B.2B2AB.B3A9B6.2ABA2.4A.A$.A.A.2A2.B2A3BAB.AB3.4B7.B
2.A.A3.A.A$2A2.A2.A.A.ABA2.2A6.4B5.2A.2A2.A2.A.A$2.A.A2.2A.A3.2A9.
4B5.A.A2.2A3.A$2.2A6.A.2A2.4A6.4B4.A.A$10.2A.A2.A2.A7.4B4.A$28.4B
12.A$15.B13.4B9.3A$14.2AB2.BA9.4B7.A11.A$13.B2AB.BA.A9.4B6.2A9.A.A
$13.B.5BA3.A7.4B.6B9.A2.A$12.6B.B4.3A6.8B8.2A.4A$8.B3.5B10.A6.10B
5.A.A$7.2AB.2A5B8.2A5.B.10B6.A.A3.2A$7.2A2B2A6B7.18BAB4.6A2.A$8.B.
10B8.15BABA3BA.2B3.2A$12.2B2.5B6.2B2A12BABA.2BA3BABA$12.B4.5B4.2BA
2BA12BA4.A3B.2B2A$10.B3A4.5B3.3B2A4B2.7B7.A2.BA2.A$6.2A2.3ABA4.14B
4.7B13.2A$6.A2.A.A2BA5.12B6.3B$7.A.A2B.B7.10B7.5B$8.A2.3B8.9B10.2A
$9.5AB8.9B9.A$12.2AB9.7B11.3A$9.2A2BAB10.6B13.A$8.A2.ABABA11.4B$8.
2A2.4BA11.3BA$13.A2B.A11.3BA$15.2A13.3AB!
