#CSYNTH gun_1485 costs 2420 cells.
#C period 1485 fullperiod 1485 bbox 55 by 44
#CLL state-numbering golly
x = 55, y = 44, rule = LifeHistory
16.2A5.2B$16.A.A2.BA2B22.2A$17.A3BABA2B21.A$12.B6.3B2A2B18.A4.A$
11.3B5.3BA2B19.5A.A$11.3B4.6B18.2A4.A.A2.A$10.B3AB3.BABA3B16.A2.2A
3B.A.A.A$10.A3BA3.2BA4B13.A2.3A2.2AB.A2.A$9.A5BA2.2BA3B2.B11.3A3.
2A3B2A$9.7B2.6B.B2A13.A2.A.AB.B$8.A7BA9B2A12.2A3.AB$8.A7BA7B.2B13.
5B$9.7B.3BA3B16.5B$9.A5BA4BA4B14.7B$10.A3BA.3BABA3B4.A8.8B$10.B3AB
3.6B5.3A7.8B$11.3B4.4BAB8.A5.4BA9B$11.3B4.4B2AB6.2A4.3B2A12B$12.B
6.BA2BAB6.5B2.2B2A13B$18.2B3AB9.3B.4BA12B$19.2BA2B5.12BABA8B$19.5B
4.22B$11.A7.5B4.22B$11.3A6.4B4.22B$14.A6.4B.8BABA12B$13.2A7.14BA4B
.3B$13.5B3.15B2A2B2.5B$4.2A9.3B2.16B2A3B4.2A$3.A.A8.9B3.9BA4B5.A$
3.A8.B.8B9.8B7.3A$2A.AB.B3.11B11.8B8.A$.A.A.2AB.12B11.7B$.A.A.2A
14B12.5B$2A.A2.5B2A8B12.5B$A2.4A3BA2BA5B.B2A8.BA3.2A$.2A2.BAB.2B2A
6B.BA.A4.B.BA.A2.A$3.2A6.7B5.A3.2A3B2A3.3A$3.A7.2B.4B5.2A2.A.B2A2.
3A2.A$5.A9.4B6.A.A.3B2A2.A$4.2A10.4B5.A.A.A4.2A$17.4B5.2A.5A$18.3B
A6.A4.A$19.3BA5.A.A$20.3AB5.2A!
