#CSYNTH gun_3384 costs 2650 cells.
#C period 3384 fullperiod 3384 bbox 53 by 50
#CLL state-numbering golly
x = 53, y = 50, rule = LifeHistory
32.A3.2A$31.A.A2.A$31.A.A4.A$32.A.5A$2.A9.A21.A$2.3A5.3A20.A2.B2A
5.2A$5.A3.A22.A.3B2AB4.A$4.2A.B.2A21.2A.5B.BA.A$4.7B25.3B2.B2A6.A$
6.3B26.8B5.3A$4.7B23.3BA4B5.A$3.4BA4B8.2A10.3B4A3B5.2A$3.3BABA3B3.
2A2.A2.A6.2B.2B2A3BA2B3.4B$4.3BA3B4.A.A2.A.A5.2A3BA3B2A2B3.3B$4.7B
5.B.2A.A6.2AB.2B4A9B$3.9B3.2B2.A9.B.4BA3B3A4B5.2A$.17B.A12.14B5.A$
.15B2A.2A11.6BABAB2A3B.BA.A$2BA13B2A.A12.6BABAB2A3B.B2A$.ABA8BA2B.
B4.A8.2AB.8BA6B$BABA7BABAB5.2A7.A.AB.15B$.BA8B2A3B4.A8.A5.14B$3.
13B.BA.A7.2A5.A14B.B$5.11B.B2A14.BABA11B.B2A$5.2B2A9B15.2B2A3.11B
2A$5.BA2BA8B3.A10.4B3.10B.2B$6.B2A9B3.3A7.4B4.10B$7.11B6.A5.4B5.8B
$10.8B5.2A4.4B5.8B$10.9B4.9B5.2AB2.3B$9.5B2.4B5.6B5.A.AB.5B.2A$9.
6B2.4B2.8B5.A4.B2A3B.A$8.6B4.15B2.2A5.2AB2.A$4.B2.3BA3B5.14B13.A$
2.7BABA2B6.13B9.5A.A$2.7BABA2B7.10B.B2A7.A4.A.A$.9BA3B8.7B3.BA.A8.
A2.A.A$.11B.B2A5.9B5.A7.2A3.A$2.9B2.BA.A4.4B2A2B6.2A$2.7B7.A6.2B2A
2B$3.6B7.2A5.5B$4.4B16.3B$5.4B14.5B$6.4B13.2AB2AB$7.4B8.2A2.BA.2A
2.2A$8.4B7.A2.A.A3.B2.A$9.4B8.2A.7A$10.3BA9.A$11.3BA8.A.4A$12.3AB
8.2A2.A!
