#CSYNTH gun_6720 costs 2392 cells.
#C period 6720 fullperiod 6720 bbox 52 by 46
#CLL state-numbering golly
x = 52, y = 46, rule = LifeHistory
14.B.B$12.3B2AB14.2B$2A10.2BA2BA12.6B$.A5.2B2.4B2A2B11.7B$.A.AB.
13B10.9B$2.2AB.16B8.9B$4.4BA12BAB7.10B$3.4BABA10BABAB5.12B$4.4BA
11BABAB4.9B.4B$2.2AB.15BA2B2.4B2A3B4.4B$.A.AB.23BA2BA2B5.4B$.A5.2B
2.5B2A12B2A2B7.4B$2A10.3BABA15B9.4B$12.4BA18B8.4B$12.14B.B5.2A9.4B
$8.2A.4B2.9B7.A11.4B$8.A.3B2AB4.7B7.3A9.4B$9.A2.B2A3.10B8.A10.4B$
10.A7.2A5.4B19.3BA$8.A.5A4.A6.4B19.ABA$7.A.A3.A2.3A3.2A3.4B19.2A$
7.A2.A4.2A4.A.A4.4B9.4B.2A3.B$8.2A8.4A7.4B7.B3A2BA.A$15.2A.A3.A7.
4B6.BA2B3A.A$15.A.A3.2A8.4B4.BAB3ABA.2A$21.4B7.4B3.3AB.4A.BAB$23.
5B.B3.4B2.3A2B3.2B3A$22.B2A13B.BAB.4A.B3A$23.2A14B2.2A.AB3ABAB$23.
3B3A10B3.A.3A2BAB$22.17B3.A.A2B3AB$14.2B6.2BA5BA8B4.2A.4B$14.3A3.
4BA5BA6B.B2A$12.BA3B3.4BA5BA2B5.BA.A$12.BA3BA3.12B8.A$13.A2BA.A2.
5B3A2B10.2A$15.A.A2BAB.6B$16.A3BAB2.5B$17.3BAB4.B$17.3A5.2B$18.2B
3.B4AB$22.B6AB$22.BA4BAB$24.A2BA$22.A.A2.A.A$22.2A4.2A!
