#CSYNTH gun_1173 costs 5250 cells.
#C period 1173 fullperiod 1173 bbox 70 by 75
#CLL state-numbering golly
x = 70, y = 75, rule = LifeHistory
20.2A$20.A.A$22.A4.2A$18.4A.2A2.A2.A$18.A2.A.A.A.A.2A$20.BABABA.A$
21.B2ABA.A$22.2B.BA$21.3B$12.2A6.4B$13.A6.B2A3B$13.A.AB3.B2A3B$14.
2AB.10B$16.13B$16.14B$16.15B$18.8B2.4B$18.6B5.4B$17.9B4.4B$16.4B4.
2A5.4B$15.4B5.A7.4B$4.A9.4B7.3A5.4B$4.3A6.4B10.A6.4B10.2A$7.A4.4B
19.4B9.A.A2.2A$6.2A3.4B8.2A11.4B10.A3.A$6.8B8.A.A12.4B5.4A.3A$2.2A
4.5B5.2A2.A7.2A6.4B4.A2.A.A$.A.BAB.4BA6.A.A.2A5.A.A2.2A3.4B6.ABAB
3A$.A.2AB2.2B2AB6.2A.A2.A2.A2.A.A.A4.4B6.2ABA2.A$2A.B.B3.BABAB3.3B
.B2.2A2.2ABA.AB5.5B4.4B2.2A$A2.2A2B2.5B3.4B10.AB2A4.14B$.2A2.AB.2B
A5BA4B.B5.2A.A3B4.10BA2B8.A2.2A$3.2ABA2B2A5B2A2B.B2A2.A2.ABAB.4B.
9BABAB8.4A.A$.2A2.A3B2A4BAB2A3B2A2.2A2.AB.2B2A11BA2BA13.A$A2.A2.
11BA2B.2B9.2BA2BA.10B2AB6.7A.2A$.2A3.10BA3B6.2A2.AB.2B2A15B5.A2.B
3.A.A2.A$7.12B7.A2.ABAB.4B.11B.B2A3.2A2.2A.AB2.2A$9.3B3A3B3.2A5.2A
.A3B3.10B3.BA.A5.B2AB2A$6.B.3BA2BA3B.B2.A8.AB2A2.7B.5B4.A6.5B$5.2A
3BA2B2A4B3A6.2ABA.AB3.6B4.2A4.2A6.3B$5.2AB.2B2A4B.BA8.A2.A.A.A2.7B
3.A3.A.A2.A3.2A3B$6.B3.6B4.2A7.A.A2.2A2.3B2AB5.4A3.2A2.B2AB2A$11.
4B6.A8.2A7.2B2AB9.A6.2ABA4B$12.4B4.A18.6B4.2A2.A5.9B$13.4B3.2A17.
6B4.A.A.A.AB3.7B$14.4B20.7B.BA.A.A2.2AB.10B$15.4B19.6B2.B2A2.A4.
13B$16.4B19.8B4.2A3.13BA$17.4B18.8B9.11BABA$18.4B16.8B12.8B2.2A$
19.4B15.7B13.6B5.B$20.4B5.2A7.6B13.9B$21.4B5.A6.7B12.4B4.2A$22.4B
4.A.AB3.7B11.4B5.A$23.4B4.2AB2.8B10.4B7.3A$24.4B5.11B9.4B10.A$25.
4B4.11B8.4B$26.4B3.12B6.4B$27.4B.13B5.4B$28.4B.7B.3B5.4B$29.17B2.
4B$30.22B$31.21B$31.21B2.2A$29.B.21B3.A$28.2A24B.A.2A$28.2A22B2A.A
2.A$29.11B3.B.B3.3B.A.2A$29.4B2.6B10.B.A$35.6B10.A.A$36.2B2A.A2.A
4.3A.2A$35.A.A.A.4A3.A$34.A.2A.A8.2A$34.A5.3A$33.2A7.A!
