#CSYNTH gun_1880 costs 2596 cells.
#C period 1880 fullperiod 1880 bbox 59 by 44
#CLL state-numbering golly
x = 59, y = 44, rule = LifeHistory
34.2A7.A$26.A6.B2AB4.3A$26.3A4.3B4.A8.A$4.2A4.2B4.2A11.A4.B.B3.2A
5.3A$3.A2.A.6B.A2.A9.2AB.10B4.A$3.3A2.6B2.3A9.12B6.2A$6.10A14.12B
2.4B$5.A2.6A2.A10.2B.16B$5.2A.B4AB.2A6.2A.2A12B2A4B$10.2B9.A2.A.2A
10B2A2BA2B11.2A$10.2B9.2A.A.12BA2BA3B6.2A2.A2.A$11.B12.A2.2B.8B3A
4B.B4.A.A2.2A$10.2AB5.2A4.2A.B4.16B4.B.2A$.2A6.A2BAB5.A2.2A2.A.A4.
B.12B2AB.2B2.A$2.A4.3B2A3B4.A.A2.A2.2A6.11BA2BA4B.A.2A$2.A.AB.8B.B
A.A.A.A11.11BA2BA2B2A.A2.A$3.2AB.8B.B2A3.A11.8BA3BA5B2A.2A$5.12B
16.A6B2AB2ABA3B.2B$5.12B15.A3B2.3B3A6B$5.12B3.A10.B3A5.2B2A8B$7.
10B3.3A7.4B4.4B2A4B.B2A$9.7B7.A5.4B5.2A3.B.B4.A$9.8B5.2A4.4B7.A4.
3B4.3A$8.5B.4B4.9B5.3A4.BABA6.A$8.6B.4B5.7B5.A7.2A$7.6B3.4B2.8B$3.
B2.3BA3B4.15B$.7BABA2B5.15B$.7BABA2B6.14B$9BA3B7.10B3.B2A$11B.B2A
6.2BA4B5.3AB$.9B2.BA.A4.2BABA4B3.A.2AB$.7B7.A4.2BABA3B3.A.A.2B$2.
6B7.2A5.BA4B3.A2.A$3.4B15.5B5.2A$4.4B15.3B$5.4B13.5B$6.4B12.2AB2AB
$7.4B7.2A2.BA.2A2.2A$8.4B6.A2.A.A3.B2.A$9.4B7.2A.7A$10.3BA8.A$11.
3BA7.A.4A$12.3AB7.2A2.A!
