#CSYNTH gun_1892 costs 6435 cells.
#C period 1892 fullperiod 1892 bbox 99 by 65
#CLL state-numbering golly
x = 99, y = 65, rule = LifeHistory
63.A11.2A$62.A.A9.B2AB$54.A3.2A2.A.A9.3B$53.A.A2.A2.2A.2A9.B.B$14.
A24.2A12.A.A3.A.A2.B8.5B$14.3A23.A13.A.4A2.AB2A6.6B$17.A6.2A14.A.A
B12.A3.A.A.2A4.8B$16.2A6.A16.2AB.B9.A2.BA.A2.13B$16.4B.BA.A18.4B7.
A.2BA.A5.13B$18.2B.B2A19.4B7.2A.2BA5.15B$18.4B11.2A8.5B10.3B4.15B$
16.6B11.A8.6B11.2B.B.17B$16.7B7.BA.A8.8B2.29B$15.8B3.3B.B2A8.26B2A
13B$14.17B11.25B2A14B$14.17B12.7B.27B3.B2A$15.15B12.35B4.A2.A$16.
15B11.19B2.2B2.B2.7B5.2A.A$16.17B8.17B13.7B7.A$16.20B2.2B.15B15.8B
6.2A$17.38B17.2B2.4B$16.4B2A3B.20B.8B16.2A4.4B$9.2A6.3B2A2B2.16B2A
2B3.8B14.A6.4B$9.A.A5.7B2.16B2A2B5.B3.2A16.A5.4B$11.A5.6B4.18B10.A
16.2A6.4B10.2A$10.A.2A3.7B10.4B.3B.B12.3A22.4B9.A$10.A2.A3.6B12.4B
19.A23.4B10.A$8.2A.A4.7B13.4B36.2A5.4B5.5A$7.A.A.2A4.5B15.4B36.A5.
4B4.A$7.BAB.B4.6B16.4B35.A.AB.7B2.B3A$.2A5.5B2.9B15.4B35.2AB.7B3.
2B.A$2.A6.12B.2A16.4B36.12B4A$2.A.AB2.6B2AB5.A18.4B35.7B2A3BAB2.2A
$3.2AB.7B2A7.3A16.4B34.7B2A2B.B3A2.A$5.12B8.A17.4B33.10B3.B.A.2A$
5.12B27.4B31.8B8.A$5.12B28.4B29.2A7B7.2A$6.5B2A2B.B2A27.4B27.2B2A
2.3B$6.5BABA2.BA.A27.4B25.2BAB3.5B$6.6BAB5.A28.4B23.4B7.2A$6.7B6.
2A28.4B21.4B8.A$4.8B38.4B19.4B10.3A$2A.9B39.4B10.A6.4B13.A$A2.A9B
39.4B7.3A5.4B$.3A3B.B.4B39.4B5.A7.4B$4.B2.3B.4B39.4B4.2A5.4B$.3A2.
B2AB2.4B39.9B4.4B$A.A4.2A4.4B39.6B5.4B$A3.A9.4B38.8B2.4B$.3A.A9.4B
35.15B$3.A.A10.4B34.14B$4.A12.4B33.13B$18.4B30.2AB.10B$19.4B28.A.A
B3.B2A3B$20.4B27.A6.B2A3B$21.4B25.2A6.4B$22.4B33.3B$23.4B33.2B.BA$
24.4B31.B2ABA.A$25.4B29.BABABA.A$26.4B26.A2.A.A.A.A.2A$27.4B25.4A.
2A2.A2.A$28.3BA28.A4.2A$29.3BA25.A.A$30.3AB24.2A!
