#CSYNTH gun_369 costs 2907 cells.
#C period 369 fullperiod 369 bbox 57 by 51
#CLL state-numbering golly
x = 57, y = 51, rule = LifeHistory
8.A5.2A$4.2A.A.A.BA2B.A$4.2A.A.A2BAB.2A$7.A.A2.A2.5B35.A$2.6A.3AB
4.4B2.2A.2A25.3A$.A2.A3.B.2A4.5B.B.A.2A24.A$.2A2.BABA7.7B.A27.2A$
6.AB7.8B2A10.2A12.5B$15.6B.2B4.A7.A11.4B$4.A7.2B.6B5.3A7.A.AB2.B4.
6B$4.3A4.4B.5B4.A11.2AB.3B3.7B$7.A.14B2.2A12.16B$6.A2.5BA12B12.17B
$6.4A4BA10B15.9B2A6B$2.2A5.A16B13.10B2A6B$2.A2.A.A2B.15B11.18B$4.
2A.2A4.4B3A6B4.2B2.20B$13.40B$11.9B2A26B2A4B$10.6BA4BA22B2.2B2A3B$
9.12BA22B2.7B$9.8BA2BA22B4.6B$7.2AB.7BA12B.B.2B10.7B$6.A.AB.16B7.
3B10.6B$6.A5.13B10.A2B.2A6.7B$5.2A6.5B.5B6.2A2.A.A2B.A7.5B$12.13B
5.A3.2AB2.A8.6B$10.16B.BA.A7.A7.9B$4.B.12BA7B.B2A4.5A.A5.2A.7B$2.
14BA2BA8B6.A4.A.A5.A5.3BA$15BA12B8.A2.A.A2.3A7.ABA$15BA4BA6B8.2A3.
A3.A10.2A$15B2A9B30.B$.23B$.3B.2B4.6B3A4B4.2A.2A$.2A8.15B.2BA.A2.A
$B2AB7.16BA5.2A$.2B9.10BA4B4A$BA8.12BA5B2.A$4A6.2A2.14B.A$.B.AB6.A
4.5B.4B4.3A$2AB2AB2.3A5.6B.2B7.A$2B2.2A2.A4.2B.6B$A3BA.A.A3.2A8B7.
BA$.2B.A.2A4.A.7B7.ABAB2.2A$ABA.A5.A.A.B.5B4.2A.B3.A2.A$A.B.7A.2A
2.4B4.B3A.6A$.2A14.5B2.A2.A.A$3.2A2.2A11.2A.BA2BA.A.2A$3.A.A2.A11.
A.2BAB.A.A.2A$6.2A13.2A5.A!
