#CSYNTH gun_2360 costs 3234 cells.
#C period 2360 fullperiod 2360 bbox 77 by 42
#CLL state-numbering golly
x = 77, y = 42, rule = LifeHistory
42.2A3.A$5.2B5.2A26.3A.A.A.A$2A2.3A2BA6BA4BABA15.A4.A.A.A$2A.B2ABA
BABA2BABAB4A.AB14.ABABA.A.A$2.3AB4.B4AB2.2A.2B2A9.2A4.2A.A.A$.BAB
8.2B3.B2A2B.2B10.A4.4BABA9.2A$2.A9.2B4.A.A14.A.AB4.2BABAB6.B2A2B$
13.B5.A16.2AB.B4.A2BAB6.4B$12.2AB23.4B2.5BA.9B$3.2A6.A2BAB5.2A15.
6BA5BA8B$4.A4.3B2A3B4.A16.5BA3BA3BA7B$4.A.AB.8B.BA.A15.6BA2BABA2BA
7B3.2A$5.2AB.8B.B2A15.4B.2BA3BA3BA8BA2.A$7.12B16.4B3.2BA5BA7B2.2A
2.2A$7.12B15.4B6.BA3BA7B8.A$7.12B3.A10.4B5.4B3A8B6.A$9.10B3.3A7.4B
5.16B6.2A$11.7B7.A5.4B5.18BA5.B3.3B$11.8B5.2A4.BA2B5.11B.3B2.BABA
4.7B$10.5B.4B4.5B2A2B7.10B6.A2BA3.7B2A$10.6B.4B5.4B2AB10.7B7.2A11B
2A$9.6B3.4B2.8B13.4B10.3BA6B.B$5.B2.3BA3B4.15B9.6B10.2BABA5B$3.7BA
BA2B5.15B8.2A13.2B2AB2A4B$3.7BABA2B6.14B9.A13.BABA2BA4B$2.9BA3B7.
10B3.B2A3.3A14.2B4ABA3B$2.11B.B2A6.7B5.3AB2.A17.2BA3BA2B$3.9B2.BA.
A4.9B3.A.2AB17.BA5BAB2A3B$3.7B7.A4.4B2A2B3.A.A.2B15.2BABA5BA6B3.2A
$4.6B7.2A5.2B2A2B3.A2.A17.BA7B2A6B2.A2.A$5.4B15.5B5.2A18.2B3A4B2A
6BA2.2A$6.4B15.3B26.8B2A6BAB2A$7.4B13.5B23.2AB.13B.BA2.2A$8.4B12.
2AB2AB21.A.AB.B3A2B.5B2.2B2A2.A$8.5B11.BA.2A2.2A18.A5.3A2B.5B3.B.B
.2A$9.5B6.2A.A.A3.B2.A17.2A5.BA2B3.2BA2B2.B2A.A$6.3B2.4B5.A.2A.7A
25.3B5.4AB.BAB.A$.B2.BA3B3.4B8.A33.B6.2A3B3.2A$3AB2A2B2A3.4B7.A.4A
37.2B$4A4B2A4.3BA7.2A2.A36.2B$.3B2A2.B6.3BA46.B2AB$.3B12.3AB46.2A!
