#CSYNTH gun_855 costs 3916 cells.
#C period 855 fullperiod 855 bbox 89 by 44
#CLL state-numbering golly
x = 89, y = 44, rule = LifeHistory
71.A$69.3A$28.2A38.A$26.BA2BA5.2A30.2A$26.BA2B6.A5.2A19.2A5B$26.BA
2BA6.3A.A.A19.3BAB$27.2A2B8.A.A19.BA2B2A3B8.A$26.2A.AB8.BABAB5.2A
3.2A5.3A6B6.3A$25.A.AB2A2BA.A4.BA3B3.B2AB3.A4.11B4.A$24.A.A3B2A4BA
4.4B3.3B4.A.AB2.10B4.2A$24.A3.A2B.A3BA4.4B4.B.B4.2AB.12B.4B$25.3A.
B6A4.4B3.6B5.9B3A5B$18.2B7.A.A.A.4B.7B2.8B3.6B2A10B$16.6B5.A2.A3.B
.15B2A3B3.5BABA5B3A2B$14.BA6BAB4.2A6.11BA6B3A2.5BABA5BA2BA2B.4B$
12.2B2A6B2A2B10.10BA3BAB5AB.6BA6BA3BA7B$11.2B3A6B3A2B7.12BA2BA3BAB
2A19BA7B$12.2B2A6B2A2B6.9B3A7BA4BAB2A5BA6BA3BA8B$14.BA6BAB8.8BA2BA
6BA5BA2BA5BA6BA2BA8B$16.6B9.BABA4BA3BA6BA5B2ABA4BA7B3A9B$18.2B11.B
2A5BA19B2ABA3BA2BA12B$15.2BA2.A2B7.3BA5BA3BA6BA6B.B5ABA3BA10B$13.
2B3A2B3A2B4.8B.2BA2BA5BABA5B2.3A6BA11B$12.2BA8BA2B.5B7.2B3A5BABA5B
3.3B2A15B.2B$13.2B3A2B3A8B9.10B2A6B3.8B2.7B.6B$15.2B4.2B.6B11.5B3A
9B5.6B3.3B5.5A$11.A13.4B10.4B.12B.B2A4.B.B5.3B4.A5BA$11.3A10.4B11.
2A4.10B2.BA.A4.3B4.B4.3A.3B.3A$14.A8.4B13.A4.11B4.A3.B2AB4.A3.A3.
5B3.A$13.2A7.4B11.3A6.6B3A5.2A3.2A4.ABA3.4A.A.3A.A$13.5B3.4B12.A8.
3B2A2BAB14.A.2BA7.3A3.A$4.2A9.3B2.4B24.BA3B16.3AB3.A.2A.B.B.A$3.A.
A8.9B23.5B2A14.2A3.BA2.2A.A.ABA.2A$3.A8.B.8B24.2A18.A2.A3BA6.A2.A.
A$2A.AB.B3.BA9B26.A18.2A.A.A9.2A2.A$.A.A.2AB.3A9B23.3A22.A15.2A$.A
.A.2A2B2A10B23.A24.2A$2A.A2.5BA9B$A2.4A3BA8B.B2A$.2A2.BAB.BA8B.BA.
A$3.2A6.7B5.A$3.A7.2B.3BA5.2A$5.A9.3BA$4.2A10.3AB!
