#CSYNTH gun_9315 costs 5060 cells.
#C period 9315 fullperiod 9315 bbox 92 by 55
#CLL state-numbering golly
x = 92, y = 55, rule = LifeHistory
18.2A11.A$17.B2AB9.A.A$18.3B9.A.A2.2A3.A$17.B.B9.2A.2A2.A2.A.A$17.
5B8.B2.A.A3.A.A40.A2.2A$17.6B6.2ABA2.4A.A41.4A.A$17.8B4.2A.A.A3.A
48.A$18.13B2.A.AB2.A15.2A23.7A.2A$16.13B5.A.A2B.A14.A23.A2.B3.A.A
2.A$15.15B5.A2B.2A11.BA.A23.2A2.2A.AB2.2A$15.15B4.3B12.2A.B2A27.B
2AB2A$14.17B.B.2B12.B2A2B30.5B$14.29B6.4B31.3B$13.13B2A16B3.6B30.
2A3B$12.14B2A16B2.6B30.B2AB2A$11.2AB3.27B.7B9.2A11.2A6.2ABA4B$10.A
2.A4.35B6.2B2AB11.A5.9B$9.A.2A5.7B2.B2.2B2.20B5.4B3.B8.A.AB3.7B$9.
A7.7B13.21B.6B2A2B7.2AB.10B$8.2A6.8B15.26B2A2B9.13B$3.2A10.4B2.2B
17.30B8.13BA$4.A9.4B4.2A15.31B5.A2.11BABA$2.A10.BA2B6.A15.30B4.3A
4.8B2.2A$2.5A5.B2AB5.A15.2AB.3B2.22B4.A7.6B5.B$7.A4.A2BA5.2A13.A.A
B6.22B4.2A5.9B$4.3AB2.2BA4B.BA.A2.A11.A8.12B3.14B4.4B4.2A$3.A.2B3.
2A2B2AB.B2A2.2A10.2A7.12B5.11B5.4B5.A$3.4A2BA4B2A3B24.10B6.5B2.8B
2.4B7.3A$.2A2.BAB3A2BABA3B23.4B.6B6.2A3.15B10.A$A2.3AB.BA4B2A3B22.
4B3.B.B9.A3.14B$2A.A.B3.B2A3BA3B21.4B5.3B5.3A4.13B$3.A8.A2B3A2B19.
4B5.B2AB5.A4.2AB.10B$3.2A7.ABABA4B6.A10.4B7.2A10.A.AB3.4BA2B$13.3A
2.4B5.3A7.4B20.A5.4BABA2B$11.B3AB3.4B7.A5.4B20.2A6.3BABA2B$11.2A7.
4B5.2A4.4B29.4BAB$12.A8.4B4.9B31.5B$9.3A10.4B5.6B33.3B$9.A13.4B2.
8B32.5B$24.15B29.B2AB2A$25.14B26.2A2.2A.AB2.2A$26.13B26.A2.B3.A.A
2.A$27.10B.B2A25.7A.2A$29.3B2AB3.BA.A31.A$29.3B2AB6.A26.4A.A$31.4B
6.2A25.A2.2A$31.3B$28.AB.2B$27.A.AB2AB$27.A.ABABAB$24.2A.A.A.A.A2.
A$24.A2.A2.2A.4A$26.2A4.A$32.A.A$33.2A!
