#CSYNTH gun_1241 costs 8883 cells.
#C period 1241 fullperiod 1241 bbox 141 by 63
#CLL state-numbering golly
x = 141, y = 63, rule = LifeHistory
29.2A79.2A$28.A.A22.2A35.2A18.A.A$22.2A4.A24.A.A33.A.A20.A4.2A$20.
A2.A2.2A.4A22.A4.2A21.2A4.A18.4A.2A2.A2.A$20.2A.A.A.A.A2.A18.4A.2A
2.A2.A17.A2.A2.2A.4A14.A2.A.A.A.A.2A$23.A.ABABAB20.A2.A.A.A.A.2A
17.2A.A.A.A.A2.A16.BABABA.A$23.A.AB2AB23.BABABA.A23.A.ABABAB19.B2A
BA.A$24.AB.2B25.B2ABA.A23.A.AB2AB21.2B.BA$19.A7.3B25.2B.BA25.AB.2B
21.3B7.A$17.3A7.4B6.2A15.3B31.3B11.2A6.4B7.3A$16.A8.3B2AB6.A7.2A6.
4B31.4B6.2A3.A6.B2A3B8.A$15.A.A7.3B2AB3.BA.A8.A6.B2A3B27.3B2AB6.A
4.A.AB3.B2A3B7.A.A$14.BA.A5.10B.B2A9.A.AB3.B2A3B27.3B2AB3.BA.A5.2A
B.10B5.A.AB$13.3BA5.13B12.2AB.10B23.10B.B2A8.13B5.A3B$11.4B6.14B
14.13B21.13B10.14B6.4B$9.6B5.15B14.14B19.14B10.15B5.6B$8.7B4.4B2.
8B16.15B17.15B12.8B2.4B4.7B$.B.4B.8B2.4B5.6B18.8B2.4B15.4B2.8B14.
6B5.4B2.8B.4B.B$2AB.17B4.9B17.6B5.4B13.4B5.6B13.9B4.17B.B2A$2A18B
5.2A4.4B15.9B4.4B11.4B4.9B11.4B4.2A5.18B2A$.2B.16B6.A5.4B13.4B4.2A
5.4B9.4B5.2A4.4B9.4B5.A6.16B.2B$4.16B3.3A7.4B11.4B5.A7.4B7.4B7.A5.
4B7.4B7.3A3.16B$5.15B3.A10.4B9.4B7.3A5.4B5.4B5.3A7.4B5.4B10.A3.15B
$6.12B.B2A.A11.4B7.4B10.A6.4B3.4B6.A10.4B3.4B11.A.2AB.12B$6.11B2.B
A.A.2A10.4B5.4B19.4B.4B19.4B.4B10.2A.A.AB2.11B$7.10B5.A2.A11.4B3.
4B21.7B21.7B11.A2.A5.10B$7.6B2A2B5.2A14.4B.4B23.5B23.5B14.2A5.2B2A
6B$7.6B2A3B21.7B24.5B23.5B20.3B2A6B$7.10B23.5B24.7B21.7B20.10B$3.A
.2AB.8B23.5B23.4B.4B19.4B.4B19.8B.B2A.A$.3AB2AB3.7B21.7B21.4B3.4B
10.A6.4B3.4B17.7B3.B2AB3A$A4.B6.6B20.4B.4B19.4B5.4B7.3A5.4B5.4B9.
2A5.6B6.B4.A$.3A.2A4.6B20.4B3.4B6.A10.4B7.4B5.A7.4B7.4B7.B2AB5.6B
4.2A.3A$3.2A2.A4.5B19.4B5.4B5.3A7.4B9.4B4.2A5.4B9.4B7.3B5.5B4.A2.
2A$6.A.A.8B17.4B7.4B7.A5.4B11.9B4.4B11.4B5.B.B5.8B.A.A$2.A.2A.A.A
8B8.A7.4B9.4B5.2A4.4B13.6B5.4B13.4B4.5B3.8BA.A.2A.A$2.2A.A.BA2B.6B
6.3A6.4B11.4B4.9B14.8B2.4B15.4B3.B2A4B.6B.2BAB.A.2A$5.A2.2B2.7B4.A
8.4B13.4B5.6B13.15B17.4B.2B2A11B2.2B2.A$5.2A.B3.7B4.2A6.4B15.4B2.
8B13.14B19.19B3.B.2A$3.2A2.A.A2.8B.4B5.4B17.15B11.13B21.18B2.A.A2.
2A$2.A2.A2.2A2.11B6.4B19.14B9.2AB.10B23.17B2.2A2.A2.A$3.2A7.12B4.
4B21.13B8.A.AB3.B2A3B26.16B7.2A$12.12B3.4B23.10B.B2A6.A6.B2A3B27.
15B$13.11B2.4B26.3B2AB3.BA.A4.2A6.4B30.13B$16.7B2.4B27.3B2AB6.A13.
3B31.9B7.2A$15.8B.4B30.4B6.2A13.2B.BA29.9B6.A$14.8B.4B31.3B21.B2AB
A.A29.9B2.BA.A$12.B.12B29.AB.2B21.BABABA.A30.9B.B2A$8.2A.2A13B28.A
.AB2AB18.A2.A.A.A.A.2A26.4B2A6B$9.A.A.B.11B2.2A24.A.ABABAB17.4A.2A
2.A2.A23.B.5BABA5B$8.A2.A.A12B3.A21.2A.A.A.A.A2.A19.A4.2A24.2A6BA
8B$8.2A2.2A.B.11B.A.2A18.A2.A2.2A.4A17.A.A30.2A18B$17.9B2A.A2.A20.
2A4.A21.2A32.20B$18.4B.3B.A.2A28.A.A53.21B$18.4B2.2B.A.A30.2A55.2B
.17B$19.2B3.2B2A2.A84.4B3.B2.13B$18.2B4.BAB.2A85.2A9.8B.4B$17.B2AB
3.B2A.A87.A9.7B3.4B$18.2A6.A.A84.3A10.9B2.3BA$24.A.A.2A83.A19.2A3.
ABA$24.2A107.A5.2A$134.3A3.B$136.A!
