#CSYNTH gun_1311 costs 5589 cells.
#C period 1311 fullperiod 1311 bbox 81 by 69
#CLL state-numbering golly
x = 81, y = 69, rule = LifeHistory
44.2A$44.A.A$46.A4.2A$42.4A.2A2.A2.A$42.A2.A.A.A.A.2A$44.BABABA.A$
45.B2ABA.A$27.2A17.2B.BA$22.2A2.A.A16.3B$22.A3.A9.2A6.4B$23.3A.4A
6.A6.B2A3B$25.A.A2.A6.A.AB3.B2A3B$21.3ABABAB9.2AB.10B$20.A2.AB2A.
2B10.13B$20.2A2.6B10.14B$24.9B7.15B$26.7B9.8B2.4B$25.10B7.6B5.4B$
13.A11.10B6.9B4.4B13.A$13.3A9.B3A5B6.4B4.2A5.4B10.3A$16.A4.13B5.4B
5.A7.4B8.A$15.A.B.6BABABA4B4.4B7.3A5.4B7.2A$15.2A8B2AB2A4B3.4B10.A
6.4B3.5B$13.2A2.6B2A5B2A2B2.4B19.4B2.3B$12.A2.4A2BA2BA2B4AB2A.4B
21.9B7.2A$13.A.B.BA2BA2BA4B5A4B23.8B8.A$12.2A.2AB3.A7B2ABA4B25.10B
3.B.A.2A$12.A2.A6.BA5BA7B25.7B2A2B.B3A2.A$13.A.A7.6BAB2.4B25.7B2A
3BAB2.2A$14.A7.3BA3BA4.B.B2A23.12B4A$21.4B.A3B2A4.BA.A20.2AB.7B3.
2B.A$20.4B4.2AB3AB4.A19.A.AB.7B2.B3A$20.4B5.A.A.2A4.2A18.A5.4B4.A$
19.5B3.A.A.ABABA22.2A5.4B5.5A$16.9B2.2A.A4.A28.4B10.A$16.9B5.A.3A
28.4B9.A$16.9B5.A.A29.4B10.2A$16.10B5.A29.4B$15.12B33.4B$14.13B8.
2A22.4B$15.11B9.A22.4B$16.12B4.BA.A13.2A6.4B$16.15B.B2A15.A5.4B$
16.17B15.A6.4B$16.17B15.2A4.4B$13.B.17B17.2B2.4B$12.2A19B15.8B6.2A
$12.2AB.19B13.7B7.A$13.B4.20B2.2B2.B2.7B5.2A.A$18.36B4.A2.A$18.9B.
27B3.B2A$11.A7.7B2.16B2A14B$11.3A5.7B2.16B2A13B$14.A4.6B4.29B$13.
2A4.7B10.2B.B.17B$13.5B.6B10.3B4.15B$4.2A9.10B6.2A.2BA5.15B$3.A.A
8.10B7.A.2BA.A5.13B$3.A8.B.10B8.A2.BA.A2.13B$2A.AB.B3.BA14B7.A3.A.
A.2A4.8B$.A.A.2AB.3A11B.2A5.A.4A2.AB2A6.6B$.A.A.2A2B2A10B3.A5.A.A
3.A.A2.B8.5B$2A.A2.5BA9B4.3A2.A.A2.A2.2A.2A9.B.B$A2.4A3BA8B.B2A4.A
3.A3.2A2.A.A9.3B$.2A2.BAB.BA8B.BA.A15.A.A9.B2AB$3.2A6.7B5.A16.A11.
2A$3.A7.2B.3BA5.2A$4.A10.3BA$3.2A11.3AB!
