#CSYNTH gun_2244 costs 3397 cells.
#C period 2244 fullperiod 2244 bbox 79 by 43
#CLL state-numbering golly
x = 79, y = 43, rule = LifeHistory
15.2A$16.A45.B.B$16.A.2A3.2A36.B2A3B$17.A.A4.A36.A2BA2B10.2A$6.2A
11.A.3A10.2A.2A21.2B2A4B2.2B5.A$7.A5.3B2.2A.A11.A.A.A11.2A9.13B.BA
.A$7.A.AB.10B10.2B.A2.A6.2A3.A6.16B.B2A$8.2AB.2B3AB.2B11.A2BAB2A6.
A2.A7.BA12BA4B$10.3BA3BA2B.2B8.B2A.B6.A4.3A5.BABA10BABA4B$10.2BA5B
A5B.2B5.3AB3A3.5A3.2B3.BABA11BA4B$11.2BA3BA10B4.BA.A2.A8.3A2B3.2BA
15B.B2A$10.4B3A13B3.B.A.A6.3AB.A23B.BA.A$9.26BA.2A4.A3.2A19B2.2B5.
A$7.11BA13B2.A2.A2.A.A.2A21B10.2A$2A5.9BA2BA4BA7B3.2A2.2A.A.A.B.
19B$.A5.4B3A2BABA3B2ABA5B11.A2.A5.16B$.A.AB.4BA2BA2BA2BA2BA2BA6B6.
A.2A.2A6.10B3.4B.2A$2.2AB.4BAB2A3BABA2B3A8B5.2A.A.A8.8B3.B2A3B.A$
3.8BA4BA2BA9B.4B10.A6.9B4.2AB2.A$4.13BA11B2.4B7.3A5.10B8.A$4.23B5.
3BA5.A7.10B5.5A.A$6.13B3A4B7.3BA4.2A5.7BA3B5.A4.A.A$8.10BA3BA2B9.
3A6B4.7BABA2B7.A2.A.A$9.2B2.4BA5BA2B9.6B5.8BABA2B6.2A3.A$13.2B.2BA
3BA3B3.2A4.8B2.10BA3B$15.2B.B3A2B.B2A2.A2.24B.B2A$14.10B.BA.2A3.
23B2.BA.A$14.A.2A2.3B5.A4.13B.7B7.A$12.3A.A11.A2.2AB.10B3.6B7.2A$
11.A4.A.A8.2A.A.AB3.B2A4B5.4B$11.2A3.2A.A7.A2.A5.2B2A5B5.4B$19.A9.
2A6.8B6.4B$19.2A16.6B9.4B$38.5B10.4B$39.3B12.4B$38.5B12.4B$37.B2AB
2A13.4B$34.2A2.2A.AB2.2A10.4B$34.A2.B3.A.A2.A11.4B$35.7A.2A14.4B$
42.A17.3BA$37.4A.A18.3BA$37.A2.2A20.3AB!
