#CSYNTH gun_2592 costs 2601 cells.
#C period 2592 fullperiod 2592 bbox 51 by 51
#CLL state-numbering golly
x = 51, y = 51, rule = LifeHistory
14.B.B$12.3B2AB14.2B$2A10.2BA2BA12.6B$.A5.2B2.4B2A2B11.7B$.A.AB.
13B10.9B$2.2AB.16B8.9B$4.4BA12BAB7.10B$3.4BABA10BABAB5.12B$4.4BA
11BABAB4.9B.4B$2.2AB.15BA2B2.4B2A3B4.4B$.A.AB.23BA2BA2B5.4B$.A5.2B
2.5B2A12B2A2B7.4B$2A10.3BABA15B9.4B$12.4BA18B8.4B$12.14B.B5.2A9.4B
$8.2A.4B2.9B7.A11.4B$8.A.3B2AB4.7B7.3A9.4B$9.A2.B2A3.10B8.A10.3BA$
10.A7.2A5.4B19.ABA$8.A.5A4.A6.4B19.2A$7.A.A3.A2.3A8.4B19.B$7.A2.A
4.2A11.4B$8.2A19.4B$20.3B7.4B$15.B2.2A3B8.4B10.2A$14.2A4B4A8.4B9.A
$14.2A2B2AB3A2.2A5.4B.2B7.A$15.3BAB2.B4.A5.7B6.2A$15.3B9.A.AB.10B.
BAB2.2A$12.B2A7.A5.2AB.12B4A2.A$11.B3A5.3A7.15B2.A.2A$9.2B5A3.A10.
7B2A5B2A.A.A$9.2BAB3A3.2A9.7B2A3B.B2A.A.A$8.2B2AB2A6B9.11B3.B.BA.
2A$9.4BA5B10.8B.B8.A$8.3B2A8B7.9B8.A.A$8.2BABA8B6.4B2.3B9.2A$8.B3A
11B3.3AB3.5B$6.B2.3A12B.3BA7.2A$5.2AB.18BA8.A$5.2A20B10.3A$6.21B
12.A$9.12B2.4B$10.4B.5B4.B.B2A$10.3B3.3BA2B4.BA.A$7.3B8.ABA4B4.A$
2.A2.2A3B9.A.A.2A4.2A$.A3B2A2B2A6.A.A.ABABA$.A7B2A5.A.A.A4.A$2.4AB
2.B6.A.A.A.3A$2.3B12.A3.2A!
