#CSYNTH gun_6888 costs 4489 cells.
#C period 6888 fullperiod 6888 bbox 67 by 67
#CLL state-numbering golly
x = 67, y = 67, rule = LifeHistory
27.A11.A$9.A17.3A7.3A17.A$9.3A12.A5.A5.A5.A12.3A$12.A11.6A.A3.A.6A
11.A$11.2A16.A.A3.A.A16.2A$11.5B8.2AB2A2.2A.2A2.A2B2A8.5B$13.5B6.
2AB2ABA5.AB2A2BA6.5B$11.7B7.2B2A.A5.A.A3B7.7B$9.11B7.2BA7.A2B7.11B
$9.12B7.B9.B7.12B$10.12B3.3B11.3B3.12B$12.11B2.3B11.3B2.11B$13.15B
11.15B$8.3B.B.16B7.16B.B.3B$6.16BA7B7.24B$5.16BABA6B7.25B$5.15BA2B
A5B9.24B$5.14B2A3BA3B11.23B$4.15B5A3B13.23B$4.17BA3B2AB11.2A6B2A
14B$4.11B2AB2A2B2ABA2B11.3A4BA4B2A10B$4.12BA2BA2BA2BA2B11.2BA4B2A
5BA9B$5.10BA3BAB2A5B11.6BA7B2A7B$4.12B3A3B2A3B13.ABABABA5BAB2A7B$
3.13B3A8B13.2BA8B2ABA9B$2.25B13.2BA4B7A11B$2.24B15.2BA2BA3B3A12B$
2.16B.B.3B19.B2A.B.16B$4.14B31.14B$4.3B2.11B2.B21.B2.11B2.3B$4.3B
3.10B.B2A19.2AB.10B3.3B$3.A7.11B2A19.2A11B7.B$2.A2B7.8B.2B21.2B.8B
7.3A$.A.3BA6.7B5.A21.7B6.4A.A$.B2A2B3A5.7B4.3A18.7B5.3A4BA$2.3B4.A
5.6B7.A17.6B5.A4.A2B$.2B.4A.A5.5B7.2A10.2A6.5B5.A.3AB.BA$2A.BA2.A.
2A4.6B6.5B7.A6.6B4.2A.A2.BA.BA$2A.2B2A4.A4.6B7.2B2A3.BA.A5.6B4.A4.
2A2B.BA$.3BA.A.2A.A2.9B5.3B2AB2.B2A5.9B2.A.2A.A.3BA$3.BA.A.A.A3.2A
4.4B4.10B5.4B4.2A3.A.A.A.2A$4.3A.A6.A5.4B2.10B5.4B5.A6.A.BAB$3.2A.
A.A3.3A7.4B2.9B4.4B7.3A3.A.A.2B$2.ABA.2A4.A10.13B4.4B10.A4.2A.3A$.
A.B2AB17.12B3.4B17.2B2A.A$A.B3.B18.10B3.4B18.B3.B.A$A.5A.A17.7B2.B
.4B17.A.5A.A$.A5.2A18.13B18.2A5.A$2.4A14.B2A5.11B22.4A$4.A15.3AB4.
10B24.A$6.A12.A.2AB5.9B22.A$5.2A11.A.A.2B6.9B21.2A$18.A2.A2.2B3.9B
$19.2A3.3B3.7B$13.2A9.B2A.9B$12.A.A8.BA2BA9B$12.A8.B.2B2A10B$9.2A.
AB.B3.BA9B3.3B$10.A.A.2AB.3A9B$10.A.A.2A2B2A10B$9.2A.A2.5BA9B$9.A
2.4A3BA8B.B2A$10.2A2.BAB.BA8B.BA.A$12.2A6.7B5.A$12.A7.2B.3BA5.2A$
13.A10.3BA$12.2A11.3AB!
