#CSYNTH gun_4512 costs 3038 cells.
#C period 4512 fullperiod 4512 bbox 62 by 49
#CLL state-numbering golly
x = 62, y = 49, rule = LifeHistory
2.A9.A$2.3A5.3A$5.A3.A$4.2A.B.2A$4.7B$6.3B$4.7B26.2A7.A$3.4BA4B8.
2A14.B2AB4.3A$3.3BABA3B3.2A2.A2.A.2A10.3B4.A8.2A$4.3BA3B4.A.A2.A.A
.A.A10.B.B3.2A7.A$4.7B5.B.2A.2A.A2.A2.2A3.10B4.BA.A$3.9B3.2B2.A5.
2A2.A.A3.8B6.B2A$.17B.A7.2A.B3.6B2A3B2.3B$.15B2A.2A6.A2.2B.5B3ABA
7B6.A$2BA13B2A.A4.2A.A.8BA4BA6B5.3A$.ABA8BA2B.B4.A2.A2.A.2A5BA5BA
5B5.A$BABA7BABAB5.2A4.2A.2A5B2A10B4.B2A$.BA8B2A3B4.A9.2B.6BA8B.6B$
3.13B.BA.A12.5BA2BA8B3A$5.11B.B2A11.6B.B2A12B.2A$5.2B2A9B13.2AB4.B
A8BA7BA.2A$5.BA2BA8B14.A5.10BA7BA.A2.A$6.B2A9B11.3A5.11BABA2BA2BA.
A.2A$7.11B11.A6.17B.2B2.A$10.8B6.A10.4B2.11B3.B.2A$10.9B5.3A7.4B5.
8B3.A.A2.2A$9.5B2.4B7.A5.4B4.10B3.2A2.A2.A$9.6B2.4B5.2A4.A3B5.2A3.
B.B10.2A$8.6B4.4B4.6BABA7.A4.3B$4.B2.3BA3B5.4B5.4B2AB4.3A4.B2AB$2.
7BABA2B6.4B2.8B5.A7.2A$2.7BABA2B7.15B$.9BA3B8.15B$.11B.B2A7.14B$2.
9B2.BA.A7.10B3.3B$2.7B7.A8.2BA4B5.B3A$3.6B7.2A6.2BABA4B3.A.3A$4.4B
16.2BABA3B3.A.A.AB$5.4B17.BA4B3.A2.A$6.4B16.5B5.2A$7.4B16.3B$8.4B
14.5B$9.4B13.2AB2AB$10.4B8.2A2.BA.2A2.2A$11.4B7.A2.A.A3.B2.A$12.4B
8.2A.7A$13.3BA9.A$14.3BA8.A.4A$15.3AB8.2A2.A!
