#CSYNTH gun_1150 costs 3420 cells.
#C period 1150 fullperiod 1150 bbox 60 by 57
#CLL state-numbering golly
x = 60, y = 57, rule = LifeHistory
5.2A5.2A17.2A$4.B2AB3.B2AB17.A$.AB.3B5.3B.BA3.2A9.A.2A.2A.A$A.A5B
3.5BA.A2.2A10.A.A.A.2A$2A.6B.6B.2A9.3B3.AB18.2A$4.5B.5B4.4A4.5B.4B
17.A$4.5B.5B4.A3.A3.10B6.2A6.BA.A$3.6B.6B6.2A3.9B7.A4.2A.B2A$3.2BA
3B.3BA2B6.16B2.BA.A3.B2A2B$3.BA2BAB.BA2BAB8.15B.B2A5.4B$3.5BA.A5B
7.2A7B2AB2A4B5.6B$3.5BA.A5B7.2A7BA3BA4B5.B3A5B$3.5BA.A5B8.B.7B3A5B
4.BA2BA6B$3.BA2BAB.BA2BAB10.8BA5B4.2B2A2B2A4B$3.2B3AB.B3A2B12.10B
5.3BA2BABA4B$3.6B.6B.B.B.B.B.B.B.8B3.9BABA3B4.A$4.5B.16B3A25B3.3A$
3.6B.15B5A13BA3BA2BA4B.A$4.5B.14B2AB3A13B2A2BA7BA.A$4.5B.15B2A9B4.
3BA3BA2BA5B2A$2.34B6.B.8B.2B$.2A.3B2.7B2.B.B.B.B.B.B.3B12.4BA2B4.
2A$.2A.B2AB2.7B13.3B6.B6.A4B6.A$5.2A4.2B.4B11.5B3.5B4.4B6.A$11.3B.
4B10.2ABAB3.BAB2A5.5B4.2A$10.3B3.2BAB5.A2.A3B2AB.B2A3BA7.2A$9.5B3.
2B2A4.4A.A3BA.A3BA.3A5.A$7.4BA4B2.2A2B8.A.A.A.A.A.A4.A5.3A$7.2B2AB
2A2B3.4B4.4A.A.A.A.A.4A.A7.A$6.5BA3B5.4B3.A3.2A.A.A.2A3.A.2A$5.2AB
.5B7.4B3.2A3.A3.A3.2A$4.A.AB2.3B9.4B4.3A5.3A$4.A6.B11.4B3.A9.A$3.
2A19.4B$11.B13.4B12.A6.2A$10.2AB2.BA9.4B9.3A6.A$9.B2AB.BA.A9.4B7.A
7.A.A$9.B.5BA11.4B6.2A5.A.A.2A$8.6B.B5.A7.4B.6B5.A.A2.A$4.B3.5B8.
3A6.8B8.A.A$3.2AB.2A5B10.A6.10B7.2A2.2A$3.2A2B2A6B8.2A5.B.10B4.2BA
2.A.A$4.B.10B7.18BAB3.2B4A$8.2B2.5B8.15BABA5BAB2.A$7.B5.5B6.2B2A
12BABA.4B5A$5.B3AB4.5B4.2BA2BA12BA4.BA.A$5.5A5.5B3.3B2A4B2.7B4.BA
3B.2A$4.AB3ABA5.14B4.7B4.A3BABA.A$2.3A.3B.3A4.12B6.3B8.A.B4.A$.A3.
A3BA3.A4.10B7.5B7.B5A$.A.3A.A.4A6.9B10.2A6.3B2.A$2.A3.3A11.9B9.A6.
A2B.A3.A$4.A.A.A.2A.A7.7B11.3A4.A2B5A$3.2A.BAB.A.2A8.6B13.A4.B2A$
4.A.A2.A14.3BA20.B2A.2A$4.A2.2A16.3BA20.2A.2A$3.2A21.3AB!
