#CSYNTH gun_944 costs 2574 cells.
#C period 944 fullperiod 944 bbox 66 by 39
#CLL state-numbering golly
x = 66, y = 39, rule = LifeHistory
27.2A3.A$25.3A.A.A.A$24.A4.A.A.A$24.ABABA.A.A$19.2A4.2A.A.A$20.A4.
4BABA9.2A$20.A.AB4.2BA3B6.B2A2B$11.B2A7.2AB.B4.5B6.4B$11.3AB8.B3A
2.6B.9B$10.A.2AB8.BAB3A15B$9.A.A.2B8.BA4BA14B$9.A2.A2.2B5.5BA5B2A
9B15.A$10.2A3.3B3.4B.6BA2BAB2A6BA.2A8.3A$4.2A9.3B.5B3.5BA2BA3BA3B
2.2A.A7.A$3.A.A8.9B6.3BA9B14.2A$3.A8.B.8B5.6BA3B2A3B10.6B$2A.AB.B
3.11B5.3B3A2BA2BA4B10.4B$.A.A.2AB.12B4.3BAB3A2B2A5B2A7.7B$.A.A.2A
14B3.4B2A3BAB.3B2.A2BA6.10B$2A.A2.5B2A8B4.4B3ABAB6.ABAB2.3B.2B2A4B
2AB$A2.4A3BA2BA5B.B2A5.2B3A2B7.A7B2AB2A3BABA$.2A2.BAB.2B2A6B.BA.A
6.BA2B10.7BA3BA3BA$3.2A6.7B5.A4.6B10.BA4B2A3B2A2B$3.A7.2B.4B5.2A3.
2A14.2A4BA6B$.A.A11.4B10.A7.A.2A2.AB4A5BA4B$.2A13.4B6.3A8.2A.A5BA
13B$13.A3.4B5.A15.3BABA5BA8B2.B$4.B7.A.A3.4B12.2A6.A3BA4B2A9B.B2A$
3.BA2B5.BA2B2.5B10.B2A2B4.B3A5BA12B2A$3.5AB4.2B.B2.5B10.4B3.9B.6B
2.4B.B$2.4B3AB3.2BA3B2.4B9.4B3.4B6.5B4.2B$3.8B2.3A3B3.4B7.B3A4.2B
2AB6.3BA2B$3.3B4ABA7B4.4B6.2B2A6.2A9.ABA4B$3.2ABAB2ABA.5B6.4B4.2A
2B19.A.A.2A$3.6BAB.6B7.4B3.3AB17.A.A.ABABA$2.2BA5B2.4B10.5B.BABAB
16.2A.A4.A$3.ABA3B3.2B2AB10.3BAB2.2A20.A.3A$3.BA2B7.2A12.3BA24.A.A
$4.B24.3AB24.A!
