#CSYNTH gun_2364 costs 4590 cells.
#C period 2364 fullperiod 4728 bbox 85 by 54
#CLL state-numbering golly
x = 85, y = 54, rule = LifeHistory
59.2A$58.B2A2B3.2A$22.2A22.2A11.4B2.B2AB$21.B2AB5.2A14.A8.B.6B3.2B
$22.2B7.A15.A5.10B2.2B$17.6B7.A15.2A5.11B2A2B$14.B.8B6.2A14.B5.12B
2A3B.B$12.6B3A4B6.B13.B2A4.18B2A$12.6BABA4B6.3B10.BABA5.15B.B2A$.B
9.2A4B2ABA4B5.6B7.3BAB4.15B3.B$3A.A2B3.B2A4B2ABA4B4.10B3.5B3.17B$
5A2B3.9BA7B2.11B.5B.19B$.B.2A4B2.2B2.18B2A31B$3.BA2BAB.2B3.18B2A
22B.7B$5.2A3B2AB3.41B2.6B$5.BAB.B2A5.40B2.7B$10.B7.38B2.9B$18.9B2.
38B7.B$19.7B2.40B5.2AB.BAB$20.6B2.41B3.B2A3B2A$20.7B.22B2A18B3.2B.
BA2BAB$19.31B2A18B2.2B2.4B2A.B$19.19B2.4B.11B2.17B3.2B5A$18.17B4.
4B3.10B4.12B2AB3.2BA.3A$14.B3.15B5.4B7.6B5.12B2A9.B$13.2AB.15B5.4B
10.3B6.13B$13.2A18B3.4B13.B6.13B$14.B.3B2A12B2.4B14.2A6.8B.B$17.2B
2A11B2.4B16.A7.6B$18.2B2.10B.4B15.A8.2B$17.2B3.6B.B2.4B16.2A6.B2AB
$16.B2AB2.4B5.4B26.2A$17.2A3.2B2AB3.4B3.A$24.2A3.4B4.3A$15.4A9.4B
8.A12.A$10.A4.A3.A7.4B8.2A12.3A$8.5A5.2A6.4B9.5B7.2A3.A$7.A5.A4.6B
.4B7.A4.3BAB4.A.A.2A.A$6.A.2AB2A7.8B6.3A3.3BABA3BA2BAB.A.A$4.3A.A.
A6.10B6.A5.4BA2BA2B.4B.A.2A$3.A3.2B.A5.10B.B5.2A5.4B2A3B2.2BA.A$4.
2A.A.B2A3.BA18B6.6B4.ABA.A$5.A.A2B2A3BABA15B9.5B5.2A.2A$5.A.A2B2A
2B.ABA12B2A2B7.7B$4.2A.A.B2A4.A12BA2BA2B5.4B.4B$3.A3.2B.A6.4BA2B2.
4B2A3B4.4B3.4B$4.3A.A.A6.3BABAB4.9B.4B5.4B$6.A.2AB2A6.BABA6.12B7.
4B$7.A5.A6.BAB7.10B9.4B$8.5A8.B8.9B11.4B$10.A18.9B13.4B$30.7B15.3B
A$30.6B17.3BA$32.2B20.3AB!
