#CSYNTH gun_1968 costs 2520 cells.
#C period 1968 fullperiod 1968 bbox 63 by 40
#CLL state-numbering golly
x = 63, y = 40, rule = LifeHistory
47.A$45.3A$44.A$.A2BA32.A6.2A$.3BAB30.A.A3.4B$A4BA31.A.5B$2AB.A.AB
30.7B$.B3.AB2A29.4B2A4B.B$6.3B29.4B2A3B.B2A$5.4B3.3B23.11B2A$4.BA
2BA3.4B22.9B.2B$5.2A2.8B.4B11.2B2.10B6.2B$9.11BA4B7.2A13B6.BAB$9.
10BAB2A3B6.2A13B4.2BABA$11.7BA3B2A2B7.2B.11B4.BA3BA$11.7BA3BA4B2.
2A5.9B.B2A3.BA2B.A$10.9BAB4A2B.B2AB6.7B.BA.A4.A.2BAB$9.15BA2B2.3B
5.7B5.A5.A3BAB$8.18B4.B2.2B.8B5.2A5.ABA2B$7.20B.11B2.4B11.BAB$7.
19B2.11B3.4B11.2B$5.34B4.4B5.AB3.B.2AB$5.34B5.4B3.A.A3B5A$4.14B2A
17B.B2A4.4B3.A4B2ABABA$4.13BABA3B2A9B4.BA.A4.4B3.B.BA2BAB2A$4.8B.
3B2A4BA2BA7B8.A5.4B3.BA2B2A.B$2.2AB.5B.5BABA2BABA7B9.2A4.5B3.B4A$.
A.AB.4B3.4BA2BA2BA7B4.2A11.6B.2BA$.A5.3B2.6BA3BA7B5.A.A7.2AB2.5B$
2A5.2B3.7BA3BA5B8.A2.B2.2B3A3.4B$12.8BA2BA4B8.2A.2A2BA2BABA3.4B$
13.9BA5B5.2A4.2A2B2A2B2A4.4B$13.17B2.B2A.2A2.3B2A2.B6.4B$14.16B2.
3B.A3.3B12.4B$17.4B.8B.B3A.A19.4B$23.4B3.2B3A.A.A18.4B$24.3B4.A.B.
2A.3A17.4B$32.2A3.A3.A17.3BA$34.2A.A2.2A18.ABA$34.A.A24.2A!
