#CSYNTH gun_27 costs 1584 cells.
#C period 27 fullperiod 27 bbox 48 by 33
#CLL state-numbering golly
x = 48, y = 33, rule = LifeHistory
25.2A3.2A$25.A.A.A.A$18.2A7.A.A7.2A$19.A6.2A.2A6.A$19.A.AB2.A.A.A.
A2.BA.A4.2A$2A9.2A7.2AB.A3BA3BA.B2A3.A2.A$A.A9.A9.BA3B3A3BAB5.2A.A
.2A$2.3A7.A.AB6.B2AB5AB2AB6.B.A.BA$.A3.A7.2AB7.2B.5B.2B5.ABA.ABA$.
A.3A9.3B9.3B6.AB.AB.BAB$2A.2A10.4B9.B6.A.2ABA2.B$2.A.A4.2A5.4B9.3B
2.B2A.2B3.A2.2A$2.A.B5.A5.4B.3B2.7B2.2AB.A2.A.A2.A$.2A.3A3.A.AB.
19B2.A2BA2B5A$3.A.A.A3.2AB.B3A10B3A2B2.A2BA2BA$.2A.2B2.A4.2BA3BA8B
A3BA2B6.A.4A$A3.2B2A5.BA5BA6BA5BAB5.2A2B3.A$.4A.A6.2BA3BA8BA3BA2B
4.A2.2B.2A$5.A2BA2BA2.2B3A10B3AB.B2A3.A.A.A$.5A2BA2BA2.19B.BA.A3.
3A.2A$A2.A.A2.A.B2A2.7B2.3B.4B5.A5.B.A$2A2.A3.2B.2AB2.3B9.4B5.2A4.
A.A$4.B2.AB2A.A6.B9.4B10.2A.2A$3.BAB.BA.BA6.3B9.4B8.3A.A$2.ABA.ABA
5.2B.5B.2B6.BABA7.A3.A$.AB.A.B6.B2AB5AB2AB6.B2AB7.3A$.2A.A.2A5.BA
3B3A3BAB7.A3B8.A.A$4.A2.A3.2AB.A3BA3BA.B2A6.4B8.2A$4.2A4.A.AB2.A.A
.A.A2.BA.A6.4B$10.A6.2A.2A6.A7.4B$9.2A7.A.A7.2A7.3BA$16.A.A.A.A15.
3BA$16.2A3.2A16.3AB!
