#CSYNTH gun_7280 costs 3120 cells.
#C period 7280 fullperiod 7280 bbox 78 by 40
#CLL state-numbering golly
x = 78, y = 40, rule = LifeHistory
49.A$28.A18.5A$26.5A15.A5.A$25.A5.A14.A2.3AB9.2A$14.2A9.B3A2.A13.
2A.A.2B10.A$15.A10.AB.A.2A11.A3.AB2A7.BA.A$15.A.AB7.B3A3.A11.A.A2.
3B.B2AB.B2A5.A$10.A5.2AB.4B.BAB2.A.A11.2A.5A2BA2BA2B5.3A$10.3A5.7B
2A2B2A.2A16.3BA4BAB4.A$13.A4.B3A2B3AB16.2A.5A2BA2BA2B4.2A$12.2A4.
7B2A2B2A.2A11.A.A2.3B.B2AB2.6B$12.6B2.4B.BAB2.A.A11.A3.AB2A7.5B$
14.5B7.B3A3.A11.2A.A.2B6.7B$13.7B6.AB.A.2A.A11.A2.3AB4.8B$13.8B4.B
3A2.A2.A2.2A7.A5.A3.9B$13.9B3.A5.A.2A.A.A8.5A3.10B$13.10B3.6A.A2.A
7.3A2.A4.4B.8B$11.8B.4B4.A6.2A6.A3.A5.4B2.8B$11.8B2.4B6.2A10.2A2.
2A3.4B3.5BA3B$10.2B3A4B3.4B6.A7.5B6.4B3.5B3A2B5.2B.2A$2A.2B5.10B3.
4B5.A.AB3.2A2B7.4B5.3BABABA3B2.B2A2.A$A2.3A2.2BA8B5.4B5.2AB2.B2A3B
5.4B5.3B3AB3A2B2.BAB2A$.2A3B2.2BA5BA3B5.4B5.10B4.4B6.4BABABA5BA3B$
2.4BA3BA3B2ABA2B6.4B5.10B2.4B7.5B3A4B.BA3B$2.4BA.5BA4BAB7.4B4.9B2.
4B7.2B2A3BA5B2.BAB2A$.2A3B2.4B2ABABA3B7.4B4.13B8.2B2A8B3.B2A2.A$A
2.3A3.4BA7B8.4B3.12B7.2AB.B2.6B5.2B.2A$2A.2B5.6B2.B.B2A7.4B3.10B7.
A.AB6.7B$7.7B6.BA.A7.4B.B2.7B8.A9.2B2.BAB$7.BAB2.2B9.A8.13B8.2A13.
3A2B$5.2BABA13.2A8.11B23.AB3AB$5.BA3BA23.10B22.A.2BAB$6.BA2B.A22.
9B21.BA2B.A$8.A.2BAB19.9B21.B3ABA$9.A3BAB19.9B20.2B3A$10.ABA2B20.
7B23.BAB$10.BAB22.8B22.2B$11.2B22.8BA$35.9BA$36.3B3.3AB!
