#CSYNTH gun_1722 costs 3886 cells.
#C period 1722 fullperiod 1722 bbox 67 by 58
#CLL state-numbering golly
x = 67, y = 58, rule = LifeHistory
27.A11.A$9.A17.3A7.3A17.A$9.3A12.A5.A5.A5.A12.3A$12.A11.6A.A3.A.6A
11.A$11.2A16.A.A3.A.A16.2A$11.5B8.2ABAB2.2A.2A2.2B3A8.5B$13.5B6.2A
4BA5.A2BA2BA6.5B$11.7B7.B2AB.A5.A.4A7.7B$9.5B3A3B7.B2A7.3A7.11B$9.
5B2A5B7.B9.B7.12B$10.4B2A2BA3B3.BAB11.3B3.4B2A6B$12.4BA2BA3B2.BAB
11.3B2.5B2A4B$13.15B11.9BA5B$8.3B.B.2BA2BAB3A6B7.3B3A3BA2BA3B.B.3B
$6.10B3A2B3A6B7.2BA3BA2BA2BA11B$5.11BA2BAB2A7B7.BA4B3A2BA13B$5.12B
A4B2A5B9.BA22B$5.12B2A3B2A4B11.B3A2BA16B$4.17BABA3B13.2BA5BA14B$4.
14B2ABA6B11.2BA2B2A3BA13B$4.13B2A6B2AB11.2BA21B$4.13BABA5B2AB11.3B
7A14B$5.13BA9B11.4B3ABA14B$4.23B13.23B$3.24B13.24B$2.25B13.25B$2.
24B15.24B$2.16B.B.3B19.3B.B.16B$4.14B31.14B$4.3B2.11B2.B21.B2.11B
2.3B$4.3B3.10B.B2A19.2AB.10B3.3B$3.B7.11B2A19.2A11B7.B$2.A2B7.8B.
2B21.2B.8B7.2BA$.A.A2BA6.7B21.A5.7B6.A2BA.A$.BA3B3A5.7B18.3A4.7B5.
5ABAB$2.B2A4.A5.6B17.A7.6B5.A4.2AB$.2B.4A.A5.5B6.2A10.2A7.5B5.A.2A
2B.2B$2A.BA2.A.2A4.6B6.A7.5B6.6B4.2A.A2.2A.2A$2A.BABA4.A4.6B5.A.AB
3.2A2B7.6B4.A4.AB2A.2A$.3BA.A.2A.A2.9B5.2AB2.B2A3B5.9B2.A.2A.A.A3B
$3.2A.A.A.A3.2A4.4B5.10B4.4B4.2A3.A.A.A.2A$4.2BA.A6.A5.4B5.10B2.4B
5.A6.A.BAB$3.2B.B.A3.3A7.4B4.9B2.4B7.3A3.A.A.2B$2.A2B.2A4.A10.4B4.
13B10.A4.2A.3A$.A.4A17.4B3.12B17.2B2A.A$A.A3.A18.4B3.10B18.B3.B.A$
A.5A.A17.4B.B2.7B17.A.5A.A$.A5.2A18.13B18.2A5.A$2.4A22.11B22.4A$4.
A24.10B23.A$6.A22.9B22.A$5.2A21.9B23.2A$29.9B$30.7B$30.8B$30.8BA$
30.9BA$31.3B3.3AB!
