#CSYNTH gun_653 costs 6391 cells.
#C period 653 fullperiod 653 bbox 77 by 83
#CLL state-numbering golly
x = 77, y = 83, rule = LifeHistory
29.2A$29.A.A$31.A4.2A$27.4A.2A2.A2.A$27.A2.A.A.A.A.2A$29.BABABA.A$
30.B2ABA.A$31.2B.BA$30.3B$21.2A6.4B$22.A6.B2A3B$22.A.AB3.B2A3B$23.
2AB.10B$25.13B$25.14B$25.15B$27.8B2.4B$27.6B5.4B$26.9B4.4B$25.4B4.
2A5.4B$11.2A11.4B5.A7.4B$11.A2.A8.4B7.3A5.4B$12.5A5.4B5.3A2.A6.4B$
17.A4.4B5.A2.A9.4B$14.3AB2.7B.BA.A2.2A9.4B$13.A.2B3.7B.B2A15.4B7.A
$13.4A12B18.4B6.3A$11.2A2.BA3B2A7B19.4B8.A$10.A2.3AB.2B2A7B20.4B6.
A.A$10.2A.A.B3.10B21.4B5.A.AB$13.A8.8B21.4B5.A3B$13.2A7.9B21.4B6.
4B$23.3B2.4B21.4B5.6B$21.5B3.4B10.2A9.4B4.7B$21.2A7.4B9.A11.4B2.8B
.4B.B$22.A8.4B10.A10.17B.B2A$19.3A3.2A5.4B5.5A11.18B2A$19.A6.A5.4B
4.A16.16B.2B$26.A.AB.7B2.B3A13.16B$27.2AB.7B3.2B.A12.15B$29.12B4A
10.2AB.12B$29.7B2A3BAB2.2A7.A.AB2.11B$29.7B2A2B.B3A2.A6.A5.10B$29.
10B3.B.A.2A5.2A5.2B2A6B$17.2A9.8B8.A14.3B2A6B$16.A.A8.9B7.2A15.10B
$16.BA8.4B2.3B25.8B.B2A.A$9.2B6.2B6.4B3.5B22.7B3.B2AB3A$8.5B3.4BA
3.4B7.2A22.6B6.B4.A$8.6B.3B2ABA5B8.A24.6B4.2A.3A$5.9B6ABA4B10.3A
21.5B4.A2.2A$.B2.9B2A2B4A4B13.A20.8B.A.A$2A10BA2B2A7B26.A8.8BA.A.
2A.A$2A10BA3BA6B27.3A6.6B.2BAB.A.2A$.11BA3BA6B30.A4.7B2.2B2.A$2.
21B8.2A19.2A4.7B3.B.2A$2.13B2A6B8.A15.A4.4B.8B2.A.A2.2A$3.9B3ABA7B
4.BA.A15.3A4.11B2.2A2.A2.A$.2B.7B4AB2A9B.B2A19.A2.12B7.2A$2A8B2A5B
A11B20.2A2.12B$2A15BA11B20.B3.11B$.2B.12BA11B19.3B4.7B$3.26B16.6B
3.8B$3.6B.2B4AB2A12B11.10B2.9B$4.7B.4A3BA14B2.2B3.23B$3.8B.B4A3BA
25B2A16B.B$4.6B4.7BAB.22B2A17B2A$5.4B6.BA5B2.41B2A$3.5B7.A6B2.42B$
3.2A10.5BA2B2.36B2.5B$4.A10.2A5BAB8.4B.13B5.5B6.2A$.3A11.7BA10.4B
4.B.7B3.3B.2B7.A$.A12.8B3.B8.4B15.2A12.3A$15.3BA2B.B.2BA8.4B15.A
14.A$14.6BA4BA.A8.4B11.3A$13.6BA4B.BA10.4B10.A$12.2A10B14.4B$12.2A
B.7B16.4B$13.B3.6B17.4B$22.B2A16.4B$22.BA.A16.3BA$25.A17.3BA$25.2A
17.3AB!
