#CSYNTH gun_306 costs 2436 cells.
#C period 306 fullperiod 306 bbox 58 by 42
#CLL state-numbering golly
x = 58, y = 42, rule = LifeHistory
48.A2.2A$48.4A.A$53.A$21.A24.7A.2A$21.3A7.A13.A2.B3.A.A2.A$6.2A16.
A5.A.A12.2A2.2A.AB2.2A$7.A15.2A4.2BAB15.B2AB2A$5.A17.6B.2B17.5B$5.
2A18.6B19.3B$6.B17.8B17.2A3B$5.3B15.B.9B7.2A5.B2AB2A$5.4B14.11B7.A
6.2ABA4B$5.5B10.B.6B2A2B.B2A2.2A.A5.9B$6.5B7.10B2A2B.BA.A2.A.A.AB
3.7B$7.5B3.2B.5B3A6B4.2A4.2AB.10B$2.2A5.13B6A4B4.A7.13B$3.A5.5B2A
5BA4B2A2B.B2A4.A5.13BA$3.A.AB.6BABA4BABA6B.BA.A2.2A5.11BABA$4.2AB.
2B2A4BA5B2A5B5.A2.A8.8B2.2A$2A4.4B6A13B5.3A2.A6.6B5.B$.A4.6B3A5B.
2B3.4B7.3A5.9B$.A.AB.2B2A10B7.4B5.A7.4B4.2A$2.2AB.2B2A6B.B10.4B4.
2A5.4B5.A$4.11B14.9B4.4B7.3A$4.9B.B7.2B5.4BA2B5.4B10.A$6.8B7.3A6.
4BA3B2.4B$7.6B7.5B.B.4B3A8B$6.2B.6B4.A5BA16B$5.BA2B4.2A3.BA5BA15B$
5.A.A5.A5.A5BA4.10B$6.A7.3A3.5B7.B2A3B$16.A4.3B8.B2A3B$21.5B6.4B$
23.B2A7.3B$24.A9.2B.BA$25.3A5.B2ABA.A$27.A4.BABABA.A$30.A2.A.A.A.A
.2A$30.4A.2A2.A2.A$34.A4.2A$32.A.A$32.2A!
