#CSYNTH gun_501 costs 4446 cells.
#C period 501 fullperiod 501 bbox 78 by 57
#CLL state-numbering golly
x = 78, y = 57, rule = LifeHistory
66.2A$65.B2AB$66.3B$65.B.B8.2A$65.5B6.A$65.6B2.BA.A$60.11B2.B2A$
58.2A14B$48.2A5.3B2A15B$49.A4.20B$49.A.A20B.B2A$27.2A16.2A3.2A19B
2.BA.A$13.2A12.A17.A6.19B5.A$13.2A9.BA.A18.A5.19B5.2A$18.3B.B.B2A
18.2A5.21B$8.2A.4A3.7B20.B6.23B$5.2A2.A.A3.A2.7B18.3B6.20B2A2B$5.A
3.A3.BA2B.7B16.6B4.21B2A2B$6.3A.A2.BABA10B11.10B2.25B$8.A.A2.2B2A
13B2.2B3.11B.26B$9.A.2A.28B2A29B$2A6.2A.A4.26B2A29B$A5.BABA.A6.56B
$.3A.ABA.2A7.56B$2.B.2A11.57B$.2B.2A10.4B8.4B.14B5.22B$.3AB10.4B
10.4B4.B.7B7.19B$.2B11.4B12.4B7.4B9.18B$AB11.4B14.4B5.4B11.7B.9B$A
.AB2.B5.4B16.4B3.4B10.6B4.8B$.2AB.3B3.4B18.4B.4B11.2A8.9B$3.6B.4B
20.7B13.A8.10B$3.10B22.5B11.3A8.12B.B$3.2B2A5B23.5B11.A10.13B2A$4.
A2BA3B23.7B22.12B2A$4.BABA4B21.4B.4B20.2A9B2.B$5.BA6B19.4B3.4B14.
2A2.A2BA5B2.2B$5.3B2.4B17.4B5.4B10.A2.A3.BABA.2B3.B2A$5.3B3.4B15.
4B7.4B8.A.A.A.4BA8.A.A.2A$5.A.B4.4B13.4B9.4B8.A2.A.2AB8.A.A.2A.A$
2A2.BAB6.4B11.4B11.4B10.A.BAB8.2A$A2.3ABAB5.4B9.4B13.4B10.A4.A$.3A
.3B2A5.4B7.4B15.4B10.5A$4.A2.A.B6.4B5.4B17.4B$A.2A2.A.ABAB5.4B3.2A
2B9.A9.4B10.A$2A.A.2A.A2.2AB4.4B.2B2A8.3A10.4B8.A.A$3.A2.A.A2.BABA
4.5BAB8.A14.4B8.A$3.2A2.A5.B.A4.5B9.2A14.4B$14.2A3.B2A3B7.B2AB15.
4B$8.AB8.B3A6B2.B.2A18.4B$3.2A2.BABA6.2BA2BA4B.BA2B.AB18.4B$3.A2.A
3.B.2A4.B2ABA4B3AB3A20.4B$4.6A.3AB4.B2A2B4.B3.A22.4B$9.A.A2.A2.5B
5.6A23.4B$6.2A.A.A2BAB.2A7.B2ABAB25.3BA$6.2A.A.A.BA2B.A7.2AB29.3BA
$10.A5.2A9.B31.3AB!
