#CSYNTH gun_7080 costs 4125 cells.
#C period 7080 fullperiod 7080 bbox 75 by 55
#CLL state-numbering golly
x = 75, y = 55, rule = LifeHistory
5.2A.2A5.2A.2A2.2A16.2A3.A$6.A.A2B3.ABA.A.A2.A14.3A.A.A.A$6.A3.3B.
A3.A.A.A14.A4.A.A.A$4.2A.5AB6A.2A.3A11.ABABA.A.A$5.A.A2.2AB.B4.B.A
.A2.A5.2A4.2A.A.A$5.A2.A.BA3.B3A2B2A.A.A6.A4.4BABA9.2A$6.2A2.2B4.A
B2A2B.A.A7.A.AB4.2BA3B6.B2A2B$11.B6.A2.A.A10.2AB.B4.5B6.4B$10.2AB
5.2A.A.A12.4B2.6B.9B$.2A6.A2BAB5.A.2A13.9BA11B$2.A4.3B2A3B4.A16.8B
ABA10B$2.A.AB.8B.BA.A15.9BABA10B3.2A$3.2AB.8B.B2A15.4B.5BA2BA10BA
2.A$5.12B16.4B3.5B2A9B2.2A2.2A$5.12B15.4B6.13B8.A$5.12B3.A10.4B5.
15B6.A$7.10B3.3A7.A3B5.16B6.2A$9.7B7.A5.A3B5.18BA5.B3.3B$9.8B5.2A
4.B3A5.11B.3B2.BABA4.7B$8.5B.4B4.9B7.10B6.A2BA3.7B2A$8.6B.4B5.7B
10.7B7.2A11B2A$7.6B3.4B2.8B13.4B10.10B.B$3.B2.3BA3B4.15B9.6B10.5B
2A3B$.7BABA2B5.15B8.2A13.6B3A2B$.7BABA2B6.14B9.A13.3B2A2B2A2B$9BA
3B7.10B3.B2A3.3A14.2B3A2B2A2B$11B.B2A6.4B2AB5.3AB2.A17.2B2AB2A2B$.
9B2.BA.A4.5B2A2B3.A.2AB17.6B3A5B$.7B7.A4.8B3.A.A.2B15.4BA4BA7B3.2A
$2.6B7.2A5.6B3.A2.A17.3B2A12B2.A2.A$3.4B15.5B5.2A18.2BA14BA2.2A$4.
4B15.3B26.3B2ABA3B2A4BAB2A$5.4B13.5B23.2AB.2B3A3B2A3B.BA2.2A$6.4B
12.2AB2AB21.A.AB.6B.2BA2B2.2B2A2.A$7.4B11.BA.2A2.2A18.A5.5B.5B3.B.
B.2A$8.4B6.2A.A.A3.B2.A17.2A5.4B3.BABAB2.B2A.A$8.5B5.A.2A.7A25.3B
5.B2A2B.BAB.A$9.5B8.A33.B6.BA3B3.2A$6.3B2.4B7.A.4A37.2B$.B2.2A3B3.
4B7.2A2.A7.2B27.2B$2A4B4A3.4B16.6B24.B2AB$2A2B2AB3A4.4B13.10B23.2A
$.3BAB2.B6.4B10.2A3BA2BA3B2A$.3B12.4B8.B5A4B5AB$17.4B8.2A3BA2BA3B
2A$18.4B9.10B$19.4B10.6B$20.4B11.2B$21.4B7.2AB2.B2A$22.4B4.BA8BAB$
23.5B.BA2BA4BA2BAB$24.7BA8BAB$25.3BA2B.2A4.2A$26.3BA$27.3AB!
