#CSYNTH gun_3600 costs 2392 cells.
#C period 3600 fullperiod 3600 bbox 52 by 46
#CLL state-numbering golly
x = 52, y = 46, rule = LifeHistory
14.A.2A.3B$14.2A.A5B$19.5B$20.4B$21.4B$10.4B2.B.3B.4B$10.4B.18B$9.
2A5B2A16B$9.2A5B2A16B$10.B.22B$12.B2A21B$13.2A7B2.13B$13.8B6.10B$B
A.B11.7B7.7B$5A.ABAB4.10B6.8B$2A.2ABAB3A3.13B2.7B2A$.BA.AB.2B.B4.
7BA13B2AB$3.B.2B.BA.AB4.4BAB2A14B.B$3.3ABAB2A.2A3.3B2ABA9B2A5B2A$
4.BABA.5A3.4BA11B2A5B2A$10.B.AB4.18B.4B$12.2B11.4B.3B.B2.4B6.B2A$
13.B12.4B17.3AB$12.2AB5.2A5.4B12.A4.A.A$11.A2BAB5.A6.4B9.3A3.3AB$
9.3B2A3B4.A.2A4.4B7.A5.AB.2A$9.8B.BA.A.A6.4B6.2A3.A.A3B$9.8B.B2A2.
A7.4B.6B4.A2B2A$7.12B4.3A6.8B7.B.2B$7.12B7.A6.10B6.AB$7.12B6.2A5.B
.10B4.A2B$5.2AB.10B6.18BAB3.2BA$4.A.AB3.7B9.15BABA5BAB$4.A6.8B7.2B
2A12BABA.4BAB$3.2A5.5B.4B5.2BA2BA12BA4.2BA$10.6B.4B4.3B2A4B2.7B5.A
2B$9.6B3.4B.9B4.7B6.BA$5.B2.3BA3B4.12B6.4B8.2B$3.7BABA2B5.10B7.3B
9.2A$3.7BABA2B6.9B8.B10.3B$2.9BA3B7.9B17.2B2A$2.11B.B2A6.7B18.BAB$
3.9B2.BA.A6.6B17.3A$3.3BA3B7.A8.2B18.B2A$4.3BA2B7.2A28.A.BA$5.3AB
40.2A!
