#CSYNTH gun_2268 costs 3416 cells.
#C period 2268 fullperiod 2268 bbox 56 by 61
#CLL state-numbering golly
x = 56, y = 61, rule = LifeHistory
29.2A$27.3A$22.2A2.A4.A$22.A3.A.2A.3A$23.3A.A.A4.A$25.A.A.B.3A$25.
ABABABA$26.2A.2A$26.4B$28.3B$25.7B14.3B3.2A$24.8B13.3AB2.B2A2B$23.
8B10.A5B.AB2.4B$23.9B2.B6.A2BABAB2A6B$11.B2A9.6BA7B.B.2B3A6B3A2B$
11.3AB9.4B3A15B2ABABA2BA$10.A.2AB9.3B5A12B2.BA.5BA$9.A.A.2B8.3B2A
3B2A6B.2B2AB2.B3A$9.A2.A2.2B5.3B3A3B3A6B2.2A3.3B$10.2A3.3B3.5B2A3B
2A6B$4.2A9.3B.5B2.B5A6B$3.A.A8.9B5.3A7B2.2A3.2BA$3.A8.B.8B4.B3A6B
2.A2BAB2.BA2B$2A.AB.B3.11B5.2A3.B.B4.4B2.2B.A2B2AB$.A.A.2AB.12B6.A
4.3B3.6B2ABABA2BA$.A.A.2A3B2A9B3.3A4.B2AB3.A4B2A2B2A4BA$2A.A2.4B2A
9B3.A7.2A5.A2BABAB2A6B$A2.4A12B.B2A.A.3A10.B2A2BA.2B2.4B$.2A2.BAB.
10B.BA.A.A.A15.2BAB2.BA2BA$3.2A6.7B5.A5.A.2A11.A2B3.2A$3.A7.2B.4B
5.2A3.3A.A$4.A10.4B8.A$3.2A11.4B7.2A$17.4B3.5B$18.4B2.3B9.2A$19.9B
8.A.A$20.8B.B8.A$21.11B3.B.BA.2A$21.12B.B2A.A.A$21.14B2A.A.A$21.8B
2A5B2.A.2A$19.2AB.5BA2BA3B4A2.A$18.A.AB.6B2A2B.BAB2.2A$11.A6.A5.7B
6.2A$11.3A3.2A5.4B.2B7.A$14.A8.4B9.A$13.2A7.4B10.2A$13.5B3.4B$4.2A
9.3B2.4B$3.A.A8.9B$3.A8.B.8B$2A.AB.B3.BA9B$.A.A.2AB.3A9B$.A.A.2A2B
2A10B$2A.A2.5BA9B$A2.4A3BA8B.B2A$.2A2.BAB.BA8B.BA.A$3.2A6.7B5.A$3.
A7.2B.3BA5.2A$5.A9.3BA$4.2A10.3AB!
