#CSYNTH gun_1088 costs 2800 cells.
#C period 1088 fullperiod 1088 bbox 56 by 50
#CLL state-numbering golly
x = 56, y = 50, rule = LifeHistory
15.2A$16.A$16.A.2A3.2A$17.A.A4.A$6.2A11.A.3A10.2A.2A.2A$7.A5.3B2.
2A.A11.A.A.A3.A$7.A.AB.10B10.2B.A2.A.A$8.2AB.6B.2B11.A2BAB2A.2A$
10.10B.2B8.B2A.B$10.14B.2B5.3AB3A.2A$11.4B3A10B4.BA.A2.A.A$10.4B5A
11B3.B.A.A2.A$9.4BA3B2A16BA.3A$7.5B2A18B2.A$2A5.6B4A15B3.3A4.2AB$.
A5.7B3A13BA6.A3.B3A$.A.AB.10B4A11BA9.B2A.A$2.2AB.13B3A7B3AB8.2B.A.
A$3.16B4A6B.4B5.2B2.A2.A$4.18B2A5B2.4B3.3B3.2A$4.13B2A3BA4B5.5B.3B
9.2A$6.11B5A4B7.9B8.A.A$8.10B3A4B9.8B.B8.A$9.2B2.13B9.11B3.B.BA.2A
$13.2B.10B9.12B.B2A.A.A$15.2B.6B.B2A7.14B2A.A.A$14.10B.BA.A6.8B2A
5B2.A.2A$14.A.2A2.3B5.A4.2AB.5BA2BA3B4A2.A$12.3A.A11.2A2.A.AB.6B2A
2B.BAB2.2A$11.A4.A.A13.A5.7B6.2A$11.2A3.2A.A11.2A5.4B.2B7.A$19.A2.
B2A12.4B9.A$16.3A3.3AB10.4B10.2A$16.A4.A.2AB9.4B$20.A.A.2B8.4B$20.
A2.A2.2B5.4B$21.2A3.3B3.4B$15.2A9.B2A.5B$14.A.A8.BA2BA4B$14.A8.B.
2B2A4B$11.2A.AB.B3.BA9B$12.A.A.2AB.3A9B$12.A.A.2A2B2A10B$11.2A.A2.
5BA9B$11.A2.4A3BA8B.B2A$12.2A2.BAB.BA8B.BA.A$14.2A6.7B5.A$14.A7.2B
.3BA5.2A$16.A9.3BA$15.2A10.3AB!
