#CSYNTH gun_6561 costs 5984 cells.
#C period 6561 fullperiod 6561 bbox 88 by 68
#CLL state-numbering golly
x = 88, y = 68, rule = LifeHistory
28.2A2.A15.2A$27.A.4A13.A2.A7.2A3.2A$27.A16.4A9.A.A.A.A$25.2A.7A8.
A4.4A7.A.A7.2A$23.A2.A.A3.B2.A6.A2.AB.A2.A6.2A.2A6.A$23.2A2.BA.2A
2.2A6.3A.2AB2.A.AB2.B.B.B.B2.BA.A$27.2AB2AB12.A.B4.2AB.2B2AB2A2B.B
2A7.2A$27.5B12.A2.AB5.2B2A5B2A2B9.A$28.3B12.A.4A5.2BA3BA3BA2B6.BA.
A$27.5B12.2A.B.A5.BA.2BA2B.AB7.B2A$27.6B14.A2B.2A6.3B9.3B9.2A$25.
8B6.2A7.A.2A.A6.B9.BA2B5.A4.A$25.5B2A2B5.A4.2A3.2A.2BA2.3B9.B2AB5.
A.A.A$26.4B2AB3.BA.A3.A2.A2.B.A2B2.2A5B2.3B.A2BA5.A2.3A$11.A13.10B
.B2A3.A.AB7A2.3A3BA7BA4B.BA.A6.2A$11.3A10.13B6.A2.B2A4B2.2BA3B2A4B
2A2B2AB.B2A3.4A.A$14.A8.8BA5B7.2A.A6.3B2A4BA2BA4B2A3B4.A3.B$13.2A
7.8B2A5B8.B3A5.3BABA2B6A2BABA3B5.3AB$13.5B3.4B2.3BABA2B10.B3.A4.3B
2A4BA2BA4B2A3B6.A.2A$4.2A9.3B2.4B5.6B8.A.4A3.2AB.B2A2B2A4B2A3BA2B
2.4B2AB2.A$3.A.A8.9B4.9B7.2A6.A.AB.4BA7BA3B3A2.7ABA.A$3.A8.B.8B5.
2A4.4B9.3A2.A5.A2BA.3B2.5B2A2.2BA.B2.A2.A$2A.AB.B3.11B7.A5.4B9.A.A
.A5.B2AB9.3B2.A2B.2A3.2A$.A.A.2AB.12B4.3A7.4B6.A4.A5.2BAB9.B6.A.2A
.A$.A.A.2A14B4.A10.4B5.2A8.4B9.3B6.2A.2BA$2A.A2.5B2A8B16.4B12.5B6.
BA.2BA2B.AB5.A.B.2A$A2.4A3BA2BA5B.B2A15.4B10.5B6.2BA3BA3BA2B5.4A.A
$.2A2.BAB.2B2A6B.BA.A15.4B8.5B7.2B2A5B2A2B5.BA2.A$3.2A6.7B5.A16.4B
7.4B6.2AB.2B2AB2A2B.B2A4.B.A$3.A7.2B.4B5.2A6.A9.4B5.5B5.A.AB2.B.B.
B.B2.BA.A2.B2A.3A$5.A9.4B10.3A10.4B2.5B7.A6.2A.2A6.A2.A.BA2.A$4.2A
10.4B8.A14.12B4.2A7.A.A7.4A4.A$17.4B7.2A14.11B11.A.A.A.A9.4A$18.4B
3.5B15.10B10.A.A.A.A.A6.A2.A$19.4B2.3B9.2A6.10B10.A.A.A.A.A6.2A$
20.9B8.A.A5.8B13.A.A.A.A9.4A$21.8B.B8.A7.5B7.2A7.A.A7.4A4.A$22.11B
3.B.BA.2A6.B3A7.A6.2A.2A6.A2.A.2A2.A$22.12B.B2A.A.A8.A3B6.A.AB2.B.
A.A.B2.BA.A2.A2B.3A$22.14B2A.A.A9.A3B6.2AB.2B2AB2A2B.B2A4.B.A$22.
8B2A5B2.A.2A9.4B7.13B5.2B2.A$20.2AB.5BA2BA3B4A2.A10.4B6.B3AB3AB3AB
5.4A.A$19.A.AB.6B2A2B.BAB2.2A12.4B6.2B.5B.2B5.A.A.BA$19.A5.7B6.2A
5.2A8.3BA9.3B6.AB.2AB$11.A6.2A5.4B.2B7.A5.A4.A5.B2AB9.B6.A.2A.A$
11.3A10.4B9.A9.A.A.A5.ABAB9.3B2.B2A.2B3.2A$14.A8.4B10.2A7.3A2.A5.
4B.3B2.2A5B2.2AB.A2.A2.A$13.2A7.4B17.2A6.A.AB.7BA2BA3BA4B2.A2BA2B
3A.A$13.5B3.4B18.A.4A3.2AB.6B3A5B2A3B2.A2BA2BA2.A$4.2A9.3B2.4B21.B
3.A4.4B2ABA8B2A4B6.A.2A$3.A.A8.9B22.2B2A5.2B2ABA3BA2BA3BAB2A2B5.2A
2B$3.A8.B.8B22.2A.A6.4B2A8BAB2A4B4.A3.B$2A.AB.B3.11B22.A2.A2BA2BA
2.3B2A5B3A6B.B2A3.4A.A$.A.A.2AB.12B21.A.3A2BA2BA2.4BA3BA2BA7B.BA.A
6.2A$.A.A.2A14B22.A2.A2.A.B2A2.5B2A2.3B.4B5.A2.3A$2A.A2.5B2A8B23.
2A3.2B.2AB2.3B9.BABA5.A.A.A$A2.4A3BA2BA5B.B2A25.A.2A.A6.B9.B2AB5.A
4.A$.2A2.BAB.2B2A6B.BA.A23.B2A.BA6.3B9.A2B9.2A$3.2A6.7B5.A20.AB.A.
A5.2B.5B.2B7.B2A$3.A7.2B.4B5.2A18.A.4A5.B3AB3AB3AB6.BA.A$5.A9.4B
25.A2.2B5.13B9.A$4.2A10.4B25.A.B4.2AB.2B2AB2A2B.B2A7.2A$17.4B21.3A
.2BA2.A.AB2.B.A.A.B2.BA.A$18.4B20.A2.2A.A2.A6.2A.2A6.A$19.4B20.A4.
4A7.A.A7.2A$20.3BA20.4A9.A.A.A.A$21.3BA21.A2.A7.2A3.2A$22.3AB22.2A!
