#CSYNTH gun_101 costs 3835 cells.
#C period 101 fullperiod 101 bbox 65 by 59
#CLL state-numbering golly
x = 65, y = 59, rule = LifeHistory
31.2A$30.A.A$24.2A4.A$22.A2.A2.2A.4A$22.2A.A.A.B.A2.A$25.A.AB2A2B$
25.A.AB2AB$26.AB.2B$29.3B$29.4B6.2A$27.3BABA6.A$27.3B2AB3.BA.A$25.
10B.B2A$24.BA11B$9.A13.2A12B$9.3A10.2B2A11B$12.A8.4B2.8B$11.2A7.4B
5.6B$11.5B3.4B4.9B$13.3B2.4B5.2A4.4B$3.2A7.9B7.A5.4B$3.A8.8B5.3A7.
4B$2A.A.B3.10B6.A10.4B$A2.3AB.2B2A7B18.4B18.A$.2A2.BA3B2A7B19.4B
11.2A3.A.A$3.4A12B20.4B11.A3.A2.A$3.A.2B3.7B.B2A19.4B10.A.2A.A.A$
4.3AB2.7B.BA.A19.4B10.A.A.A.2A$7.A4.4B5.A20.4B10.2B2A.A2.A$2.5A5.
4B5.2A20.4B10.4B2.2A$2.A10.4B27.4B6.7B$4.A9.4B27.4B3.8B$3.2A10.4B
22.2A3.2B2A.8B$16.4B22.A4.BABA8B$17.4B7.2A12.A.AB2.A10B.2B$18.4B6.
A14.2AB.14B2A$19.4B6.A15.16B2A$20.3BA4.2A15.14B.2B$21.3BA2.2B17.
13B$14.2A6.3A5B15.14B.2B$15.A7.7B13.18B2A$15.A.2A5.7B2.B2.2B2.A18B
.B2A$16.A2.A4.17B2A16B2.B$17.2AB3.19B2A6B.8B$18.14BA11BA5B2.7B$19.
13B2A5B5A6B2.7B$20.22BA6B3.7B$20.17B.4B11.6B.BA$21.15B3.2B12.7BA.A
$21.15B3.3B11.8BA$22.13B5.A2B.2A7.6B.B$24.13B2.A.A2B.A7.5B$23.8B4.
2A.A.AB2.A8.6B$23.6B6.2ABA4.A7.2AB.5B$23.5B8.B2.5A.A4.A.AB3.4B$23.
B.B5.2A.A.2A.A4.A.A3.A7.4B$24.3B4.A.2A.A2.A.2A2.A3.2A8.3BA$23.B2AB
11.2A.A.2A15.3BA$24.2A35.3AB!
