#CSYNTH gun_1274 costs 5037 cells.
#C period 1274 fullperiod 1274 bbox 69 by 73
#CLL state-numbering golly
x = 69, y = 73, rule = LifeHistory
33.A$33.3A$36.A$16.2A3.2A12.2A$10.2A5.A3.A13.5B.B$10.A.A4.A.A.A15.
6B$12.A2.2A.A.A.2A12.8B$11.2A.A.B.A.A.B.A11.8B$12.A.BA2BA.AB2A.A9.
9B$12.A.A.2BA.A3B.A9.8B$10.2A.A5BAB.2A.A.A7.8B$11.A.8ABABA.A.A6.7B
$11.A.A6.A.A.B.A2.A4.8B$10.2A.7A2.2A2B2A.3A3.8B$12.A6.A.A2.2B.A4.A
2.5B2AB$12.A.2A2.A2.5A2B.3A3.4BA4B$13.A.A3.2A3.AB2ABA4.5B3A4B$21.
2A3B.2A6.12B$21.A2.2B2A5.5BA4B3AB$19.A.A2.B3AB3.6B2A2B3A4B.B$19.2A
4.3BA3.7BA3BA6B2A$26.ABAB2.5B3A8B.B2A$27.BA6B2AB2A6B4.B$26.2BA2B.
3B6A2.3B$25.A2BAB2.7B2A2.2B$21.2A3.2A3.9B3.4B$20.B2AB6.6BAB5.4A2B$
20.4B5.4B.4B4.A4BA2B$21.2B5.4B8.3A.3B2AB$13.A7.4B2.4B8.A3.2B.ABAB$
12.A.A5.5B.4B9.BAB2A.A4B$13.A.14B11.A2BA.A2BA$14.14B11.4BA.2ABAB$
14.14B11.BABA.2B3.A$14.4B2A9B10.B2A3B.3A$13.5B2A10B9.2BA4BA$13.18B
9.2B4A$11.2AB.11B2.4B10.4B$10.A.AB2.8B5.4B$10.A5.10B4.4B2.2B$9.2A
7.B.B3.2A5.8B$17.3B4.A7.8B$17.B2AB4.3A5.8B6.2A$18.2A7.A3.2B.3B2A4B
4.A$30.2A4BA2BA4B4.A$10.AB18.2AB.2BA2BA3B4.2A$3.AB4.BA.A18.B2.3B2A
2B5.2B$2.B2A4.A.AB21.8B2.5B6.3B5.2A$3.2AB4.BA23.15B4.4B5.A$3.BA3.B
11.B.7B5.2B2AB.10B4.5B.BA.A$5.6B3.B.13B4.3B2A13B3.5B.B2A$4.47B3.7B
$4.46B3.8B$4.45B3.8B4.2A$4.21B2A33B3.A.A$2.2AB.19B2A33B3.A$.A.AB2.
3B.6B3.41B.2A$.A12.4B3.10B2.B3.B2.B3.18B$2A13.4B5.6B14.18B3.2A$16.
4B6.3B13.5B3.12B.B2.A$17.4B7.B13.2A7.12B3A$18.4B6.2A13.A8.9B.BA$
19.4B6.A10.3A4.2A3.9B3.2A$20.4B4.A11.A6.A4.9B4.A$21.4B3.2A14.2A.A
4.2B2A3B.B2A2.A.2A$22.4B18.A2.3A.2BA2BA2B.BA.A.A.2A$23.4B18.2A2.BA
3BABAB5.A.A$24.4B19.4A4BA4B3.A.A$25.4B18.A.4B5.2A4.A$26.4B15.A.A.
2A7.A$27.3BA14.2A2.A9.3A$28.3BA17.A.A9.A$29.3AB17.2A!
