#CSYNTH gun_681 costs 4860 cells.
#C period 681 fullperiod 681 bbox 81 by 60
#CLL state-numbering golly
x = 81, y = 60, rule = LifeHistory
28.2A$27.A.A21.2A$21.2A4.A23.A.A$8.B10.A2.A2.2A.4A21.A4.2A$7.3A9.
2A.A.A.A.A2.A17.4A.2A2.A2.A10.A$7.2A13.A.ABABAB19.A2.A.A.A.A.2A9.B
AB$5.AB2AB12.A.AB2AB22.BABABA.A13.AB$.2A.3B.A14.AB.2B24.B2ABA.A12.
2BABA$A.3A2BA10.A7.3B24.2B.BA14.A.2AB.2A$A4.BA9.3A7.4B6.2A14.3B7.A
10.6A.A$.4A10.A8.3B2AB6.A6.2A6.4B7.3A9.2B4.A$2.B.2A8.A.A7.3B2AB3.B
A.A7.A6.B2A3B8.A10.4A$.2B.2A7.BA.A5.10B.B2A8.A.AB3.B2A3B7.A.A8.BA.
B$.3AB7.3BA5.13B11.2AB.10B5.A.AB7.BA.2A$.2B7.4B6.14B13.13B5.A3B7.A
3B$AB6.6B5.15B13.14B6.4B7.BA$A.AB3.7B4.4B2.8B15.15B5.6B6.BA$.2AB3.
8B2.4B5.6B17.8B2.4B4.7B3.BA.A$3.17B4.9B16.6B5.4B2.8B3.B2A$3.16B5.
2A4.4B14.9B4.17B$3.16B6.A5.4B12.4B4.2A5.16B$3.17B2.3A7.4B10.4B5.A
6.16B$4.16BA2.A9.4B8.4B7.3A2.17B$5.14B.2A3.A8.4B6.4B9.A2.A16B$5.
12B7.2A9.4B4.4B8.A3.2A.14B$.2A3.10B20.4B2.4B9.2A7.12B$2.A3.6B2A2B
21.8B20.10B3.2A$.A4.6B2A3B21.6B21.2B2A6B3.A$.2A3.10B23.4B21.3B2A6B
4.A$4.2AB.8B22.6B21.10B3.2A$.2AB2AB3.7B20.8B20.8B.B2A$2.A.B6.6B19.
4B2.4B18.7B3.B2AB2A$A3.2A4.6B19.4B4.4B17.6B6.B.A$4A2.A.8B18.4B6.4B
17.6B4.2A3.A$3.A.A.A9B16.4B8.4B16.8B.A2.4A$2A.A.BA2B.7B15.4B10.4B
14.9BA.A.A$.A.A2.2B3.6B7.2A5.4B12.4B4.A8.7B.2BAB.A.2A$A2.2A.B4.7B
6.A5.4B14.4B3.3A6.6B3.2B2.A.A$A.A2.A.A3.7B3.BA.A4.4B16.4B5.A4.7B4.
B.2A2.A$.A.A2.2A3.8B2.B2A4.4B18.4B3.2A4.7B3.A.A2.A.A$2.A8.11B5.4B
20.4B2.4B.8B3.2A2.A.A$11.11B4.4B22.4B3.11B8.A$11.11B3.4B24.4B.12B$
12.11B.4B26.16B$4.2A9.7B.4B28.B3A10B10.A$4.A.A7.12B30.A9B11.3A$6.A
5.13B30.2BA9B9.A$6.2AB.14B30.16B6.2A$8.16B23.A6.24B$6.2AB.14B.B21.
3A3.23B$5.A2.A16B2A23.A2.24B$3.A2.2A17B2A22.A.B.24B$3.2A.A.2B5.11B
23.2A27B$6.A.B5.6B2.4B21.2A2.A22B.4B$6.2A6.6B26.A2.3A3B3.2B3.B7.2B
3.4B$13.A.2A2B28.A4.2B3.4B.3B5.BA2B3.3BA$11.3A.A.A.A28.4A5.B2AB.B
2AB4.A.A5.ABA$10.A4.A.2A.A29.A7.2A3.2A6.A7.2A$10.2A3.A4.A31.A27.B$
14.2A4.2A29.2A!
