#CSYNTH gun_1405 costs 7029 cells.
#C period 1405 fullperiod 1405 bbox 99 by 71
#CLL state-numbering golly
x = 99, y = 71, rule = LifeHistory
51.2A$50.B2AB11.2A.A.2A15.A$51.3B4.A.2A.A2.A.2A2.A14.3A$50.B.B5.2A
.A.2A.A4.A.A9.2A5.A$50.5B8.B2.5A.A10.A5.2A4.2B$50.6B6.2ABA4.A4.2A
3.2A.A5.9B$50.8B4.2A.A.AB2.A3.A4.A.A8.7B$51.13B2.A.A2B.A3.3A.A8.9B
$49.13B5.A2B.2A5.A.2A2.3B.10B$48.15B3.3B9.5B.10B2A2B$48.15B3.2B11.
14BA2BA2B$47.17B.4B10.14BA2BA2B$47.13B2A3BA10B3.15B2A2B$46.14B3ABA
B2A9B2.20B$45.15B3A4BA9B2.19B$44.2AB3.13BA3BA9B.10B2.3B.4B$43.A2.A
4.13B3A21B7.2B$42.A.2A5.6B3.B2.BA2.21B$42.A7.6B14.17B$41.2A6.9B14.
15B$48.4B4.2A15.14B$47.4B5.A15.15B$27.A18.4B7.3A12.16B$26.A.A3.2A
11.4B10.A10.2AB.6B3.3B.2A$25.A2.A3.A11.4B21.A.AB2.4B3.B2A2B2A$25.A
.A.2A.A10.4B22.A4.4B5.2A3B$24.2A.A.A.A10.4B22.2A3.4B7.6B.2A$22.A2.
A.2A2B10.4B27.4B9.B2.2A2.A$7.2A3.2A8.2A2.4B10.4B27.4B11.BA.3A$7.A.
A.A.A12.7B6.4B27.4B12.A.B$9.A.A15.8B3.4B27.4B14.5A$8.A2B.A2.2A11.
8B.4B3.2A22.4B19.A$8.ABA.A2.A.A10.12B4.A22.4B16.2A$10.A.2A.A2.A6.
2B.11B2.BA.A21.4B17.2A$9.2ABA2.3A6.2A14B.B2A10.A10.4B$8.B2A2B2A9.
2A16B12.3A7.4B$9.2A.A2.A9.2B.14B15.A5.4B$9.B2A2.2A12.13B15.2A4.4B$
10.2B13.2B.14B14.9B6.2A$10.2B12.2A18B14.6B7.A$11.B12.2AB.19B2.2B2.
B3.6B5.2A.A$10.2AB12.B2.35B4.A2.A$.2A6.A2BAB5.2A7.8B.27B3.B2A$2.A
4.3B2A3B4.A8.7B2.32B$2.A.AB.8B.BA.A8.7B2.31B$3.2AB.8B.B2A9.7B3.15B
2AB2A9B$5.12B8.AB.6B11.4B.3BA13B$5.12B7.A.A7B12.2B3.2A3BA9B$5.12B
3.A4.A8B11.3B3.A14B$7.10B3.3A3.B.6B7.2A.2BA5.BA11B$9.7B7.A5.5B7.A.
2BA.A2.A2BA9B$9.8B5.2A4.6B8.A2.BA.A.2B4.8B$8.5B.4B4.10B.B2A7.A4.AB
2A6.6B$8.6B.4B5.6B3.BA.A4.A.5A2.B8.5B$7.6B3.4B2.8B6.A3.A.A4.A.2A.A
.2A5.B.B$3.B2.3BA3B4.15B4.2A3.A2.2A.A2.A.2A.A4.3B$.7BABA2B5.14B10.
2A.A.2A11.B2AB$.7BABA2B6.13B29.2A$9BA3B7.10B.B2A$11B.B2A7.3B2AB3.B
A.A$.9B2.BA.A6.3B2AB6.A$.7B7.A8.4B6.2A$2.6B7.2A7.3B$3.4B14.AB.2B$
4.4B12.A.AB2AB$5.4B11.A.ABABAB$6.4B7.2A.A.A.A.A2.A$7.4B6.A2.A2.2A.
4A$8.3BA7.2A4.A$9.3BA12.A.A$10.3AB12.2A!
