#CSYNTH gun_9588 costs 5429 cells.
#C period 9588 fullperiod 9588 bbox 89 by 61
#CLL state-numbering golly
x = 89, y = 61, rule = LifeHistory
64.A$62.3A$61.A$51.2A8.2A22.A$52.A5.5B20.3A$20.2A11.A18.A.AB.4B21.
A$19.B2AB9.A.A18.2AB.6B4.B7.A6.2A$20.3B9.A.A20.10B.B2A5.A.A3.4B$
19.B.B9.2A.3A2.2A14.12B2A6.A.5B$19.5B8.B4.A2.A14.11B.B8.7B$19.6B6.
2AB3A3.A.AB2.4B3.13B10.4B2A4B.B$19.8B4.2A.A6.2AB2.5B2.12B.2B8.4B2A
3B.B2A$20.13B10.24B2A7.11B2A$18.13B12.24B2A7.9B.2B$17.15B12.20B.B.
B3.2B2.10B$17.15B10.B2.20B5.2A13B$16.17B.B5.B3A22B4.2A13B$16.25B3A
23B4.2B.11B$15.13B2A14BA21B8.9B.B2A$14.14B2A9B2ABABA21B10.7B.BA.A$
13.2AB3.20B5A21B4.2A4.7B5.A$12.A2.A4.19B2A24B4.A4.8B5.2A$11.A.2A5.
7B2.B2.2B2.29B.BA.A3.4B2.4B$11.A7.7B12.4B2.7B.13B.B2A3.4B4.4B$10.
2A6.8B18.6B2.15B4.4B6.4B$17.4B2.2B21.3B3.10B.4B3.4B8.4B$4.2A10.4B
4.2A21.B4.14B3.4B10.4B$5.A9.4B6.A27.12B3.4B12.4B$3.A7.2B.4B5.A29.
11B3.4B14.3BA$3.2A6.7B5.2A28.11B2.4B16.ABA$.2A2.BAB.10B.BA.A2.A27.
9B2.4B18.2A$A2.4A12B.B2A2.2A27.9B.4B20.B$2A.A2.4B2A9B33.13B16.2A$.
A.A.2A3B2A9B33.12B13.2A2.A$.A.A.2AB.12B28.2A.A12B10.A3.A.A.A$2A.AB
.B3.11B6.A7.2A12.A.2A2.9B9.3A4.B.A$3.A8.B.8B5.3A4.B2AB17.8B9.A5.3B
$3.A.A8.9B7.A4.3B18.6B9.B2A3.A2BAB3.2A$4.2A9.3B2.4B5.2A3.B.B10.2A
7.5B8.5B2.BA2BAB.BAB.A$13.5B3.4B4.10B3.2A2.A2.A4.6B9.3B4.B2A2B2.B
2A.A$13.2A7.4B5.8B3.A.A2.2A5.2A4.5B4.3AB2.5B3.B.B.2A$14.A8.4B2.7BA
3B3.B.2A8.A4.3B3A3.2BAB2.5B2.2B2A2.A$11.3A3.A6.2B2A7B3A3B.2B2.A5.
3A4.2B2A4B.3BA9B.BA2.2A$11.A5.3A5.BABA6BA2BA6B.A.2A2.A6.2BA5B.3B2A
9BAB2A$20.A5.A9B3A4B2A.A2.A9.16B2A6BA2.2A$19.2AB4.5B2A4BA5B2A.2A9.
3B2A3BA.9B2A5B2.A2.A$19.6B.4BA2BA7B.2B12.6BABA4B.4BABA6B3.2A$21.9B
A2BA7B11.2A2.5B2A9B.A3B2A3B$18.2B.12BA2B.6B9.A2.A6B2A16B$14.2A.2A
11B3A3B4.B2A10.2ABA9B2A3B.5BA2B$12.A2.A.2A17B5.A8.3A2.AB.9BA3B.4B
2A2B$12.2A.A.20B5.3A4.A3.2A2B2.5B2.BA2B3.3A3B$15.A2.2B.16B7.A5.2A.
B.B3.5B2.B3A4.5B$15.2A.B3.11B2.4B12.A.2AB2.2B2AB4.3B$13.2A2.A.A3.
8B6.2A12.A.BAB.BA2BAB2.5B$12.A2.A2.2A3.10B4.A14.2A3.BA2BA3.2AB$13.
2A10.B.B3.2A5.3A17.3B5.A$24.3B4.A8.A15.A.B4.3A$24.B2AB4.3A20.A.A.A
3.A$25.2A7.A20.A2.2A$54.2A!
