#CSYNTH gun_9480 costs 5980 cells.
#C period 9480 fullperiod 9480 bbox 92 by 65
#CLL state-numbering golly
x = 92, y = 65, rule = LifeHistory
75.A$52.A20.3A$51.A.A18.A$51.BA2B17.2A$52.BA3BA2.2A7.5B$52.BA3B4A
2B4.BA3B$53.BA3BA.7BABA3B8.AB$54.BA.5AB.2BA2BA4B6.A.A2B$39.2A3.2A
3.2A4.A.A.A.AB.3B2A4B8.ABABA2.2A$38.B2AB.B2AB2.A.A.A.A.A.2A5.6B10.
BABAB2.A$38.B2AB.B2AB5.2A.A2.A7.5B12.BAB3A$39.2A3.2A10.A.A6.7B11.A
2B$35.2A2.B2A.2AB2.2A7.A6.4B.4B10.BAB3A$35.A2.A.AB.BA.A2.A4.3A6.4B
3.4B10.B2A2.A$36.A.2AB3.B2A.A4.A8.4B5.4B9.B.B2A.A$37.A3.3B3.A4.A.A
6.4B7.4B7.B3A.A2.A$38.4AB4A4.BA.A5.4B9.4B6.A4B2.2A$4.2A4.2B4.2A22.
A.A.A5.3BA5.4B11.2B2A6.A2BA$3.A2.A.6B.A2.A22.3B4.4B6.4B13.2A2B6.A$
3.3A2.6B2.3A22.3A2.6B5.4B15.BA2B3.3B$6.10A26.B2.7B4.4B17.4B2.3B$5.
A2.6A2.A25.2B.8B2.4B19.6BAB$5.2A.B4AB.2A25.16B21.4BABAB$10.2B29.
16B23.3BA2BA$10.2B28.17B22.5B2A2B$11.B27.19B20.10B$10.2AB25.20BA.
2A15.4B.6B$9.A2BAB5.2A16.4B2.14B.2A.A14.4B3.3B.B2A$7.3B2A3B4.A16.
4B3.12B20.4B5.B2.BA.A$7.8B.BA.A15.4B5.10B20.4B12.A$6.9B.B2A15.4B6.
6B2A2B19.4B13.2A$5.B2A9B16.4B7.6B2A3B17.4B$4.BA2BA8B15.4B8.10B17.
4B$5.B2A9B3.A10.4B5.A.2AB.8B16.4B$7.10B3.3A7.4B4.3AB2AB3.7B14.4B$
9.7B7.A5.4B4.A4.B6.6B8.2B3.4B$9.8B5.2A4.4B6.3A.2A4.6B8.4B.4B$8.5B.
4B4.9B9.2A2.A4.5B8.8B$8.6B.4B5.7B12.A.A.8B5.9B$7.6B3.4B2.7BA9.A.2A
.A.A8B4.9B$3.B2.3BA3B4.11BABAB7.2A.A.BA2B.6B4.8B$.7BABA2B5.10BABA
2B9.A2.2B2.7B3.8B$.7BABA2B6.10BA3B9.2A.B3.7B3.8B$9BA3B7.10B3.B2A4.
2A2.A.A2.8B.9B$11B.B2A6.2BA4B5.3AB2.A2.A2.2A2.18B$.9B2.BA.A4.2BABA
4B3.A.2AB3.2A7.17B$.7B7.A4.2BABA3B3.A.A.2B12.17B6.A$2.6B7.2A5.BA4B
3.A2.A15.17B3.3A$3.4B15.5B5.2A19.14B2.A$4.4B15.3B26.15B2.2A$5.4B
13.5B24.15B.4B$6.4B12.2AB2AB22.19B$7.4B11.BA.2A2.2A17.B.19BA$8.4B
6.2A.A.A3.B2.A16.2A19BA.A$9.4B5.A.2A.7A17.2A18B.B2A$10.4B8.A25.19B
2.B$11.4B7.A.4A18.5B.14B$12.4B7.2A2.A18.2A4.13B$13.4B30.A5.9B.B$
14.4B26.3A9.5B$15.4B25.A14.4B$16.4B41.2A$17.3BA40.A$18.3BA40.3A$
19.3AB41.A!
