#CSYNTH gun_4488 costs 3843 cells.
#C period 4488 fullperiod 4488 bbox 63 by 61
#CLL state-numbering golly
x = 63, y = 61, rule = LifeHistory
46.2A$46.A13.A$47.3A9.A.A$49.A9.3AB$50.3B7.2A$25.4B16.9B4.B2AB$25.
3B2A9.4B.11B3.BA$24.2ABA2B7.9BA8B3.BA$24.2AB.A.BA4.3BABA3BAB2A5B4.
B2AB$25.B3.ABAB3.2BA3BABA4BA4B6.2A$30.A2B3.3BA3BABA2BAB2A3B4.3AB$
29.4B2.5BA5BA4BA3B4.B2A$28.B2A2B.7B2A4BA3BA5B.B.B$29.2A2.16B2A5B.
2AB$33.12B4A6B.B3A$34.11B2A7B3.2A$17.A16.19B4.B2AB$17.3A15.18B6.AB
$20.A7.2A5.2A16B6.AB$19.2A7.A4.4A15B5.B2AB$19.4B2.BA.A3.ABA10B.4B
7.2A$14.BA5.3B.B2A4.A12B11.B3A$13.A.AB4.5B7.5A2B2.B14.A.A$13.BA.A
2.6B8.2B2A3B3.4B11.A$14.AB2.9B7.5B4.3B2A$17.13B5.3B4.2A2B2A$17.15B
2.4B4.2AB.A.2A$16.22B5.B3.3AB$17.3B3A4BA11B9.3B$17.B3AB2A2B3A6B.4B
7.4B$17.BA5B2A3BA6B.4B5.B2A2B2.2A$17.B2A2BA2BAB2A6B3.4B5.2A3.B2A2B
$12.A5.2B3A3B2A5B6.4B10.2A2B$12.3A3.13B9.4B9.BA2B$15.A2.12B11.4B7.
BABA$14.2A3.11B12.4B6.2ABA$14.5B.11B12.4B4.4B$16.14B2.BA3.2A5.4B3.
4B$15.15B.A.AB2.AB.A4.5B.2B2AB$14.15B2.BA.A4.2BA4.5B2.2A$15.12B5.A
B4.ABA6.4B$14.14B9.BAB8.4B$7.AB4.16B7.BA2B9.4B$5.2BA3B3.14B4.B3.AB
A11.4B$5.2BA3B3.14B3.3B3.2B12.4B$3.2AB.9B3A4B3A8B3.2A13.4B$2.A.AB
2.7BA2BA4BA2BA8B2.2B14.4B$2.A4.7BA12BA7B3.AB14.4B$.2A.AB2.7BA2BA4B
A2BA7B.2BA2BA14.4B$A2.2AB.9B3A4B3A8B2.BA2BA15.4B$2A3.2BA3B3.14B3.
2B4.AB18.4B$5.2BA3B4.13B2.4B4.2B18.4B$7.AB4.B.14B.B2AB4.2A19.3BA$
12.2A14B3.2A5.2B20.ABA$12.A.6B2.5B11.BAB20.2A$8.2A3.A6B3.4B10.A2BA
21.B$8.A2.A.A2.3B2.5B11.ABA$10.2A2.2A5.2A13.3B$11.A3.A6.A12.B2A$9.
A4.A4.3A14.A.BA$9.2A3.2A3.A18.2A!
