#CSYNTH gun_201 costs 2204 cells.
#C period 201 fullperiod 201 bbox 58 by 38
#CLL state-numbering golly
x = 58, y = 38, rule = LifeHistory
41.2A$5.2A35.A$4.A.A35.A.AB3.4B$4.A30.4B4.2AB3.6B$.2A.AB10.A6.2A9.
6B5.11B$.2A.A.B9.3A3.B2AB6.8B5.8B2AB$4.A.2A11.A3.3B4.14B2.7B2A2B$.
4A.AB2.A7.2A2.B.B5.28B$A4.2A3.3A5.3B.14B2A19B$.4A8.A6.15BA2BA18B$
2.B.AB6.2A4.ABA15B2A19B$.2A.AB6.5B.ABA36B$.3BA9.4B.A.37B$.AB9.7B4.
B.17B2A13B$AB10.6BA10.B3.8BA14B$A.AB3.10BABA12.8BA15B$.2AB.11BA4B
11.3BA4BA2BA4B2A6B$3.9B2A2BA5B11.2BA12B2A5B$3.9BA4B2A3B12.BAB3AB2A
12B$3.15BA4B11.4B3A14B$3.14B3A4B11.4BA15B$3.12B2AB3ABAB12.3B2A4BA
9B$3.5B2A12BA2B11.5BA2B2A9B$2.6B2A4BA2BA4BA3B11.4BA11B.B2A$2.15BA
8B12.ABA10B3.BA.A$2.14BA8B3.B10.A6B10.BA$.13B2A17B.B4.7B9.BA$37B.A
.4B4.2A3.A3B$.36BABA.5B3.A2.BA.2A$.19B2A15BABA4.2A2.A3.BA.B$.18BA
2BA15B6.A3.2A3.4A$.19B2A14B.3B5.3A3.2A4.A$28B5.B.B2.2A8.AB2A.2A.2A
$.2B2A7B2.14B4.3B3.A6.2ABA2.A.A$2.B2A8B5.8B6.B2AB3.3A3.A3.2A2.A$2.
11BA4.6B9.2A6.A4.3A4.2A$3.6B2.3BA4.4B25.A$5.4B3.3AB!
