#CSYNTH gun_1823 costs 12138 cells.
#C period 1823 fullperiod 1823 bbox 119 by 102
#CLL state-numbering golly
x = 119, y = 102, rule = LifeHistory
49.2A11.A$48.B2AB9.A.A$49.3B9.A.A2.2A3.A$48.B.B9.2A.2A2.A2.A.A21.
2A$48.5B8.B2.A.A3.A.A20.B2A2B$48.6B6.2ABA2.4A.A22.4B$48.8B4.2A.A.A
3.A13.A11.4B3.3B$49.13B2.A.AB2.A12.3A8.4B4.5B$47.13B5.A.A2B.A3.A
10.A6.14B$46.15B5.A2B.2A3.3A7.2AB5.14B$46.15B4.3B10.A6.5B3.16B$45.
17B.B.2B10.2A8.5B.16B$45.29B3.4B2A4.22B$44.13B2A16B4.2B2A4.23B$43.
14B2A16B2.7B2.24B4.3B$42.2AB3.27B.7B3.24B.7B$41.A2.A4.35B2.23B.B2A
5B$40.A.2A5.7B2.B2.2B2.19B.25BA2BA5B$40.A7.7B13.43B2A6B$39.2A6.8B
15.48B$46.4B2.2B17.36B.6B.2B$45.4B4.2A15.35B2.8B.B$44.4B6.A15.7B.
26B4.6B.B2A$43.4B5.A15.2AB.3B4.25B8.B3.A.A$42.4B6.2A13.A.AB9.25B
12.2A$41.4B22.A10.5B2.19B4.B$40.4B22.2A10.2A6.20B.B2A$39.4B32.A3.A
6.22B2A$38.4B33.4A6.24B$37.4B43.25B$36.4B35.2A6.24B$35.4B35.B2AB4.
22B.B$34.4B37.3B3.10B.12B$33.4B37.B.B3.8B5.11B$32.4B37.14B9.7B$31.
4B36.15B9.8B5.2A$30.4B36.15B9.8B6.A$29.4B35.16B11.8B2.BA.A$28.4B
35.16B11.10B.B2A$27.4B35.16B12.12B$26.4B34.17B2.B10.12B$25.4B34.
23B6.2AB2.9B$24.4B34.6B2A17B4.A.AB2.8B$23.4B33.8B2A16B5.A4.8B2.2B$
22.4B25.2A7.27B3.2A4.8B.4B$21.4B27.A6.28B8.14B$20.4B28.A.AB.28B10.
11B2AB$19.4B30.2AB.28B10.11B2A2B$18.4B33.24B2.B.B12.14B$17.4B34.
23B2.3B15.11B$16.4B35.23B2.B2AB13.13B$15.4B37.21B4.2A13.14B$4.A9.
4B39.16B.B.B2A17.14B$4.3A6.4B41.16B2.BA.A9.A7.13B$7.A4.4B42.11B2.
2B6.A9.3A3.14B$6.2A3.4B8.2A33.10B11.2A11.A2.9B$6.8B8.A.A34.9B23.A
2.10B$2.2A4.5B5.2A2.A37.7B19.2A3.2A11B$.A.BAB.5B6.A.A.2A35.4B.B21.
A2.2A2.11B$.A.2AB2.5B6.2A.A2.A32.4B25.2A2.2A10B$2A.B.B3.5B3.3B.B2.
2A31.4B28.A.A.B.8B$A2.2A2B2.5B3.4B35.4B29.A2.A3.6B$.2A2.AB.13B.B
32.4B31.2A5.4B$3.2ABA13B.B2A30.4B28.2A8.4B$.2A2.A5BA10B2A29.4B28.B
2AB6.4B$A2.A2.4BABA7B.2B29.4B29.4B5.4B$.2A3.4BABA7B31.4B31.2B5.4B$
7.4BA7B31.4B24.A7.4B2.4B$9.9B3.2A26.4B24.A.A5.5B.4B$6.B.10B.B2.A
25.4B26.A.14B$5.2A12B3A25.4B28.14B$5.2AB.8B.BA26.4B29.14B$6.B3.6B
4.2A23.4B30.15B$11.4B6.A22.4B30.3B2A12B$12.4B4.A22.BA2B31.3B2A13B$
13.4B3.2A20.2A2B30.2AB.11B2.4B$14.4B23.2B2A30.A.AB2.8B5.4B$15.4B
21.4B31.A5.10B4.4B$16.4B19.4B31.2A5.B.B5.2A5.4B$17.4B6.A10.4B40.3B
4.A7.4B$18.4B5.3A7.4B40.B2AB5.3A5.4B$19.4B7.A5.4B42.2A8.A6.4B$20.
4B5.2A4.4B61.4B$21.4B4.9B63.4B$22.4B5.6B65.4B$23.4B2.8B66.4B$24.
15B65.4B$25.14B66.4B$26.13B67.4B$27.10B.B2A66.4B$29.3B2AB3.BA.A66.
4B$29.3B2AB6.A67.4B$31.4B6.2A67.4B$31.3B77.4B$28.AB.2B79.4B$27.A.A
B2AB79.4B$27.A.ABABAB79.4B$24.2A.A.A.A.A2.A78.3BA$24.A2.A2.2A.4A
79.ABA$26.2A4.A84.2A$32.A.A83.B$33.2A!
