#CSYNTH gun_2551 costs 12192 cells.
#C period 2551 fullperiod 2551 bbox 127 by 96
#CLL state-numbering golly
x = 127, y = 96, rule = LifeHistory
77.2A$77.A.A$79.A4.2A$75.4A.2A2.A2.A$75.A2.A.A.A.A.2A$77.BABABA.A$
78.B2ABA.A$79.2B.BA$78.3B$69.2A6.4B$70.A6.B2A3B$70.A.AB3.B2A3B$71.
2AB.10B$73.13B$22.2A11.A37.14B$21.B2AB9.A.A36.15B$22.3B9.A.A2.2A3.
A30.8B2.4B$21.B.B9.2A.2A2.A2.A.A29.6B5.4B$21.5B8.B2.A.A3.A.A28.9B
4.4B$21.6B6.2ABA2.4A.A28.4B4.2A5.4B$21.8B4.2A.A.A3.A29.4B5.A7.4B$
22.13B2.A.AB2.A15.2A7.B2.4B7.3A5.4B$20.13B5.A.A2B.A14.A6.8B10.A6.
4B$19.15B5.A2B.2A11.BA.A4.9B19.4B$19.15B4.3B12.2A.B2A5.8B21.4B7.2A
3.2A$18.17B.B.2B12.B2A2B6.8B23.4B6.A.A.A.A$18.29B6.4B5.10B23.4B7.A
.A$17.13B2A16B3.6B5.9B25.4B5.A.BAB$16.14B2A16B2.6B7.7B8.2A17.4B4.B
2A2B$15.2AB3.27B.7B5.9B7.B2AB17.4B4.2B$14.A2.A4.35B3.11B7.2B18.5B
3.4B$13.A.2A5.6B3.B2.2B2.20B2.12B7.2B9.2A5.8B.6B$13.A7.6B14.30B6.
2B2AB8.A2.AB2.17B7.2A$12.2A6.9B14.29B2.2B.BAB.A9.3AB.20B4.A.A$19.
4B4.2A15.33B.A.A13.22B3.A$18.2A2B5.A15.33BA.A.A.A8.3AB.22B2.2A$17.
ABAB7.3A12.32BABA.A.A.A6.A2.AB2.23B2.A$16.3BA10.A10.2AB.3B2.23B2.B
A2.A2.A7.2A5.23B2A.A$3.2A10.4B21.A.AB6.22B4.B2A.2A14.6B2.16B.A.3A$
4.A9.4B22.A8.24B5.A.A14.7B.17BA.B3.A$2.A10.4B22.2A7.24B6.A.A13.7B
2.18B2A.A.A$2.5A5.4B5.2A25.9B4.9B9.A13.8B.13B2A4B.A.2A$7.A4.4B5.A
24.2AB2.6B6.7B22.4B3.B.14B2A2B.B.A$4.3AB2.7B.BA.A23.A.AB3.B.B7.9B
20.4B7.14B.B.2A.A$3.A.2B3.7B.B2A21.A2.A7.3B6.10B18.4B12.11B2.A2.2A
$3.4A12B22.A.A.A6.B2AB7.8B18.4B14.7B.2BA.A.A$.2A2.BA3B2A7B21.A2.A.
2A5.B2AB8.8B16.4B15.9BA.A2.A$A2.3AB.2B2A7B9.A3.A3.2A2.A.A2.A2.A3.
3B9.9B14.4B16.8B.BA3.2A$2A.A.B3.10B7.3A2.A.A2.A2.2A.2A3.2A4.B.B10.
8B12.4B17.7B$3.A8.8B5.A5.A.A3.A.A2.B8.5B12.B2.4B10.4B17.7B$3.2A7.
12B.2A5.A.4A2.AB2A6.6B16.4B8.4B17.3BA3B$13.3B2.9B7.A3.A.A.2A4.8B
17.4B6.4B17.2A.ABA.2A$11.5B3.6B8.A2.BA.A2.13B19.4B4.4B18.2A.A.ABAB
A$11.2A7.5B7.A.2BA.A5.13B18.4B2.4B7.A14.A.A.A.A$12.A6.7B6.2A.2BA5.
15B18.8B6.3A14.A.A.A.3A$9.3A8.6B10.3B4.15B19.6B6.A18.A.A.A3.A$9.A
10.7B10.2B.B.17B19.4B7.2A18.A2.A2.A$20.8B2.29B18.6B3.5B21.A.A$20.
25B2A13B16.8B2.3B9.2A13.A$20.25B2A14B14.4B2.9B8.A.A$19.37B3.B2A12.
4B4.8B.B8.A$19.36B4.A2.A10.4B6.11B3.B.BA.2A$14.B4.20B2.2B2.B3.6B5.
2A.A8.4B7.12B.B2A.A.A$13.2AB.21B12.6B7.A7.4B8.14B2A.A.A$13.2A24B9.
9B6.2A5.4B9.8B2A5B2.A.2A$14.B.23B9.2A4.4B11.4B8.2AB.5BA2BA3B4A2.A$
17.15B2A7B8.A5.4B9.4B8.A.AB.6B2A2B.BAB2.2A$17.15B2A8B4.3A7.4B7.4B
9.A5.7B6.2A$17.25B4.A10.4B5.4B9.2A5.4B.2B7.A$17.12B4.8B17.4B3.4B
16.4B9.A$16.11B6.8B18.4B.4B16.4B10.2A$15.13B6.3B.4B18.7B16.4B$16.
12B11.4B18.5B5.A10.4B$17.10B13.4B6.A10.5B5.3A7.4B$17.9B15.4B5.3A7.
7B7.A5.4B$17.9B16.4B7.A5.4B.4B5.2A4.4B$17.9B17.2B2A5.2A4.4B3.4B4.
9B$20.5B19.2A2B4.9B5.4B5.6B$21.4B20.BA2B5.6B7.4B2.8B$21.4B21.4B2.
8B8.15B$22.4B21.15B7.14B$23.4B21.14B8.13B$24.4B21.13B9.10B.B2A$25.
4B21.10B.B2A9.3B2AB3.BA.A$26.4B22.3B2AB3.BA.A8.3B2AB6.A$27.4B21.3B
2AB6.A10.4B6.2A$28.4B22.4B6.2A9.3B$29.4B21.3B15.AB.2B$30.4B17.AB.
2B15.A.AB2AB$31.4B15.A.AB2AB14.A.ABABAB$32.4B14.A.ABABAB10.2A.A.A.
A.A2.A$33.4B10.2A.A.A.A.A2.A8.A2.A2.2A.4A$34.4B9.A2.A2.2A.4A10.2A
4.A$35.3BA10.2A4.A20.A.A$36.3BA15.A.A19.2A$37.3AB15.2A!
