#CSYNTH gun_4386 costs 5632 cells.
#C period 4386 fullperiod 4386 bbox 88 by 64
#CLL state-numbering golly
x = 88, y = 64, rule = LifeHistory
50.A$48.3A$47.A$47.2A28.A$24.2A19.4B27.A.A$25.A10.B3.B.5B29.A.A$
25.A.AB3.17B4.3B19.2A.3A$26.2AB.20B3.3A20.B4.A$28.23BA4BA18.2AB3A$
28.22B2ABABABAB14.B.2A.A$28.20B2A7BAB10.2B.5B$29.19BA2BA3B4A9.8B$
28.20B4A6BA4B4.9B$29.6B2.17B5A5B2.10B5.2A$30.3B6.17B.20B3.B2AB$41.
6B2.5B5A18B3.3B$42.4B4.4BA6B4A12B4.B.2B$54.4A3BA2BA21B$54.BA7B2A
22B$54.BABABAB2A24B$56.A4BA24B$57.3A3.9B2A12B$57.3B4.7B3A7B.B2.BA$
66.4B2AB2AB2AB6.A.A$64.6BA2BAB3A8.2A$7.2A19.2A11.2A15.A.A3.2A2.2B
3AB2A2B$5.2B2AB15.2A2.A11.A16.2A.A3.A3.3B.7B.2A$5.4B14.3A.2A9.BA.A
19.4A5.10BA.A$5.3B14.A4.B6.3B.B2A17.2A10.9B.BA$5.B3A3.B10.3AB2A3.
7B19.A.3A8.B3A4B$6.2A.A.B2A11.A.2A.9B20.B2.A8.2BA2B2AB$8.2A2B2A13.
3B.7B19.3B13.B3A3B$8.2A3B16.7BA2B16.6B12.2BA3B$9.4B7.2B6.7BAB2A2B
11.10B2.B3.B.2B.6B$13.2B4.3BAB4.6B2ABAB2A3B2.2B3.30B$12.5B2.3B2AB
3.10BA17B2A21B.2A$11.11B2A9B.6BABA13B2A22B2A$8.20B.4B.45B.B4.2A$7.
B3A16B3.11B2A36B6.A$7.B4A13B6.47B4.BA.A$6.BA4BA11B8.4B6.4B.13B5.3B
2.11B.B2A$6.2B3A2BA8B11.4B6.3B5.B.7B3.3B3.10B2A2B$6.3B2ABA9B12.4B
6.4B15.2A5.6B2.BA.AB$6.6BA10B2.2A8.4B7.2A16.A4.2B9.2A$7.4BA10B.A2B
AB8.4B6.A14.3A4.2BAB$6.4BABA9B.4B10.4B6.3A11.A7.A.A$5.6BA8B3.3B12.
4B7.A20.A$2A3.6BA9B2.2ABA3.B8.4B$A.A2.16B3.BA.A.B2A8.4B$2.A2.9B2A
5B5.A4BA9.4B$2.2A.9BA6B5.BA3B11.4B$4.6B3A7B7.A2BA12.4B$4.5B2AB2A6B
24.4B$4.8B2A5B26.4B$5.5BABA3B30.4B$6.2B2.BA3B32.4B$12.2B34.4B$7.B
4.B.B34.4B$6.A3B2.4B34.4B$5.A.3A2.5A3.A2BA27.4B$6.AB.A2BA.2B.2B.A
2BA.BA25.4B$9.A2BA3.5A2.3A.A25.3BA$17.4B2.3BA27.3BA$18.B6.B29.3AB!
