#CSYNTH gun_7787 costs 9240 cells.
#C period 7787 fullperiod 7787 bbox 120 by 77
#CLL state-numbering golly
x = 120, y = 77, rule = LifeHistory
28.2A38.A$27.A.A36.3A$21.2A4.A37.A33.2A$19.A2.A2.2A.4A33.2A26.A.2A
.A.A$19.2A.A.A.A.A2.A31.4B10.A15.2A.A.A$22.A.ABABAB24.2A7.2B10.3A
19.2AB$22.A.AB2AB26.A6.4B8.A22.2B$23.AB.2B27.A.AB2.7B6.2A21.4B2.B$
26.3B27.2AB.9B2.5B22.8B$26.4B6.2A20.16B24.8B$24.3B2AB6.A21.15B2A
22.8B2A$9.A14.3B2AB3.BA.A21.15B2A21.2B2A3B.B2A$9.3A10.10B.B2A23.
13B.B22.BABA4B.B$12.A8.13B25.13B24.ABA4B$11.2A7.14B24.13B25.BA7B$
11.5B3.15B23.4B.8B27.8B$13.3B2.4B2.8B24.4B2.7B29.7B$3.2A7.9B5.6B
23.4B2.11B26.8B$3.A8.8B4.9B21.4B3.12B25.8B$2A.A.B3.10B5.2A4.4B19.
4B4.12B25.7B$A2.3AB.2B2A7B6.A5.4B6.A10.4B6.11B25.7B$.2A2.BA3B2A7B
3.3A7.4B5.3A7.4B5.4B.8B25.8B$3.4A12B3.A10.4B7.A5.4B6.2A4.7B24.10B$
3.A.2B3.7B.B2A.A11.4B5.2A4.4B8.A4.7B25.10B$4.3AB2.7B.BA.A.2A10.4B
4.9B6.3A6.6B24.7B.4B$7.A4.4B5.A2.A11.4B5.6B7.A8.7B23.6B3.4B$2.5A5.
4B5.2A14.4B2.8B16.8B22.6B4.4B$2.A10.4B21.15B15.8B21.6B5.4B$4.A9.4B
21.14B15.9B19.8B5.4B$3.2A10.4B21.13B14.6B.4B19.8B5.4B$16.4B21.10B.
B2A12.7B.4B17.9B6.4B$17.4B22.3B2AB3.BA.A12.6B2.4B16.9B7.4B$18.4B
21.3B2AB6.A12.6B3.4B15.10B7.4B$19.4B22.4B6.2A11.6B4.4B4.2A8.5B2A3B
8.4B$20.4B21.3B19.8B4.4B2.B2AB7.5B2A4B8.4B$21.4B17.AB.2B19.8B6.4B.
3B8.11B3.2A4.3BA$22.4B15.A.AB2AB18.9B6.4B.B9.12BA2.A5.ABA$23.4B14.
A.ABABAB17.9B7.8B.B6.8B2.2A8.2A$24.4B10.2A.A.A.A.A2.A14.10B7.11B5.
7B14.B$25.4B9.A2.A2.2A.4A14.3B2A5B6.12B5.6B$26.4B10.2A4.A17.4B2A5B
6.13B4.6B$27.4B15.A.A10.2A3.11B7.12B3.8B$28.2BAB15.2A10.A2.A12B8.
21B$29.2B2A22.2A4.2A2.8B5.A5.12BA7B$30.2A2B22.A9.7B4.A.A5.10BABA6B
$31.4B7.2A12.A.AB7.6B4.A.A3.12BABA7B$32.4B6.A14.2AB.3B3.6B.BA.A.A.
A.2AB.9BA7B$33.4B6.A15.14B.B2A3.2AB2AB3.7B.7B$34.4B4.2A15.16B8.B5.
16B4.2A$35.4B2.2B17.14B4.4A.2A5.3B.10B5.A$28.2A6.8B15.16B3.A2.A.A
4.5B2.9B2.BA.A$29.A7.7B13.18B6.A.A4.2A5.9B2.B2A$29.A.2A5.7B2.B2.2B
2.20B8.A6.A4.13B4.2A$30.A2.A4.35B13.3A5.13B4.A.A2.2A$31.2AB3.27B.
7B14.A6.14B6.A3.A$32.14B2A16B2.6B20.A13B3.4A.3A$33.13B2A16B3.6B17.
3A.12B3.A2.A.A$34.29B6.4B16.A5.5B.5B6.ABAB3A$34.17B.B.2B12.B2A2B
16.2A6.2B2.6B6.2ABA2.A$35.15B4.3B12.2A.B2A26.7B4.4B2.2A$35.15B5.A
2B.2A11.BA.A24.16B$36.13B5.A.A2B.A14.A23.13BA2B$38.13B2.A.AB2.A15.
2A18.16BABAB$37.8B4.2A.A.A3.A35.17BA2BA$37.6B6.2ABA2.4A.A33.18B2AB
$37.5B8.B2.A.A3.A.A32.21B$37.B.B9.2A.2A2.A2.A.A34.17B.B2A$38.3B9.A
.A2.2A3.A37.13B3.BA.A$37.B2AB9.A.A43.4B3.10B4.A$38.2A11.A44.2A6.4B
3.2A4.2A$97.A5.A3.2B2.A$94.3A4.3A2.B2A3.3A$94.A5.A6.A.A5.A$100.2A
3.A.A.6A$105.2A$111.2A$111.2A!
