#CSYNTH gun_1315 costs 6390 cells.
#C period 1315 fullperiod 1315 bbox 71 by 90
#CLL state-numbering golly
x = 71, y = 90, rule = LifeHistory
15.2A$8.2A3.2B2AB$7.B2AB2.4B$8.2B3.6B.B$9.2B2.10B7.A15.2A$8.2B2A
11B5.3A12.2A2.A13.2B$5.B.3B2A12B3.A15.A.2A13.4B$4.2A18B3.2A15.B15.
4B$4.2AB.15B2.4B13.3B14.6B2.B$5.B3.18B13.6B13.2B2A2B.B2A$9.18B10.
10B8.B.3BA2BA3B2A$10.19B2.2B3.11B2.2B3.7B2A2B.2B$10.31B2A22B$11.7B
.22B2A21B$11.6B2.45B$10.7B.46B$10.6B.48B$11.9B7.4B.13B4.B2.13B.B$
11.8B9.3B5.B.7B7.12B.B2A$10.8B11.4B19.14B2A$.A8.7B14.2A20.11B.2B$.
3A6.2B2A2B15.A21.11B$4.A4.2BABA2B16.3A19.10B$3.2A4.4BA2B18.A23.7B$
3.4B.8B41.7B5.2A$5.3B2A6B41.8B3.A.A$4.3B2A2BA4B41.8B3.A$4.2BA4BA4B
41.9B.2A$4.2B4ABA3B41.11B$5.2BA2B2A9.2A32.12B$5.3B3A2B8.A33.12B$6.
3BA5B3.BA.A26.2A6.10B$6.11B.B2A28.A7.11B$5.14B30.A.AB.14B$3.B.15B
30.2AB.13B2A$2.2A15B33.15B2A$2.2A13B.B2A30.15B.B$3.14B.BA.A30.14B$
3.11B7.A28.2AB.11B$5.10B6.2A26.A.AB3.5BA3B$4.12B33.A8.2B3A3B$4.12B
32.2A9.2A2BA2B$4.11B41.3BAB4A2B$2.2A.9B41.4BA4BA2B$2.A3.8B41.4BA2B
2A3B$A.A3.8B41.6B2A3B$2A5.7B41.8B.4B$6.7B23.A18.2BA4B4.2A$7.10B19.
3A16.2BABA2B4.A$7.11B21.A15.2B2A2B6.3A$4.2B.11B20.2A14.7B8.A$3.2A
14B19.4B11.8B$3.2AB.12B7.7B.B5.3B9.8B$4.B.13B2.B4.13B.4B7.9B$6.48B
.6B$7.46B.7B$7.45B2.6B$7.21B2A22B.7B$6.22B2A31B$3.2B.2B2A7B3.2B2.
11B3.2B2.19B$2.2A3BA2BA3B.B8.10B10.18B$2.2AB.2B2A2B13.6B12.19B3.B$
3.B2.6B14.3B13.4B2.15B.B2A$7.4B15.B14.4B2.18B2A$7.4B13.2A.A12.4B3.
12B2A3B.B$8.2B13.A2.2A11.4B5.11B2A2B$23.2A13.4B6.10B2.2B$37.4B9.B.
6B3.2B$36.4B3.A10.4B2.B2AB$22.A12.4B4.3A7.B2A2B3.2A3.A$22.3A9.4B8.
A7.2A9.A.A$13.A11.A7.4B8.2A17.B2AB$12.A.A9.2A6.4B9.5B7.2A2.A3B2A$
11.A2.A9.6B.4B7.A4.3BAB4.B2A2BA2B2AB$11.4A.2A8.8B6.3A3.3BABA5BAB.
2BABAB$15.A.A5.10B6.A5.4BA2BA2B.BA3BA.2A$8.2A3.A.A6.10B.B5.2A5.4B
2A3B.BA.B.A.A$8.A2.4ABA4.BA18B6.6B5.2A.A.A.A$9.2A3.2B.A3BABA15B9.
5B7.A.A.2A$11.B6A2B.ABA12B2A2B7.7B6.A.A$9.2A2B.3AB4.A12BA2BA2B5.4B
.4B6.2A$8.A2.2A2.B7.7B2.4B2A3B4.4B3.4B$8.2A13.7B4.9B.4B5.4B$26.3B
6.12B7.4B$24.5B7.10B9.4B$24.2A10.9B11.4B$25.A9.9B13.4B$22.3A11.7B
15.3BA$22.A13.6B17.3BA$38.2B20.3AB!
