#CSYNTH gun_820 costs 2350 cells.
#C period 820 fullperiod 820 bbox 50 by 47
#CLL state-numbering golly
x = 50, y = 47, rule = LifeHistory
8.2A$9.A$8.A$8.2A11.A.2A$6.2A2.B8.4A.A$5.A2.2AB7.A$6.A.A.2B6.2A2.
2A4.2A$5.2A.A.AB.2BA4B3.A4.A.A$9.2A3BABAB5.A.2A.A.BAB4.A$10.3BA2BA
2B.BA.A.A.A.B3A3.A.A$12.2B2A3B.B2A4.A.A2.AB2.A.A$A11.9B6.A.2AB2A.
2A.3A$3A9.9B7.A3.B2.B5.A$3.A4.13B8.3A.2A.4A.A$2.2A3.5BABA3B2AB10.
2A2B2A2.A.2A$2.3B.12BABAB.B8.4B3.BA2.A.2A$4.7BA2BA4B2A2B2A7.4B4.2B
2A.A$3.9B3A6B.B2A10.B2A6B.A$3.10BABAB2A2B2.B5.A5.4A3B3.A.2A$3.10BA
6B7.3A4.B5A2B.B2A.2A$5.9BA3BA2B5.A6.6B2A3B.B$7.3B2.3B3A3B5.2A5.9B.
B2AB2A$13.8B4.3B7.7B.B2A.A$15.5B.5B10.A4B8.A$13.3B4.8B9.4B7.2A$13.
2A5.3B3A3B2.3B3.3B$14.A5.2BA3BA9B.4B$11.3A7.6BA14B$11.A5.B2.2B2ABA
BA10B.4B$16.2AB.6B3A9B2.4B$16.2A2B2A4BA2BA7B4.4B$17.B.BABA12B.3B3.
4B$20.B2A3BABA5B3.2A4.4B$20.13B4.A6.4B$20.9B9.3A4.4B$20.9B11.A5.3B
A$18.2AB.3B2A2B18.ABA$17.A.AB.2BA2BA3B17.2A$17.A5.BABA3B2A17.B$16.
2A3.4BA2B.BA.A.2A$21.2A6.2B.A.A$22.A7.B2A2.A$19.3A8.B2.2A$19.A11.
2A$32.A$31.A$31.2A!
