#CSYNTH gun_2013 costs 6588 cells.
#C period 2013 fullperiod 2013 bbox 108 by 61
#CLL state-numbering golly
x = 108, y = 61, rule = LifeHistory
39.2A$40.A$38.A43.2A$38.5A38.A.A$42.A32.2A4.A$36.4AB32.A2.A2.2A.4A
$36.A2.AB32.2A.A.A.A.A2.A$37.6B3.2A28.A.ABABAB$38.6B2.A29.A.AB2AB$
39.5B3.A29.AB.2B$37.7B2.2A9.2A21.3B$26.2A8.8B.2B10.A22.4B6.2A$27.A
9.11B6.BA.A20.3B2AB6.A$27.A.AB4.15B.2B.B2A21.3B2AB3.BA.A$28.2AB.
23B21.10B.B2A$30.25B20.13B$9.A20.25B19.14B$9.3A5.2A12.24B18.15B$
12.A3.B2AB10.26B16.4B2.8B$11.2A4.3B8.24B.4B14.4B5.6B$11.5B2.B2.2B
2.3B2A15B.B.2B4.4B12.4B4.9B$13.15B3A13B11.4B10.4B5.2A4.4B$12.2A13B
AB3A3B.9B11.4B8.4B7.A5.4B$12.2A3B2A9BAB3A2B2.7B13.4B6.4B5.3A7.4B$
13.B.2B2A9B4A3B2.7B14.4B4.4B6.A10.4B$15.14B2A3B4.6B15.4B2.4B19.4B$
19.8B10.7B16.8B21.4B$18.8B12.6B17.6B23.4B11.2A$18.7B13.7B17.4B25.
4B8.A2.A$19.7B12.8B15.6B18.2A5.4B5.5A$10.2A7.8B6.2A2.9B14.8B18.A5.
4B4.A$11.A6.9B5.B2AB2.7B14.4B2.4B17.A.AB.7B2.B3A$11.A.AB2.9B7.2B5.
4B14.4B4.4B17.2AB.7B3.2B.A$12.2AB.12B6.2B3.B2A2B4.2A7.4B6.4B18.12B
4A$14.18B.2BAB3.2A7.A6.4B8.4B17.7B2A3BAB2.2A$14.20BA.A11.A6.4B10.
4B10.A5.7B2A2B.B3A2.A$12.B2.2A17B.A12.2A4.4B12.4B7.3A5.10B3.B.A.2A
$11.2AB.2A16B3.3A10.2B2.4B14.4B5.A7.8B8.A$11.2A20B5.A9.8B6.2A8.4B
4.2A5.9B7.2A$12.2B.20B13.7B7.A10.9B4.4B2.3B$16.B.20B2.2B2.B2.7B5.
2A.A11.6B5.4B3.5B$19.35B4.A2.A12.8B2.4B7.2A$18.9B.27B3.B2A11.15B8.
A$11.A7.7B2.16B2A14B12.14B10.3A$11.3A5.7B2.16B2A13B13.13B13.A$14.A
4.6B4.29B12.2AB.10B$13.2A4.7B10.2B.B.17B11.A.AB3.B2A3B$13.5B.6B10.
3B4.15B12.A6.B2A3B$4.2A9.10B6.2A.2BA5.15B11.2A6.4B$3.A.A8.10B7.A.
2BA.A5.13B21.3B$3.A8.B.10B8.A2.BA.A2.13B24.2B.BA$2A.AB.B3.BA14B7.A
3.A.A.2A4.8B22.B2ABA.A$.A.A.2AB.3A11B.2A5.A.4A2.AB2A6.6B21.BABABA.
A$.A.A.2A2B2A10B3.A5.A.A3.A.A2.B8.5B19.A2.A.A.A.2A$2A.A2.5BA9B4.3A
2.A.A2.A2.2A.2A9.B.B19.4A.2A2.A$A2.4A3BA8B.B2A4.A3.A3.2A2.A.A9.3B
24.A4.A.A$.2A2.BAB.BA8B.BA.A15.A.A9.B2AB21.A.A5.2A$3.2A6.7B5.A16.A
11.2A22.2A$3.A7.2B.3BA5.2A$5.A9.3BA$4.2A10.3AB!
