#CSYNTH gun_3198 costs 4779 cells.
#C period 3198 fullperiod 3198 bbox 81 by 59
#CLL state-numbering golly
x = 81, y = 59, rule = LifeHistory
37.2A6.2A$33.AB.B2AB4.A2.A$25.3B4.A.ABA2.A3.A.BA.A$24.4B3.2BABA.A
2BA.A2B.A.A$18.4B.8B.BABABA2B5A.A.2A$15.16B2.2B.A.B2.A2.A.A.A2.A$
14.17B2.2A.A.6A2BA3.2A$14.15B5.A.2A5.A3.A$13.16B5.A4.4A3.2A$.2A5.
2B3.17B5.3A.A$2.A5.3B2.18B6.A2.A$2.A.AB.4B3.18B6.2A$3.2AB.5B.20B9.
2A$5.8B.3BA16B8.A$5.11B2A17B4.BA.A$5.10BAB3A18B.B2A$6.9B2A2B2A19B$
6.7BA4BA21B12.A$8.4BA5BA8B2.11B11.A.A$8.5BABA2B3A7B.11B11.A.A$9.6B
ABAB2A6B4.B2.2B.4B2.2B5.2A.3A$10.5BA3BA8B2.3B5.8B5.B4.A$11.5BABA9B
.B2AB6.8B2.B2AB3A$12.5BA10B2.2A8.8B.B2A.A$2.2A.2A5.15B11.2B.11B$3.
A.ABA2.17B10.2A11B7.2A$3.A.A2B2.16B11.2AB.10B6.A$2A.A.4B.8B.4B15.B
2.10B3.BA.A$.A.A.BA2BA3.4B24.7BA4B.B2A4.2A$.A.2A.A.A4.3B26.7BA5B5.
A.A$2.A3.2A33.6B3A5B5.A$3.3A36.13B4.2A$5.A4.A33.9B5.2B$8.3A35.8B2.
5B6.3B5.2A$7.A38.2B2A12B4.4B5.A$7.2A6.2BAB13.B.7B5.BA2BA.10B4.5B.B
A.A$9.A2B2.2BABAB6.B.13B4.3B2A13B3.5B.B2A$7.3A5BABA45B3.7B$6.A2.B.
4B2A45B3.8B$6.2A3.50B3.8B4.2A$12.25B2A33B3.A.A$12.25B2A33B3.A$11.
4B.B.11B3.41B.2A$12.4B2.10B5.10B2.B3.B2.B3.18B$12.2B2AB4.2B2.4B7.
6B14.18B3.2A$14.2A10.4B8.3B13.5B3.12B.B2.A$27.4B9.B13.2A7.12B3A$
28.4B8.2A13.A8.9B.BA$29.4B8.A10.3A4.2A3.9B3.2A$30.4B6.A11.A6.A4.9B
4.A$31.4B5.2A14.2A.A4.2B2A3B.B2A2.A.2A$32.4B20.A2.3A.2BA2BA2B.BA.A
.A.2A$33.4B20.2A2.BA3BABAB5.A.A$34.4B21.4A4BA4B3.A.A$35.4B20.A.4B
5.2A4.A$36.4B17.A.A.2A7.A$37.3BA16.2A2.A9.3A$38.3BA19.A.A9.A$39.3A
B19.2A!
