#CSYNTH gun_1212 costs 5106 cells.
#C period 1212 fullperiod 1212 bbox 74 by 69
#CLL state-numbering golly
x = 74, y = 69, rule = LifeHistory
50.2A$49.A.A$43.2A4.A$41.A2.A2.2A.4A$41.2A.A.A.A.A2.A$44.A.ABABAB$
44.A.AB2AB$45.AB.2B$48.3B$48.4B6.2A$46.3B2AB6.A$46.3B2AB3.BA.A$44.
10B.B2A$43.13B$34.A7.14B$32.3A6.15B$31.A8.4B2.8B$30.A.A6.4B5.6B$
29.BA.A5.4B4.9B$28.3BA5.4B5.2A4.4B$26.4B6.4B7.A5.4B$24.6B5.4B5.3A
7.4B$23.7B4.4B6.A10.4B10.2A$16.B.4B.8B2.4B19.4B9.A$15.2AB.17B21.4B
10.A$15.2A18B16.2A5.4B5.5A$16.2B.16B17.A5.4B4.A$19.17B16.A.AB.7B2.
B3A$20.16BA.2A13.2AB.7B3.2B.A$21.14B.2A.A15.12B4A$21.12B22.7B2A3BA
B2.2A$22.10B23.7B2A2B.B3A2.A$22.6B2A2B23.10B3.B.A.2A$22.6B2A3B21.
8B8.A$22.10B21.9B7.2A$18.A.2AB.8B20.4B2.3B$16.3AB2AB3.7B18.4B3.5B$
15.A4.B6.6B17.4B7.2A$16.3A.2A4.6B17.4B8.A$18.2A2.A4.5B16.4B10.3A$
21.A.A.8B14.4B13.A$18.3A.A.A8B8.A4.2A2B$17.A2.A.BA2B.6B6.3A3.ABAB$
16.A.A.A2.2B2.7B4.A5.3BA$15.A.A2.2A.B3.7B4.2A3.4B$15.A.A.A2.A.A2.
8B.4B2.4B$16.2A.2A2.2A2.11B3.4B$27.12B.4B$27.16B$17.A10.14B$17.3A
11.10B$11.A8.A9.12B$11.3A5.2A6.16B$14.A4.24B6.A$13.2A6.23B3.3A$13.
5B2.24B2.A$4.2A9.3B2.24B.B.A$3.A.A8.32B2A$3.A8.B.8B.22BA2.2A$2A.AB
.B3.BA9B3.2B7.B3.2B3.3B3A2.A$.A.A.2AB.3A9B2.2BAB5.3B.4B3.2B4.A$.A.
A.2A2B2A10B3.A.A4.B2AB.B2AB5.4A$2A.A2.5BA9B4.A6.2A3.2A7.A$A2.4A3BA
8B.B2A21.A$.2A2.BAB.BA8B.BA.A20.2A$3.2A6.7B5.A$3.A7.2B.3BA5.2A$5.A
9.3BA$4.2A10.3AB!
