#CSYNTH gun_3333 costs 10608 cells.
#C period 3333 fullperiod 3333 bbox 136 by 78
#CLL state-numbering golly
x = 136, y = 78, rule = LifeHistory
21.A11.A67.2A$21.3A7.3A38.2A27.A.A$24.A5.A33.2A5.A.A29.A4.2A$7.A
15.2A5.2A32.A.A4.A27.4A.2A2.A2.A$7.3A13.B3.5B34.A2.2A.4A23.A2.A.A.
A.A.2A$10.A9.4B2.4B35.2A.A.A.A2.A25.BABABA.A$9.2A6.15B34.A.ABABAB
28.B2ABA.A$9.5B2.17B33.A.AB2AB30.2B.BA$11.23B33.AB.2B30.3B$10.2A
22B36.3B20.2A6.4B$10.2A22B36.4B6.2A12.A6.B2A3B$11.B.19B.B2A32.3B2A
B6.A13.A.AB3.B2A3B$13.18B2.BA.A31.3B2AB3.BA.A14.2AB.10B7.A$14.16B
6.A29.10B.B2A17.13B6.3A$15.15B6.2A27.13B19.14B8.A$16.12B36.14B19.
15B6.A.A$13.15B35.15B21.8B2.4B5.A.AB$12.16B34.4B2.8B23.6B5.4B5.A3B
$3.2A7.12B.4B32.4B5.6B22.9B4.4B6.4B$2.A2.A2.2A2.11B3.4B30.4B4.9B
20.4B4.2A5.4B5.6B$3.2A2.A.A2.8B.4B2.4B28.4B5.2A4.4B18.4B5.A7.4B4.
7B$5.2A.B3.7B4.2A3.4B26.4B7.A5.4B16.4B7.3A5.4B2.8B.4B.B$5.A2.2B2.
7B4.A5.4B24.4B5.3A7.4B14.4B10.A6.17B.B2A$2.2A.A.BA2B.6B6.3A3.4B22.
4B6.A10.4B12.4B19.18B2A$2.A.2A.A.A8B8.A4.4B20.4B19.4B10.4B20.16B.
2B$6.A.A.8B14.4B18.4B21.4B8.4B20.17B$3.2A2.A4.5B16.4B16.4B23.4B6.
4B17.2A.A16B$.3A.2A4.6B17.4B14.4B25.4B4.4B18.A.2A.14B$A4.B6.6B17.
4B12.4B27.B3A2.4B26.12B$.3AB2AB3.7B18.4B10.4B29.A7B28.10B$3.A.2AB.
8B20.4B8.4B31.A5B29.2B2A6B$7.10B21.4B6.4B33.4B29.3B2A6B$7.6B2A3B
21.4B4.4B33.6B29.10B$7.6B2A2B23.4B2.4B33.8B28.8B.B2A.A$7.10B24.8B
33.4B2.4B26.7B3.B2AB3A$6.12B24.6B33.4B4.4B25.6B6.B4.A$6.14B.2A20.
4B33.4B6.4B25.6B4.2A.3A$5.16BA2.A17.6B31.4B8.4B24.5B4.A2.2A$4.17B
2.2A16.8B29.4B10.4B22.8B.A.A$.2B.16B20.4B2.4B27.4B12.4B2.B9.A8.8BA
.A.2A.A$2A18B19.4B4.4B25.4B14.8B7.3A6.6B.2BAB.A.2A$2AB.17B6.A10.4B
6.4B23.4B16.9B8.A4.7B2.2B2.A$.B.4B.8B2.4B5.3A7.4B8.4B21.4B18.8B7.
2A4.7B3.B.2A$8.7B4.4B7.A5.4B10.4B19.4B20.8B6.4B.8B2.A.A2.2A$9.6B5.
4B5.2A4.4B12.4B10.A6.4B20.10B7.11B2.2A2.A2.A$11.4B6.4B4.9B14.4B7.
3A5.4B22.9B6.12B7.2A$13.3BA5.4B5.6B16.4B5.A7.4B14.2A8.7B7.12B$14.B
A.A5.4B2.8B17.4B4.2A5.4B14.B2AB7.9B5.11B$15.A.A6.15B16.9B4.4B16.2B
7.13B3.7B$16.A8.14B17.6B5.4B16.2B7.15B.9B$17.3A6.13B17.8B2.4B16.B
2A2B6.28B$19.A7.10B.B2A13.15B17.A.BAB.2B2.31B$29.3B2AB3.BA.A12.14B
19.A.A.37B$29.3B2AB6.A12.13B18.A.A.A.A36B$31.4B6.2A9.2AB.10B18.A.A
.A.ABA35B$31.3B17.A.AB3.B2A3B21.A2.A2.AB2.31B.B2A$28.AB.2B18.A6.B
2A3B22.2A.2AB4.28B3.BA.A$27.A.AB2AB16.2A6.4B25.A.A5.30B5.A$27.A.AB
ABAB24.3B24.A2.A6.13B.14B6.2A$24.2A.A.A.A.A2.A23.2B.BA22.2A9.9B4.
12B$24.A2.A2.2A.4A22.B2ABA.A32.7B6.B2A4B.4B$26.2A4.A25.BABABA.A19.
4A8.9B6.2A3B3.2B$32.A.A21.A2.A.A.A.A.2A16.A3.A6.10B7.B.2B2.B2AB$
33.2A21.4A.2A2.A2.A19.2A7.8B7.2A6.2A$60.A4.2A21.5B3.8B8.A$58.A.A
18.2A9.3B2.9B10.A$58.2A18.A.A8.13B11.2A$78.A8.B.8B2.B$75.2A.AB.B3.
BA9B$76.A.A.2AB.3A9B$76.A.A.2A2B2A10B$75.2A.A2.5BA9B$75.A2.4A3BA8B
.B2A$76.2A2.BAB.BA8B.BA.A$78.2A6.7B5.A$78.A7.2B.3BA5.2A$80.A9.3BA$
79.2A10.3AB!
