#CSYNTH gun_354 costs 2457 cells.
#C period 354 fullperiod 354 bbox 63 by 39
#CLL state-numbering golly
x = 63, y = 39, rule = LifeHistory
8.A2.A3.2A37.A$8.6A2.A36.A.A$6.2A6.2A37.A.3A$5.A2.B4AB2.3A31.2A.A
4.A$4.A.2AB.2B.B2A2.A31.A.A.ABABA$4.A.A2.4B2.A.A34.A.A.2A$3.2A.B8A
B.2A21.2A9.ABA4B$4.A.A2.4A2.A.A20.2B2AB6.3BA2B$4.A.A3.2B3.A.A20.4B
6.5B4.2B$5.A4.2B4.A21.6BABA.6B2.4B.B$11.B27.4BA3BA13B2A$10.2AB26.
5BAB5A8B.B2A$9.A2BAB5.2A2.A15.8B2A2BA7B2.B$7.3B2A3B4.A3.3A8.2A.A
11B2A6B$7.8B.BA.A6.A7.A.2A2.16B$6.9B.B2A6.2A14.13B$5.12B8.4BAB10.
15B$4.13B10.2B2A10.8BA7B$5.12B8.4B2AB7.A9BA8B$7.10B5.B2A5B2A6.ABAB
2.3B.11B$9.7B5.BA3B5AB.3B2.A2BA6.10B$9.8B5.B8A5B5A7.7B$8.5B.4B5.B
5A6BAB2A10.4B$8.6B.4B5.10B2A3B10.6B$7.6B3.4B6.B2A3B2ABAB2A14.2A$3.
B2.3BA3B4.4B3.3BA2B6AB2AB2.2A.A7.A$.7BABA2B5.2B2A.4BA2B3A3BA5BA.2A
8.3A$.7BABA2B6.BABA5BA2B5A5B15.A$9BA3B7.A12BA7B$11B.B2A5.21B$.9B2.
BA.A4.4B2.6B.9B$.7B7.A2.2AB.B4.5B6.4B$2.6B7.A.A.AB4.2BA3B6.B2A2B$
3.4B7.2A.A4.4BABA9.2A$4.4B9.A4.2A.A.A$5.4B8.2A2.ABABA.A.A$6.3BA11.
A4.A.A.A$7.3BA11.3A.A.A.A$8.3AB12.2A3.A!
