#CSYNTH gun_1562 costs 5940 cells.
#C period 1562 fullperiod 1562 bbox 108 by 55
#CLL state-numbering golly
x = 108, y = 55, rule = LifeHistory
30.A11.2A$29.A.A9.A2BA$21.A3.2A2.A.A9.A2B$20.A.A2.A2.2A.2A9.B.A$
20.A.A3.A.A2.B8.A3BA$21.A.4A2.AB2A6.B2A3B46.B.B$23.A3.A.A.2A4.5B3A
45.B2A3B$5.2A15.A2.BA.A2.5B3A5B46.A2BA2B10.2A$6.A14.A.2BA.A5.3B3A
7B43.2B2A4B2.2B5.A$6.A.AB11.2A.2BA5.3BA11B31.2A9.13B.BA.A$7.2AB.2A
12.3B4.3B2A3B2A5B27.2A3.A6.16B.B2A$9.2B2AB12.2B.B.9B2A6B26.A2.A7.B
A12BA4B$9.4B6.21BA7B24.2A2.3A5.BABA10BABA4B$9.6B3.21BA3BA5B22.A2.
2A3.2B3.BABA11BA4B$10.6B2.25BA6B21.A.A2.3A2B3.2BA15B.B2A$10.7B.27B
3.B2A16.2A3.A.2AB.A23B.BA.A$9.35B4.A2.A15.A2.A.A3.2A8B2A9B2.2B5.A$
7.21B2.2B2.B2.7B5.2A.A15.A.2A.2A10BABA8B10.2A$6.19B13.7B7.A14.2A4.
A.B.10BA8B$5.18B15.8B6.2A14.A.2A2.A5.16B$4.18B17.2B2.4B21.A.A.2A6.
10B3.4B.2A$4.19B15.2A4.4B19.2A.A10.8B3.B2A3B.A$4.19B15.A6.4B7.2A8.
A3.A9.9B4.2AB2.A$4.12B2.3B.B2A14.A6.4B5.B2AB6.A.A.A9.10B8.A$2.2AB.
10B6.BA.A12.2A7.4B5.3B5.A2.A.4A5.10B5.5A.A$.A.AB2.10B8.A22.4B3.B.B
5.A3.A4.A4.7BA3B5.A4.A.A$.A7.9B7.2A22.4B.6B4.3A.ABA5.7BABA2B7.A2.A
.A$2A7.10B31.10B6.A.A.2A3.8BABA2B6.2A3.A$9.6B.4B22.2A7.12B3.BAB.B
3.10BA3B$11.B.B3.4B22.A8.12B2.20B.B2A$10.3B5.2BAB7.2A12.A.AB6.13B.
18B2.BA.A$10.B2AB5.2B2A6.A14.2AB.3B2.22B.7B7.A$11.2A7.2A2B6.A15.
29B2.6B7.2A$21.4B4.2A15.29B3.4B$22.4B2.2B17.B2A25B4.4B$15.2A6.8B
15.2BAB2A21B.B2A3.4B$16.A7.7B13.7BA13B.6B2.BA.A3.4B$16.A.2A5.7B2.B
2.2B2.8BABA9B5.4B7.A4.4B$17.A2.A4.19BABA2B2A9B6.2B2AB6.2A4.4B$18.
2AB3.20B2A5B.7B9.2A14.4B$19.14B2A10BA5B2.6B26.4B$20.13B2A16B3.6B
26.4B$21.29B6.4B27.4B$21.17B.B.2B12.B2A2B28.4B$22.15B4.3B12.2A.B2A
27.4B$22.15B5.A2B.2A11.BA.A27.4B$23.13B5.A.A2B.A14.A28.4B$25.13B2.
A.AB2.A15.2A28.4B$24.8B4.2A.A.A3.A47.4B$24.6B6.2ABA2.4A.A46.4B$24.
5B8.B2.A.A3.A.A46.4B$24.B.B9.2A.2A2.A2.A.A47.4B$25.3B9.A.A2.2A3.A
49.3BA$24.B2AB9.A.A58.3BA$25.2A11.A60.3AB!
