#CSYNTH gun_1365 costs 2700 cells.
#C period 1365 fullperiod 1365 bbox 60 by 45
#CLL state-numbering golly
x = 60, y = 45, rule = LifeHistory
7.2A3.2A24.2A$7.A.A.A.A23.B2AB$9.A.A14.2A.BABA5.2B$8.2AB.A2.2A8.A.
A2BA2BA5.2B$8.B2A.A2.A.A7.A.2BAB2AB4.3B$10.B.2A.A2.A5.2A.2A6B3.5B$
9.2BAB2.3A4.2BA.B2AB.4B.8B$8.2B5A7.2B3A3.3A11B$9.AB.A2.A6.4B.B2AB.
A6B2A4B6.3B$9.3B2.2A6.6B2A.2A4.10B2.6B$10.2A11.B2ABA2B.A5.19B$10.
2B11.A2BA2BA.A3.4B2A14B$11.B12.ABAB.2A3.6BA15B$10.2AB21.4B3A15B$.
2A6.A2BAB5.2A11.24B$2.A4.3B2A3B4.A12.22B.B2A$2.A.AB.8B.BA.A12.20B
3.BA.A$3.2AB.8B.B2A13.10B.B3.B10.A$5.12B16.9B16.2A$5.12B15.9B4.A$
5.12B3.A10.A3B2.B6.A.A$7.10B3.3A7.BABA2.2B6.A.A$9.7B7.A5.2B2A2.4B
4.2A.2A$9.8B5.2A4.4B3.3B2AB.BA4.A$8.5B.4B4.9B3.2A2B2A4B3A2.A$8.6B.
4B5.6B4.2AB.2A2B.BA.B2A$7.6B3.4B2.8B5.B3.3B2A2BA2.3A$3.B2.3BA3B4.
15B8.B3AB2ABA3.A$.7BABA2B5.14B10.A.B.B.BABA.A$.7BABA2B6.13B10.A.A.
2A4B2A$9BA3B7.10B.B2A6.3A.2A2.A.2B2.2A$11B.B2A6.7B3.BA.A4.A3.A3.7A
2.A$.9B2.BA.A4.9B5.A4.2A2.A.2A.2B4.2A.A$.7B7.A4.4B2A2B6.2A8.A.A.2B
4A2.A$2.6B7.2A5.2B2A2B18.A.A3B2.2A$3.4B15.5B19.A.A3B2A$4.4B15.3B
17.2A.A.AB.B.A$5.4B13.5B17.A.A.2B3A$6.4B12.2AB2AB15.A2.3AB$7.4B7.
2A2.BA.2A2.2A13.2A4.5A$8.4B6.A2.A.A3.B2.A15.4A2.A2.A$9.4B7.2A.7A
16.A2.A4.2A$10.3BA8.A$11.3BA7.A.4A$12.3AB7.2A2.A!
