#CSYNTH gun_1771 costs 8051 cells.
#C period 1771 fullperiod 1771 bbox 97 by 83
#CLL state-numbering golly
x = 97, y = 83, rule = LifeHistory
34.A11.2A$11.A11.A.A7.A.A9.B2AB$9.3A11.2A.A.2A3.A.A9.3B$8.A5.2A10.
A.A.A.2A.2A9.B.B$2.BA4.2A5.A7.2A.A3.A.A2.B8.5B$.BABA5B5.A.2A3.A2.A
.4A2.AB2A6.6B$.A3B2AB8.A.A4.A3.A3.A.A.2A4.8B$.A3B2A3B8.A.3A3.A2.BA
.A2.13B11.2A$.BA8B.3B2.2A.A4.A.2BA.A5.13B9.2A6.A8.2A$.2B3A9B.5B4.
2A.2BA5.15B5.A9.A.A.A.2A.A.A$5BA14B9.3B4.15B5.5A5.A.A.2A.A.A$20B
10.2B.B.17B7.A3.2A.2A6.2AB$.4BA14B3.29B4.2A3.A2.A9.2B$4BA2BA12B2.
16B2A13B3.A3.3A.A9.4B2.B$.4B2A13B2.16B2A14B4.A4.A11.8B$.4B.3B2.3BA
6B.27B3.B2A2.5A13.8B$2.2B7.4BA32B4.A2.A5.2A3.2A6.8B2A$11.2B3A16B2.
2B2.B3.6B5.2A.4A3.A2.A6.2B2A3B.B2A$12.17B14.6B5.A.A2.A.2A.A.A6.BAB
A4B.B$12.15B14.9B4.A.A3.A.A.A.2A5.ABA4B$12.14B15.2A4.4B4.A5.2B2A.A
2.A3.BA7B$12.15B15.A5.4B10.4B2.2A4.8B$11.16B12.3A7.4B6.7B9.7B$10.
2A.3B3.6B.B2A10.A10.4B3.8B10.8B$10.2A2B2AB3.4B2.BA.A16.2A3.4B.8B
11.8B$11.3B2A5.4B4.A17.A4.3BA8B11.7B$6.2A.6B7.4B3.2A16.A.AB2.B2A8B
.2B8.7B$6.A2.2A2.B9.4B10.A10.2AB.2BABA9B2A7.8B$7.3A.AB11.4B7.3A12.
16B2A6.10B$10.B.A12.4B5.A15.14B.2B8.10B$7.5A14.4B4.2A15.13B10.7B.
4B$7.A11.2A6.9B14.14B.2B7.6B3.4B$10.2A8.A7.6B14.18B2A6.6B4.4B$10.
2A8.A.2A5.6B3.B2.2B2.19B.B2A6.6B5.4B$21.A2.A4.35B2.B6.8B5.4B$22.2A
B3.27B.8B10.8B5.4B$23.14B2A16B2.7B9.9B6.4B$24.13B2A16B2.7B9.9B7.4B
$25.29B3.7B9.10B7.4B$25.17B.B.2B11.6B.BA6.5B2A3B8.4B$26.15B4.3B10.
7BA.A5.5B2A4B8.4B$26.15B5.A2B.2A6.8BA6.11B9.3BA$27.13B5.A.A2B.A6.
6B.B7.12BA.2A5.ABA$29.13B2.A.AB2.A7.5B12.8B2.2A.A6.2A$28.8B4.2A.A.
A3.A8.6B4.2A5.7B14.B$28.6B6.2ABA2.4A.A4.2AB.5B2.B2AB4.6B$28.5B8.B
2.A.A3.2A3.A.AB3.4B.3B5.6B$28.B.B9.2A.2A.A.A6.A7.2BAB.B5.8B$29.3B
9.A.A3.A.3A2.2A8.2B2A4B.8B$28.B2AB9.A.A4.A2.A12.B2A6BA7B$29.2A11.A
6.2A12.9BABA6B$63.9BABA7B$64.9BA7B$65.8B.7B$66.16B4.2A$67.3B.10B5.
A$67.3B2.9B2.BA.A$68.B3.9B2.B2A$71.13B4.2A$71.13B4.A.A2.2A$70.14B
6.A3.A$66.2A.A13B3.4A.3A$66.A.2A.12B3.A2.A.A$72.5B.5B6.ABAB3A$74.
2B2.6B6.2ABA2.A$78.7B4.4B2.2A$77.16B$76.13BA2B$72.16BABAB$71.17BA
2BA$71.18B2AB$71.21B$73.17B.B2A$75.13B3.BA.A$73.4B3.10B4.A$73.2A6.
4B3.2A4.2A$74.A5.A3.2B2.A$71.3A4.3A2.B2A3.3A$71.A5.A6.A.A5.A$77.2A
3.A.A.6A$82.2A$88.2A$88.2A!
