#CSYNTH gun_2494 costs 5830 cells.
#C period 2494 fullperiod 2494 bbox 106 by 55
#CLL state-numbering golly
x = 106, y = 55, rule = LifeHistory
7.A33.A52.2A$A6.3A29.3A6.A39.A4.B2AB$3A7.A27.A7.3A38.A.A2.2B2A$3.A
5.2A27.2A5.A41.BA2B2.B3A$2.2A5.5B21.5B5.2A41.2B4.3B$2.4B5.6B15.6B
5.4B41.3A2.A4BA$4.3B2.3B2A3B3.BA5.AB3.8B2.3B43.5BA4BAB$4.7B2ABA5BA
.A3.A.A6BABA7B41.A4BABA4BA$5.5BA3BA6BA5.A5B2ABABA5B39.B.BA4BA7B2.
2A$6.4BAB2A5B.B7.B.6BABA4B38.5BA4BA2B3A2B3.A$2A2.B2.4B2A5B13.6BA4B
2.B2.2A31.12B.8B.A.2A$A2.2A11B17.11B2A2.A31.8B3AB2.5B2A.A2.A$.2ABA
11B17.11BAB2A30.B.3A9B2.5B.A.2A$4.12B17.12B25.A6.4A2BAB3.3B4.B.2B.
A.A$.3A.12B4.A5.A4.12B.3A22.3A4.5ABAB3.5B4.2B2A2.A$.A2.A2.10B3.A.A
3.A.A3.10B2.A2.A25.A4.4BA4B4.2A4.BAB.2A$2.A.A3.10B2.A2.A.A2.A2.10B
3.A.A25.2A4.5B2.2A4.A5.B2A.A$3.A4.12B.3A.3A.12B4.A26.6B2.B4.A6.3A
4.A.A$9.12B3.A3.12B34.2B2AB7.3A5.A2.A.A.2A$9.11BABA.A.ABA11B33.3B
2A2B8.A8.2A$9.11B2A.A.A.2A11B33.8B$7.5B2A4B2.B2.A.A2.B2.4BA6B31.9B
$4.B.5B2ABA4B4.A.A4.4BABA6B.B27.11B$3.A6BA3BA5B4.A4.5BABAB2A5BA27.
6B.4B$2.A.A5BAB2A7B7.7BABA6BA.A26.5B3.4B$3.AB3.3B2A3B2.4B5.4B2.8B
3.BA11.A12.8B4.4B$8.6B5.13B3.6B16.3A8.10B5.4B$11.5B4.11B2.5B22.A6.
12B5.4B$14.2A5.8B4.2A12.2A10.2A6.13B5.4B$14.A7.BABA2B6.A13.A10.5B
3.12B7.4B$15.3A5.B2AB4.3A14.A.AB9.4B2.13B7.4B$17.A6.A3B3.A6.A10.2A
B.3B4.B3A16B8.4B$25.4B7.3A12.7B.BA3BA17B7.4B$26.4B5.A15.5BA3B2A3BA
13BA4B6.4B$27.4B4.2A15.4BA9BA11BABA4B6.4B$20.2A6.9B14.15BA11BABA4B
7.4B$21.A7.6B14.14BA2BA12BA4B9.4B$21.A.2A5.6B3.B2.2B2.17BAB.B3.B.
2B3.5B12.4B$22.A2.A4.33B6.3B7.B15.4B$23.2AB3.27B.6B6.B2AB5.3B15.4B
$24.32B2.B.5B5.2A6.B2AB15.4B$25.31B7.2A14.2A17.4B$26.10BA2BA15B8.A
35.4B$26.10B2A5B.B.2B16.3A33.4B$27.9B6A4.3B17.A34.4B$27.14BA5.A2B.
2A49.3BA$28.13B5.A.A2B.A50.ABA$30.11BAB2.A.AB2.A52.2A$29.8B4.BA.A.
A3.A54.B$29.6B6.B3A2.4A.A$29.5B8.A2.A.A3.A.A$29.B.B9.2A.2A2.A2.A.A
$30.3B9.A.A2.2A3.A$29.B2AB9.A.A$30.2A11.A!
