#CSYNTH gun_2500 costs 3060 cells.
#C period 2500 fullperiod 2500 bbox 60 by 51
#CLL state-numbering golly
x = 60, y = 51, rule = LifeHistory
22.2A2.2A.2A10.A9.A$20.3A.A2.A.A.A7.A3B.2A3.3A$19.A4.2A.A.A.A2.AB.
2BA4B.A2.A$19.A.3A.B.5A.A.A2BA.BA.2A3.2A$20.AB.B2A2BA2.A.AB.4AB4.
5B$21.A5B3A3BA.3BAB4.4B5.2B.2A$23.2BAB2A.B4A2BA6.5B3.B2A2.A$20.A2.
A.B2.A.B.2A3B7.6B2.BAB2A$20.4A.4ABA2B.2ABA6.8BA3B$8.2A3.2A9.A6.A.A
3.A5.3BA2B2.BA3B$8.A.A.A.A7.A.A2.3A.A.A.2A5.3B3AB3.BAB2A$10.A.A9.
2A4.A.A3.A7.2B2ABA4.B2A2.A$5.2A2.A.ABA12.A8.A.A4.BA2BAB5.2B.2A$4.A
.A2.A.3B12.2A8.2A4.2B2A2B$3.A2.A.2A.A18.B2A10.2BA2B2.2A$4.3A2.A3B
17.3AB9.4B4.A2.A$7.3A3BA15.A.2AB9.4B4.A.A.A$6.A2.A.2B15.A.A.2B8.A
5B2.2A.A.A$6.2A2.3A15.A2.A2.2B5.A8BA2.2A$10.2B17.2A3.3B3.B3A3.3B3A
$10.2B5.2A2.A12.3B.5B3.3BA2.A$11.B5.A2.A.A.2A7.9B3.2ABAB2A$10.2AB
5.2A.2A.A8.8B3.A3BA.A$.2A6.A2BAB5.A4.A.B3.10B5.AB.A3.A.2A$2.A4.3B
2A3B4.A.2A.3AB.2B2A7B5.2B2A.A.2A.A$2.A.AB.8B.BA.A.A.A2.BA3B2A7B4.A
4.A.A$3.2AB.8B.B2A2.A2.4A12B4.4A.A.A$5.12B4.2A.A.2B3.7B.B2A5.A.2A$
5.12B5.A2.3AB2.7B.BA.A3.A$5.12B5.A5.A4.4B5.A2.A$7.10B6.5A5.4B5.A.A
4.A$9.7B9.A8.4B5.A3.3A$9.8B18.4B7.A10.2A$8.5B.4B18.4B6.2A9.A.A$8.
6B.4B10.A7.4B.6B6.2A.A.A$7.6B3.4B9.3A6.8B8.A.A.A$3.B2.3BA3B4.4B11.
A6.10B7.A$.7BABA2B5.4B9.2A5.B.10B4.2B2AB$.7BABA2B6.4B8.20B3.2B3A$
9BA3B7.4B9.16B2A5B3AB$11B.B2A6.4B7.2B2A9B2A2B2A.4B3AB$.9B2.BA.A6.
4B5.2BA2BA7BABA3B4.2B3A$.7B7.A7.4B4.3B2A4B2.2B2A3B5.2B2AB$2.6B7.2A
7.4B.9B4.7B7.A$3.4B18.12B6.3B8.A.A.A$4.4B18.10B7.5B6.2A.A.A$5.4B
18.9B10.2A9.A.A$6.4B18.9B9.A10.2A$7.3BA18.7B11.3A$8.3BA18.6B13.A$
9.3AB19.2B!
