#CSYNTH gun_845 costs 5796 cells.
#C period 845 fullperiod 845 bbox 84 by 69
#CLL state-numbering golly
x = 84, y = 69, rule = LifeHistory
40.A13.2A$15.A13.2A9.3A11.A.A$15.3A11.A.A11.A13.A3.2A$18.A13.A3.2A
4.2A11.2A.A.A.A$17.2A11.2A.A.A.A4.5B6.BA.B.A.A$17.5B6.BA.B.A.A8.3B
AB4.B2A2BA.AB$19.3BAB4.3A2BA.BA6.3BABA6BA.A2B2AB$18.3BABA4B2AB.B2A
3B4.4BA2BA2B.AB2AB3A3B$17.4BA2BA2B.A4B4ABA4.4B2A3B2.AB2.B4AB$18.4B
2A3B2.2A2.6B5.6B11.ABAB$19.6B11.A2BA5.5B12.A.A$20.5B12.A.A4.7B12.A
$19.7B12.A4.4B.4B$18.4B.4B15.4B3.4B$17.4B3.4B13.4B5.4B$16.4B5.4B
11.4B7.4B$3.2A10.4B7.4B9.4B9.4B$4.A9.4B9.4B7.4B11.4B7.A$2.A10.4B
11.4B5.4B13.4B6.3A$2.5A5.4B5.2A6.4B3.4B15.4B8.A$7.A4.4B5.A8.4B.4B
17.4B6.A.A$4.3AB2.7B.BA.A9.7B19.4B5.A.AB$3.A.2B3.7B.B2A11.5B21.4B
5.A3B$3.4A12B13.5B22.4B6.4B$.2A2.BA3B2A7B12.7B13.A8.4B5.6B$A2.3AB.
2B2A7B11.4B.4B10.3A9.4B4.7B$2A.A.B3.10B10.4B3.4B8.A13.4B2.8B.4B.B$
3.A8.8B8.4B5.4B7.2A13.17B.B2A$3.2A7.9B6.4B7.4B3.5B14.18B2A$13.3B2.
4B4.4B9.4B2.3B16.16B.2B$11.5B3.4B2.4B11.9B7.2A.2A2.17B$11.2A7.8B
13.8B8.A.A2.A16B$12.A8.6B15.10B3.B.A3.2A.14B$9.3A10.4B16.7B2A2B.B
3A8.12B$9.A11.6B15.7B2A3BAB2.2A7.10B$20.8B14.12B4A2.A6.2B2A6B$19.
4B2.4B11.2AB.7B3.2B.A.2A5.3B2A6B$6.2A10.4B4.4B9.A.AB.7B2.B3A2.A7.
10B$7.A9.4B6.4B8.A5.4B4.A5.A7.8B.B2A.A$5.A10.4B8.4B6.2A5.4B5.5A7.
7B3.B2AB3A$5.5A5.4B5.2A3.4B11.4B8.A9.6B6.B4.A$10.A4.4B5.A5.4B9.4B
20.6B4.2A.3A$7.3AB2.7B.BA.A6.4B7.4B21.5B4.A2.2A$6.A.2B3.7B.B2A8.4B
5.4B21.8B.A.A$6.4A12B11.4B3.4B13.A8.8BA.A.2A.A$4.2A2.BA3B2A7B12.4B
.4B14.3A6.6B.2BAB.A.2A$3.A2.3AB.2B2A7B5.A7.7B18.A4.7B2.2B2.A$3.2A.
A.B3.10B5.3A6.5B18.2A4.7B3.B.2A$6.A8.8B7.A5.5B18.4B.8B2.A.A2.2A$6.
2A7.9B5.2A4.7B19.11B2.2A2.A2.A$16.3B2.4B4.9B.4B17.12B7.2A$14.5B3.
4B5.6B3.4B16.12B$14.2A7.4B2.8B4.4B15.11B$15.A8.15B3.B3A13.9B12.2A$
12.3A10.14B4.A3B9.2B.10B11.A$12.A13.13B5.A3B7.16B.B4.BA.A$27.10B.B
2A4.4B3.23B2.B2A$29.3B2AB3.BA.A4.32B$29.3B2AB6.A5.5B2A25B$31.4B6.
2A5.3BA27B$31.3B15.3BABA5B2A17B$28.AB.2B18.2BA6B2A17B$27.A.AB2AB
18.8BA8B5.B.4B$27.A.ABABAB17.5B2A7B11.4B$24.2A.A.A.A.A2.A15.4BA2BA
6B12.4B$24.A2.A2.2A.4A19.ABA4.2B14.4B$26.2A4.A24.A6.2B14.3BA$32.A.
A28.B2AB14.ABA$33.2A29.2A16.2A!
