#CSYNTH gun_5244 costs 2376 cells.
#C period 5244 fullperiod 5244 bbox 54 by 44
#CLL state-numbering golly
x = 54, y = 44, rule = LifeHistory
26.4B3.B.9B.B3.4B$26.4B.6BA3BA6B.4B$25.2A9BA5BA9B2A$25.2A9BA15B2A$
26.B.8B2A3BA9B.B$13.B14.10B3A10B$12.3AB9.3B.B.3B$12.B3A.2B6.13B3A
10B$14.B.B3A3.13B2A3BA9B.B$16.3B3.14BA15B2A$15.4B4.13BA5BA9B2A$15.
5B5.12BA3BA6B.4B$A12.5B2AB3.4B.B.3B.9B.B3.4B$3A7.7BABA7B$3.A6.7BA
4B2A4B$2.2A4.10B4ABA5B$2.17B3ABA2.4B8.2A$4.9B.9B4.4B6.B2AB$3.AB3A
17B3.4B5.4B$2.BAB4A10B4.2A4.4B5.2B$2.B2A4BA7B6.A6.4B2.4B7.2A$4.3BA
BA7B7.3A4.4B.5B5.A.A$6.B2A5B12.A5.14B.A$7.5B21.14B$8.4B21.14B$8.3B
21.15B$7.3AB.B4.A13.12B2A3B$8.2B.3AB2.3A10.13B2A3B$11.B3A5.A8.4B2.
11B.B2A$13.B5.2A7.4B5.8B2.BA.A$19.5B3.4B4.10B5.A$10.2A9.3B2.4B5.2A
5.B.B5.2A$9.A.A8.9B7.A4.3B$9.A8.B.8B5.3A5.B2AB$6.2A.AB.B3.BA9B6.A
8.2A$7.A.A.2AB.3A9B$7.A.A.2A2B2A10B$6.2A.A2.5BA9B$6.A2.4A3BA8B.B2A
$7.2A2.BAB.BA8B.BA.A$9.2A6.7B5.A$9.A7.2B.3BA5.2A$11.A9.3BA$10.2A
10.3AB!
