#CSYNTH gun_4230 costs 3744 cells.
#C period 4230 fullperiod 4230 bbox 72 by 52
#CLL state-numbering golly
x = 72, y = 52, rule = LifeHistory
34.3B2AB$32.4B3A3B4.B$20.4BAB.B2.3BAB2A7B.B2A$13.B4.6BABA6BA2BA4BA
5BA14.2A3.A$12.2AB.9BABA3B.BAB2A5BA4B16.A2.A.A$12.2A11BA2BA7B3A3BA
3BA2.2A10.A4.A.A$13.12BABA9B2AB4.A4.2A10.5A.A$13.11BABA8B30.A$15.B
4.4BAB3.5BAB7.B3.4A3.2A5.2AB2.A$33.2B2A5.2AB.A2.BAB3.A4.B2A3B.A$
34.2A2B4.2A2B2A4B3.A.AB.5B.2A$35.4B4.8B5.2AB2.3B$36.4B3.3B2.4B5.5B
A2B$27.AB2.B5.4B.B6.4B5.3B3A2B$26.A3B3AB4.5B7.4B4.3B3A4B$27.A.5A5B
A3B8.4B3.10B.2B$31.A.B2.2BA4B9.4B3.11B2A$30.B2A3.2B3A2B10.9BA5B.B
2A$31.2A3.7B4.2A5.15B.B$35.9B4.A5.6B2ABA4B$34.4B.5B4.A.AB.6B4A5B$
33.4B.7B4.2AB.2BA3B3A6B$32.4B2.7B6.4B2A2B3A4B.B2A$31.A3B3.2A3B2A6.
4B2A2B2A5B.BA.A$30.BABA4.B5AB6.5BAB2A5B5.A$29.2B2A5.B2AB2AB3.B.7B
2A6B5.2A$28.4B6.B2AB2AB2.2AB.6BA8B$10.2A15.4B8.B3AB3.2A11B3.4B$11.
A14.4B9.5B4.2B.10B3.4B$11.A.AB3.A5B2.4B10.4B7.10B4.3B$12.3A.4A10B
10.4B9.8B6.B2A$14.2ABAB2A10B.3B2AB3.4B9.8B5.BA.A$14.A2BAB3A11BA2BA
8B10.3B2.B2A7.A$15.ABAB2A4B2A5BA7B2A2B7.2A.5B.BA.A6.2A$11.A4.4A5B
2A5BA6BA2BAB7.A.3B2AB4.A$11.3A4.A7BA5BA7B2A10.A2.B2A5.2A$14.A8.10B
A2BA3B13.A$13.2A7.7B3.3B2AB13.A.5A$13.5B3.4B25.A.A4.A$4.2A9.3B2.4B
26.A.A2.A$3.A.A8.9B28.A3.2A$3.A8.B.8B$2A.AB.B3.BA9B$.A.A.2AB.3A9B$
.A.A.2A2B2A10B$2A.A2.5BA9B$A2.4A3BA8B.B2A$.2A2.BAB.BA8B.BA.A$3.2A
6.7B5.A$3.A7.2B.3BA5.2A$5.A9.3BA$4.2A10.3AB!
