#CSYNTH gun_1673 costs 9108 cells.
#C period 1673 fullperiod 1673 bbox 99 by 92
#CLL state-numbering golly
x = 99, y = 92, rule = LifeHistory
16.2A$15.B2A2B7.2A$16.4B6.B2AB$11.2A4.6B4.2B$10.B2AB2.8B4.2B$11.3B
.17B$9.2B.B2.12BAB2A2B$8.18BA2B3ABAB$7.19BAB4ABA2B$6.21BA4B2A3B$6.
32B$6.26B3.4B$4.2AB4.B.16B.B5.4B$3.A.AB8.10B.2B9.BABA$3.A12.7B15.B
2AB7.A$2.2A9.11B15.A3B6.3A$12.12B16.4B8.A$12.12B17.4B6.A.A$.2A.2A
2.2A2.11B19.4B5.A.AB$A.A.A2.A.A2.8B.4B18.4B5.A3B$A.A2.2A.B3.7B4.2A
19.4B6.4B$.A.A.A2.2B2.7B4.A21.4B5.6B$2.A2.A.BA2B.6B6.3A19.4B4.7B$
3.3A.A.A8B8.A20.4B2.8B.4B.B$6.A.A.8B30.17B.B2A$3.2A2.A4.5B32.18B2A
$.3A.2A4.6B32.16B.2B$A4.B6.6B31.16B$.3AB2AB3.7B31.15B$3.A.2AB.8B
30.2AB.12B$7.10B29.A.AB2.11B$7.6B2A3B28.A5.10B$7.6B2A2B5.2A21.2A5.
2B2A6B$7.10B5.A28.3B2A6B$6.11B2.BA.A29.10B$6.12B.B2A30.8B.B2A.A$5.
15B31.7B3.B2AB3A$4.16B31.6B6.B4.A$.2B.16B32.6B4.2A.3A$2A18B32.5B4.
A2.2A$2AB.17B30.8B.A.A$.B.4B.8B2.4B20.A8.8BA.A.2A.A$8.7B4.4B19.3A
6.6B.2BAB.A.2A$9.6B5.4B21.A4.7B2.2B2.A$11.4B6.4B19.2A4.7B3.B.2A$
13.3BA5.4B18.4B.8B2.A.A2.2A$14.BA.A5.4B19.11B2.2A2.A2.A$15.A.A6.4B
17.12B7.2A$16.A8.4B16.12B$17.3A6.3BA15.11B$19.A7.B2AB13.9B12.2A$
28.ABAB9.2B.10B11.A$29.4B7.16B.B4.BA.A$30.4B3.23B2.B2A$31.32B$32.
5BA26B$33.3BA27B$34.3B2A6B2A17B$36.2BA5BA19B2.2B$37.7B3A7B5.B.8B$
37.5B3A6B11.8B$37.4BA2BA6B12.8B6.2A$41.ABA4.2B11.2B.9B4.A$42.A6.2B
9.2A5BA6B4.A$48.B2AB8.2AB.4B2A3B4.2A$25.2A22.2A10.B2.4BA2B5.2B$26.
A37.8B2.5B6.3B5.2A$25.A39.A2BA11B4.4B5.A$25.2A6.2BAB13.B.7B5.BA2BA
.10B4.5B.BA.A$27.A2B2.2BABAB6.B.13B4.3B2A13B3.5B.B2A$25.3A5BABA45B
3.7B$24.A2.B.4B2A45B3.8B$24.2A3.50B3.8B4.2A$30.25B2A33B3.A.A$30.
25B2A33B3.A$29.4B.B.11B3.41B.2A$30.4B2.10B5.10B2.B3.B2.B3.18B$30.
2B2AB4.2B2.4B7.6B14.18B3.2A$32.2A10.4B8.3B13.5B3.12B.B2.A$45.4B9.B
13.2A7.12B3A$46.4B8.2A13.A8.9B.BA$47.4B8.A10.3A4.2A3.9B3.2A$48.4B
6.A11.A6.A4.9B4.A$49.4B5.2A14.2A.A4.2B2A3B.B2A2.A.2A$50.4B20.A2.3A
.2BA2BA2B.BA.A.A.2A$51.4B20.2A2.BA3BABAB5.A.A$52.4B21.4A4BA4B3.A.A
$53.4B20.A.4B5.2A4.A$54.4B17.A.A.2A7.A$55.3BA16.2A2.A9.3A$56.3BA
19.A.A9.A$57.3AB19.2A!
