#CSYNTH gun_8364 costs 3640 cells.
#C period 8364 fullperiod 8364 bbox 70 by 52
#CLL state-numbering golly
x = 70, y = 52, rule = LifeHistory
18.2A$19.A39.2A$16.3A40.A$16.A43.A$13.3B31.A11.2A$12.9B16.A2BA6.3A
8.B2.2A$11.2B2A4B2AB.4B9.BA3B9.A7.B2A2.A$11.BAB2A2BABA8B7.A4BA7.2A
6.2B.A.A$12.2B2A2BA11B4.BA.A.B2A2.2A3.4BA2B.BA.A.2A$12.B3A14B3.2AB
A3.B4.A5.BABA3B2A$11.3B2A14B3.3B9.A.AB.2BA2BA3B$11.BABA16B2.4B9.2A
B.3B2A2B$10.2B3A17B.A2BAB10.9B$6.2A2.2B2A19B2.2A11.9B$5.B2A2B.2BAB
A17B15.13B6.AB$6.2A2B2.2B2A16B16.B2A3BA7B4.BA.A$7.A2B3.19B13.B.BA
2BABAB2A7B2.A.AB$2.B3.ABAB3.18B13.2A3B2AB2AB2A8B2.BA$.3A.A.AB4.18B
13.2AB.B2AB2AB2A9B$.4ABA7.19B6.A5.B2.3BABA12B$2.3BAB9.4B.13B5.3A7.
2BABA12B$2.4B15.13B8.A5.3B3A10B$23.B2.7B8.2A5.9B2.3B$19.B2AB3.7B8.
3B4.8B$18.B4A4.5B11.5B.5B$18.A2BABA4.3B10.8B4.3B$16.BA.A.B2A4.4B3.
3B2.9B5.2A$15.BABA3.B5.4B.10B3A3B5.A$15.2AB9.16BABA2B7.3A$15.3AB7.
4B.12BABA3B2.B5.A$15.BABAB5.4B2.9B2AB2AB2AB.B2A$17.2A5.4B4.8B2AB2A
B2A3B2A$23.4B3.3B.6B2ABABA2BAB.B$12.2A8.4B4.2A3.7BA3B2AB$11.B2AB6.
4B6.A4.13B$11.4B5.4B4.3A9.9B$12.2B5.4B5.A11.9B$4.A7.4B2.4B18.2B2A
3B.B2A$3.A.A5.5B.4B17.3BA2BA2B.BA.A$4.A.14B17.2A3BABAB5.A$5.14B14.
2A.A.AB.2BA4B3.2A$5.14B15.A.A.2B6.2A$5.15B13.A2.2AB7.A$4.3B2A12B
13.2A2.B8.3A$4.3B2A13B14.2A11.A$2.2AB.11B2.4B13.A$.A.AB2.8B5.4B13.
A$.A5.10B4.4B11.2A$2A5.B.B5.2A5.4B$8.3B4.A7.3BA$7.B2AB5.3A5.3BA$8.
2A8.A6.3AB!
