#CSYNTH gun_1596 costs 3392 cells.
#C period 1596 fullperiod 1596 bbox 64 by 53
#CLL state-numbering golly
x = 64, y = 53, rule = LifeHistory
54.2A3.2A$42.A11.A.A.A2.A$42.3A11.A.2A.A$23.A21.A8.B2A.A2.2A$18.2A
3.3A18.2A7.5B2.A2.A$17.A2.A5.A17.5B4.4B4.2A$18.2A2.B.BA.A18.11B.B$
20.4A.A.A8.2A2.AB3.11B.B2A$16.3A2.A.BAB.A.A6.A2.A.AB.14B2A$15.A3.
2A4.A.A.3A5.A.2A15B.2B$12.A2.2A2.A3.4B2A3.A5.A3.15B$12.3A2.A.A2.3A
2BA.2A.A6.2A8B2A7B$16.2A.2A2B2.3A.A2.2A6.A.7BABAB2.4B$14.2A6.B3A.A
.A.A6.A4.7BAB4.4B$13.A2.AB2ABA.3AB.2B.A6.2A3.B2A4B7.4B$12.A.2AB.2A
.BA3.2B.2A11.2B2A3B9.4B$12.A.A2.4A.2BAB2A13.4B.5B8.4B$11.2A.3A4B2A
BAB14.4B5.2A9.3BA$12.A.A2.4B11.A6.4B6.A11.ABA$12.A.A3.2A10.3A5.4B
8.3A9.2A$13.A4.2B9.A7.4B4.2A6.A9.B$18.5B3.2B.2A5.4B5.A.A4.A.A$17.
14B4.4B8.A2.A2.A$17.14B3.4B8.2A.A.2A$14.B.15B2.4B8.B.B.A$13.3BABA
17B9.B2ABA$12.23B4.5B.BAB.A.2A.A$12.2BA3B2A14B3.BAB3A4B2AB.A.2A$
11.7BABAB.3B4.7B2ABABA7B.A$9.5BABA9B6.5B2AB2A8B2A$7.9BABA5B8.5B3A
9B.B$.4B2.3B.BABA7B10.8B.8B$.12B2A3BA2B9.B.9B3A5B$2A19B8.2A8B2AB2A
5B$2A12BABA3B9.A.7BABAB2A4B$.B.14B.B7.2A.A.B2A4B3ABAB$4.12B10.A.2A
.A.BAB.5B$4.12B6.A8.AB2AB$6.B3.5B5.3A8.A.B.B$13.2B4.A9.A.A.2A$4.B
8.2A3.BA.2A6.2A2.A$3.3A6.4B.A.2BA2.A8.A.A$3.2A.2BAB2A4BA.2B3.2A9.
2A$3.BA.ABA2B.4A.2AB$.A3.A3.BAB.2A.BA2.2A$.4A4.2A.B2AB.B2A2.A$7.AB
.2A3.BA4.A$.2A4.2BA2B3AB.4A$2.A2.3A3.B.2AB2.A$2.A.A3.4A4.A$3.A2.2A
.A2.3A.2A$4.2A.A.A.A2.A2.A$8.2A.2A2.2A!
