#CSYNTH gun_2012 costs 9794 cells.
#C period 2012 fullperiod 2012 bbox 118 by 83
#CLL state-numbering golly
x = 118, y = 83, rule = LifeHistory
57.2A19.2A$56.A.A19.A.A$50.2A4.A23.A4.2A$48.A2.A2.2A.4A15.4A.2A2.A
2.A$48.2A.A.A.A.A2.A15.A2.A.A.A.A.2A$51.A.ABABAB19.BABABA.A$51.A.A
B2AB21.B2ABA.A$52.AB.2B23.2B.BA$55.3B21.3B$55.4B6.2A3.2A6.4B$53.3B
2AB6.A5.A6.B2A3B$53.3B2AB3.BA.A5.A.AB3.B2A3B$51.10B.B2A7.2AB.10B$
50.13B11.13B$49.14B11.14B$48.15B11.15B$47.4B2.8B15.8B2.4B$46.4B5.
6B15.6B5.4B7.A$37.A7.4B4.9B13.9B4.4B6.3A$35.3A6.4B5.2A4.4B11.4B4.
2A5.4B8.A$34.A8.4B7.A5.4B9.4B5.A7.4B6.A.A$33.A.A6.4B5.3A7.4B7.4B7.
3A5.4B5.A.AB$32.BA.A5.4B6.A10.4B5.4B10.A6.4B5.A3B$31.3BA5.4B19.4B
3.4B19.4B6.4B$29.4B6.4B21.4B.4B21.4B5.6B$27.6B5.4B23.7B23.4B4.7B$
26.7B4.4B25.5B25.4B2.8B.4B.B$19.B.4B.8B2.4B26.5B26.17B.B2A$18.2AB.
17B26.7B26.18B2A$18.2A18B26.4B.4B25.16B.2B$19.2B.16B25.4B3.4B23.
17B$22.17B2.2A19.4B5.4B18.2A.A16B$23.16BA2.A18.4B7.4B17.A.2A.14B$
24.14B.2A19.4B9.4B23.12B$24.12B23.4B11.4B23.10B$25.10B23.4B13.4B
22.2B2A6B$25.6B2A2B22.4B15.4B20.3B2A6B$25.6B2A3B20.4B17.4B20.10B$
25.10B20.4B19.4B19.8B.B2A.A$21.A.2AB.8B19.2A2B21.4B17.7B3.B2AB3A$
19.3AB2AB3.7B17.ABAB23.4B9.2A5.6B6.B4.A$18.A4.B6.6B5.2A9.3BA25.4B
7.B2AB5.6B4.2A.3A$19.3A.2A4.6B5.B2AB7.4B27.4B7.3B5.5B4.A2.2A$21.2A
2.A4.5B5.3B7.4B29.4B5.B.B5.8B.A.A$24.A.A.8B5.B.B5.4B31.4B4.5B3.8BA
.A.2A.A$20.A.2A.A.A8B3.5B4.4B33.4B3.B2A4B.6B.2BAB.A.2A$20.2A.A.BA
2B.6B.4B2AB3.4B35.4B.2B2A11B2.2B2.A$23.A2.2B2.11B2A2B.4B37.19B3.B.
2A$23.2A.B3.19B39.18B2.A.A2.2A$21.2A2.A.A2.18B41.17B2.2A2.A2.A$20.
A2.A2.2A2.17B43.16B7.2A$21.2A7.16B45.15B$30.15B47.13B$31.13B49.9B
7.2A$25.2A7.9B51.9B6.A$26.A6.9B53.9B2.BA.A$26.A.AB2.9B55.9B.B2A$
27.2AB.9B55.12B$29.12B51.B.13B$29.13B.B47.2A15B$28.15B2A46.2A18B$
25.18B2A47.20B$24.20B48.21B$23.21B50.2B.17B$12.2A8.17B.2B50.4B3.B
2.12B$11.B2AB6.13B2.B3.4B48.2A9.8B.4B$11.4B5.4B.8B9.2A49.A9.7B4.2A
$12.2B5.4B3.7B9.A47.3A10.9B2.A$4.A7.4B2.4B2.9B10.3A44.A19.2A3.3A$
3.A.A5.5B.4B3.2A19.A64.A6.A$4.A.14B5.A85.3A$5.14B3.3A88.A$5.14B3.A
$5.15B$4.3B2A12B$4.3B2A13B$2.2AB.11B2.4B$.A.AB2.8B5.4B$.A5.10B4.4B
$2A5.B.B5.2A5.4B$8.3B4.A7.3BA$7.B2AB5.3A5.3BA$8.2A8.A6.3AB!
