#CSYNTH gun_8820 costs 4968 cells.
#C period 8820 fullperiod 8820 bbox 69 by 72
#CLL state-numbering golly
x = 69, y = 72, rule = LifeHistory
60.A$58.3A$8.A37.2A9.A$8.3A36.A9.BA$11.A9.2A24.A.AB2.5BA$10.2A9.A
26.2AB.2A3B$10.5BA2.2A.A19.2A7.2B2A3BA$12.BA2BA.2BA20.A8.BA3B2A2B.
2B$11.2BA5B7.2A14.3A5.2B2ABAB2A4B$7.2B.2B2ABA3B8.A11.3A3.A5.B2A4BA
4B$6.5BABA3B2A5.3A12.A2.ABA.A3.10BA3B$6.6B2A4B5.A3.3A10.A2B.A.A3.
10B2A3B$5.9B3A2B3.A.ABA2.A11.2A.A.2A2.15B$4.2B2A11B3.A.A.2AB12.2B
3A.2BA2.7B3A3B$4.3BABA9B2.2A.A.AB15.2B.A3B2.13B$4.4B2A7B2.BAB.BA3B
18.A3B3.11B$4.13B2.BA2B.BA15.A2.2A.2BA3.BA8B$5.11B3.BA2B18.4A.2A4.
2A3B.4B2.2B$6.10B3.BAB.BA21.A4.2B2A6.2BA2BAB$3.2B2.4B.4BA4.2A.3A2.
2A10.4A.A3.4B7.3A2B3A$.B4A2B6.ABAB4.A4.A2.A8.3A2.2A3.4B8.B2A2B2AB$
B6AB7.2A2B3.A.2A2.2A8.A9.4B11.A2BA$BA4BAB8.4B3.2A.2A10.2A7.4B10.A.
A2.A.A$2.A2BA11.4B6.A7.5B6.5B10.2A4.2A$A.A2.A.A10.4B5.A.AB3.2A2B7.
5B7.B$2A4.2A10.5B5.2AB2.B2A3B5.6BA5.3B$11.B7.5B5.10B4.4B.2BAB4.3B$
10.3B5.7B5.10B2.4B3.3A3.2BA2B$10.3B4.4B.4B4.9B2.4B3.B3AB2.2BA2B$9.
2BA2B3.3B3.4B4.13B4.B3AB.2BABA2B$9.B3AB2.2BA2B3.4B3.12B6.BA2B.3BA
3B$8.B2AB2AB.B3AB4.4B3.10B7.3B.4BA4B$8.3AB3A.4B6.4B.B2.7B8.3B.4BA
4B$7.B3AB3AB.3A7.13B9.BA2B.3BA3B$7.B3AB3AB.3A8.11B9.B3AB.2BABA2B$
8.3AB3A.4B9.10B9.B3AB2.2BA2B$8.B2AB2AB.B3AB8.9B11.3A3.2BA2B$9.B3AB
2.2BA2B7.9B12.BAB4.3B$9.2BA2B3.3B9.9B12.A5.3B$10.3B4.3B10.7B20.B$
10.3B5.B11.8B13.A$11.B18.9B10.3A$30.10B8.A$31.3B3.4B7.2A$38.4B3.5B
$39.4B2.3B9.2A$40.9B8.A.A$41.8B.B8.A$42.11B3.B.BA.2A$42.12B.B2A.A.
A$42.14B2A.A.A$42.8B2A5B2.A.2A$40.2AB.5BA2BA3B4A2.A$39.A.AB.6B2A2B
.BAB2.2A$31.B2A5.A5.7B6.2A$31.3AB3.2A5.4B.2B7.A$30.A.2AB9.4B9.A$
29.A.A.2B8.4B10.2A$29.A2.A2.2B5.4B$30.2A3.3B3.4B$35.B2A.5B$22.2A.
2A7.BA2BA4B$22.2A.A8.2B2A4B$25.A.B3.2A8B$25.2A2B.3BA7B$23.2A2.A2BA
B2A7B$22.A2.AB2A12B$22.2A.A.AB3.7B.B2A$23.A2.3AB2.7B.BA.A$23.A5.A
4.2BAB5.A$24.5A5.3BA5.2A$26.A8.3AB!
