#CSYNTH gun_131 costs 4514 cells.
#C period 131 fullperiod 131 bbox 74 by 61
#CLL state-numbering golly
x = 74, y = 61, rule = LifeHistory
24.2A11.A$23.B2AB9.A.A$24.3B9.A.A2.2A3.A$23.B.B9.2A.2A2.A2.A.A$23.
5B8.B2.A.A3.A.A$23.6B6.2ABA2.4A.A$23.8B4.2A.A.A3.A$24.13B2.A.AB2.A
15.2A$22.13B5.A.A2B.A14.A$21.15B5.A2B.2A11.BA.A$21.8B2A5B4.3B12.2A
.B2A$20.9B2A6B.B.2B12.B2A2B$20.13B2A14B6.4B$19.12B2A2BA14B3.6B14.A
$18.13B2AB2A14B2.6B7.B5.3A$17.2AB3.9B3A15B.7B6.2AB3.A$16.A2.A4.35B
6.2A3.2A$15.A.2A5.7B2.B2.2B2.20B5.2A5B$15.A7.7B13.21B2.2A2B$14.2A
6.8B15.21B2A4B$21.4B2.2B17.25BABA$20.4B4.2A15.28BA$19.4B6.A15.21BA
6BA$18.4B6.A14.2AB.3B2.14BA2BA2BAB$17.4B7.2A12.A.AB6.19B$16.4B22.A
8.12B2.4B$3.2A10.4B22.2A7.12B3.2B2AB$4.A9.4B31.10B8.2A$2.A10.4B31.
4B.6B$2.5A5.4B5.2A24.4B3.B.B$7.A4.4B5.A24.4B5.3B$4.3AB2.3B3AB.BA.A
23.4B5.B2AB$3.A.2B3.2BA3BA.B2A23.4B7.2A$3.4A4BA5BAB24.4B$.2A2.BA4B
A5BAB23.ABAB$A2.3AB.3BA5BAB22.B2AB$2A.A.B3.3BA3BA2B21.3BA$3.A8.B3A
4B19.4B$3.2A7.9B6.A10.4B$13.3B2.4B5.3A7.4B$11.5B3.4B7.A5.4B$11.2A
7.4B5.2A4.4B$12.A8.4B4.9B$9.3A10.4B5.6B$9.A13.4B2.8B$24.15B$25.14B
$26.13B$27.10B.B2A$29.3B2AB3.BA.A$29.3B2AB6.A$31.4B6.2A$31.3B$28.A
B.2B$27.A.AB2AB$27.A.ABABAB$24.2A.A.A.A.A2.A$24.A2.A2.2A.4A$26.2A
4.A$32.A.A$33.2A!
