#CSYNTH gun_1980 costs 2915 cells.
#C period 1980 fullperiod 1980 bbox 53 by 55
#CLL state-numbering golly
x = 53, y = 55, rule = LifeHistory
26.2A$25.A.3A$23.3A4.A5.A$22.A4.2A.A4.A.A$23.4A.A.2A3.A.A$26.A.B2.
BA.2A.2A$21.4A.BAB5AB4.A$21.A2.ABABA.B.B2AB3A$25.8ABA.A$25.B3A.4B$
19.2A6.B$18.A.BAB5.B$18.A.2AB3.4B11.2A$17.2A.B.B2.11B5.A$16.A3.2A
2B2.11B.BA.A$17.3A2.AB.3B2A7B.B2A6.B$20.2ABA4BA10B7.3AB.2A$19.A2.A
6B4A6B8.BABA.A$19.2A2.9BA6B10.2BA$23.8BA5B11.ABA$24.4B2AB2A4B8.AB.
2B$26.B2AB3A2B9.A.3ABA$26.B4A4B9.A2B2A.BA$18.2B6.4BABA2B5.2B3.2BA.
2A$16.6B5.5BAB6.3B2.3BA2B$14.BA6BAB3.2BA3BAB4.6BABA2B$12.2B2A6B2A
2B2.BA3BAB3.7B5.A$11.2B3A6B3A2B3.3BA7B2A2B4.A.A$12.2B2A6B2A2B5.2A.
9BAB5.A$14.BA6BAB9.8BABAB.B$16.6B10.4B.4B2A3B2A$18.2B11.4B4.7B.A$
15.2BA2.A2B7.4B7.B2.BA2.2A$13.2B3A2B3A2B4.4B6.4B.B3A2.A$12.2BA8BA
2B.5B7.2A.A6.2A$13.2B3A2B3A8B8.2AB4A$15.2B4.2B.6B10.B4.A$11.A13.4B
10.2A.2A$11.3A10.4B12.A.A$14.A8.4B13.A.A$13.2A7.4B15.A$13.5B3.4B$
4.2A9.3B2.4B$3.A.A8.9B$3.A8.B.8B$2A.AB.B3.BA9B$.A.A.2AB.3A9B$.A.A.
2A2B2A10B$2A.A2.5BA9B$A2.4A3BA8B.B2A$.2A2.BAB.BA8B.BA.A$3.2A6.7B5.
A$3.A7.2B.3BA5.2A$5.A9.3BA$4.2A10.3AB!
