#CSYNTH gun_1342 costs 5376 cells.
#C period 1342 fullperiod 1342 bbox 84 by 64
#CLL state-numbering golly
x = 84, y = 64, rule = LifeHistory
67.B.B$66.B2A3B$66.A2BA2B10.2A$65.2B2A4B2.2B5.A$54.2A9.13B.BA.A$
50.2A3.A6.16B.B2A$50.A2.A7.14BA4B$48.2A2.3A5.14BABA4B$47.A2.2A3.2B
3.15BA4B$47.A.A2.3A2B3.18B.B2A$12.A35.A.2AB.A23B.BA.A$12.3A20.AB3.
BA4.A.A3.2A19B2.2B5.A$15.A18.B2A3.2AB3.2A.2A21B10.2A$14.2A19.2AB.B
2A7.A.B.19B$14.4B17.BA3.AB4.2A2.A5.16B$9.2A5.3B18.3B6.A.2A6.10B3.
4B.2A$8.B2AB3.12B.B7.B3AB16.8B3.B2A3B.A$9.2B4.18B.2BA3BA2B13.9B4.
2AB2.A$10.8BA17BA3BA3B3.B7.10B8.A$9.9BA17BA3BA4B.B2A5.10B5.5A.A$8.
10BA18B3A7B2A4.7BA3B5.A4.A.A$2.B4.12BA26B.B4.7BABA2B7.A2.A.A$.3AB
2.8BABABA26B5.8BABA2B6.2A3.A$.B3A.B3A5BA13B3.2B.11B4.10BA3B$3.B.BA
3BA6BA10B7.2B2A7B3.13B.B2A$5.BA3BA3BA2BA7B11.2A2B2A19B2.BA.A$3.B.B
A3BA3B2A3B.3B13.15B.7B7.A$.B3A.B3A5BAB.B.B11.2A3.B2ABA8B3.6B7.2A$.
3AB2.8B3.2A.A10.A2.A7B3A3B5.4B$2.B4.6B6.A.3A10.2A2.3B2A5B7.4B$8.6B
3.A6.A11.12B8.4B$7.7B3.2A4.2A9.2A.11B9.4B$7.6B21.A2.11B10.4B$7.6B
19.A.A3.10B11.4B$7.6B19.2A4.10B12.4B$6.8B25.9B13.4B$7.8B24.9B14.4B
$6.9B24.8B16.4B$6.9B25.8B16.4B$6.10B4.2A19.6B18.4B$6.10B3.A.A19.6B
19.4B$6.11B2.A21.6B20.4B$6.11B.2A9.2A4.2A3.7B21.4B$6.12B11.A6.A3.
6B23.4B$6.5B2A3B2.2A10.3A.A6.6B4.B18.4B$5.3B3A7BA2.A10.A.2A3.8B2.B
3A18.4B$4.8BAB2AB3.2A11.B.B.BA5B3AB.3AB19.4B$4.14B13.3B.3B2A3BA3BA
B.B22.4B$2.2AB.6B2A2B2A11.7BA2BA3BA3BAB25.4B$.A.AB3.7B2A2B7.10BA6B
A3BAB.B24.4B$.A6.11B.2B3.13BA5B3AB.3AB23.4B$2A6.26BABABA8B2.B3A24.
4B$6.B.26BA12B4.B26.4B$5.2A7B3A18BA10B33.4B$5.2AB.4BA3BA17BA9B35.
3BA$6.B3.3BA3BA17BA8B37.ABA$11.2BA3BA2B.18B4.2B37.2A$13.B3AB7.B.
12B3.B2AB37.B$14.3B18.3B5.2A$12.BA3.AB17.4B$12.2AB.B2A19.2A$11.B2A
3.2AB18.A$12.AB3.BA20.3A$41.A!
