#CSYNTH gun_2150 costs 5100 cells.
#C period 2150 fullperiod 2150 bbox 68 by 75
#CLL state-numbering golly
x = 68, y = 75, rule = LifeHistory
26.2A11.A$25.B2AB9.A.A$26.3B9.A.A2.2A3.A$25.B.B9.2A.2A2.A2.A.A$25.
5B8.B2.A.A3.A.A$25.6B6.2ABA2.4A.A$25.8B4.2A.A.A3.A$26.2B3A8B2.A.AB
2.A15.2A$24.4BA2BA5B5.A.A2B.A14.A$23.4BA3BA6B5.A2B.2A11.BA.A$23.9B
A5B4.3B12.2A.B2A$22.3B2A3B2A7B.B.2B12.B2A2B$22.BA5BA21B6.4B$21.2BA
4BA23B3.6B$20.3BA5BA22B2.6B$19.2AB3.2A3B2A20B.7B$14.A3.A2.A4.6BA
28B$12.3A2.A.2A5.BA3BA3.B2.2B2.20B$11.A5.A7.3BA2B14.17B$11.2A3.2A
6.4BA3BA14.15B$2A6.5B10.4B4.BA15.15B$.A5.4B11.4B5.A15.16B3.2A$.A.A
B.6B9.4B7.3A12.16B3.A$2.2AB.7B7.4B10.A10.2AB.15BA.A$4.11B4.4B21.A.
AB2.12B2.2A$4.11B3.4B22.A4.13B$4.17B22.2A3.15B$5.15B3.2A22.17B$6.
13B4.A22.4B3.11B$2.2A2.12B2.BA.A21.4B4.11B$.A.A15B.B2A10.A10.4B7.
7B.B2A$.A3.16B12.3A7.4B9.6B.BA.A$2A3.16B15.A5.4B11.4B5.A$5.15B15.
2A4.4B10.5B6.2A$6.15B14.9B6.2A3.2A$6.17B14.6B7.A5.A$6.20B2.2B2.B3.
6B5.2A.A2.3A$7.35B4.A2.A3.A$8.7B.27B3.B2A$8.6B2.16B2A14B$7.6B3.16B
2A13B9.2A$7.4B6.29B10.A.A$7.2B2AB12.2B.B.17B3.2A7.A$5.2AB.2A12.3B
4.15B5.A3.4A$4.A.AB11.2A.2BA5.15B3.A4.A3.A.A$4.A14.A.2BA.A5.13B4.
2A2.B2AB2.A.A$3.2A15.A2.BA.A2.13B4.2A2.AB2A2B4.A2.A$21.A3.A.A.2A4.
8B.2B.A2BABA3B3.BA.A.A$19.A.4A2.AB2A6.6B2AB2A2B.5B.2B.A2.A$18.A.A
3.A.A2.B7.4B3.2B.A2BAB2AB2.2A.A$18.A.A2.A2.2A.2A5.4B6.2A2.ABA.A.A
2.A$19.A3.2A2.A.A5.4B9.2A3.A.2A2.A.A$27.A.A4.4B8.2A2.2A.A6.2A$28.A
4.4B3.A6.A.A2.2A$19.A12.4B4.3A4.A2.A12.A$19.3A9.4B8.A4.2A12.A.A$
10.A11.A7.4B8.2A17.B2AB$9.A.A9.2A6.4B9.5B7.2A2.A3B2A$8.A2.A9.6B.4B
7.A4.3BAB4.B2A2BA2B2AB$8.4A.2A8.8B6.3A3.3BABA5BAB.2BABAB$12.A.A5.
10B6.A5.4BA2BA2B.BA3BA.2A$5.2A3.A.A6.10B.B5.2A5.4B2A3B.BA.B.A.A$5.
A2.4ABA4.BA18B6.6B5.2A.A.A.A$6.2A3.2B.A3BABA15B9.5B7.A.A.2A$8.B6A
2B.ABA12B2A2B7.7B6.A.A$6.2A2B.3AB4.A12BA2BA2B5.4B.4B6.2A$5.A2.2A2.
B7.7B2.4B2A3B4.4B3.4B$5.2A13.7B4.9B.4B5.4B$23.3B6.12B7.4B$21.5B7.
10B9.4B$21.2A10.9B11.4B$22.A9.9B13.4B$19.3A11.7B15.3BA$19.A13.6B
17.3BA$35.2B20.3AB!
