#CSYNTH gun_460 costs 1920 cells.
#C period 460 fullperiod 460 bbox 48 by 40
#CLL state-numbering golly
x = 48, y = 40, rule = LifeHistory
.2A5.A11.A5.2A$.A5.A.A9.A.A5.A$2.3A.A2.A9.A2.A.3A$4.A.2A.2A7.2A.2A
.A$4.AB.A.A9.A.A.BA$3.4AB.A9.A.B4A$3.A2BAB.2A7.2A.BA2BA$3.2BA.A.A
2.A3.A2.A.A.A2B$4.A2BAB2.2A3.2A2.BA2BA$3.BA2B15.2BAB$4.A2BA13.A2BA
$3.2A.AB3.2A3.2A3.BA.2A$2.A.A.A2B.BABA.ABAB.2BA.A.A$.A.A2.A.B3A.A.
A.3AB.A2.A.A$.A2.2A.5B.A.A.5B.2A2.A$2A3.A.A.A2B.A.A.2BA.A.A3.2A$A
4.A.3AB2A.A.2AB3A.A$.3A.AB.B2A.B.A.B.2AB.BA.4A$3.A.A.B.2AB.3A.B2A.
B.A.A2.A$5.A.2A.A2B.A.2BA.2A.A.A.A$4.2A2.A3B2AB2A3BA2.A2.A$3.A2.A
2.4B.B.4B2.2A19.2A$4.2A3.A2B5A2BA23.A.A$11.7A26.AB$11.7B5.4B3.A.9B
2.2B$12.5B6.4B.3BA3BA11B$11.ABABABA4.2A2B2A8BA9B2A$11.2BABA2B4.2A
2BA5B2A2BA9B2A$11.A5BA5.B.BABA5B2A9B.B$12.A3BA8.2B2A3B3A9B$12.BABA
2B4.3B.B.3B$12.2BA5B2.5B2A3B3A9B$13.13BABA5B2A9B.B$9.2B2.3B2.8BA5B
2A2BA9B2A$7.BA2BA2B5.7B2A8BA9B2A$6.A2B2A2BA6.11BA3BA11B$6.A2B2A2BA
7.4B.B.2BA.9B2.2B$8.4A10.3BA18.AB$6.A.A2.A.A9.3BA16.A.A$6.2A4.2A
10.3AB15.2A!
