#CSYNTH gun_1602 costs 5292 cells.
#C period 1602 fullperiod 1602 bbox 84 by 63
#CLL state-numbering golly
x = 84, y = 63, rule = LifeHistory
2A$.A26.A$A25.3A$2A23.A$.B23.2A$3B20.4B2.A$5B9.B3.B.5B4.3A10.2A$6B
2.B.16B6.A5.2A2.A26.A.2A4.2A.A$2.25B4.2A5.A.A.A26.2A2.A2.A2.2A$.
26B4.5B3.B.A25.2A3.A4.A3.2A$.14BAB2A9B5.3B2.2B26.A3.2A.4A.2A3.A$.
14BAB2AB5A6B.9B26.3A.A.A2.A.A.3A$2.14B7A2B2A16B8.2A16.A.A.A2BA.A.A
$3.16BA4BAB3A14B8.A18.2BA4BA2B$6.13B3AB2A2BA16B4.BA.A18.3B4A3B$6.
19B2A20B.B2A22.B2AB$4.16BA24B2A2B17.2A6.2B$4.16BA21B.2BA.AB18.A6.
2B$4.39B3.2A19.A.AB.BAB3.B$4.31B.4B22.A5.2AB.4B.2BA$4.29B.5B7.2A
14.3A5.5BA2BA.A$2.2AB.27B.4B6.A2.A17.A4.4B2AB.BA$.A.AB.26B2.4B6.2A
.A.2A.A11.2A4.3BABAB$.A7.23B2.5B6.B.A.A.2A11.6B2.B2A2B$2A6.23B2.8B
2.B2ABA18.5B3.B2.AB$9.21B2.10B.B2A2.A17.6B4.B2A$9.14B3.3B2.13B3.2A
16.8B4.2AB$4.2A3.13B2.3B3.14B15.A.2A2.9B3.BA$4.A2.2AB.10B2.21B15.
2A.A12B$5.AB2AB2.8B2.23B6.2A11.12B$2A.A.A.B6.5B2.23B7.A12.13B$A.2A
.A.2A6.4B2.26B.BA.A12.9B.4B$5.A2.A6.4B.27B.B2A13.9B2.4B$5.2A7.5B.
29B14.11B2.4B$13.4B.31B14.11B3.4B$5.2A3.39B14.12B3.4B$4.BA.A2B.21B
A16B8.B4.14B3.4B$4.2B2A24BA16B7.3B3.10B.4B3.3BA$2.2AB.20B2A19B7.6B
2.15B4.ABA$.A.AB4.16BA2B2AB3A13B.4B2.7B.13B.B2A3.2A$.A8.14B3ABA4BA
23B3A15B.BA.A3.B$2A8.16B2A2B7A11BA8B3A15B4.A$12.9B.6B5AB2ABA9BABA
6BA18B4.2A$13.2B2.3B5.9B2ABA9BA2B4A7B2A13B$11.A.B3.5B4.22B2AB3A4BA
3B2A12B$10.A.A.A5.2A4.32B2AB2A14B$10.A2.2A5.A6.16B.B3.10B4A14B$9.
2A10.3A4.5B.B3.B10.4B2.20B$23.A2.4B20.24B.B.B$26.2A23.26B2A$27.A
24.25B2A$24.3A22.B3.2B.5B2.12B.2B$24.A23.2AB.3B.4B3.13B$48.2A3BA
11.11B.B$49.B.BA.A10.12B2A$52.BA.A9.10B.B2A$55.A7.2AB.6B4.B$55.2A
5.A.AB.4B$62.A5.5B$61.2A8.2A$71.A$72.3A$74.A!
