#CSYNTH gun_4880 costs 4745 cells.
#C period 4880 fullperiod 4880 bbox 73 by 65
#CLL state-numbering golly
x = 73, y = 65, rule = LifeHistory
62.2A.A$62.A.2A2$57.2A4.5A$57.A5.A4.A$49.A.2A.2A.A7.BAB.A$49.2A.A.
A.A8.B2A.A$54.BA7.A4B.A.2A$53.4B5.ABAB3.A.A$46.2A5.4B.2B2.A2BA2.2A
2.A$38.A8.A5.10B2A6.2A$37.A.A7.A.AB.11B$35.3A.A8.2AB2.10B$34.A4.A.
2A7.14B$34.ABABA.A.A8.13B$29.2A4.2A.A.A10.12B$30.A4.4BABA9.12B$30.
A.AB4.2BA3B7.12B$31.2AB.B4.5B4.14B$33.4B2.6B.9B3A5B$33.8B3A10BAB2A
5B$16.2A15.8B3A10BA3BA6B2.B$12.A.A2.A14.8BA3BA10B3A7B.B2A$10.3A.2A
15.4B.5B2ABA10B3A9B2A$9.A4.B4.2A9.4B2.5B3A9B.6B2.4B.B$10.3AB2A3B2A
B7.4B3.14B4.5B4.2B$12.A.2A.4B7.4B4.12B7.3BA2B$17.3B7.4B5.12B9.ABA
4B$17.B2AB5.A3B6.12B10.A.A.2A$17.A2BAB3.A3B6.13B8.A.A.ABABA$14.A2.
BABAB2.B3A7.14B7.2A.A4.A$13.A.A.2BA7B9.10B2.B2A8.A.3A$14.A2.2B.6B
10.11B.BA.A7.A.A$17.8B9.2A10B5.A8.A$10.A5.B2A5B5.2A2.A2BA2.2B.4B5.
2A$10.3A4.2A4B6.A3.BABA5.4B$13.A4.4B4.2A.A.4BA7.AB$12.2A4.6B3.A.A.
2AB8.A.A.A.2A$12.6B2.B.2A2.A2.A.BAB7.A.2A.2A.A$14.2B2AB3.A3.2A2.A
4.A5.A$13.3B2A2B3.3A5.5A4.2A$13.8B4.A$13.9B11.A$13.10B9.A.A$11.8B.
4B9.A$11.8B2.4B$10.9B3.4B$2A.2A5.2B3A5B3.4B$A2.3B2.3BA3BA3B5.4B$.
2A2BA2.3BA3BA4B5.4B$2.3A6BA3BA4B6.4B$2.3A2B.4B3A5B7.4B$.2A2BA2.9B
2A2B7.4B$A2.3B3.8B2A2B8.4B$2A.2A5.6B2.B.B2A7.4B$7.7B6.BA.A7.4B$7.B
AB2.2B9.A8.4B$5.2BABA13.2A8.4B$5.BA3BA23.4B$6.BA2B.A23.4B$8.A.2BAB
22.4B$9.A3BAB22.4B$10.ABA2B23.3BA$10.BAB26.3BA$11.2B27.3AB!
