#CSYNTH gun_975 costs 4300 cells.
#C period 975 fullperiod 975 bbox 86 by 50
#CLL state-numbering golly
x = 86, y = 50, rule = LifeHistory
15.2A$15.A$12.A4.A$12.5A.A61.A$10.2A4.A.A2.A56.5A$9.A2.2A3B.A.A.A
54.A5.A$6.A2.3A2.2AB.A2.A44.2A9.B3A2.A$6.3A3.2A3B2A48.A10.2B.A.2A$
9.A2.A.AB.B49.A.2A7.2B2A3.A$8.2A3.AB47.A5.A2B.4B.2BA2.A.A$8.5B49.
3A5.2BA5B2AB2A.2A$2A.2B5.4B51.A4.3BA4BAB$A2.2AB3.5B10.2B38.2A4.ABA
5B2AB2A.2A$.2AB2A2.6B8.6B36.6B2.4B.2BA2.A.A$2.2B2A8B6.BA6BAB36.5B
7.2B2A3.A$2.2B2AB2.B3A2B3.2B2A6B2A2B33.7B6.2B.A.2A$.2AB2A3.BA2BA2B
.2B3A6B3A2B32.8B4.B3A2.A$A2.2AB4.A2BA2B2.2B2A6B2A2B33.2BA6B3.A5.A$
2A.2B5.BA2BAB4.BA6BAB34.2B3A6B3.5A$10.B3A2B6.6B37.A3BAB.4B4.A$10.
2B2AB9.2B39.BAB2A3.4B$11.4B6.2BA2.A2B20.A12.BA2BA3B4.4B$11.4B4.2B
3A2B3A2B18.3A8.2BAB2A4B5.4B$12.5B.2BA8BA2B20.A6.2BABA7B5.4B$13.BAB
A4B3A2B3A2B8.2A10.2A6.B2A10B5.4B$14.B2A3B.2B4.2B11.A10.5B3.3ABA7B
7.4B$15.A3B21.A.AB9.4B2.2AB2A8B7.4B$16.4B10.A10.2AB.3B4.8BAB2A8B8.
4B$17.4B7.3A12.7B.10BA12B7.4B$18.4B5.A15.28B2AB2A6.3BA$19.4B4.2A
15.B2A23BA5BA6.ABA$12.2A6.9B14.BA2BA28BA7.2A$13.A7.6B14.3BA2BA22B
2A4B9.B$13.A.2A5.6B3.B2.2B2.5B5A9B.B3.B.2B3.5B$14.A2.A4.18B2AB2A
10B6.3B7.B$15.3A3.21BA5B.6B6.B2AB5.3B$16.BABA4BA23B2.B.5B5.2A6.B2A
B$17.2A3B4A22B7.2A14.2A$18.BA2BABA2BA19B8.A$18.4BA2B2ABA6B.4B16.3A
$8.A.B8.2BA2B2AB3A4B3.2B19.A$7.B4A7.2B3A6BA3B3.3B$8.3A.A7.2B2A2BA
6B5.A2B.2A$10.3BA8.B2A10B2.A.A2B.A$10.A3B.2A5.3A3BA4.2A.A.AB2.A$
11.BA.3AB4.BA2BA6.2ABA4.A$12.A.A2.A2.6B8.B2.5A.A$11.2A.A2BAB.2A7.
2A.A.2A.A4.A.A$11.A2.A.BA2B.A7.A.2A.A2.A.2A2.A$12.2A5.2A15.2A.A.2A!
