#CSYNTH gun_1757 costs 9604 cells.
#C period 1757 fullperiod 1757 bbox 98 by 98
#CLL state-numbering golly
x = 98, y = 98, rule = LifeHistory
19.2A6.A11.2A$18.A2.A4.A.A9.B2AB$15.A2.3A.A3.A.A9.3B$13.3A5.A.A.2A
.2A9.B.B$12.A5.2A3.A.A2.B8.5B$12.2A4.A.4A2.AB2A6.6B$9.5B6.A3.A.A.
2A4.8B$8.4B7.A2.BA.A2.13B$7.5B6.A.2BA.A5.13B$6.6B6.2A.2BA5.15B$4.B
.6B10.3B4.15B$3.2AB.6B10.2B.B.17B$3.2A7B4.29B$4.2B.6B2.16B2A13B$7.
6B2.16B2A14B$.A3.9B.27B3.B2A$A2B.2A35B4.A2.A$A5BA18B2.2B2.B3.6B5.
2A.A$.5A16B14.6B7.A$.8BA10B14.9B6.2A$3.5BABA8B15.2A4.4B$3.4B3A10B
15.A5.4B$3.4B2A11B12.3A7.4B$4.5BA4B.3B.B2A10.A10.4B$5.2BA4B2A5.BA.
A21.4B$5.3BA4B9.A22.4B$2.B2.9B8.2A22.4B$.2AB.B2A6B33.4B$.2A3B3A4B
35.4B$2.B.2B2AB2AB37.4B$5.2BA2BA2B37.4B$5.B4A2B39.4B$6.BA3B41.4B$
7.4B42.4B$7.4B43.3BA$8.BABA43.B2AB$9.B2AB43.ABAB$10.A3B43.4B$11.4B
42.4B$12.4B41.5B$13.4B39.6BA2B$14.4B38.3B4A2B$15.4B37.2BABA4B$16.
4B35.2B2A3BA2B$17.4B33.6B3A3B$18.4B22.2A8.13B$19.4B22.A9.11B$20.4B
21.A.AB4.12B$21.4B10.A10.2AB.12B2AB$22.4B7.3A12.13BAB2A$23.4B5.A
15.13BA3B$24.4B4.2A15.8B2A2BA4B.B$17.2A6.9B14.13B2A4B2A$18.A7.6B
14.19B.B2A$18.A.2A5.6B3.B2.2B2.15B3A2B4.B$19.A2.A4.36B$20.2AB3.27B
.9B$21.14B2A16B2.7B$22.13B2A16B2.7B$23.29B4.6B$23.17B.B.2B10.7B$
24.15B4.3B10.6B$24.15B5.A2B.2A6.7B$25.13B5.A.A2B.A7.5B$27.13B2.A.A
B2.A8.6B2.2B$26.8B4.2A.A.A3.A7.13B$26.6B6.2ABA2.4A.A5.2A.5BA5B$26.
5B8.B2.A.A3.A.A5.A5.2B2A4B6.2A$26.B.B9.2A.2A2.A2.A.A2.3A4.2B.2A7B
4.A$27.3B9.A.A2.2A3.A3.A5.2A12B4.A$26.B2AB9.A.A17.2AB.9B4.2A$22.2A
3.2A11.A19.B2.7B5.2B$22.A.A38.8B2.5B6.3B5.2A$24.A39.B2A12B4.4B5.A$
24.2A6.2BAB13.B.7B5.BA2BA.10B4.5B.BA.A$26.A2B2.2BABAB6.B.13B4.3B2A
13B3.5B.B2A$24.3A5BABA45B3.7B$23.A2.B.4B2A45B3.8B$23.2A3.50B3.8B4.
2A$29.25B2A33B3.A.A$29.25B2A33B3.A$28.4B.B.11B3.41B.2A$29.4B2.10B
5.10B2.B3.B2.B3.18B$29.2B2AB4.2B2.4B7.6B14.18B3.2A$31.2A10.4B8.3B
13.5B3.12B.B2.A$44.4B9.B13.2A7.12B3A$45.4B8.2A13.A8.9B.BA$46.4B8.A
10.3A4.2A3.9B3.2A$47.4B6.A11.A6.A4.9B4.A$48.4B5.2A14.2A.A4.2B2A3B.
B2A2.A.2A$49.4B20.A2.3A.2BA2BA2B.BA.A.A.2A$50.4B20.2A2.BA3BABAB5.A
.A$51.4B21.4A4BA4B3.A.A$52.4B20.A.4B5.2A4.A$53.4B17.A.A.2A7.A$54.
3BA16.2A2.A9.3A$55.3BA19.A.A9.A$56.3AB19.2A!
