#CSYNTH gun_8190 costs 4536 cells.
#C period 8190 fullperiod 8190 bbox 84 by 54
#CLL state-numbering golly
x = 84, y = 54, rule = LifeHistory
70.A2.A4.2A$70.4A2.A2.A$34.3B2AB28.2A4.5A$32.4B3A3B4.B20.A2.2ABA$
20.4BAB.B2.3BAB2A7B.B2A20.A.A.B4A$13.B4.6BABA6BA2BA4BA5BA19.2A.A.A
B.B.A$12.2AB.9BABA3B.BAB2A5BA4B23.A.4ABA2.A$12.2A11BA2BA7B3A3BA3BA
2.2A19.A.A3B2.3A$13.12BABA9B2AB4.A4.2A17.A.A.B5A$13.11BABA8B28.2A
2.A.2A.AB4.A$15.B4.4BAB3.5BAB7.B3.4A12.A3.A3.A3B3A$33.2B2A5.2AB.A
2.BAB12.3A.2A2.B.2A2.3A$34.2A2B4.2A2B2A4B14.A.A.5AB2A2.A$35.4B4.8B
15.B.A.A.B2AB.A$36.4B3.3B2.4B12.3A5BA3.A$27.AB2.B5.4B.B6.4B6.B3.B
3A2B2A2.3A$26.A3B3AB4.5B7.4B4.2AB.2B2A.2B.B2A$27.A.5A5BA3B8.4B3.A
3B2A3B4A2.A$31.A.B2.2BA4B9.4B3.4BAB.2B4.A$30.B2A3.2B3A2B10.4B2.A3B
4.2A.2A$31.2A3.7B11.4B2.BA6.A.A$35.9B11.4B2.B6.A.A$34.4B.5B12.9B4.
A$33.4B.7B12.9B16.2A$32.4B2.7B11.10B.B3.B10.A$31.A3B3.2A3B2A11.4B
2A14B3.BA.A$30.BABA4.B5AB11.3BA2B2A14B.B2A$29.2B2A5.B2AB2AB11.6B3A
15B$28.4B6.B2AB2AB13.9BA12B$10.2A15.4B8.B3AB4.BA2B.2A3.10BA11B$11.
A14.4B9.5B3.B4A2B.A3.4B2A14B$11.A.AB3.A5B2.4B10.4B3.A5BA.A5.BA2B2A
13B$12.3A.4A10B10.4B2.A2BA4B.2A4.2B2A6B2.6B$14.2ABAB2A10B.3B2AB3.
9B.AB2A.2BA3B2ABA3B6.3B$14.A2BAB3A11BA2BA12B2A3.2A7BABA2B$15.ABAB
2A4B2A5BA7B2A2B2.A2B.2ABA.4B.4B2A2B$11.A4.4A5B2A5BA6BA2BAB4.2A.4BA
2BA3.5B$11.3A4.A7BA5BA7B2A7.A.A5BA4.3B$14.A8.10BA2BA3B9.A.2B4AB5.
2B$13.2A7.7B3.3B2AB12.2A.2BAB5.2B$13.5B3.4B36.B2AB$4.2A9.3B2.4B38.
2A$3.A.A8.9B$3.A8.B.8B$2A.AB.B3.BA9B$.A.A.2AB.3A9B$.A.A.2A2B2A10B$
2A.A2.5BA9B$A2.4A3BA8B.B2A$.2A2.BAB.BA8B.BA.A$3.2A6.7B5.A$3.A7.2B.
3BA5.2A$5.A9.3BA$4.2A10.3AB!
