#CSYNTH gun_4500 costs 3068 cells.
#C period 4500 fullperiod 4500 bbox 59 by 52
#CLL state-numbering golly
x = 59, y = 52, rule = LifeHistory
23.2A2.2A.2A10.B9.A$21.3A.A2.A.A.A7.BA2B.2A3.3A$20.A4.2A.A.B.A2.2A
.3B2ABA.A2.A$20.A.2AB.B.A2B2A.A.4A.AB.BA3.2A$21.2A.3BA2B2.A.BA.2AB
2A4.5B$22.2B2ABA4BA2B.A4B4.4B5.2B.2A$24.3BA2B.BA4BAB6.BA3B3.3A2.A$
21.A2.A.A2.A.A.2BABA7.B5A2.3B2A$21.4A.4ABABA.AB2A6.2BA4BA4B$25.A6.
A.A3.A5.BABA2B2.A4B$10.2B11.A.A2.3A.A.A.2A5.BAB2A2B3.3B2A$8.6B9.2A
4.A.A3.A7.BABA2B4.3A2.A$6.10B11.A8.A.A4.3A3B5.2B.2A$4.4BA4BA4B9.2A
8.2A4.ABA3B$3.3B2AB4AB2A3B25.4AB2.2A$4.4BA4BA4B13.A12.B3A4.A2.A$6.
10B15.3A10.2BAB4.A.A.A$8.6B20.A8.6B2.2A.A.A$10.2B21.2A7.8BAB2.2A$
10.2B21.5B3.4B3.B5A$11.B12.2A9.3B2.A3B3.4B2.A$10.2AB7.2A.A.A8.5BA
3B3.4AB2A$.2A6.A2BAB5.A.A.A8.B.5B3A3.B2ABA.A$2.A4.3B2A3B4.A3.AB.B
3.11B5.2B.A3.A.2A$2.A.AB.8B.BA.A3.A.2AB.3B2A7B5.2B2A.A.2A.A$3.2AB.
8B.B2A.2A.A.2A5B2A7B4.A4.A.A$5.12B3.A2.A2.15B4.4A.A.A$5.12B3.A2.4A
12B.B2A5.A.2A4.2A$5.12B4.2A2.BAB.10B.BA.A3.A6.A.BA$7.10B6.2A6.7B5.
A2.A6.B2A$9.7B7.A7.2B.4B5.A.A4.A3.3A$9.8B8.A9.4B5.A3.3A4.BAB$8.5B.
4B6.2A10.4B7.A7.2B2A$8.6B.4B18.4B6.2A7.3B$7.6B3.4B10.A7.4B.6B7.2A$
3.B2.3BA3B4.4B9.3A6.8B9.2B$.7BABA2B5.4B11.A6.10B6.BA$.7BABA2B6.4B
9.2A5.B.10B4.A2B$9BA3B7.4B8.18BAB3.2BA$11B.B2A6.4B9.15BABA5BAB$.9B
2.BA.A6.4B7.2B2A12BABA.4BAB$.7B7.A7.4B5.2BA2BA12BA4.2BA$2.6B7.2A7.
4B4.3B2A4B2.7B5.A2B$3.4B18.4B.9B4.7B6.AB$4.4B18.12B6.4B6.B.2B$5.4B
18.10B7.3B6.A2B2A$6.4B18.9B8.B6.A.A3B$7.4B18.9B15.AB.2A$8.4B18.7B
17.3AB$9.3BA18.6B18.A.A$10.3BA19.2B19.3AB$11.3AB39.B2A!
