#CSYNTH gun_1568 costs 3600 cells.
#C period 1568 fullperiod 1568 bbox 72 by 50
#CLL state-numbering golly
x = 72, y = 50, rule = LifeHistory
17.A$11.2A4.3A34.A$12.A2.2A3.A31.3A4.2A$.2A9.A.A2.ABAB30.A3.2A2.A$
2.A7.2AB.2ABABA31.ABAB2.A.A9.2A$2.A.AB2.BA.A.A2.2AB33.3B3A.B2A7.A$
3.3A.5A.2A2B2A34.A2B2.A.A.BA2.BA.A$5.2A.5B.A.2B35.A2B3A.A2BAB.B2A$
5.2A5BA21.2A18.AB.B.A2BAB.AB$5.BA.3B10.2A2.2A6.B2AB22.7AB$9.A2B9.A
2.BA2BA5.2A13.2A10.3A.AB$10.3B5.BA.A3.4B3.B2A15.A9.3B$8.2B3A4B.B2A
4.A2BA3.4A14.A.AB5.3B$6.3BA3BA5B5.A2BA2.BA4B15.2AB.5BA3B$.B.5BA5BA
3B6.ABAB2.2A4B17.2B2A3B3A3B$2AB.4BA2B.2BA4B4.2BAB3.2BAB20.2A4B3AB
3A2B.B$2A6BA5BA5B3.4B4.3B19.7B.7B.B2A$.2B.5BA3BA8B.2B2AB2.2B20.2B
3AB3A4B2A3B2A$4.6B3A2B3.BABAB2.2A2.B2AB18.7B3A3B2A2B.2B$10.3B6.B2A
B7.2A10.2A6.4B3.3BA7B$11.2BA6.A3B6.5B7.A6.A3B6.3B$12.3B.AB3.4B7.2B
2A3.BA.A5.A3B6.3B$10.A5B2A4.4B5.3B2AB2.B2A5.B3A3.BA.3A$5.2B.A.5B.
2A5.4B4.10B5.4B4.B7A$4.2A2B2A.5A.3A4.4B2.10B5.4B5.BA.BA2BA.B.BA$4.
B2A2.A.A.AB2.BA.A4.4B2.9B4.4B4.2AB.BA2BA.3A2BA$3.ABAB2A.B2A7.A5.
13B4.4B4.A.AB2.AB.A.A2.2BA$2.BABA2.A.A9.2A5.12B3.4B5.A7.2AB.3A3B$
2.A3.2A2.A17.10B3.5B4.2A9.A.A2.BABA$3.3A4.2A17.7B2.B.5B16.A2.2A3.A
$5.A24.13B2.3B12.2A4.3A$23.B2A5.11B3.3B2A2.B13.A$23.3AB4.10B3.4A4B
2A$22.A.2AB5.9B3.3AB2A2B2A$21.A.A.2B6.3BA5B3.B2.BA3B$21.A2.A2.2B3.
2B2AB2A2B9.3B$22.2A3.3B3.3BA3B$16.2A9.B2A.9B$15.A.A8.BA2BA9B$15.A
8.B.2B2A10B$12.2A.AB.B3.BA9B3.3B$13.A.A.2AB.3A9B$13.A.A.2A2B2A10B$
12.2A.A2.5BA9B$12.A2.4A3BA8B.B2A$13.2A2.BAB.BA8B.BA.A$15.2A6.7B5.A
$15.A7.2B.3BA5.2A$16.A10.3BA$15.2A11.3AB!
