#CSYNTH gun_6180 costs 5185 cells.
#C period 6180 fullperiod 6180 bbox 85 by 61
#CLL state-numbering golly
x = 85, y = 61, rule = LifeHistory
62.2A$54.A7.A9.A7.2A$54.3A2.BA.A7.3A3.2A.A.A$57.A.3A7.A6.2A.A$42.A
13.A.2A9.2A8.2A2.2A$41.A.A12.A2BA6.5B5.2A.A.B2.A$37.2A2.BA.A12.2B
5.BA3B7.AB.A.3A$37.AB3.2A.A12.2B3.BABA3B7.2BA.B$39.B3A.2A11.A2BA2B
A2BA4B7.BA.3A$35.5A2.2B14.2A.3B2A4B9.BAB2.A$35.A4.BAB.4A3.2A10.6B
10.3B.2A$38.2A.A.A4.A2.A.A.2A6.5B11.B2AB$37.A.2AB.A.3A5.A.A6.7B8.B
.3AB$36.A.4BAB.A6.AB.A5.4B.4B6.4AB2.2A$36.A.A2BA.AB6.BA.A5.4B3.4B
5.3A.2A.A$4.2A4.2B4.2A17.2A.5B2A5.3BA5.4B5.4B5.B3.A.A$3.A2.A.6B.A
2.A18.A.6A3.4B6.4B7.4B3.2B3.A.2A$3.3A2.6B2.3A18.A.A.3B2.6B5.4B9.4B
2.2B4.A$6.10A22.A3.B2.7B4.4B11.6BAB4.2A$5.A2.6A2.A18.3A4.2B.8B2.4B
13.4BABAB4.A$5.2A.B4AB.2A18.A6.16B15.3BA2BA3.A$10.2B29.16B15.5B2A
2B2.2A$10.2B28.17B14.10B$11.B27.18B13.4B.6B$10.2AB25.19B12.4B3.3B.
B2A$.2A6.A2BAB5.2A16.4B2.12B.B2A9.2A2B5.B2.BA.A$2.A4.3B2A3B4.A16.
4B3.11B2.BA.A7.2B2A12.A$2.A.AB.8B.BA.A15.4B5.10B5.A6.2BAB13.2A$3.
2AB.8B.B2A15.4B6.6B2A2B5.2A4.4B$5.12B16.4B7.6B2A3B9.4B$5.12B15.4B
8.10B9.4B$5.12B3.A10.4B5.A.2AB.8B8.4B$7.10B3.3A7.4B4.3AB2AB3.7B6.
4B$9.7B7.A5.4B4.A4.B6.6B5.4B$9.8B5.2A4.4B6.3A.2A4.6B5.4B$8.5B.4B4.
9B9.2A2.A4.5B4.4B$8.6B.4B5.6B13.A.A.8B2.4B$7.6B3.4B2.8B9.A.2A.A.A
8B.4B$3.B2.3BA3B4.15B7.2A.A.BA2B.10B$.7BABA2B5.14B10.A2.2B2.9B$.7B
ABA2B6.13B10.2A.B3.8B$9BA3B7.10B.B2A6.2A2.A.A2.8B.2B$11B.B2A6.2BA
4B3.BA.A4.A2.A2.2A2.13B$.9B2.BA.A4.2BABA4B5.A5.2A7.13B$.7B7.A4.2BA
BA3B6.2A13.14B$2.6B7.2A5.BA4B20.14B$3.4B15.5B20.4B2.10B$4.4B15.3B
20.4B2.11B.B$5.4B13.5B18.4B.14B2A$6.4B12.2AB2AB2.2A6.26B2A$7.4B7.
2A2.BA.2A2.A2.A4.28B$8.4B6.A2.A.A3.B2.A.A4.28B$9.4B7.2A.8A.A.AB.
24B$10.4B8.A10.2A24B2A$11.4B7.A.5A5.13B2.2B2.6B2AB.B$12.4B7.2A2.A
2.A4.9B11.8B2A$13.4B12.2A5.5B16.4B.B2A$14.4B20.2B18.2B3.B$15.3BA
20.2B16.2B$16.3BA18.B2AB14.B2AB$17.3AB18.2A16.2A!
