#CSYNTH gun_5644 costs 3185 cells.
#C period 5644 fullperiod 5644 bbox 65 by 49
#CLL state-numbering golly
x = 65, y = 49, rule = LifeHistory
38.2A$34.2A2.A$30.A3.A.A.A$28.3A4.B.A$27.A5.A2B$26.B2A3.BA2BA3.2A$
24.5B2.B2A2BA.BAB.A$24.3B4.3BAB2.B2A.A$15.5B4.3AB2.5B3.B.B.2A$15.
3B2AB3.4B2.5B2.2B2A3.A$14.3BABA2B.2BA10B.BA2.3A$14.2BA2BA2B.3B2AB
2A6BAB2A$14.2BA2BA7B4A7BA2.A$12.3B2ABA2B.4BA4BA6B2.2A7.A$11.6BAB2A
3B.3B2ABA6B10.A.A$7.2A2.6BA4BA4B.2BAB2A3B11.A.A4.2A$7.A2.A7B4A7BA
2BA2B11.3A.2A4.A$8.2ABA6B2AB2A3B.2BA2BA2B6.A3.A4.B5.A.2A3.2A$5.3A
2.AB.10BA2B.2BABA3B4.3A4.3AB2AB4.A.A4.A$4.A3.2A2B2.5B2.4B3.B2A3B4.
A9.A.2AB6.A.3A$5.2A.B.B3.5B2.B3A4.5B4.2A12.4B2.2A.A$6.A.2AB2.BA3B
4.3B9.6B12.10B$6.A.BAB.A2B2AB2.5B8.5B10.B2.7B.2B$7.2A3.A2BAB3.2AB
9.7B2.B5.13B$13.2BA5.A9.8B.3B2.16B$11.A.B4.3A9.9B.10B2A9B$10.A.A.A
3.A10.18BA3BA9B$10.A2.2A13.4B.14BA3BA8B$9.2A16.4B2.5B2A9B2A7B$26.
4B3.5BABA6B2A7B$25.4B3.6BAB2A4B2ABA6B$9.B2A12.4B4.7B2A6BABA5B$9.3A
B10.4B3.7B2A9B2A5B$8.A.2AB9.4B2.8BA3BA14B$7.A.A.2B8.4B2.9BA3BA15B$
7.A2.A2.2B5.4B3.9B2A10B.6B$8.2A3.3B3.4B4.16B2.10B$13.B2A.5B6.13B5.
B.5B$2A.2A7.BA2BA4B6.2B.7B2.B8.4B$2A.A8.2B2A4B6.10B12.2B2AB$3.A.B
3.2A8B7.A.2A2.4B14.2A$3.2A2B.3BA7B5.3A.A6.B2A.A$.2A2.A2BAB2A7B4.A
4.A.A4.B2AB3A$A2.AB2A12B4.2A3.2A.A5.B4.A$2A.A.AB3.7B.B2A10.A4.2A.
3A$.A2.3AB2.7B.BA.A9.2A4.A.A$.A5.A4.2BAB5.A15.A.A$2.5A5.3BA5.2A15.
A$4.A8.3AB!
