#CSYNTH gun_7520 costs 3596 cells.
#C period 7520 fullperiod 7520 bbox 58 by 62
#CLL state-numbering golly
x = 58, y = 62, rule = LifeHistory
15.A7.2A$15.3A4.B2AB$9.A8.A4.3B10.A3.2A4.2B4.2A$9.3A5.2A3.B.B10.A.
A.A2.A.6B.A2.A$12.A4.10B3.2A2.A2.A.3A2.6B2.3A$11.2A6.8B3.A.A2.2A5.
10A$11.4B2.11B3.B.2A6.A2.6A2.A$13.16B.2B2.A6.2A.B4AB.2A$13.20B.A.
2A8.2B$.2A11.17B2A.A2.A8.2B$A2.A2.2A6.17B2A.2A10.B$.2A2.A.A4.B.2B
3A10B.2B13.B2A$3.2A.B4.4BA3BA9B8.2A5.BA2BA6.2A$3.A2.2B.6BA3BA4B.6B
7.A4.3B2A3B4.A$2A.A.8B2A5B2A2B4.B2A7.A.AB.8B.BA.A$A2.A.2A5BA4BA4BA
B5.A9.2AB.8B.B2A$2.2A.2A5BA3BABA3BA2B5.3A8.12B$6.2B.3BA4BAB2ABA3B
6.A8.12B$9.4B3A5B2.4B10.A3.12B$7.12B5.4B7.3A3.10B$7.2AB.10B4.4B5.A
7.3A4B$8.A4.B.B3.2A5.4B4.2A5.3BA4B$5.3A4.3B4.A7.9B4.3BA.5B$5.A6.B
2AB4.3A4.7B5.4B.6B$13.2A7.A5.A7B2.4B3.6B$26.BABA11B4.3BA3B2.B$25.
2BABA10B5.2BABA7B$25.3BA10B6.2BABA7B$22.2AB3.10B7.3BA9B$21.B3A5.B
2A3B7.2AB.11B$21.B2A.A4.B2A3B6.A.AB2.9B$21.2B.A.A3.4B8.A7.7B$23.A
2.A4.3B7.2A7.6B$24.2A6.2B.BA14.4B$31.B2ABA.A12.4B$30.BABABA.A11.4B
$28.A2.A.A.A.A.2A7.4B$28.4A.2A2.A2.A6.4B$32.A4.2A7.4B$30.A.A12.5B$
30.2A12.5B$43.4B2.3B$42.4B3.3BAB2.B$26.B2A12.4B3.2A2B2AB3A$26.3AB
10.4B4.2A4B4A$25.A.2AB9.4B6.B2.2A3B$24.A.A.2B8.4B12.3B$24.A2.A2.2B
5.4B$25.2A3.3B3.4B$19.2A9.B2A.5B$18.A.A8.BA2BA4B$18.A8.B.2B2A4B$
15.2A.AB.B3.BA9B$16.A.A.2AB.3A9B$16.A.A.2A2B2A10B$15.2A.A2.5BA9B$
15.A2.4A3BA8B.B2A$16.2A2.BAB.BA8B.BA.A$18.2A6.7B5.A$18.A7.2B.3BA5.
2A$19.A10.3BA$18.2A11.3AB!
