#CSYNTH gun_5445 costs 3953 cells.
#C period 5445 fullperiod 5445 bbox 67 by 59
#CLL state-numbering golly
x = 67, y = 59, rule = LifeHistory
14.B.B$12.3B2AB$2A10.2BA2BA$.A5.2B2.4B2A2B$.A.AB.13B9.2A$2.2AB.16B
6.A3.2A$4.4BA14B7.A2.A$3.4BABA14B5.3A2.2A2.2A$4.4BA15B3.2B3.2A2.A
2.A$2.2AB.18B3.2B3A2.A.2A$.A.AB.23BA.B2A.A$.A5.2B2.19B2A3.A$2A10.
21B2A.2A$12.19B.B.A.A10.B$12.16B5.A2.A3.B5.3B$8.2A.4B3.10B6.2A3.3B
4.3B$8.A.3B2AB3.8B12.3B3.2BA2B$9.A2.B2A4.9B10.2BA2B2.B3AB$10.A8.
10B9.B3AB.B2AB2AB$8.A.5A5.10B9.4B.3AB3A$7.A.A4.A5.3BA7B8.3A.B3AB3A
B$7.A.A2.A7.2BABA7B7.3A.B3AB3AB$8.A3.2A6.2BABA8B6.4B.3AB3A$20.3BA
10B4.B3AB.B2AB2AB$18.2AB.13B3.2BA2B2.B3AB$17.A.AB2.13B3.3B3.2BA2B$
17.A7.7B.4B.4B4.3B$16.2A7.6B3.7B5.3B$12.A13.4B5.5B7.B3.2A.2A4.2A$
12.3A10.4B7.5B11.2A.A3.A2.A$15.A8.4B9.4B9.A4.A.A2.2A.A$14.2A7.4B
11.4B8.3ABAB.2A.A2.A$14.5B3.4B13.4B10.A.A2.B.A2.A.2A$5.2A9.3B2.4B
15.4B4.4A.AB2ABA.A.2A.2A$4.A.A8.9B17.3BA3.A2.5A.3BAB.BAB$4.A8.B.8B
19.B2AB6.4BA2B.4BA$.2A.AB.B3.11B21.ABAB5.5BABA.2BAB$2.A.A.2AB.12B
22.4B5.3B.BA3.A$2.A.A.2A14B16.2A5.4B2.4B$.2A.A2.5B2A8B17.A5.4B.4B$
.A2.4A3BA2BA5B.B2A15.A.AB.8BA2B4.2A.2A$2.2A2.BAB.2B2A6B.BA.A15.2AB
.7B3AB3.B.A.2A$4.2A6.7B5.A17.9BAB2AB.BA2B$4.A7.2B.4B5.2A16.10B3AB.
B2AB3A$6.A9.4B22.12B.3BA3B2.A$5.2A10.4B22.10B3.2BA.BA.2A$18.4B21.
2B2A4B6.BABA$19.4B20.BA2BA2B7.BA2B$20.4B20.B2AB9.2AB$21.4B20.3B8.B
2A2B$22.4B20.2B2.2B5.2A.B2A$23.4B21.B4A7.BA.A$24.4B20.3A.A10.A$25.
4B15.A2.AB2A.A.2A7.2A$26.4B14.4A.2B.A.A$27.4B17.A.B2A2.A$28.3BA14.
3A4.2A$29.3BA12.A3.4A$30.3AB11.2A2.A2.A!
