#CSYNTH gun_5490 costs 4752 cells.
#C period 5490 fullperiod 5490 bbox 66 by 72
#CLL state-numbering golly
x = 66, y = 72, rule = LifeHistory
43.2A.2A2.2A5.2A$43.2A.A2.A2.A.2A2.A$46.A.2A.2A.A.2A$43.2A.A2.A.B
2.A.A3.2A$43.AB.2A.A.AB4A.A2.A2.A$44.A2B.B3AB.4B2A2.3A$45.2B2AB.A
6B2.2A$45.ABAB.BA5BA.A2.A$47.B3.AB.2A4.2A$54.2B$54.B$39.A13.B2A$
38.A.A4.2A5.2B2AB6.2A$39.A6.A4.8B4.A$46.A.AB.8B.BA.A$31.2A4.5A5.2A
B.8B.B2A$31.A5.A4.A6.12B$23.A.2A.2A.A7.BAB.A5.12B$23.2A.A.A.A8.B2A
.A2.A2.12B$28.BA7.A4B.A.A.A.10B$27.4B5.ABAB3.A2.A3.7B$20.2A5.4B.2B
2.A2BA2.2A5.8B$12.A8.A5.10B2A9.4B.5B$11.A.A7.A.AB.11B10.4B.6B$9.3A
.A8.2AB2.10B9.3AB3.6B$8.A4.A.2A7.14B7.3BA4.3BA3B2.B$8.ABABA.A.A8.
13B6.3BA5.2BABA7B$9.2A.A.A10.12B6.4B6.2BABA7B$9.4BABA9.12B5.4B7.3B
A9B$12.2BA3B7.5BA6B4.4B6.2AB.11B$8.2B4.B2A2B4.6B3A5B3.4B6.A.AB2.9B
$5.B.4B2.2B3AB.8B5A4B2.4B7.A7.7B$4.2A8B5A8B2A3B2A3B.4B7.2A7.6B$4.
2AB.5B2A3B2A6B3A3B3A6B18.4B$5.B2.4B3A3B3A6B2A3B2A6B18.4B$10.3B2A3B
2A8B5A7B17.4B$10.4B5A8B.B3A2B2.4B16.4B$10.5B3A6B4.2B2AB4.B.B2A13.
4B$10.6BA5B7.3BA2B4.BA.A11.4B$10.12B9.ABA4B4.A10.4B$10.12B10.A.A.
2A4.2A8.4B$9.13B8.A.A.ABABA12.4B$9.14B6.A.A.A4.A11.5B$10.10B2.B2A
4.A.A.A.3A11.5B7.B$10.11B.BA.A4.A3.2A12.7B5.3B$2A6.2A10B5.A21.4B.
4B4.3A$A2.2A2.A2BA2.2B.4B5.2A5.4A10.4B3.BAB3.A3BA$.A.A3.BABA5.4B
12.A3.A8.4B3.BABAB2.A3BA$2A.A.4BA7.AB3.2A11.2A7.4B4.2ABAB.2B3A2B$
3.A.2AB8.A.A.A2.A11.5B3.4B6.2B2A.7B$3.A.BAB7.A.2A.2A4.2A9.3B2.4B7.
3B.9B$4.A4.A5.A9.A.A8.9B8.3B.9B$5.5A4.2A9.A8.B.8B9.2B2A.7B$22.2A.A
B.B3.11B9.2ABAB.2B3A2B$7.A15.A.A.2AB.12B9.BABAB2.A3BA$6.A.A14.A.A.
2A14B10.BAB3.A3BA$7.A14.2A.A2.5B2A8B10.3B4.3A$22.A2.4A3BA2BA5B.B2A
9.B5.3B$23.2A2.BAB.2B2A6B.BA.A15.B$25.2A6.7B5.A$25.A7.2B.4B5.2A$
27.A9.4B$26.2A10.4B$39.4B$39.5B$22.B4.B2A3B4.B2.5B$20.B3A4B2A10B2.
4B$20.5A6B2A7B3.4B$19.ABA3BA5B3A5B2A3.4B$19.2AB.BA6B2A4B.B2A4.3BA$
20.B4.3B2A5B4.B6.3BA$27.B2A3B14.3AB!
