#CSYNTH gun_1813 costs 6956 cells.
#C period 1813 fullperiod 1813 bbox 74 by 94
#CLL state-numbering golly
x = 74, y = 94, rule = LifeHistory
30.A16.A$30.3A13.A.A$33.A12.A.A2.2A3.A$32.2A11.2A.2A2.A2.A.A$32.5B
A8.B2.A.A3.A.A$34.2BABA6.2ABA2.4A.A$34.B2ABA2B4.2A.A.A3.A$34.BA11B
2.A.AB2.A$32.B3A3B3A3B5.A.A2B.A4.2A8.2A$31.4BA2BA7B5.A2B.2A5.A8.A$
31.6B2AB2A4B4.3B9.A.2A2.BA.A$30.5B2AB2A7B.B.2B11.AB.A.B2A$30.2BA2B
A23B5.B2A2B$29.B2A4B2A22B5.5B$28.4BA2BA24B2.B.6B2.A$27.2AB3.27B.9B
.A.A$13.A.2A.2A6.A2.A4.36B2.A$13.2A.A.2A5.A.2A5.6B3.B2.2B2.20B$16.
A8.A7.6B14.17B$11.4ABA.2A4.2A6.9B14.15B$11.A2.A.ABA2.A9.4B4.2A15.
14B$12.2B.2BA2.2A8.4B5.A15.15B$13.4B12.4B7.3A12.14B$12.6B10.4B10.A
12.14B$11.7B9.4B24.15B$10.8B8.4B26.15B$10.10B5.4B27.15B$11.11B2.4B
28.16B$10.17B28.17B$9.17B28.17B$9.16B28.4B2.11B$10.15B27.4B5.10B$
10.15B26.4B8.8B$11.15B24.4B9.7B$12.14B12.A10.4B10.6B$12.14B12.3A7.
4B12.4B$11.15B15.A5.4B8.2A2.A2B.2B$11.14B15.2A4.4B9.A2.ABA.A2.A$
11.15B14.9B6.2A4.2A.AB4A$11.17B14.6B7.A8.A$11.20B2.2B2.B3.6B5.2A.A
5.2A.A.2A$8.A2.36B4.A2.A6.2A.2A.A$7.A.A.9B.27B3.B2A$8.A2.6B.B2.24B
A2BA4B$11.5B5.22B2A4B2AB4.2A.2A4.2A$12.2B2AB5.23BA2BA2B4.A.2A.A4.A
$10.2AB.A.BA11.2B.B.7B2AB2A5B4.A4.A.2A.A$9.A.AB2.2A.A9.3B4.4B2AB2A
6B3.2A.4A.A.A2.2A$9.A8.A5.2A.2BA5.7BA2BA4B2.A.A.B2.A.A2.A.A$8.2A8.
2A4.A.2BA.A5.3B3A3B3AB3.A.A2BA5B2A2.A$25.A2.BA.A2.11BAB4.2A.A.BA2B
2AB2.2A$26.A3.A.A.2A4.2BAB2A2B.2BA.B3A4B2.2A$24.A.4A2.AB2A6.ABA7B
2A3.AB5.A$23.A.A3.A.A2.B7.BA2B3.2BA2.4A5.A$23.A.A2.A2.2A.2A5.4B6.
2A.A8.2A$24.A3.2A2.A.A5.4B8.A.A.2A$32.A.A4.4B9.A.A.2A$33.A4.4B11.A
$37.4B$36.4B$31.2B2.4B$30.8B$29.8B$20.2A6.8B$21.A4.9B.2B$20.A4.12B
2A22.A$20.2A4.9B.B2A21.A.A$21.2B5.7B2.B22.A.A$4.2A5.3B6.5B2.8B24.
2A.2A$5.A5.4B4.12B2AB26.B4.A2.2A$5.A.AB.5B4.10B.A2BAB5.7B.B10.2AB
4A2.A$6.2AB.5B3.13B2A3B4.13B.B4.2A.A6.3A$8.7B3.43B3.B4A2.A$8.8B3.
40B5.BA2.A2B$3.2A4.8B3.40B2.8B$3.A.A3.33B2A27B$5.A3.33B2A16BA9B$5.
2A.41B3.2B.5BA7B.B2A$7.18B3.B2.B3.B2.10B9.3BA7B.BA.A$2.2A3.18B14.
6B13.B.7B5.A$2.A2.B.12B3.5B13.3B19.5B5.2A$3.3A12B7.2A13.B19.8B$5.A
B.9B8.A13.2A19.2AB2.4B$3.2A3.9B3.2A4.3A10.A21.A4.4B$3.A4.9B4.A6.A
11.A17.3A6.4B$2A.A2.2AB.3B2A2B4.A.2A14.2A17.A9.4B$2A.A.A.AB.2BA2BA
2B.3A2.A44.4B$3.A.A5.BABA3BAB2.2A46.3BA$3.A.A3.4BA4B4A49.ABA$4.A4.
2A5.4B.A50.2A$10.A7.2A.A.A49.B$7.3A9.A2.2A$7.A9.A.A$17.2A!
