#CSYNTH gun_2156 costs 5092 cells.
#C period 2156 fullperiod 2156 bbox 67 by 76
#CLL state-numbering golly
x = 67, y = 76, rule = LifeHistory
3.A5.2B$2.A.A4.3B3.A$2.A.A3.5B.A.A$.2A.2A2.6B.A$.A2.B4.5B$2.AB2A2.
6B$A.A.2A.8B6.2A$2A2.10B8.A$6.8B8.A.AB$5.9B.BA6.A.AB.B$5.10BA.A6.A
3B2A$4.6BA4B.2A5.3B.B2A$4.4B2AB2AB6.5B3.B$4.4B2AB2AB5.7B$2.2AB.9B
2.B.8B$.A.AB.B2AB2A14B$.A4.B2AB2A14B$2A4.3BA15B$5.20B$5.15BA3B4.2A
$4.14B2AB2AB4.A$4.14B2AB2AB.BA.A$3.8B.B2.9B.B2A$4.7B5.B2AB2A4B$.B
3.5B6.B2AB2A4B$2AB.3B5.2A.4BA6B$2A3BA6.A.A10B$.B.BA.A6.AB.9B$4.BA.
A8.8B$7.A8.10B$7.2A6.8B.2A.A$16.6B2.2AB3A$16.5B4.B4.A19.B.B$17.5B
2.2A.3A19.B2A3B$17.5B3.A.A21.A2BA2B10.2A$10.2A6.3B4.A.A20.2B2A4B2.
2B5.A$11.A5.2B7.A10.2A9.13B.BA.A$3.2A6.A.AB.4B13.2A3.A6.16B.B2A$4.
A7.2AB.2B2AB12.A2.A7.BA12BA4B$4.A.AB6.3BA2BAB9.2A2.3A5.BABA10BABA
4B$5.2AB.2A3.3B4AB8.A2.2A3.2B3.BABA11BA4B$7.2B2AB2.4B2A2B8.A.A2.3A
2B3.2BA15B.B2A$6.5B4.6B7.2A.A.2AB.A23B.BA.A$6.6B2.BABA5B3.3A2.A3.
2A19B2.2B5.A$7.7B2ABA2B.2A2.A4.A.2A21B10.2A$8.6B3AB3.A3.A.4A.A.B.
19B$7.12B3.3A.A6.A5.16B$7.BA6B.4B4.A.A.2A.2A6.10B3.4B.2A$7.BA5B3.
4B6.A.A.A8.8B3.B2A3B.A$6.2BA5B4.4B10.A6.9B4.2AB2.A$5.8B6.4B7.3A5.
10B8.A$5.3B2ABA3B5.4B5.A7.10B5.5A.A$5.2B3A2BA2B6.4B4.2A5.7BA3B5.A
4.A.A$5.BA4BA2B8.9B4.7BABA2B7.A2.A.A$6.B4A4B7.7B5.8BABA2B6.2A3.A$
4.3B3A4B2A7.4BA3B2.10BA3B$3.2A4B.4B2A5.7BA16B.B2A$3.2A4B3A3B5.6B3A
15B2.BA.A$4.4B4AB7.14B.7B7.A$5.2BA4BAB3.2AB3.10B3.6B7.2A$4.2BA2B3A
2B2.B3A5.B2A4B5.4B$4.3BAB2A3B2.B2A.A3.2B2A5B5.4B$6.8B2.2B.A.A3.8B
6.4B$5.5BA2B5.A2.A3.6B9.4B$5.5BAB7.2A5.5B10.4B$4.6BAB15.3B12.4B$4.
8B14.5B12.4B$4.7B14.B2AB2A13.4B$5.7B10.2A2.2A.AB14.4B$7.6B9.A2.B3.
A.A.2A11.4B$8.5B10.7A.2A.A12.4B$7.B2A2B18.A17.4B$8.2A.B2A11.4A.A
18.4B$11.BA.A10.A2.2A20.3BA$14.A36.3BA$14.2A36.3AB!
