#CSYNTH gun_2115 costs 6500 cells.
#C period 2115 fullperiod 2115 bbox 100 by 65
#CLL state-numbering golly
x = 100, y = 65, rule = LifeHistory
68.2A$45.2A21.A.A$44.A.A23.A4.2A$38.2A4.A21.4A.2A2.A2.A$36.A2.A2.
2A.4A17.A2.A.A.A.A.2A14.2A$36.2A.A.A.A.A2.A19.BABABA.A17.A.A$39.A.
ABABAB22.B2ABA.A19.A$39.A.AB2AB24.2B.BA19.2A.2A$40.AB.2B24.3B21.B.
A.2A$43.3B14.2A6.4B20.2A.A$34.A8.4B6.2A6.A6.B2A3B7.A10.2B.4A$32.3A
6.3B2AB6.A7.A.AB3.B2A3B7.3A9.AB4.A$31.A9.3B2AB3.BA.A8.2AB.10B8.A
10.4A$30.A.A6.10B.B2A11.13B6.A.A8.2A.B$29.BA.A5.13B13.14B5.A.AB7.
2A.2B$28.3BA5.14B13.15B5.A3B7.B3A$15.2A9.4B6.15B15.8B2.4B6.4B7.2B$
16.A7.6B5.4B2.8B17.6B5.4B5.6B6.BA$16.A.AB3.7B4.4B5.6B16.9B4.4B4.7B
3.BA.A$17.2AB3.8B2.4B4.9B14.4B4.2A5.4B2.8B3.B2A$19.17B5.2A4.4B12.
4B5.A7.17B$19.16B7.A5.4B10.4B7.3A5.16B$19.16B4.3A7.4B8.4B10.A5.16B
$19.16B4.A10.4B6.4B17.16B$20.15B16.4B4.4B18.15B$21.12B.B2A15.4B2.
4B17.2AB.12B$21.11B2.BA.A15.8B17.A.AB2.11B$17.2A3.10B5.A16.6B18.A
5.10B3.2A$18.A3.6B2A2B5.2A16.4B18.2A5.2B2A6B3.A$17.A4.6B2A3B21.6B
23.3B2A6B4.A$17.2A3.10B21.8B23.10B3.2A$20.2AB.8B20.4B2.4B22.8B.B2A
$17.2AB2AB3.7B18.4B4.4B20.7B3.B2AB2A$18.A.B6.6B17.4B6.4B19.6B6.B.A
$16.A3.2A4.6B17.4B8.4B19.6B4.2A3.A$16.4A2.A.8B16.4B10.4B18.8B.A2.
4A$19.A.A.A9B14.4B12.4B16.9BA.A.A$16.2A.A.BA2B.7B8.A4.2A2B14.4B15.
7B.2BAB.A.2A$17.A.A2.2B3.6B6.3A3.ABAB16.4B5.2A7.6B3.2B2.A.A$16.A2.
2A.B4.7B4.A5.3BA18.4B5.A6.7B4.B.2A2.A$16.A.A2.A.A3.7B4.2A3.4B20.4B
4.A.AB3.7B3.A.A2.A.A$17.A.A2.2A3.8B.4B2.4B22.4B4.2AB2.8B3.2A2.A.A$
18.A8.11B3.4B24.4B5.11B8.A$27.12B.4B26.4B4.11B$27.16B28.4B3.11B$
17.A10.14B30.4B.11B$17.3A11.10B32.4B.7B9.2A$11.A8.A9.12B32.12B7.A.
A$11.3A5.2A6.16B32.13B5.A$14.A4.24B6.A26.14B.B2A$13.2A6.23B3.3A26.
16B$13.5B2.24B2.A27.B.14B.B2A$4.2A9.3B2.24B.B.A25.2A16BA2.A$3.A.A
8.32B2A25.2A17B2A2.A$3.A8.B.8B.22BA2.2A24.11B5.2B.A.2A$2A.AB.B3.BA
9B3.2B7.B3.2B3.3B3A2.A23.4B2.6B5.B.A$.A.A.2AB.3A9B2.2BAB5.3B.4B3.
2B4.A30.6B6.2A$.A.A.2A2B2A10B3.A.A4.B2AB.B2AB5.4A32.2B2A.A$2A.A2.
5BA9B4.A6.2A3.2A7.A33.A.A.A.3A$A2.4A3BA8B.B2A21.A34.A.2A.A4.A$.2A
2.BAB.BA8B.BA.A20.2A33.A4.A3.2A$3.2A6.7B5.A54.2A4.2A$3.A7.2B.3BA5.
2A$5.A9.3BA$4.2A10.3AB!
