#CSYNTH gun_2680 costs 4560 cells.
#C period 2680 fullperiod 2680 bbox 76 by 60
#CLL state-numbering golly
x = 76, y = 60, rule = LifeHistory
52.2A$51.A.A$45.2A4.A$43.A2.A2.2A.4A$25.2A3.2A11.2A.A.A.A.A2.A$24.
B2AB.B2AB13.A.ABABAB$24.4B.4B13.A.AB2AB$25.BA3.AB15.AB.2B$21.2A2.
2AB.B2A2.2A6.A7.3B$21.A2.A.AB.BA.A2.A4.3A7.4B6.2A$22.A.A2B3.2BA.A
4.A8.3B2AB6.A$23.A3.3B3.A4.A.A7.3B2AB3.BA.A$19.A4.3A3B3A4.BA.A5.
10B.B2A$19.3A4.A.A.A5.3BA5.13B$15.2A5.A4.3A4.4B6.14B$16.A4.A5.BAB
2.6B5.15B$15.A5.4A3.B2.7B4.4B2.8B$15.2A2.2A4.A2.2B.8B2.4B5.6B$11.A
.2A3.A.A.3A3.16B4.9B$11.2A2.A.2A.B2A4.16B5.2A4.4B$14.A3.BA2B4.17B
6.A5.4B$11.3A.4A3B3.19B2.3A7.4B$10.A2.A.A.27BA2.A9.4B10.2A$10.2A.A
.2B2AB.6B2.14B.2A3.A8.4B9.A$13.A.B3A3.4B3.12B7.2A9.4B10.A$7.2A4.2A
2.B3.4B5.10B13.2A5.4B5.5A$7.A.A10.4B6.6B2A2B14.A5.4B4.A$10.A2.2A4.
4B7.6B2A3B13.A.AB.7B2.B3A$8.2A.A2.A3.4B8.10B15.2AB.7B3.2B.A$7.A.A.
2A4.4B5.A.2AB.8B17.12B4A$7.BAB.B4.4B4.3AB2AB3.7B16.7B2A3BAB2.2A$.
2A5.5B2.4B4.A4.B6.6B16.7B2A2B.B3A2.A$2.A6.9B6.3A.2A4.6B17.3A7B3.B.
A.2A$2.A.AB2.6B2AB9.2A2.A4.5B16.3BA4B8.A$3.2AB.7B2A13.A.A.8B14.3BA
5B7.2A$5.12B8.A.2A.A.A8B8.A4.4B2.3B$5.12B8.2A.A.BA2B.6B6.3A3.4B3.
5B$5.12B11.A2.2B2.7B4.A5.4B7.2A$6.5B2A2B.B2A9.2A.B3.7B4.2A3.4B8.A$
6.5BABA2.BA.A6.2A2.A.A2.8B.4B2.4B10.3A$6.6BAB5.A5.A2.A2.2A2.11B3.
4B13.A$6.7B6.2A5.2A7.12B.4B$4.8B23.16B$2A.9B24.15B$A2.A9B12.2A12.
12B$.3A3B.B.4B10.B2A2B9.15B6.2A$4.B2.3B.4B10.4B8.16B6.A$.3A2.B2AB
2.4B9.4B7.18B2.BA.A$A.A4.2A4.4B7.B3A6.B.19B.B2A$A3.A9.4B6.2B2A5.2A
22B$.3A.A9.4B4.2A2B6.2A22B$3.A.A10.4B3.3AB7.23B$4.A12.5B.BABAB4.5B
2.17B$18.5B2.2A5.2A6.15B$19.4B10.A9.4B2.4B$20.4B6.3A13.B3.5B$21.4B
5.A15.2A5.2A$22.3BA21.A5.A$23.3BA17.3A7.3A$24.3AB16.A11.A!
