#CSYNTH gun_1216 costs 3050 cells.
#C period 1216 fullperiod 1216 bbox 50 by 61
#CLL state-numbering golly
x = 50, y = 61, rule = LifeHistory
27.A$18.2A5.3A$10.2A5.B2AB3.A$11.A5.3B4.2A$11.A.AB3.B2.5B$12.2AB.
8B$14.9B2A$14.9B2A$14.8B.B$.2A10.9B$2.A8.4B.5B$2.A.AB3.14B5.2A$3.
2AB.4B2A5B4A2B4.A.A$5.6B2A4BA3BA4B4.A$5.7BA3BA12B2A.2A.A$2.AB2.11B
2AB2A9B.A.2A$.BA.A2.7BA2BA2BA7B4.A$.A.AB.B2A4B2A3B2A3B2A2B4.2A$2.B
A3.ABA3BA4B2A3B2A4B$8.A21B$10.B.24B$12.12B.12B7.2A$13.24B.B4.A2B$
19.21BA3.2BA$20.4B2A3B2A4BA3BABA2.2A$16.2A4.2B2A3B2A3B2A4B2AB3.3A$
16.A4.7BA2BA2BA7B3.B3AB$13.2A.A.9B2AB2A11B.2A3B$13.A.2A.2A12BA3BA
7B.A2BA$18.A4.4BA3BA4B2A7BA3BA$18.A.A4.2B4A5B2A4B2.BA3B$19.2A5.14B
4.BA2BA$25.8B.4B8.A$25.11B8.A.A.A$24.2A9B7.3A.2A.A$19.2A3.2A9B3.2B
.A7.A$17.BABAB3.B.8B.BA3B5A.2A$17.3AB6.6B2.3AB.B2A2.A.A$17.2A2B7.
5B3.BA3B4A2.A$18.2B2A6.4B6.2B.A3.2A$18.B3A6.A3B10.3A$19.4B4.A3B13.
A$11.B2A5.4B3.B3A$11.3AB3.B2A2B.5B3.A7.2A$10.A.2AB4.2A2.5B3.A.A5.
3B$9.A.A.2B8.5B2.2BAB5.A3BA$9.A2.A2.2B5.5B2.B.2B5.A4BA$10.2A3.3B3.
4B2.2BA3B4.A.ABAB$4.2A9.B2A.5B3.BABA2B2.BABA.A$3.A.A8.BA2BA4B4.BA
2BA2BA4BA$3.A8.B.2B2A4B6.B3AB.A3BA$2A.AB.B3.BA9B7.6B2.3B$.A.A.2AB.
3A9B9.4B2.2A$.A.A.2A2B2A10B8.B2A2B$2A.A2.5BA9B9.2A$A2.4A3BA8B.B2A$
.2A2.BAB.BA8B.BA.A$3.2A6.7B5.A$3.A7.2B.3BA5.2A$5.A9.3BA$4.2A10.3AB!
