#CSYNTH gun_1838 costs 8514 cells.
#C period 1838 fullperiod 1838 bbox 129 by 66
#CLL state-numbering golly
x = 129, y = 66, rule = LifeHistory
43.2A66.2A$42.A.A19.2A34.2A7.2B2AB$36.2A4.A21.A.A32.B2AB6.4B$34.A
2.A2.2A.4A19.A4.2A27.2B4.6B4.2A$34.2A.A.A.A.A2.A15.4A.2A2.A2.A24.
2B4.8B2.B2AB$37.A.ABABAB17.A2.A.A.A.A.2A22.17B.3B$37.A.AB2AB20.BAB
ABA.A24.18B2.B.2B$38.AB.2B22.B2ABA.A22.27B$33.A7.3B22.2B.BA22.29B$
31.3A7.4B6.2A12.3B24.31B$30.A8.3B2AB6.A4.2A6.4B23.32B$29.A.A7.3B2A
B3.BA.A5.A6.B2A3B20.4B3.26B$28.BA.A5.10B.B2A6.A.AB3.B2A3B19.4B5.B.
16B.B4.B2A$27.3BA5.13B9.2AB.10B16.4B9.2B.10B8.BA.A$25.4B6.14B11.
13B14.4B15.7B12.A$23.6B5.15B11.14B12.4B15.11B9.2A$22.7B4.4B2.8B13.
15B10.4B16.12B$15.B.4B.8B2.4B5.6B15.8B2.4B8.4B17.12B$14.2AB.17B4.
9B14.6B5.4B6.4B19.11B2.2A2.2A.2A$14.2A18B5.2A4.4B12.9B4.4B4.4B18.
4B.8B2.A.A2.A.A.A$15.2B.16B6.A5.4B10.4B4.2A5.4B2.4B19.2A4.7B3.B.2A
2.A.A$18.16B3.3A7.4B8.4B5.A7.8B21.A4.7B2.2B2.A.A.A$19.15B3.A10.4B
6.4B7.3A5.6B19.3A6.6B.2BAB.A2.A$20.12B.B2A.A11.4B4.4B10.A6.4B20.A
8.8BA.A.3A$20.11B2.BA.A.2A10.4B2.4B17.6B28.8B.A.A$21.10B5.A2.A11.
8B17.8B28.5B4.A2.2A$21.6B2A2B5.2A14.6B17.4B2.4B27.6B4.2A.3A$21.6B
2A3B21.3AB6.A10.4B4.4B25.6B6.B4.A$21.10B21.3BA2B5.3A7.4B6.4B24.7B
3.B2AB3A$17.A.2AB.8B20.3BA4B7.A5.4B8.4B24.8B.B2A.A$15.3AB2AB3.7B
18.4B2.4B5.2A4.4B10.4B23.10B$14.A4.B6.6B17.4B4.4B4.9B12.4B21.3B2A
6B$15.3A.2A4.6B17.4B6.4B5.6B14.4B14.2A5.2B2A6B$17.2A2.A4.5B16.4B8.
4B2.8B15.4B11.A2.A5.10B$20.A.A.8B14.4B10.15B14.4B10.2A.A.AB2.11B$
17.3A.A.A8B8.A4.4B12.14B15.4B11.A.2AB.12B$16.A2.A.BA2B.6B6.3A3.4B
14.13B16.4B10.A3.15B$15.A.A.A2.2B2.7B4.A5.4B16.10B.B2A15.4B7.3A3.
16B$14.A.A2.2A.B3.7B4.2A3.4B19.3B2AB3.BA.A15.4B5.A6.16B.2B$14.A.A.
A2.A.A2.8B.4B2.4B20.3B2AB6.A16.4B4.2A5.18B2A$15.2A.2A2.2A2.11B3.4B
23.4B6.2A16.9B4.17B.B2A$26.12B.4B24.3B26.6B5.4B2.8B.4B.B$26.16B22.
AB.2B27.8B2.4B4.7B$16.A10.14B22.A.AB2AB24.15B5.6B$16.3A11.10B23.A.
ABABAB23.14B6.4B$19.A9.12B19.2A.A.A.A.A2.A21.13B5.A3B$18.2A6.16B
18.A2.A2.2A.4A19.2AB.10B5.A.AB$12.2A4.24B6.A13.2A4.A22.A.AB3.B2A3B
7.A.A$11.B2AB5.23B3.3A19.A.A20.A6.B2A3B8.A$11.4B4.24B2.A23.2A19.2A
6.4B7.3A$12.2B5.24B.B.A52.3B7.A$4.A7.4B2.27B2A53.2B.BA$3.A.A5.5B.
4B.22BA2.2A50.B2ABA.A$4.A.14B3.2B7.B3.2B3.3B3A2.A48.BABABA.A$5.14B
3.2BAB5.3B.4B3.2B4.A47.A2.A.A.A.A.2A$5.14B4.A.A4.B2AB.B2AB5.4A48.
4A.2A2.A2.A$5.15B4.A6.2A3.2A7.A54.A4.2A$4.3B2A12B22.A54.A.A$4.3B2A
13B21.2A53.2A$2.2AB.11B2.4B$.A.AB2.8B5.4B$.A5.10B4.4B$2A5.B.B5.2A
5.4B$8.3B4.A7.3BA$7.B2AB5.3A5.3BA$8.2A8.A6.3AB!
