#CSYNTH gun_1337 costs 6889 cells.
#C period 1337 fullperiod 1337 bbox 83 by 83
#CLL state-numbering golly
x = 83, y = 83, rule = LifeHistory
42.2A$41.B2AB11.2A.A.2A$42.3B4.A.2A.A2.A.2A2.A3.A$41.B.B5.2A.A.2A.
A4.A.A2.3A$41.5B8.B2.5A.A6.A$41.6B6.2ABA4.A7.2A$41.8B4.2A.A.AB2.A
6.5B$42.13B2.A.A2B.A7.4B$40.13B5.A2B.2A7.5B$39.15B3.3B11.6B$39.15B
3.2B12.6B.B$38.7B2A8B.4B10.6B.B2A$38.7B2A20B4.7B2A$37.7BA23B2.6B.
2B$36.9B2A21B2.6B$35.2AB3.4B2A21B.9B3.B$34.A2.A4.37B.B2A$33.A.2A5.
7B2.B2.2B2.23B2A$33.A7.7B13.21B$32.2A6.8B15.19B$39.4B2.2B17.16B$
38.4B4.2A15.17B$37.4B6.A15.17B$37.4B4.A15.2AB.3B.10B$36.5B4.2A13.A
.AB5.9B$33.9B18.A9.8B$33.9B17.2A8.9B2.B$33.9B27.9B.B2A$33.10B27.
10B2A$32.12B27.8B.B$31.13B8.2A16.8B$32.11B9.A18.7B$33.12B4.BA.A13.
2A4.5B$33.15B.B2A15.A4.4B$33.17B15.A6.4B$33.17B15.2A4.4B$30.B.17B
17.2B2.4B$29.2A19B15.8B6.2A$29.2AB.19B13.7B7.A$30.B4.20B2.2B2.B2.
7B5.2A.A$35.36B4.A2.A$35.9B.21B2A4B3.B2A$36.7B2.21B2A9B$36.7B2.23B
A7B$36.6B4.20B2A7B$36.7B10.2B.B.8B2A7B$36.6B10.3B4.15B$35.7B6.2A.
2BA5.15B$36.5B7.A.2BA.A5.13B$31.2B2.6B8.A2.BA.A2.13B$30.13B7.A3.A.
A.2A4.8B$29.11B.2A5.A.4A2.AB2A6.6B$20.2A6.8B5.A5.A.A3.A.A2.B8.5B$
21.A4.4B2A3B.2B4.3A2.A2.A4.2A.2A9.B.B$20.A4.4BA2BA4B2A5.A3.2A3.A2.
A.A9.3B$20.2A4.3BA2BA2B.B2A14.2A4.A8.B2AB$21.2B5.2B2A3B2.B22.A.A6.
2A$4.2A5.3B6.5B2.8B24.2A.3A8.A$5.A5.4B4.15B26.B4.A3.5A$5.A.AB.5B4.
10B.B2A2B5.7B.B10.2AB4A2.A$6.2AB.5B3.13B2A3B4.13B.B4.2A.A6.3A$8.7B
3.43B3.B4A2.A$8.8B3.40B5.BA2.A2B$3.2A4.8B3.40B2.8B$3.A.A3.33B2A27B
$5.A3.33B2A16BA9B$5.2A.41B3.2B.5BA7B.B2A$7.18B3.B2.B3.B2.10B9.3BA
7B.BA.A$2.2A3.18B14.6B13.B.7B5.A$2.A2.B.12B3.5B13.3B19.5B5.2A$3.3A
12B7.2A13.B19.8B$5.AB.9B8.A13.2A19.2AB2.4B$3.2A3.9B3.2A4.3A10.A21.
A4.4B$3.A4.9B4.A6.A11.A17.3A6.4B$2A.A2.2AB.3B2A2B4.A.2A14.2A17.A9.
4B$2A.A.A.AB.2BA2BA2B.3A2.A44.4B$3.A.A5.BABA3BAB2.2A46.4B$3.A.A3.
4BA4B4A49.4B$4.A4.2A5.4B.A50.4B$10.A7.2A.A.A49.4B$7.3A9.A2.2A50.3B
A$7.A9.A.A55.3BA$17.2A57.3AB!
