#CSYNTH gun_783 costs 3111 cells.
#C period 783 fullperiod 783 bbox 51 by 61
#CLL state-numbering golly
x = 51, y = 61, rule = LifeHistory
44.A$43.A.A$43.A2.A$39.2A.2A.2A$24.2A13.2A.A2.A$25.A9.2A4.B.BA2.A$
13.A11.A.AB4.2B2AB2.3B2.3A$12.A.A11.2AB4.4B3.2B3A$12.BA2B12.3B2.6B
.BAB2.A$13.2B13.11B.BAB2A.A$13.3B10.3BA11B.AB2.A$13.3B5.2B.3BA2BA
11B.B2A.2A$11.6B3.3B.2BA4BA9B4.A.A$10.9B.5BA4B2AB3A6B3.A.A$9.16BA
2BA2B2A2BA6B4.A$9.4BA11BA6B2AB2A5B$8.4BABA5B2A4BABA5B3A5B$7.5B3A5B
ABA4B2A5BABA4B$7.5B2AB2A6BA11BA4B$2.A4.6BA2B2A2BA2BA16B$.A.A3.6B3A
B2A4BA5B.9B$.A.A4.9BA4BA2B.3B3.6B$2A.2AB.11BA2BA3B.2B5.3B$2.A2.BA.
11BA3B10.3B$2.A.2ABAB.11B13.2B$3.A2.BAB.6B2.4B11.2BAB$4.3A2B3.4B3.
4B11.A.A$.3A2.3B2.B2A2B4.4B11.A$.A2.AB.B4.2A7.4B$3.A2.A.2A12.4B13.
A$2.2A.2A.2A13.4B10.3A$2.A2.A18.4B8.A$3.A.A19.4B7.2A$4.A21.4B3.5B$
27.4B2.3B9.2A$28.9B8.A.A$29.8B.B8.A$30.11B3.B.BA.2A$30.12B.B2A.A.A
$30.3BABA8B2A.A.A$30.4B3AB2A5B2.A.2A$28.2AB.2BA2BA2BA3B4A2.A$27.A.
AB.6B2A2B.BAB2.2A$20.A6.A5.7B6.2A$20.3A3.2A5.4B.2B7.A$23.A8.4B9.A$
22.2A7.4B10.2A$22.5B3.4B$13.2A9.3B2.4B$12.A.A8.9B$12.A8.B.8B$9.2A.
AB.B3.BA9B$10.A.A.2AB.3A9B$10.A.A.2A2B2A10B$9.2A.A2.5BA9B$9.A2.4A
3BA8B.B2A$10.2A2.BAB.BA8B.BA.A$12.2A6.7B5.A$12.A7.2B.3BA5.2A$14.A
9.3BA$13.2A10.3AB!
