#CSYNTH gun_920 costs 1680 cells.
#C period 920 fullperiod 920 bbox 48 by 35
#CLL state-numbering golly
x = 48, y = 35, rule = LifeHistory
5.2A.2A5.2A.2A2.2A15.A$6.A.A2B3.ABA.A.A2.A13.3A$6.A3.3B.A3.A.A.A
13.A$4.2A.5AB6A.2A.3A10.2A$5.A.A2.2AB.B4.B.A.A2.A6.5B4.2A$5.A2.A.B
A3.B3A2B2A.A.A5.4B6.A$6.2A2.2B4.AB2A2B.A.A6.5B2.BA.A$11.B6.A2.A.A
7.4B3A.B2A$10.2AB5.2A.A.A7.4B3A2B$.2A6.A2BAB5.A.2A8.7BAB$2.A4.3B2A
3B4.A9.3BA2B2ABA$2.A.AB.8B.BA.A8.5BA2B2A$3.2AB.8B.B2A7.3B2AB2A2BA.
2B$5.12B8.3B2A2BA2B2A4B$5.12B8.3BA3B2AB2A4B$5.12B7.8B2A3BA4B4.2A$
7.10B6.2A7BAB2ABA3B5.A$9.7B7.2A6BA2B2ABA2B3.BA.A$9.8B3.10BA2BA8B.B
2A$8.5B.30B$8.6B.15B2A12B$7.6B3.28B$3.B2.3BA3B4.26B$.7BABA2B6.23B$
.7BABA2B7.5B.14B$9BA3B8.3B.9BA5B$11B.B2A4.4B2.7B2A5B$.9B2.BA.A3.2A
5.4B.6B$.7B7.A4.A7.B2.6B$2.6B7.A.3A12.4B$3.4B9.2A12.5B$4.4B22.2A$
5.3BA22.A$6.3BA18.3A$7.3AB17.A!
