#CSYNTH gun_1873 costs 10332 cells.
#C period 1873 fullperiod 1873 bbox 126 by 82
#CLL state-numbering golly
x = 126, y = 82, rule = LifeHistory
56.2A11.A$55.B2AB9.A.A$56.3B9.A.A2.2A3.A$55.B.B9.2A.2A2.A2.A.A21.
2A$55.5B8.B2.A.A3.A.A20.B2A2B$55.6B6.2ABA2.4A.A22.4B$55.8B4.2A.A.A
3.A13.A11.4B3.3B$56.13B2.A.AB2.A12.3A8.4B4.5B$54.13B5.A.A2B.A3.A
10.A6.14B$53.15B5.A2B.2A3.3A7.2AB5.14B$53.15B4.3B10.A6.5B3.16B$52.
17B.B.2B10.2A8.5B.16B$52.29B3.4B2A4.22B$51.13B2A16B4.2B2A4.23B$50.
14B2A16B2.7B2.24B4.3B$49.2AB3.27B.7B3.24B.7B$48.A2.A4.35B2.23B.B2A
5B$47.A.2A5.7B2.B2.2B2.19B.25BA2BA5B$47.A7.7B13.43B2A6B$46.2A6.8B
15.48B$53.4B2.2B17.36B.6B.2B$52.4B4.2A15.35B2.8B.B$51.4B6.A15.7B.
26B4.6B.B2A$50.4B5.A15.2AB.3B4.25B8.B3.A.A$49.4B6.2A13.A.AB9.25B
12.2A$48.4B22.A10.5B2.19B4.B$47.4B22.2A10.2A6.20B.B2A$46.4B32.A3.A
6.22B2A$45.4B33.4A6.24B$44.4B43.25B$43.4B35.2A6.24B$42.4B35.B2AB4.
22B.B$41.4B37.3B3.10B.12B$40.4B37.B.B3.8B5.11B$39.4B37.14B9.7B$38.
4B36.15B9.8B5.2A$37.4B36.15B9.8B6.A$36.4B35.16B11.8B2.BA.A$35.4B
35.16B11.10B.B2A$34.4B35.16B12.12B$33.4B34.17B2.B10.12B$32.4B34.
23B6.2AB2.9B$31.4B34.6B2A17B4.A.AB2.8B$30.4B6.A26.8B2A16B5.A4.8B2.
2B$29.5B4.3A17.2A7.27B3.2A4.8B.4B$28.8B.A21.A6.28B8.14B$27.9BA.A
20.A.AB.28B10.11B2AB$26.8B.2BAB21.2AB.28B10.11B2A2B$25.8B3.2B24.
24B2.B.B12.14B$9.2A13.8B3.2B25.23B2.3B15.11B$7.2B2AB11.8B3.B2AB24.
23B2.B2AB13.13B$7.4B11.8B5.2A26.21B4.2A13.14B$7.5B9.8B19.A15.16B.B
.B2A17.14B$7.7B6.8B.3B.B12.3A16.16B2.BA.A9.A7.13B$8.6B3.18B10.A19.
11B2.2B6.A9.3A3.14B$8.24B2A2B5.B3.2A11.A6.10B11.2A11.A2.9B$7.25B2A
2B3.8B11.3A5.9B23.A2.10B$7.29B.8B16.A5.ABA4B19.2A3.2A11B$7.38B15.
2A4.B2AB.B21.A2.2A2.11B$6.20B2.2B.15B14.8BA6.2A17.2A2.2A10B$5.18B
8.17B14.6B7.A20.A.A.B.8B$4.17B11.19B2.2B2.B3.6B5.2A.A20.A2.A3.6B$
4.16B12.35B4.A2.A22.2A5.4B$4.16B13.7B.27B3.B2A19.2A8.4B$2.2AB.7B.
8B10.25B2A14B19.B2AB6.4B$.A.AB3.4B4.B3.2A9.26B2A13B20.4B5.4B$.A4.
5B9.A11.8B2.29B22.2B5.4B$2A4.2A13.3A8.6B11.2B.B.17B14.A7.4B2.4B$7.
A15.A9.5B10.3B4.15B14.A.A5.5B.4B$4.3A26.4B7.2A.2BA5.15B15.A.14B$4.
A29.3B7.A.2BA.A5.13B17.14B$32.4B9.A2.BA.A2.13B19.14B$32.2A12.A3.A.
A.2A4.8B18.15B$33.A10.A.4A2.AB2A6.6B17.3B2A12B$30.3A10.A.A3.A.A2.B
8.5B17.3B2A13B$30.A12.A.A2.A2.2A.2A9.B.B15.2AB.11B2.4B$44.A3.2A2.A
.A9.3B15.A.AB2.8B5.4B$52.A.A9.B2AB14.A5.10B4.4B$53.A11.2A14.2A5.B.
B5.2A5.4B$89.3B4.A7.3BA$88.B2AB5.3A5.3BA$89.2A8.A6.3AB!
