#CSYNTH gun_1824 costs 3572 cells.
#C period 1824 fullperiod 1824 bbox 76 by 47
#CLL state-numbering golly
x = 76, y = 47, rule = LifeHistory
8.2A.2A2.2A$4.2A.A.A.A2.A2.A$3.A2.2A.A2.3A.2A$2.A.A3.4A4.A$2.A2.3A
3.B.2AB2.A47.A2.2A$.2A4.2BA2B3AB.4A12.2A3.2A26.4A.A$7.AB.2A3.BA4.A
11.2A2.A.3A29.A$.4A4.2A.B2AB.B2A2.A14.A4.A21.7A.2A.A$.A3.A3.BAB.2A
.BA2.2A11.4A.2A2.A20.A2.B3.A.A.2A$3.BA.ABA2B.4A.2AB5.2A6.A2.A.A.A.
2A19.2A2.2A.AB$3.2A.2BAB2A4BA.2B4.A.A8.BABABA.A23.B2AB2A$3.3A6.4B.
A.2BA2.A4.A6.B2ABA.A24.5B$4.B8.2A3.BA.3A.5A7.2B.BA26.3B$13.2B4.A5.
A10.3B21.2A5.2A3B$6.B3.5B5.3A.A2.B4A3.4B20.A2.A3.B2AB2A$4.12B6.2A
3.BA2.A3.B2A3B16.BA.A.A3.2ABA4B$4.12B11.4B4.B2A3B16.3A.A3.9B$.B.
14B.B9.15B14.3AB5.7B$2A18B3.2A.A.2A14B14.3B3.10B$2A12B3A4B2.A.2A.
2A15B16.3BA10B$.12BA7B8.B.15B15.2BABA9BA$.4B2.3B.4BAB2A3B10.9B2.4B
15.BABA7BABA$7.5B2ABABA6B8.7B5.4B10.A5.A7B2.2A$9.6BABAB2A5B6.9B4.
3BA7.3A4.7B5.B$11.3B2ABA4B.3B5.4B4.2A5.3BA5.A7.9B$12.7BA14B5.A7.3A
B4.2A5.4B4.2A$12.4B3A14B7.3A5.9B4.4B5.A$13.20B3.2A4.A5.7B5.4B7.3A$
14.B.17B4.A11.A7B2.4B10.A$17.16B2A2.A.2A6.BABA11B$11.2A4.12B2.BABA
2B.A.A5.2BABA10B$11.A6.5B3.B4.BA3.2B8.3BA10B$5.2A6.A4.2B9.A3.5A5.
3B3.10B$6.A2.4A.A3.2A9.4A5.B3.3AB5.4BA2B$6.A.A2.A2.A2.4B12.A2.3A3.
3A.A3.4BABA2B$5.2A.AB.2AB3A4B2A8.2A2.A2.B3.BA.A.A3.3BABA2B$5.A2.B.
3A2.A.4A.2BA5.A5.A.BA4.A2.A3.4BAB$7.2A.A2.BA2B.2A.BA2BA3.A.2A4.A.A
5.2A5.5B$8.A2.A.A.BAB2AB.2A.AB2.A.A6.A14.3B$6.A3.2A.A.A2.B2.2A.AB
2.2A2.A19.5B$6.2A4.BA2B2A.5B.BA3.3A18.B2AB2A$12.3B3.A3BA2.B4A6.2A
10.2A2.2A.AB$6.2A2.AB2A2B3A.A6.B2.AB3A2.A10.A2.B3.A.A.2A$6.A.AB.A
3.2A.B2A.A5.AB.A3.2A12.7A.2A.A$7.B2A.A4.AB2.BA2BA3.AB2.B2A21.A$9.B
A4.BAB4.2BAB2.BAB.A.A16.4A.A$16.A7.A4.ABABA17.A2.2A!
