#CSYNTH gun_1748 costs 1836 cells.
#C period 1748 fullperiod 1748 bbox 54 by 34
#CLL state-numbering golly
x = 54, y = 34, rule = LifeHistory
.4B3.B.9B.B3.4B$.4B.17B.4B$2A14B3A8B2A$2A12BA3BA8B2A$.B.10BA4BA7B.
B$3.10BA3BA8B14.B$20.3B.B.3B9.B3A$3.10BA3BA11B6.2B.3AB$.B.10BA4BA
12B3.3AB.B$2A12BA3BA13B3.3B$2A14B3A12B4.4B$.4B.23B5.5B$.4B3.B.9B.
3B.B.4B3.8B12.A$27.7B3A7B7.3A$26.18B6.A$15.2A8.7B2A11BA4.2A$14.B2A
B6.4B2.2BA4BA6BA2BA4B$14.4B5.4B4.BA7B.7BAB$15.2B5.4B3.4BA2BA6BA4BA
2B$6.2A7.4B2.4B4.2A4.A11B2A3B$6.A.A5.5B.4B6.A6.15B$7.A.14B4.3A7.7B
3A3B$8.14B5.A12.8B$8.14B20.5B$8.15B19.4B$7.3B2A12B19.3B$7.3B2A13B
16.B.B3A$5.2AB.11B2.4B13.B3A.2B$4.A.AB2.8B5.4B12.3AB$4.A5.10B4.4B
12.B$3.2A5.B.B5.2A5.4B$11.3B4.A7.3BA$10.B2AB5.3A5.3BA$11.2A8.A6.3A
B!
