#CSYNTH gun_3510 costs 3952 cells.
#C period 3510 fullperiod 3510 bbox 76 by 52
#CLL state-numbering golly
x = 76, y = 52, rule = LifeHistory
34.3B2AB$32.4B3A3B4.B$20.4BAB.B2.3BAB2A7B.B2A$13.B4.6BABA6BA2BA4BA
5BA$12.2AB.9BABA3B.BAB2A5BA4B$12.2A11BA2BA7B3A3BA3BA2.2A$13.12BABA
9B2AB4.A4.2A$13.11BABA8B$15.B4.4BAB3.5BAB7.B3.4A$33.2B2A5.2AB.A2.B
AB$34.2A2B4.2A2B2A4B$35.4B4.8B21.A$36.4B3.3B2.4B19.A.A$27.AB2.B5.
4B.B6.4B18.A.A$26.A3B3AB4.5B7.4B16.2A2.2A$27.A.5A5BA3B8.4B13.2B2.A
.A$31.A.B2.2BA4B9.4B4.2A6.2B3A2.A$30.B2A3.2B3A2B10.4B2.B2AB5.BA3.A
.A$31.2A3.7B4.2A5.4B2.3B4.BAB3A.A$35.9B4.A5.4B.B.B4.2BA2B.A$34.4B.
5B4.A.AB.11B2.2BA2B.A$33.4B.7B4.2AB.11B3.BAB3A.A$32.4B2.7B6.14B3.B
A3.A.A$31.A3B3.2A3B2A6.14B3.2B3A2.A$30.BABA4.B5AB6.14B3.2B2.A.A$
29.2B2A5.B2AB2AB3.B.14B.3B2.2A2.2A$28.4B6.B2AB2AB2.2AB.5B2A11B2.A.
A$10.2A15.4B8.B3AB3.2A4BA3B2AB2A7B2.A.A$11.A14.4B9.5B4.2B.2BA7BA7B
3.A$11.A.AB3.A5B2.4B10.4B7.2BABA2B2ABA3B2A2B$12.3A.4A10B10.4B7.3BA
BA9BA4B$14.2ABAB2A10B.3B2AB3.4B6.2BA2BA8BA2BA3B$14.A2BAB3A11BA2BA
8B6.3BA2BA8BA2BA2B$15.ABAB2A4B2A5BA7B2A2B8.4BA9BABA3B$11.A4.4A5B2A
5BA6BA2BAB10.2B2A3BAB2A2BABA2B$11.3A4.A7BA5BA7B2A12.7BA7BA2B.2B$
14.A8.10BA2BA3B14.7B2AB2A3BA4B2A$13.2A7.7B3.3B2AB9.2A5.11B2A5B.B2A
$13.5B3.4B22.A3.2B2.3B.14B.B$4.2A9.3B2.4B20.2A.A.6B3.14B$3.A.A8.9B
21.A2.A.2A4B3.14B$3.A8.B.8B24.2A.2A3B2A2.14B$2A.AB.B3.BA9B28.B.3B
2A3.11B.B2A$.A.A.2AB.3A9B25.3AB2A2.B4.11B.BA.A$.A.A.2A2B2A10B24.A
2.B.A2B8.B.B.4B5.A$2A.A2.5BA9B25.A.A.B.A7.3B2.4B5.2A$A2.4A3BA8B.B
2A24.2A.A.3A5.B2AB2.4B$.2A2.BAB.BA8B.BA.A25.A.A3.A5.2A4.3B$3.2A6.
7B5.A25.A.A2.2A13.B2A$3.A7.2B.3BA5.2A25.A18.BA.A$5.A9.3BA53.A$4.2A
10.3AB52.2A!
