#CSYNTH gun_8910 costs 3304 cells.
#C period 8910 fullperiod 8910 bbox 56 by 59
#CLL state-numbering golly
x = 56, y = 59, rule = LifeHistory
31.2A$30.BA2BA$31.4B$32.3B$27.B3.AB2A$26.2AB.A.AB$10.2A14.A4BA11.A
$11.A15.3BAB9.3A$11.A.AB3.B2A3B3.A2BA9.A$12.2AB.3BABA5B13.2A7.A$
14.8BA5B9.5B6.A.A$14.5BA2BA6B8.3B8.A.3A$15.7BA6B6.7B5.2A4.A$11.A4.
3BABA7B6.8B5.B.3A$11.3A4.B2A10B.11B4.2ABA$14.A8.4B.8BABA4B3.4B$13.
2A7.4B.8BABABA3B3.BA3B$13.5B3.4B2.12B2A2B3.2A.ABA$4.2A9.3B2.4B4.5B
A5BA2BA3.2ABA.3A$3.A.A8.9B6.3BAB2A6BAB3.B.A4.A$3.A8.B.8B7.3BA9B2AB
.3B4A.A$2A.AB.B3.11B9.2BA5B2A4B.A3BA2.A.2A$.A.A.2AB.12B11.5BA2BA3B
2.3B3A3.A$.A.A.2A14B14.5BA.B3.A2B2.A.2A$2A.A2.5B2A8B14.5B8.2A.A.A$
A2.4A3BA2BA5B.B2A13.2BABAB7.A.A.A$.2A2.BAB.2B2A6B.BA.A14.2A2BA2B4.
A2.A$3.2A6.7B5.A6.A8.A.B.AB3.2A$3.A7.2B.4B5.2A3.3A6.A.A.2ABAB$5.A
9.4B8.A9.2A.A4.A$4.2A10.4B7.2A11.A.3A$17.4B3.5B11.A.A$18.4B2.3B9.
2A3.A$19.9B8.A.A$20.8B.B8.A$21.11B3.B.BA.2A$21.12B.B2A.A.A$21.14B
2A.A.A$21.8B2A5B2.A.2A$19.2AB.5BA2BA3B4A2.A$18.A.AB.6B2A2B.BAB2.2A
$11.A6.A5.7B6.2A$11.3A3.2A5.4B.2B7.A$14.A8.4B9.A$13.2A7.4B10.2A$
13.5B3.4B$4.2A9.3B2.4B$3.A.A8.9B$3.A8.B.8B$2A.AB.B3.BA9B$.A.A.2AB.
3A9B$.A.A.2A2B2A10B$2A.A2.5BA9B$A2.4A3BA8B.B2A$.2A2.BAB.BA8B.BA.A$
3.2A6.7B5.A$3.A7.2B.3BA5.2A$5.A9.3BA$4.2A10.3AB!
