#CSYNTH gun_3690 costs 2950 cells.
#C period 3690 fullperiod 3690 bbox 59 by 50
#CLL state-numbering golly
x = 59, y = 50, rule = LifeHistory
44.2B$28.A13.6B$28.3A11.7B$19.A11.A9.9B$18.A.A9.2A10.9B$17.A2.A9.
5B7.10B$17.4A.2A8.3B6.12B$21.A.A5.7B4.9B.4B$14.2A3.A.A7.7B2.4B2A3B
4.4B$14.A2.3AB2A5.A12BA2BA2B5.4B$15.2A3.2A.BAB.ABA12B2A2B7.4B$17.B
A2BA2BA2BABA15B9.4B$15.4A.2BAB3.BA18B8.3BA$14.A2.AB2.B6.10B.B5.2A
9.ABA$.4B9.2A13.10B6.A11.2A$.3B2A26.8B6.3A9.B$2ABA2B24.6B.4B7.A$2A
B.A.BA22.2A6.4B$.B3.ABAB22.A7.4B11.2A$6.A2B19.3A9.4B10.A$5.4B3.3B
13.A5.2A5.4B.2B7.A$4.B2A2B3.4B19.A5.7B6.2A$5.2A2.8B.4B13.A.AB.6B2A
2B.BAB2.2A$9.16B11.2AB.5BA2BA3B4A2.A$9.17B12.8B2A5B2.A.2A$11.15B
12.14B2A.A.A$11.16B2.2A7.12B.B2A.A.A$10.17B.B2AB6.11B3.B.BA.2A$9.
18B2.3B5.8B.B8.A$8.18B4.B2.2B.9B8.A.A$7.20B.11B2.3B9.2A$7.19B2.11B
2.5B$5.13B3A3B2A13B5.2A$5.13BABA3BA3BA10B5.A$4.19BA4BA8B.B2A4.3A$
4.19BA4BA5B4.BA.A5.A$4.8B.6B2A7BA4B8.A$2.2AB.5B.7B2A2B2AB2A4B9.2A$
.A.AB.4B3.11BAB2A3B6.2A$.A5.3B2.18B6.A2.A$2A5.2B3.9B2A6B5.3A.A$12.
9BAB2A3B5.A4.4A3.2A$13.9B3A3B5.A.2A5.A3.A$13.10BA6B2.2A.A.3AB2A2BA
3.2A$14.16B2.AB.A.A2.A2.B.A.A2.A$17.4B.8B.2ABA4BA2B2A.A.2A$23.4B3.
B2A2B.A2BA.B2A.A.A$24.3B4.A.3B2.B3.A.BA.A$32.2A.A2BA4.A2.A$36.2A6.
2A!
