#CSYNTH gun_490 costs 2006 cells.
#C period 490 fullperiod 490 bbox 59 by 34
#CLL state-numbering golly
x = 59, y = 34, rule = LifeHistory
35.2A.BA$35.A2.2AB$19.2B.2A12.5A$18.B2A2.A13.5B$18.2AB2A14.5B2.4B$
17.B2A2B14.5A2.6B$11.4B2.B2A2B13.A2.2AB.9B$10.6B2.2AB2A11.A.A.BA
12B$8.9B.B2A2.A10.2A5.6BA4B5.2A$7.14B.2A17.5B3A2B6.A$2A5.11B16.4A
3.4BABABA2B2.BA.A$.A6.2BABA5B15.A3.A4.3BA3BA3B.B2A$.A.AB2.2BABABA
4B3.2A10.2A6.2B2A5B2A3B$2.2AB.7B2A2B5.A7.5B6.BA4BA4BA2B$4.3BA5BA2B
AB4.A.AB3.2A2B7.B2A2B2ABA2B3AB$4.2BA4BA4BAB5.2AB2.B2A3B5.4BAB6ABA
2B$4.B3A3BA4B2AB5.10B4.4B2.6B2A2B$4.BA2BA11B5.10B2.4B5.4BA2B$5.4BA
2BA2B2.4B4.9B2.4B6.3B.5B$6.5BAB5.4B4.13B3.A2BA7.2A$4.5B.3B6.4B3.
12B4.4B7.A$4.2A7.4B3.4B3.10B4.A4BA7.3A$5.A7.4A4.4B.B2.7B3.3A.2A.3A
7.A$2.3A7.A4BA4.13B3.A3.A2.A3.A$2.A7.3A.2B.3A3.11B4.2A.2A.B4A.A$9.
A3.B2.B3.A3.10B5.A.A2.BA2.B.A$8.A.4AB.2A.2A3.9B6.A.A3.BABA.A.A$8.A
.B2.BA2.A.A3.9B8.A4.BAB.A.2A$6.A.A.3AB3.A.A4.9B14.A.A$6.2A.A.A2B4.
A6.7B16.2A$9.A.B13.8B$9.2A14.8BA$25.9BA$26.3B3.3AB!
