#CSYNTH gun_549 costs 3648 cells.
#C period 549 fullperiod 549 bbox 64 by 57
#CLL state-numbering golly
x = 64, y = 57, rule = LifeHistory
13.2A5.2A15.2A.A.2A$12.A2.A.BA2B.A7.A.2A.A2.A.2A2.A3.A$12.2A.A2BAB
.2A7.2A.A.2A.A4.A.A2.3A$13.A.A2.A2.6B8.B2.5A.A6.A$12.BA.3AB4.5B6.
2ABA4.A7.2A$11.A3B.2A5.7B4.2A.A.AB2.A6.5B$11.3BA8.13B2.A.A2B.A7.4B
$9.3A.A7.13B5.A2B.2A7.5B$8.B4A7.15B3.3B11.6B$9.A.B8.15B3.2B12.6B.B
$19.7B2A8B.4B10.6B.B2A$19.5B2ABA20B4.7B2A$18.6B2A23B2.6B.2B$17.7B
2ABA21B2.6B$16.2AB3.4B2A21B.9B3.B$15.A2.A4.37B.B2A$14.A.2A5.6B3.B
2.2B2.23B2A$14.A7.6B14.21B$13.2A6.9B14.19B$20.4B4.2A15.16B$20.4B4.
A15.17B$19.5B5.3A12.17B$16.9B6.A10.2AB.3B.10B$16.9B16.A.AB5.9B$16.
9B16.A9.8B$16.10B14.2A8.9B2.B$15.12B23.9B.B2A$14.13B8.2A14.10B2A$
15.11B9.A16.8B.B$16.12B4.BA.A15.8B$16.15B.B2A10.A6.7B$16.17B12.3A
5.5B$16.17B15.A4.4B$13.B.17B15.2A4.4B$12.2A19B14.9B6.2A$12.2AB.19B
14.6B7.A$13.B4.20B2.2B2.B3.6B5.2A.A$18.36B4.A2.A$18.9B.21B2A4B3.B
2A$11.A7.7B2.21BAB2A7B$11.3A5.7B2.23B2A6B$14.A4.6B4.20BAB2A5B$13.
2A4.7B10.2B.B.8B2A7B$13.5B.6B10.3B4.15B$4.2A9.10B6.2A.2BA5.15B$3.A
.A8.10B7.A.2BA.A5.13B$3.A8.B.10B8.A2.BA.A2.13B$2A.AB.B3.BA14B7.A3.
A.A.2A4.8B$.A.A.2AB.3A11B.2A5.A.4A2.AB2A6.6B$.A.A.2A2B2A10B3.A5.A.
A3.A.A2.B8.5B$2A.A2.5BA9B4.3A2.A.A2.A2.2A.2A9.B.B$A2.4A3BA8B.B2A4.
A3.A3.2A2.A.A9.3B$.2A2.BAB.BA8B.BA.A15.A.A9.B2AB$3.2A6.7B5.A16.A
11.2A$3.A7.2B.3BA5.2A$5.A9.3BA$4.2A10.3AB!
