#CSYNTH gun_1318 costs 6882 cells.
#C period 1318 fullperiod 1318 bbox 93 by 74
#CLL state-numbering golly
x = 93, y = 74, rule = LifeHistory
33.2A$32.A.A$26.2A4.A$24.A2.A2.2A.4A$24.2A.A.A.A.A2.A$27.A.ABABAB
32.2A$27.A.AB2AB32.B2AB$28.AB.2B34.2B$23.A7.3B34.2B$21.3A7.4B6.2A
24.2A2B$20.A8.3B2AB6.A24.4B2A4.B$19.A.A7.3B2AB3.BA.A23.2ABA5B.3B$
18.BA.A5.10B.B2A24.4B2AB2A3B2A$17.3BA5.13B26.4BA2B2A3B2A$15.4B6.
14B25.2BABABAB2A2B.B$13.6B5.15B21.2B2.B2ABA5B$12.7B4.4B2.8B22.2A3B
A3BAB2A2B$5.B.4B.8B2.4B5.6B22.2A2BA3BA6B$4.2AB.17B4.9B22.2B.BABA7B
$4.2A18B5.2A4.4B23.10B.B2A$5.2B.16B6.A5.4B21.11B.BA.A$8.17B2.3A7.
4B19.4B.6B5.A6.A$9.16BA2.A9.4B17.4B.7B5.2A3.3A$10.14B.2A3.A8.4B15.
4B.4B.3BA8.A$10.12B7.2A9.4B13.4B.4B3.ABAB7.2A$11.10B20.4B11.4B.4B
5.2A2B3.5B$11.6B2A2B21.4B9.4B.4B7.4B2.3B$11.6B2A3B21.4B7.4B.4B9.9B
7.2A$11.10B23.4B5.4B.4B11.8B8.A$7.A.2AB.8B24.4B3.4B.4B13.10B3.B.A.
2A$5.3AB2AB3.7B24.4B.4B.4B14.7B2A2B.B3A2.A$4.A4.B6.6B25.7B.4B15.7B
2A3BAB2.2A$5.3A.2A4.6B27.5B.4B16.12B4A$7.2A2.A4.5B27.9B15.2AB.7B3.
2B.A$10.A.A.8B25.9B15.A.AB.7B2.B3A$6.A.2A.A.A8B24.4B.4B16.A5.4B4.A
$6.2A.A.BA2B.6B23.4B.6B14.2A5.4B5.5A$9.A2.2B2.7B10.A10.4B.8B19.4B
10.A$9.2A.B3.7B8.3A9.4B.4B2.4B6.A10.4B9.A$7.2A2.A.A2.8B.2B3.A11.4B
.4B4.4B5.3A7.4B10.2A$6.A2.A2.2A2.12B2.2A9.4B.4B6.4B7.A5.4B$7.2A7.
12B.3B2.2B2.B.4B.4B8.4B5.2A4.4B$16.14B3.10B.4B10.4B4.9B$17.14B.10B
.4B12.4B5.6B$8.2A10.21B.4B14.4B2.8B$9.A8.27B16.15B$9.A.AB4.28B17.
14B$10.2AB.31B18.13B$12.34B18.10B.B2A$12.34BA.2A16.3B2AB3.BA.A$12.
33B.2A.A16.3B2AB6.A$13.30B25.4B6.2A$14.28B26.3B$16.27B22.AB.2B$16.
4B3.20B21.A.AB2AB$12.2A3.2B3.20B22.A.ABABAB$11.B2AB6.20B20.2A.A.A.
A.A2.A$11.4B5.4B.4B.9B22.A2.A2.2A.4A$12.2B5.4B7.8B25.2A4.A$4.A7.4B
2.4B9.4B34.A.A$3.A.A5.5B.4B49.2A$4.A.14B$5.14B$5.14B$5.15B$4.3B2A
12B$4.3B2A13B$2.2AB.11B2.4B$.A.AB2.8B5.4B$.A5.10B4.4B$2A5.B.B5.2A
5.4B$8.3B4.A7.3BA$7.B2AB5.3A5.3BA$8.2A8.A6.3AB!
