#CSYNTH gun_623 costs 5394 cells.
#C period 623 fullperiod 623 bbox 93 by 58
#CLL state-numbering golly
x = 93, y = 58, rule = LifeHistory
61.2A$61.A$63.A$59.5A$20.2A37.A$20.A.A5.2A31.B4A$22.A4.A.A31.BA2.A
$18.4A.2A2.A26.2A3.6B$18.A2.A.A.A.2A26.A2.6B$20.BABABA.A26.A3.5B$
21.B2ABA.A15.2A9.2A2.7B$22.2B.BA17.A10.2B.8B8.2A$21.3B20.A.AB6.11B
9.A$12.2A6.4B21.2AB.2B.15B4.BA.A$13.A6.B2A3B21.23B.B2A$13.A.AB3.B
2A3B21.25B$14.2AB.10B19.25B20.A$16.13B18.24B12.2A5.3A$16.14B16.26B
10.B2AB3.A$16.15B14.4B.24B8.3B4.2A$18.8B2.4B12.4B4.2B.B.20B2.AB2.B
2.5B$18.6B5.4B10.4B11.19B4A8B$17.9B4.4B8.4B11.9B.9BAB5A5B2A$16.4B
4.2A5.4B6.4B13.7B2.8B2A6BA4B2A$15.4B5.A7.4B4.4B14.7B2.9B3ABA3BA2B.
B$.2A11.4B7.3A5.4B2.4B15.6B4.9B2A2BABA3B$.A2.A8.4B10.A6.8B16.7B10.
8B$2.5A5.4B5.2A12.6B17.6B12.8B$7.A4.4B5.A2.A11.4B17.7B13.7B$4.3AB
2.7B.BA.A.2A10.6B15.8B12.7B$3.A.2B3.7B.B2A.A11.8B14.9B2.2A6.8B7.2A
$3.4A12B3.A10.4B2.4B14.7B2.B2AB5.9B6.A$.2A2.BA3B2A7B3.3A7.4B4.4B
14.4B5.2B7.9B2.BA.A$A2.3AB.2B2A7B6.A5.4B6.4B6.2A5.2B2AB3.2B6.12B.B
2A$2A.A.B3.10B5.2A4.4B8.4B5.A8.2A3.BA2B.18B$3.A8.8B4.9B10.4B6.A11.
A.A15BABA2B$3.2A7.9B5.6B12.4B4.2A12.A.13BA3BAB2.B$13.3B2.4B2.8B13.
4B2.2B10.3A3.11B6AB.B2A$11.5B3.15B4.2A6.8B9.A5.11BA8B2A$11.2A7.14B
5.A7.7B13.20B.2B$12.A8.13B5.A.2A5.7B2.B2.2B2.20B.B$9.3A10.10B.B2A
4.A2.A4.35B$9.A14.3B2AB3.BA.A4.2AB3.27B.9B$24.3B2AB6.A5.14B2A16B2.
7B$26.4B6.2A5.13B2A16B2.7B$26.3B15.29B4.6B$23.AB.2B16.17B.B.2B10.
7B$22.A.AB2AB16.15B4.3B10.6B$22.A.ABABAB15.15B5.A2B.2A6.7B$19.2A.A
.A.A.A2.A14.13B5.A.A2B.A7.5B$19.A2.A2.2A.4A16.13B2.A.AB2.A8.6B$21.
2A4.A19.8B4.2A.A.A3.A7.9B$27.A.A17.6B6.2ABA2.4A.A5.2A.7B$28.2A17.
5B8.B2.A.A3.A.A5.A5.4B$47.B.B9.2A.2A2.A2.A.A2.3A7.4B$48.3B9.A.A2.
2A3.A3.A10.3BA$47.B2AB9.A.A23.3BA$48.2A11.A25.3AB!
