#CSYNTH gun_1310 costs 6314 cells.
#C period 1310 fullperiod 1310 bbox 82 by 77
#CLL state-numbering golly
x = 82, y = 77, rule = LifeHistory
52.A11.2A$51.A.A9.B2AB$43.A3.2A2.A.A9.3B$42.A.A2.A2.2A.2A9.B.B$42.
A.A3.A.A2.B8.5B$43.A.4A2.AB2A6.6B$45.A3.A.A.2A4.8B$21.2A4.2A15.A2.
BA.A2.13B$21.A2.A.A.A14.A.2BA.A5.13B$22.3A.A.A.AB11.2A.2BA5.15B$
26.A2.2AB.2A12.3B4.15B$24.3A4.2B2AB12.2B.B.17B$23.A7.4B6.29B$23.2A
6.6B3.16B2A13B$A17.7B7.6B2.16B2A14B2.2A$3A4.7B3.8B7.7B.27B3.B2A2.A
$3.A2.9B.10B5.35B4.A.B2A$2.2A2.21B3.20B2.2B2.B3.6B5.A$2.45B14.6B5.
3A$4.41B14.9B6.A$3.41B15.2A4.4B8.2A$3.42B15.A5.4B6.A2.A$5.40B12.3A
7.4B2.BA2.A.A$4.34B2.3B.B2A10.A10.4B.B4A.2A$5.33B6.BA.A21.5B6.A$7.
32B8.A21.4B.B.4A$7.32B8.2A20.7BA$8.21B2.10B18.2A7.9B.2A$9.18B4.6B
2.2A19.A5.9B4.A$10.17B6.B.B3.A20.A.AB.11B3.A.A$11.16B5.3B5.3A18.2A
B.12B3.2A$13.10B.4B4.B2AB6.A20.13B$14.B.6B3.4B4.2A28.13B$17.4B5.4B
33.12B$16.6B5.4B33.12B$15.2A5B6.4B31.14B$15.2A5B7.4B30.14B$16.6B8.
4B30.12B$18.B.B10.4B29.12B$17.3B12.4B28.11B$17.B2AB12.4B10.A13.13B
$18.2A14.4B7.3A12.14B$35.4B5.A15.15B$36.4B4.2A14.2BA12B$29.2A6.9B
14.2B2A11B$30.A7.6B14.2B2A2BA10B$30.A.2A5.6B3.B2.2B2.3BA4B2A10B$
31.A2.A4.19B3A14B2.A$32.2AB3.20B2A5B.9B.A.A$33.14B2A16B2.B.6B2.A$
23.2A9.13B2A16B5.5B$22.A.A10.29B5.B2A2B$22.A7.2A3.17B.B.2B11.AB.A.
B2A$23.4A3.A5.15B4.3B9.A.2A2.BA.A$21.A.A3.A4.A3.15B5.A2B.2A5.A8.A$
20.A.A2.BA2B2.2A4.13B5.A.A2B.A4.2A8.2A$20.A4.BAB2AB2.2A4.13B2.A.AB
2.A$17.2A.2A3.BA4B2AB.AB.8B4.2A.A.A3.A$17.A2.A.AB.BA2BA.2AB2A8B6.
2ABA2.4A.A$18.A.A.2A2.A4B2AB.AB3.4B7.B2.A.A3.A.A$17.2A2.A2.A.A.2AB
2.2A6.4B5.2A.2A2.A2.A.A$19.A.A2.2A.A3.2A9.4B5.A.A2.2A3.A$19.2A6.A.
2A2.4A.A4.4B4.A.A$27.2A.A2.A2.A.3A3.4B4.A$37.A3.A3.4B$38.3A5.4B$
35.3A3.3A2.5B$35.A2.A.A2.A3.5B$32.3B2.2A.2A2.3B2.4B$32.BA5B.5BAB3.
4B$31.B4AB5.B4AB3.4B$31.A.2BA2B3.2BA2B.A4.4B$32.2A.BAB3.BAB.2A6.4B
$34.3A5.3A9.4B$32.2A11.2A8.3BA$31.A2.3A5.3A2.A8.3BA$31.2A3.A5.A3.
2A9.3AB!
