#CSYNTH gun_753 costs 5525 cells.
#C period 753 fullperiod 753 bbox 85 by 65
#CLL state-numbering golly
x = 85, y = 65, rule = LifeHistory
28.2A$27.A.A21.2A$21.2A4.A23.A.A$8.A10.A2.A2.2A.4A21.A4.2A$7.BAB9.
2A.A.A.A.A2.A17.4A.2A2.A2.A$7.BA13.A.ABABAB19.A2.A.A.A.A.2A$5.ABA
2B12.A.AB2AB22.BABABA.A$.2A.B2A.A14.AB.2B24.B2ABA.A$A.6A10.A7.3B
24.2B.BA18.A$A4.2B9.3A7.4B6.2A14.3B20.BAB$.4A10.A8.3B2AB6.A6.2A6.
4B21.AB$2.B.AB8.A.A7.3B2AB3.BA.A7.A6.B2A3B18.2BABA$.2A.AB7.BA.A5.
10B.B2A8.A.AB3.B2A3B19.A.2AB.2A$.3BA7.3BA5.13B11.2AB.10B7.A10.6A.A
$.AB7.4B6.14B13.13B6.3A9.2B4.A$AB6.6B5.15B13.14B8.A10.4A$A.AB3.7B
4.4B2.8B15.15B6.A.A8.BA.B$.2AB3.8B2.4B5.6B17.8B2.4B5.A.AB7.BA.2A$
3.17B4.9B16.6B5.4B5.A3B7.A3B$3.16B5.2A4.4B14.9B4.4B6.4B7.BA$3.16B
6.A5.4B12.4B4.2A5.4B5.6B6.BA$3.16B3.3A7.4B10.4B5.A7.4B4.7B3.BA.A$
4.15B3.A10.4B8.4B7.3A5.4B2.8B3.B2A$5.12B.B2A.A11.4B6.4B10.A6.17B$
5.11B2.BA.A.2A10.4B4.4B19.16B$6.10B5.A2.A11.4B2.4B20.16B$6.6B2A2B
5.2A14.8B21.16B$2A4.6B2A3B21.6B22.15B$A5.10B23.4B21.2AB.12B$2.A.2A
B.8B22.6B19.A.AB2.11B$.2AB2AB3.7B20.8B18.A5.10B3.2A$4.B6.6B19.4B2.
4B16.2A5.2B2A6B3.A$.2A.2A4.6B19.4B4.4B21.3B2A6B4.A$2.2A2.A4.5B18.
4B6.4B21.10B3.2A$A4.A.A.8B16.4B8.4B20.8B.B2A$2A.2A.A.A8B8.A6.4B10.
4B18.7B3.B2AB2A$4.A.BA2B.6B6.3A5.4B12.4B17.6B6.B.A$4.A2.2B2.7B4.A
7.4B14.4B17.6B4.2A3.A$2.A.2A.B3.7B4.2A5.4B16.4B16.8B.A2.4A$.A.A2.A
.A2.8B.4B4.4B18.4B14.9BA.A.A$.A2.A2.2A2.11B5.4B20.4B4.A8.7B.2BAB.A
.2A$2.2A7.12B3.4B22.4B3.3A6.6B3.2B2.A.A$11.12B2.4B24.4B5.A4.7B4.B.
2A2.A$12.11B.4B26.4B3.2A4.7B3.A.A2.A.A$6.2A7.7B.5B27.4B2.4B.8B3.2A
2.A.A$7.A6.15B27.4B3.11B8.A$7.A.AB2.16B28.4B.12B$8.2AB.17B29.16B$
10.19B30.B3A10B10.A$10.19B31.A9B11.3A$11.18B30.2BA9B9.A$9.19B30.
16B6.2A$9.2A2.17B21.A6.24B$10.A3.11B.B.2A21.3A3.23B$7.3A6.10B2.A
25.A2.24B$7.A10.8B3.3A21.A.B.24B$19.7B5.A21.2A27B$18.8B25.2A2.A22B
.4B$17.9B24.A2.3A3B3.2B3.B7.2B3.4B$18.6B27.A4.2B3.4B.3B5.BA2B3.3BA
$20.5B27.4A5.B2AB.B2AB4.A.A5.ABA$20.3B.B2A27.A7.2A3.2A6.A7.2A$21.B
2.BA.A28.A27.B$27.A27.2A$27.2A!
