#CSYNTH gun_95 costs 2356 cells.
#C period 95 fullperiod 95 bbox 62 by 38
#CLL state-numbering golly
x = 62, y = 38, rule = LifeHistory
54.2A$17.A31.2A4.A$17.3A29.A2.3A$20.A22.2A6.2A2.3A$19.2A23.A2.4A3.
A3.A$19.7B18.A.A5.2A.2A.A$21.5B19.A.A.3A.A.B3A.A$10.A8.9B19.A.A4.
2AB2.A.A$10.3A6.9B5.2A3.2A5.BABAB5.B3A2.A$13.A4.11B4.A3.B2AB3.3BAB
4.B.BA2.2A$12.2A4.10B2.BA.A4.3B3.4B4.2A3B2A$12.4B.12B.B2A4.B.B4.4B
4.ABABA.A$14.17B5.6B3.4B4.4A.A.2A$13.18B3.7BA2.7B.2B2A.BA.A$12.18B
3.8BA11B.B2.A2.A$6.4B.19B2.10BA10B5.2A$5.25B.15B2ABA3B$5.3B2A8B3A
13BA8BA2B2AB3A3B$4.4B3A2B5A3BA5BA5BABA4BA2B2ABA2BA2BA4B$5.3BA5B4A
4BA3BABA4BABA3BA4B4A5BA3B$5.4BA2BA2BAB2A2BA4BABA5BA5BA3B5A2B3A4B$
7.3B3AB2A2BA8BA13B3A8B2A4B$9.3BAB2A15B.27B$9.10BA10B2.19B.8B$6.2B.
11BA8B3.18B7.4B$4.B3A2B.7B2.A7B3.18B9.3BA$4.5A5.3B3.6B5.17B11.ABA$
3.AB3ABA4.3B5.B.B4.2AB.12B.4B10.2A$.3A.3B.3A4.B4.3B4.A.AB2.10B4.2A
11.B$A3.A3BA3.A3.A4.B2AB3.A4.11B4.A$A.3A.A.4A3.A2B4.2A3.2A5.9B6.3A
$.A3.3A7.2BA.A14.9B8.A$3.A.A.A.2A.A3.AB2A16.5B$2.2A.BAB.A.2A2.BA3.
2A14.7B$3.A.A2.A6.BAB2A2.A18.2A$3.A2.2A9.B.A.2A18.A$2.2A15.A22.3A$
18.2A24.A!
