#CSYNTH gun_159 costs 3496 cells.
#C period 159 fullperiod 159 bbox 76 by 46
#CLL state-numbering golly
x = 76, y = 46, rule = LifeHistory
29.A$27.3A$18.2A6.A$18.A.A5.2A$20.A3.4B$20.2A.3B6.2A$23.4B3.BA.AB$
20.2A4B2A2.B2A2B$20.A.A3B2A5B.B2A$21.A.8B3.BA.A6.2A3.2A$18.3A3.8B
5.A6.A.A2.A$18.A6.4B2AB5.A.2A.2A2.A3.A$24.2B2AB2AB6.A.2A.A.A.4A5.A
$25.3BAB2A4B8.BA.B8.3A10.2A$25.6B3A3B7.2BAB.2A8.A9.A$11.A14.5B2AB
2AB7.2B.2B.A7.2A6.BA.A$11.3A10.12BA2B6.4B.A.2A4.7B.B2A$14.A8.9B2AB
2A2B5.A2BAB2A.A2.A4.7B$13.2A7.A8BA4BA2B4.2B2A2B.B.A.2A2.9B$13.5B3.
BABA6B2AB2A2B5.7B2.A5.8B$4.2A9.3B2.2B2A2.5BA3B2AB4.7B2.2A5.8B5.B$
3.A.A8.9B5.4B6AB2.3B3A2B9.9B3.3B$3.A8.B.8B4.5B.3B.A7B3AB8.11B2.5B$
2A.AB.B3.11B5.2A8.BA10B7.20B$.A.A.2AB.12B6.A8.17B2.21B$.A.A.2A3B2A
9B3.3A9.17B.6B3A13B$2A.A2.4B2A9B3.A9.25BA3BA12B$A2.4A12B.B2A.A8.
11B2AB2A10B2AB2A11B$.2A2.BAB.10B.BA.A.2A5.12BA3BA25B$3.2A6.7B5.A2.
A5.13B3A6B.17B$3.A7.2B.4B5.2A7.21B2.17B$4.A10.4B14.20B7.10BAB$3.2A
11.4B14.5B2.11B8.B3A7BA$17.4B14.3B3.9B9.2B3A3B2.BA$18.4B14.B5.8B5.
2A2.7B$19.4B19.8B5.A2.7B$20.4B17.9B2.2A.A.B.2B2A2B$21.4B16.7B4.A2.
A.2ABA2BA$22.4B13.2AB.7B4.2A.A.4B$23.4B11.A.AB6.2A7.A.2B.2B$24.4B
10.A9.A8.2A.BA2B$25.4B8.2A10.3A8.B.AB$26.4B21.A5.4A.A.A.2A$27.3BA
26.A3.A2.2A.A$28.3BA26.A2.A.A$29.3AB24.2A3.2A!
