#CSYNTH gun_6120 costs 2900 cells.
#C period 6120 fullperiod 6120 bbox 58 by 50
#CLL state-numbering golly
x = 58, y = 50, rule = LifeHistory
20.2A$21.A$18.3A$18.A$15.3B$14.9B16.A2BA$13.11B.4B9.BA3B$13.18B7.A
4BA$14.18B4.BA.A.B2A$14.11B3A4B3.2ABA3.B$13.10B2ABA5B3.3B$13.9B2A
2BA6B2.4B$12.10BA2BA8B.A2BAB$8.2A2.11B2A10B2.2A$7.B2A2B.22B$8.2A2B
2.20B$9.A2B3.14B2A3B$4.B3.ABAB3.11B4ABAB$3.3A.A.AB4.10BA5BAB$3.4AB
A7.9BA5B2A2B$4.3BAB9.4B.4BABA3BA2B$4.4B15.7BABA3B$25.B2.2B3A2B$21.
B2AB3.7B12.2A$20.B4A4.5B12.B2AB$20.A2BABA4.3B13.3B5.2B$18.BA.A.B2A
4.4B.3B.2B2.2B2.B2.2B.5B$17.BABA3.B5.28B$17.2AB9.17B2A9B$17.3AB7.
4B.11B4A9B$17.BABAB5.4B3.10B2A2BA7B$11.B2A5.2A5.4B5.8BABA10B$11.3A
B10.4B9.5B3A7B2.BA$10.A.2AB9.4B15.B2A2B7.A.A$9.A.A.2B8.4B16.2B.2B
8.2A$9.A2.A2.2B5.4B18.6B$10.2A3.3B3.4B17.2A6B2A$4.2A9.B2A.5B16.BA
2BA4BA2BAB$3.A.A8.BA2BA4B16.B6A2B6AB$3.A8.B.2B2A4B18.BA2BA4BA2BAB$
2A.AB.B3.BA9B21.2A6B2A$.A.A.2AB.3A9B23.6B$.A.A.2A2B2A10B25.2B$2A.A
2.5BA9B$A2.4A3BA8B.B2A$.2A2.BAB.BA8B.BA.A$3.2A6.7B5.A$3.A7.2B.3BA
5.2A$5.A9.3BA$4.2A10.3AB!
