#CSYNTH gun_4590 costs 2793 cells.
#C period 4590 fullperiod 4590 bbox 57 by 49
#CLL state-numbering golly
x = 57, y = 49, rule = LifeHistory
19.2A$20.A$17.3A$17.A$14.3B$13.9B16.4B$12.11B.4B9.2A3B$12.18B7.2BA
B2A$13.12B2A4B4.AB.A.B2A$13.12B3A3B3.BABA3.B$12.16BA2B3.2BA$12.10B
2ABA5BA2.4B$11.11BA10B.2B2AB$7.2A2.11B2A10B2.2A$6.BABAB.22B$7.B3A
2.14BA3BAB$8.B2A3.10B2A4BA2B$3.B3.ABAB3.10BAB3A3B$2.2AB.A.AB4.9B3A
B2A3B$2.ABA2BA7.8BA3B4A3B$3.4AB9.4B.BA2BA4BA3B$3.B2AB15.BA2BA4BA3B
$24.A2.3BA3B$20.4B3.7B12.2A$19.2A3B4.5B12.B2AB$19.2A2B2A4.3B13.3B
5.2B$17.2A.A.B2A4.4B.3B.2B2.2B2.B2.2B.5B$16.B3A3.B5.4BABA21B$16.3B
9.5BABA20B$16.4B7.4B.A12BABA8B$16.2B2AB5.4B3.11BA2BA2BA4B$11.A6.2A
5.4B5.10BA2BABA2BA2B$11.3A10.4B9.7B2A4B2A2.BA$14.A8.4B15.5B7.A.A$
13.2A7.4B16.2B.2B8.2A$13.5B3.4B18.B4AB$4.2A9.3B2.4B17.2B6A2B$3.A.A
8.9B16.3B8A3B$3.A8.B.8B16.3B2A6B2A3B$2A.AB.B3.BA9B18.3B8A3B$.A.A.
2AB.3A9B20.2B6A2B$.A.A.2A2B2A10B22.B4AB$2A.A2.5BA9B24.2B$A2.4A3BA
8B.B2A$.2A2.BAB.BA8B.BA.A$3.2A6.7B5.A$3.A7.2B.3BA5.2A$5.A9.3BA$4.
2A10.3AB!
