#CSYNTH gun_5518 costs 6930 cells.
#C period 5518 fullperiod 5518 bbox 99 by 70
#CLL state-numbering golly
x = 99, y = 70, rule = LifeHistory
75.A$75.3A$78.A$77.2A$77.4B$65.2A12.5B$66.A10.2B3A2B$2A63.A10.3B3A
4B$.A26.A36.2A4.7BA4BA2B$A25.3A37.B.10BA2BABA2B$2A23.A37.A14BA2B3A
B$.B23.2A35.ABA11B3A2B2AB$3B20.4B2.A31.BA2BA.5B2A7B2AB$5B9.B3.B.5B
4.3A10.2A17.2B2A6BA2BA2BABA2BA2B$6B2.B.7B2A7B6.A5.2A2.A16.2AB.9BAB
A2B6A2B$2.15B2A8B4.2A5.A.A.A15.A.AB3.8BA3BA3BA4B$.26B4.5B3.B.A16.A
7.12B3A6B$.27B5.3B2.2B17.2A8.7B.4BA7B$.30B.9B28.3B.10B.3B$2.35B2A
2B2A8.2A16.7BA4B.7B8.2A$3.5BA20B3A5B2A2B2A8.A17.6B3A12B7.A$6.A2BA
22BA3BA2BA4B4.BA.A18.4BA3BA3BA8B3.BA.A$6.A19B4AB2A4B3A7B.B2A20.2B
6A2BABA9B.B2A$4.2ABA11BA3B3A4B3A8BA3B2A2B22.2BA2BABA2BA2BA6B2A2B$
4.3A3B2AB2A3BA4B3A6BA6BABA.2BA.AB23.B2A7B2A5B.A2BAB$4.2BABA4B2A10B
A6B2A5B2A2B3.2A24.B2A2B3A11BABA$4.2BA7BA9BABABA6B.2A2B22.A8.B3A2BA
14BA$4.2BA15BABAB3A4B.3BAB7.2A14.3A5.2BABA2BA10B.B$2.2AB.4B3A6BA2B
A2BA7B.4B6.A2.A17.A4.2BA4BA7B4.2A$.A.AB.14B2A10B2.4B6.2A.A.2A.A11.
2A4.4B3A3B10.A$.A7.23B2.5B6.B.A.A.2A11.6B2.2B3A2B10.A$2A6.23B2.3BA
4B2.B2ABA18.5B.5B12.2A$9.5B2AB2A11B2.3B3A4B.B2A2.A17.6B3.4B$9.4B2A
3B2A3B3.3B2.3B2AB2A5B3.2A16.8B4.2A$4.2A3.5B2AB2A3B2.3B3.3B2A3B2A4B
15.A.2A2.9B3.A$4.A2.2AB.4B3A3B2.11B2AB2A5B15.2A.A12B3.3A$5.AB2AB2.
4BA3B2.23B6.2A11.12B4.A$2A.A.A.B6.5B2.23B7.A12.13B$A.2A.A.2A6.4B2.
10B2A14B.BA.A12.9B.4B$5.A2.A6.4B.7BA2BA2BA6B3A4B.B2A13.9B2.4B$5.2A
7.BA3B.4B3ABABA15BA2B14.11B2.4B$13.2B2A.6BABABA9BA7BA2B14.11B3.4B$
5.2A3.2B2A5B2A6BA10B2A4BABA2B14.12B3.4B$4.BA.A2B.ABA6BA6B3A4BA3B2A
B2A3B3A8.B4.5BA8B3.4B$4.2B2A3BA8B3A4B3A3BA11BAB2A7.3B3.2B2ABA4B.4B
3.4B$2.2AB.7B3A4B2AB4A19BA7.6B2.2BA2BA9B4.4B$.A.AB4.4BA2BA3BA22BA
2BA.4B2.7B.2B3A8B.B2A3.4B$.A8.2A2B2A5B3A20BA25BA4B.BA.A3.4B$2A8.2A
2B2A53B3A3B4.A4.4B$12.9B.47BAB2A2B4.2A4.4B$13.2B2.3B5.28B2A15B3A3B
10.4B$11.A.B3.5B4.27B2A16B2A3B11.4B$10.A.A.A5.2A4.8B2A27B2A2B2A2B
2A4B11.4B$10.A2.2A5.A6.7B2A7B.B3.9B2A4BAB2ABA3B2A2B13.4B$9.2A10.3A
4.5B.B3.B10.4B2.B3A3B2ABA2BA3B2AB15.4B$23.A2.4B20.7B3A5BABA6B.B.B
13.4B$26.2A23.7BABA6BA9B2A13.4B$27.A24.7BA17B2A14.4B$24.3A22.B3.2B
.5B2.12B.2B16.4B$24.A23.2AB.3B.4B3.13B19.3BA$48.2A3BA11.3B3A5B.B
18.ABA$49.B.BA.A10.2BA2BA6B2A18.2A$52.BA.A9.2BAB2A4B.B2A19.B$55.A
7.2AB.BA4B4.B$55.2A5.A.AB.4B$62.A5.5B$61.2A8.2A$71.A$72.3A$74.A!
