#CSYNTH gun_6272 costs 3560 cells.
#C period 6272 fullperiod 6272 bbox 89 by 40
#CLL state-numbering golly
x = 89, y = 40, rule = LifeHistory
70.A2BA$68.BA4B$15.4B38.4B7.A5BA$15.4BAB36.A4BA5.A4B2A$14.2A2BA2B
7.B2AB24.ABA2BA2B4.BA2B.B$14.2AB2A2B5.2B4A22.3A.2ABABA3.3BAB$15.B.
B2AB4.B2AB2ABA20.A3.BA.B2AB2.AB4AB$17.2BA2B3.BABA2B.3A18.4AB.4AB2.
BA.2BA3B$16.3A2B2A2.BABA.BA3.A18.A2BA.A2BA3.3BA2B.AB$14.2B2ABA.AB
2.2B3A.5A17.B4A.B4A4.B4ABA$14.BA.AB2A2B3.BABA.ABAB18.B2AB.AB3.A5.B
A3B$14.2A2B3A4.5A.3A2B17.ABAB2A.3A4.B.2BAB$15.2BA2B5.A3.AB.ABAB17.
2BA2BABA5.2A4BA$16.B2AB.B4.3A.2BABAB18.A4BA6.A5BA$16.2B2AB2A5.AB2A
B2AB20.4B7.4BAB$16.2BA2B2A6.4A2B16.A8.4B3.A2BA$16.BA4B7.B2AB16.3A
7.8B$18.4B3.4B19.A9.9B9.2A$22.8B6.2A10.2A7.16B2.B2A2B6.2A$11.2A9.
9B6.A7.5B6.4B.12B2.5B6.A$.2A6.2B2AB2.16B5.A.AB3.2A2B7.4B2.3BA16B6.
A$2.A6.5B2.BA10B.4B5.2AB2.B2A3B5.4B3.3BA5B3A7B6.2A$.A6.8BABA9B2.4B
5.10B4.4B5.2BA4BA2BA4B3AB.B.BA$.2A6.BA5BAB2A3B3A2B3.4B5.10B2.4B6.
7B2A2B2A10B3A$3.AB.B.2BA8BA7B5.4B4.9B2.4B8.6BA2BABA9B.B2.A$.3A6BAB
4A3B3A5B6.4B4.13B10.8BABA9B3.2A$A2.B.8B3ABABA6B8.4B3.12B14.14B$2A
3.12BA7B10.4B3.10B7.2A3.2BA13B$8.14B14.4B.B2.7B8.A2.B.B2A3BA2BA6B$
9.16B3.2A7.13B10.4ABA4BA2BA8B$9.6B2A4B3AB.B2.A8.11B13.AB.B.3B2ABA
8B.B$7.7B5AB3A3B3A10.10B11.2A6.2BA2BA9B2A$5.B.7B2ABAB2AB.B.BA12.9B
12.A6.3BAB2A9B2A$4.2A10B3A2B6.2A9.9B14.A6.4BA2.9B$4.2A9B3A4B6.A10.
9B12.2A6.2BABA2.3B.5B$5.9B2.A4B6.A12.7B23.2A$5.5B.3B2.ABA2B6.2A11.
8B$17.2A21.8BA$40.9BA$41.3B3.3AB!
