#CSYNTH gun_425 costs 3055 cells.
#C period 425 fullperiod 425 bbox 65 by 47
#CLL state-numbering golly
x = 65, y = 47, rule = LifeHistory
17.2A$17.A.A$19.A$18.BA.2A$16.2B.A.2A$16.2A.A$17.A.A$15.A2B.A.2A
13.2A5.A$14.BA3BA.2A13.A6.3A$15.A2B.A13.BA.A9.A$5.2A9.BA.A10.2A.B
2A9.2A$5.A11.BA5.2A3.B2A2B11.4B7.3B$2.2A.A8.ABAB6.A5.4B13.2B2.9B$.
A.A.2A6.BAB.4A.A.A5.4B10.16B$A2.A.B2.B2AB.AB.2B3.2A.2A3.11B.B.12B
2A3B$2A.2A3B4A5B.2A4.B4.5B2A13BA5B2A2B4.2A$3.A2.A.A2.A6BA.3AB2A3.
5BABA5B.5B2A11B3.A$3.A.3A4.6A4.A.2A3.5BAB2A4B.4B2ABA5B3.2A.A$4.A7.
6B6.11B2A5B.5BABA5B3.2AB2A$5.5A4.2B10.2B2A5BA13B2A5B4.B$9.A4.2B9.
3B2A12B.B.11B3.2A.2A$7.A.A.AB2.2B8.16B10.4B5.A.A$6.A.A.2AB.5B6.9B
2.2B13.4B5.A.A$6.A.A3.6B2A3B.5B7.4B11.2B2AB5.A$3.2A.A.A3.5B2ABA6B
11.2A9.2AB.2A$3.A.A.A.2A.6B2AB2A5B10.A9.A.AB$5.A.A.B.A.6BABA7B10.
3A6.A$5.A.ABABA5.3BA2B3.4B11.A5.2A$2.2A.A.4B7.6B3.4B$2.A2.ABA2B11.
2B5.4B$4.A4.BA10.4B4.4B$5.5A10.BA4B4.4B$20.BA4B5.4B$7.A11.2BA5B5.
4B$6.A.A11.4BA3B5.4B$7.A14.B3A2B6.4B$22.5AB7.4B$22.5A9.4B$23.BAB
11.4B$23.B14.4B$22.2B15.4B$20.B4AB14.4B$19.B6AB14.4B$19.BA4BAB15.
4B$21.A2BA18.3BA$19.A.A2.A.A17.3BA$19.2A4.2A18.3AB!
