#CSYNTH gun_4547 costs 13680 cells.
#C period 4547 fullperiod 4547 bbox 120 by 114
#CLL state-numbering golly
x = 120, y = 114, rule = LifeHistory
37.2A2.A$36.A.4A$36.A$34.2A.7A$32.A2.A.A3.B2.A$32.2A2.BA.2A2.2A$
36.2AB2AB6.2A$36.5B8.A$37.3B7.A$36.5B6.5A$36.BA4B9.A$34.2BABA3B3.
4AB$34.2BABA4B2.A2.AB$35.2BA4B4.4B$34.15B3.2A$33.14B2A.A2.A$32.15B
2A.2A$31.15B.B$30.4B2.9B$29.4B5.7B$28.4B4.9B$27.4B5.2A4.4B$26.4B7.
A5.4B$11.A13.4B5.3A7.4B$11.3A10.4B6.A10.4B$14.A8.4B19.4B$13.2A7.4B
21.4B$13.5B3.4B23.4B$4.2A9.3B2.4B25.4B$3.A.A8.9B27.4B$3.A8.B.8B29.
4B$2A.AB.B3.11B31.4B$.A.A.2AB.12B32.4B$.A.A.2A14B33.4B$2A.A2.5B2A
8B34.4B$A2.4A3BA2BA5B.B2A33.4B$.2A2.BAB.2B2A6B.BA.A33.4B$3.2A6.7B
5.A34.4B25.A11.2A$3.A7.2B.4B5.2A34.4B23.A.A9.B2AB$5.A9.4B24.2A15.
4B10.A3.A3.2A2.A.A9.3B$4.2A10.4B23.A.A15.4B7.3A2.A.A2.A2.2A.2A9.B.
B$17.4B24.A4.2A10.4B5.A5.A.A3.A.A2.B8.5B$18.4B19.4A.2A2.A2.A9.7B.
2A5.A.4A2.AB2A6.6B$19.4B18.A2.A.A.A.A.2A10.9B7.A3.A.A.2A4.8B$20.4B
19.BABABA.A14.6B8.A2.BA.A2.13B$21.4B19.B2ABA.A15.5B7.A.2BA.A5.13B$
22.4B19.2B.BA15.7B6.2A.2BA5.15B$23.4B17.3B19.6B10.3B4.15B$24.4B7.
2A6.4B19.7B10.2B.B.17B$25.4B7.A6.B2A3B17.6B4.29B$26.4B6.A.AB3.B2A
3B17.7B2.16B2A13B$27.4B6.2AB.10B15.7B2.16B2A14B$28.4B7.13B13.9B.
27B3.B2A$29.4B6.14B12.36B4.A2.A$30.4B5.15B6.B4.20B2.2B2.B3.6B5.2A.
A$31.4B6.8B2.4B4.2AB.19B14.6B7.A$32.4B5.6B5.4B3.2A19B14.9B6.2A$33.
4B3.9B4.4B3.B.17B15.2A4.B3A$34.4B.4B4.2A5.4B5.17B15.A5.A3B10.2A$
35.7B5.A3.A3.4B4.17B12.3A7.A3B9.A$36.5B7.4A4.4B3.15B.B2A10.A10.4B
10.A$36.5B16.4B2.12B4.BA.A14.2A5.4B5.5A$35.7B4.4A8.15B9.A15.A5.4B
4.A$34.4B.4B3.A2.3A7.15B8.2A14.A.AB.7B2.B3A$33.4B3.4B8.A7.14B25.2A
B.7B3.2B.A$32.4B5.4B6.A.A7.12B28.12B4A$31.4B7.4B5.A.AB7.10B29.7B2A
3BAB2.2A$30.4B9.4B5.A3B7.9B29.7B2A2B.B3A2.A$29.4B11.4B6.4B5.9B29.
10B3.B.A.2A$28.4B13.4B5.6B5.6B29.8B8.A$27.4B15.4B4.7B.2B2.5B28.9B
7.2A$26.4B17.4B2.8B.9B27.4B2.3B$25.4B19.18B2A4B25.4B3.5B$24.4B21.
16BA2BA4B23.4B7.2A$23.4B22.17B2A2.4B21.4B8.A$22.4B23.18B4.4B19.4B
10.3A$21.4B24.16B7.4B10.A6.4B13.A$20.4B23.2AB.13B9.4B7.3A5.4B$19.
4B23.A.AB2.11B11.4B5.A7.4B$6.2A10.4B24.A5.10B13.4B4.2A5.4B$7.A9.4B
24.2A5.2B2A6B14.9B4.4B$5.A10.4B31.3B2A6B15.6B5.4B$5.5A5.4B5.2A26.
10B15.8B2.4B$10.A4.4B5.A27.8B.B2A.A9.15B$7.3AB2.7B.BA.A26.7B3.B2AB
3A7.14B$6.A.2B3.7B.B2A27.6B6.B4.A6.13B$6.4A12B30.6B4.2A.3A5.2AB.
10B$4.2A2.BA3B2A7B30.5B4.A2.2A6.A.AB3.B2A3B$3.A2.3AB.2B2A7B29.8B.A
.A9.A6.B2A3B$3.2A.A.B3.10B20.A8.8BA.A.2A.A4.2A6.4B$6.A8.8B19.3A6.
6B.2BAB.A.2A13.3B$6.2A7.9B21.A4.7B2.2B2.A17.2B.BA$16.3B2.4B19.2A4.
7B3.B.2A16.B2ABA.A$14.5B3.4B18.4B.8B2.A.A2.2A13.BABABA.A$14.2A7.4B
19.11B2.2A2.A2.A10.A2.A.A.A.A.2A$15.A8.4B17.12B7.2A11.4A.2A2.A2.A$
12.3A10.4B16.12B24.A4.2A$12.A13.2B2A15.11B23.A.A$27.BABA13.9B12.2A
12.2A$28.A3B9.2B.10B11.A$29.4B7.16B.B4.BA.A$30.4B3.23B2.B2A$31.32B
$32.32B$33.3BABA25B$34.3B2A6BA18B$36.B2A5BA19B$37.17B5.B.4B$37.5BA
8B11.4B$37.4BA2BA6B12.4B$41.ABA4.2B14.4B$42.A6.2B14.3BA$48.B2AB14.
3BA$49.2A16.3AB!
