#CSYNTH gun_9216 costs 3024 cells.
#C period 9216 fullperiod 9216 bbox 56 by 54
#CLL state-numbering golly
x = 56, y = 54, rule = LifeHistory
18.B.B$16.3B2AB14.2B$4.2A10.2BA2BA12.6B$5.A5.2B2.4B2A2B11.7B$5.A.A
B.13B10.9B$6.2AB.16B8.9B$8.4BA12BAB7.10B$7.4BABA10BABAB5.12B$8.4BA
11BABAB4.9B.4B$6.2AB.15BA2B2.4B2A3B4.4B$5.A.AB.23BA2BA2B5.4B$5.A5.
2B2.5B2A12B2A2B7.4B$4.2A10.3BABA15B9.4B$16.4BA18B8.4B$16.14B.B5.2A
9.4B$12.2A.4B2.9B7.A11.4B$12.A.3B2AB4.7B7.3A9.4B$13.A2.B2A3.10B8.A
10.4B$14.A7.2A5.4B19.3BA$12.A.5A4.A6.4B19.ABA$11.A.A3.A2.3A8.4B19.
2A$11.A2.A4.2A11.4B19.B$12.2A19.4B$34.4B$17.2A16.4B$5.5B.3B2.B2A2B
5.2A8.4B10.2A$5.7BAB2.5B5.A10.4B9.A$4.2A5BABA8B6.A2.2A5.4B.2B7.A$
4.2A4B2ABA5BAB6.2A3.A5.7B6.2A$5.B.3BA8BA2B.B.BA5.A.AB.6B2A2B.BAB2.
2A$7.B3A3B4ABA6B3A4.2AB.5BA2BA3B4A2.A$9.BABAB3A8B.B2.A5.8B2A5B2.A.
2A$9.3BA12B3.2A5.14B2A.A.A$8.14B13.12B.B2A.A.A$2A3.20B10.11B3.B.BA
.2A$A2.B.B3A4B2A11B8.8B.B8.A$.3A3B3AB5A11B6.9B8.A.A$3.AB.B.B2ABAB
2A11B5.5B.3B9.2A$.2A6.2B3A9B3A2B3.4B3.3B3.2A$.A6.4B3A13B2.4B5.2B2.
A2.A$2.A6.4BA2.12B.4B8.2B.A.A$.2A6.2BABA2.16B9.B2A.A$11.2A9.9B10.B
3A$23.7B12.2AB$25.4B$29.B$28.2BA$26.2B2A.A$25.2AB2ABA$25.2AB2A2.2A
$30.A.A$24.A.5A2.A$24.2A.A3.A.A$30.2A.2A!
