#CSYNTH gun_4290 costs 3621 cells.
#C period 4290 fullperiod 4290 bbox 71 by 51
#CLL state-numbering golly
x = 71, y = 51, rule = LifeHistory
54.B.B$53.B2A3B$53.A2BA2B10.2A$52.2B2A4B2.2B5.A$41.2A9.13B.BA.A$
17.2A18.2A3.A6.16B.B2A$13.2A.A.A18.A2.A7.BA12BA4B$13.2A.A18.2A2.3A
5.BABA10BABA4B$16.2A4B9.2A.A2.2A3.2B3.BABA11BA4B$13.2A7B9.A.2A.A2.
3A2B3.2BA15B.B2A$13.A3.6B12.A.2AB.A23B.BA.A$11.A.A4.5B12.A3.2A19B
2.2B5.A$6.2A3.2A4.2B3A2B5.A3.2A.2A21B10.2A$7.A9.BA3BAB4.ABA3.A.A.B
.19B$.2A.3A10.7B4.3B3.A2.A5.16B$.2A.A12.A5BA3.5B3.2A6.10B3.4B.2A$
4.B12.2A3B2A3.B3AB12.8B3.B2A3B.A$.3AB12.7B2.2B3A2B10.9B4.2AB2.A$A
2.A2B.3B2AB5.5B3.3BA3B9.10B8.A$2A.5BA2BA3B3.B2A2B2.9B7.10B5.5A.A$
3.4BA7B2A.3BA3.9B6.7BA3B5.A4.A.A$3.4BA6BA6BA4.3BA3B6.7BABA2B7.A2.A
.A$3.4BA7B6A5.2B3A2B5.8BABA2B6.2A3.A$5.3BA2BA9B6.B3AB5.10BA3B$7.3B
2AB4.2B8.5B4.13B.B2A$17.B.4B5.3B4.13B2.BA.A$17.B2A6B.BABA3.4B.7B7.
A$16.BA2BA8BA3.4B3.6B7.2A$7.2B6.2BA2BA7B4.4B5.4B$5.6B4.3BABA7B3.4B
7.4B$3.10B2.5B4A3B3.4B9.4B$.3BABA2BABA5B.B2A2BA2B3.4B11.4B$2ABA2BA
2BA2BAB2A4B3A2B3.4B13.4B$.3BABA2BABA3B.5BA3B2.4B15.4B$3.10B4.13B4.
A12.4B$5.6B7.11B3.5A11.4B$7.2B10.9B3.A5.A11.4B$19.8B4.B3A2.A12.4B$
19.7B6.2B.A.2A12.4B$20.5B7.2ABA3.A12.4B$18.6B2.4B.B2A2.A.A14.4B$
18.2A4.2B4A3B4A.2A14.4B$19.A4.2B4A4B21.4B$16.3A5.2B4A3B4A.2A16.4B$
16.A5.2AB.4B.B2A2.A.A18.4B$21.A.AB7.2ABA3.A18.4B$21.A10.2B.A.2A20.
4B$20.2A9.B3A2.A22.4B$31.A5.A23.3BA$32.5A25.3BA$34.A28.3AB!
