#CSYNTH gun_4875 costs 5628 cells.
#C period 4875 fullperiod 4875 bbox 84 by 67
#CLL state-numbering golly
x = 84, y = 67, rule = LifeHistory
10.A3.2A30.B$9.A.A.A.3A27.3A$9.A.A.A4.A26.3B$.2A7.A.A.ABABA25.A3BA
$2.A9.A.A.2A4.2A20.A3BA$2.A.AB5.ABA4B4.A20.7B$3.2AB3.BABA2B4.BA.A
20.2B3A2B$4.5BA2BA4.B.B2A20.9B$5.3BA5B2.4B22.9B$.2B2.2BA5BA6B23.2B
3A2B8.B$2A4BA3BA3BA5B23.7B7.3AB.2A$2A4BA2BABA2BA6B23.A3BA9.BABA.A$
.2B.2BA3BA3BA2B.4B22.A3BA11.2BA$4.3BA5BA2B3.2BAB22.3B11.ABA$4.4BA
3BAB6.2B2A21.3A8.AB.2B$2.2AB.3B3A2B7.2A2B13.2A6.B8.A.3ABA$.A.AB.8B
8.4B11.B2AB4.3B7.A2B2A.BA$.A5.8B3.2A3.4B11.3B3.9B3.2BA.2A$2A3.9B4.
A.A3.4B11.B3.11B2.3BA2B$5.2A2.2B.2B.B5.A3.4B9.18BABA2B$6.A3.BA2B2A
B2.2A.A3.4B8.17B6.A$3.3A3.ABAB.2A.AB.A.A4.5B5.18B5.A.A$2.A5.BA2.A.
2A.A2BA.2A4.4B.21B7.A$3.A4.A.B3A2B.A2.B.A2.A3.3B2A21B$4.A.2B.B.A3.
A2.4A2.2A4.A4B2A14B.3BA$.3A2.B3A.A3.B2A8.2A.2BA5BA12B3.ABAB$.A2.3A
2.BA4.2B2.A6.A.5B2ABA12B5.2A2B$2.2A2.BA6.A.A.2A7.A.6BA13B6.4B12.A$
3.A.AB6.A.2A.A5.3A3.19B7.4B9.3A$3.A.2BA5.A.A.A2.A3.A5.20B7.4B7.A
10.A$4.A.A5.2A.A.A.2A9.19B9.4B6.2A8.BAB$2.A.A.A.A2.A2.2A.A13.16B4.
A7.4B.6B8.3B$2.2A3.2A2.2A5.3A14.11B5.3A6.8B9.2BA2B$20.A15.4B3A3B8.
A6.10B6.BABAB$38.7B8.2A5.B.10B4.7B$40.4B9.20B3.2B3A2B$35.2B4.B13.
11B2A3B2A11B$33.6B.B4.2B7.2B2A7BA2BA2B2A.10B$31.2A6B2A.6B5.2BA2BA
6BA2BA3B4.2B3A2B$29.BA2BA4BA2BA7B4.3B2A4B2.2B2A3B5.7B$28.B6A2B6A7B
.9B4.7B6.BABAB$29.BA2BA4BA2BAB.15B6.3B9.2BA2B$31.2A6B2A4.13B7.5B8.
3B$33.6B7.12B10.2A8.BAB$18.2B15.2B10.12B9.A10.A$16.6B6.2B18.10B11.
3A$14.10B.6B18.9B7.A5.A$12.2A3BA2BA3B2A6B18.6B7.3A$11.B5A4B5A7B18.
4B7.A10.B$12.2A3BA2BA3B2A.7B18.4B6.2A8.3B$14.10B4.7B10.A7.4B.6B8.
3B$16.6B7.7B9.3A6.8B9.2BA2B$18.2B10.7B11.A6.10B6.B3AB$31.7B9.2A5.B
.10B4.B2AB2AB$32.7B8.18BAB3.3AB3A$33.7B9.15BABA3B3AB3AB$34.7B7.2B
2A12BABA.2B3AB3AB$35.7B5.2BA2BA12BA4.3AB3A$36.7B4.3B2A4B2.7B5.B2AB
2AB$37.7B.9B4.7B6.B3AB$38.15B6.3B9.2BA2B$39.13B7.5B8.3B$40.12B10.
2A8.3B$41.12B9.A10.B$42.3BA6B11.3A$43.3BA5B13.A$44.3A3B!
