#CSYNTH gun_4719 costs 4746 cells.
#C period 4719 fullperiod 4719 bbox 113 by 42
#CLL state-numbering golly
x = 113, y = 42, rule = LifeHistory
96.B.B$95.B2A3B$95.A2BA2B10.2A$94.2B2A4B2.2B5.A$60.A22.2A9.13B.BA.
A$36.A22.A.A17.2A3.A6.16B.B2A$36.3A20.A.3A15.A2.A7.BA12BA4B$39.A
16.2A.A4.A12.2A2.3A5.BABA10BABA4B$13.A24.2A16.A.A.ABABA11.A2.2A3.
2B3.BABA11BA4B$13.3A7.2A13.5B15.A.A.2A4.2A6.A.A2.3A2B3.2BA15B.B2A$
16.A6.A16.4B13.ABA4B4.A5.2A.A.2AB.A23B.BA.A$15.2A3.BA.A15.5B11.3BA
2B4.BA.A3.3A2.A3.2A19B2.2B5.A$15.4B.B2A16.10B5.5B4.B.B2A3.A4.A.2A
21B10.2A$17.4B18.7B2A2B4.6B2.4B5.A.4A.A.B.19B$10.2A4.6B17.9BAB.15B
6.A6.A5.16B$9.B2AB3.5B5.2A11.6BA2BA17B7.3A.2A6.10B3.4B.2A$10.3B3.
6B2.2B2AB9.6B2AB2A8BA9B8.A.A8.8B3.B2A3B.A$9.B.B4.2B2A3B.4B9.8BABA
8BABA4B.4B10.A6.9B4.2AB2.A$5.AB.6B2.BA2BA15B.2BA6BA8BA2BA3B3.4B7.
3A5.10B8.A$4.A.A11B2A18BABA15B2A2B6.4B5.A7.10B5.5A.A$4.2A.32BABA
18B7.4B4.2A5.7BA3B5.A4.A.A$8.20BA5B.5BA20B7.9B4.7BABA2B7.A2.A.A$9.
18BABA32B.2A4.6B5.8BABA2B6.2A3.A$9.2B2A15BABA18B2A11BA.A4.8B2.10BA
3B$7.3BA2BA8BA6BA2B.15BA2BAB2.6B.BA3.24B.B2A$6.4BABA8BABA8B9.4B.3B
2A2B4.B.B7.23B2.BA.A$.B2.7BA8B2AB2A6B9.B2A2B2.6B3.3B8.13B.7B7.A$2A
B.16BA2BA6B11.2A5.5B3.B2AB5.2AB.10B3.6B7.2A$2A16B.BA9B17.6B4.2A5.A
.AB3.7B5.4B$.B.4B2.6B4.2B2A7B18.4B12.A5.9B5.4B$4.2B4.5B5.10B16.2AB
.4B9.2A6.2B2A4B6.4B$8.2BA3B11.5B15.A.AB3.2A17.2B2A2B9.4B$5.4BABA
13.4B16.A6.A19.5B10.4B$5.2A.A.A15.5B13.2A7.3A17.3B12.4B$4.ABABA.A.
A16.2A24.A16.5B12.4B$4.A4.A.2A16.A41.B2AB2A13.4B$5.3A.A20.3A35.2A
2.2A.AB2.2A10.4B$7.A.A22.A35.A2.B3.A.A2.A11.4B$8.A60.7A.2A14.4B$
76.A17.3BA$71.4A.A18.3BA$71.A2.2A20.3AB!
