#CSYNTH gun_2450 costs 5460 cells.
#C period 2450 fullperiod 2450 bbox 105 by 52
#CLL state-numbering golly
x = 105, y = 52, rule = LifeHistory
12.2A4.2A65.2A4.2A$12.A.A2.A.A65.A.A2.A.A$14.A2BA5.2A5.2A41.2A5.2A
5.A2BA$12.BA4BAB2.A2.A4.A43.A4.A2.A2.BA4BAB$12.BA4BAB3.3A5.A41.A5.
3A3.B6AB$13.A4BA7.2A2.2A41.2A2.2A7.B4AB$7.2A6.2A4.4A.A.A3.2A37.2A
3.A.B.4A4.2B6.2A$8.A6.B5.A2.ABA.2A.A2.A35.A2.A.2A.ABA2.A5.B6.A$8.A
.AB2.2B9.2A2B3.3A35.3A3.B3A9.2B2.BA.A$6.2A.2AB.5B7.BAB4A41.4A3B7.
2BA2B.B2A.2A$5.A.A3.6B2A3B2.4BAB.A.2A35.2A.A.BA4B2.6B2A3B3.A.A$5.A
.A3.3B2A10B.B2A2B.A.A33.A.A.2BA2B.5BA5B2A2B3.A.A$3.2A.A.2A.3B2A2BA
5BAB2.2A2B.A.A33.A.A.3BA2.5B2A4BA3B.2A.A.2A$4.A.A.B.A.3BA2BA3BABAB
3.B2.2A.2A31.2A.2A2.A3.5BAB2ABA3B.A.A.A.A$4.A.2ABAB5.2BA4B2A2B51.
8B2AB5.BABAB.A$.2A.A.ABAB7.4B3.4B49.4B3.BA2B7.2BAB.A.2A$.A2.2A3B
16.4B47.4B16.3B2A2.A$3.A4.AB16.4B45.4B16.BA4.A$4.5A11.A6.4B43.4B6.
A11.5A$20.3A5.4B41.4B5.3A$6.A16.A5.4B2.B33.B2.4B5.A16.A$5.A.A14.2A
B5.7B31.A6B5.B2A14.A.A$6.A15.5B4.4B3A3B23.4BA5B4.5B15.A$24.5B.12B
18.A2.5BA6B.5B$24.6B.8BA2B16.3A2.11B.6B$23.7B.8BA2B15.A5.B3A7B.7B$
22.2A9BA5BAB4.2A10.2A5.17B2A$21.B2A9BA2BA4B5.A7.5B5.4BA12B2AB$21.
12BA2BA4B5.A.AB3.2A2B7.4BA15B$5.A15.14B.B.4B5.2AB2.B2A3B5.4B.A.3B
2A9B15.A$4.A.A12.2AB.11B5.4B5.10B4.4B5.2BABA6B.B2A12.A.A$5.A12.A.A
B3.B.5B8.4B5.10B2.4B8.A4B.B3.BA.A12.A$18.A8.4B10.4B4.9B2.4B10.4B8.
A$3.5A9.2A7.4B12.4B4.13B12.4B7.2A9.5A$2.A4.BA16.4B14.4B3.12B14.4B
16.BA4.A$A2.ABA2B16.4B16.4B3.10B16.4B16.5A2.A$2A.A.4B7.4B3.4B18.4B
.B2.7B18.4B3.4B7.2ABA.A.2A$3.A.ABABA5.3B3A5B20.13B20.7BA3B5.B2ABA.
A$3.A.A.B.A.BA3BAB3A4B3.B2.2A.2A11.11B11.2A.2A2.B3.5BABA6B.A.B.A.A
$2.2A.A.2A.2A3B2A4BA3B2.ABAB.A.A13.10B12.A.A.2B2A2.5BA2BA6B.2A.A.
2A$4.A.A3.2A2BA2B4A4B.3BAB.A.A13.9B13.A.A.B3AB.5BA2BA6B3.A.A$4.A.A
3.3AB4AB2A2.BA4B.A.2A13.9B15.2A.A.B3A2B2.3B2A6B3.A.A$5.2A.3A.4AB7.
A3B3A17.9B17.3AB3A7.5B.B2A.2A$7.A.AB2.2B9.4B3.3A15.7B15.3A3.2BAB9.
2B2.BA.A$7.A6.B5.A2.ABA.2A.A2.A15.8B14.A2.A.2A.ABA2.A5.B6.A$6.2A6.
2B4.4A.A.A3.2A16.9B14.2A3.A.A.4A4.2B6.2A$12.2B2A2B7.2A2.2A18.10B
15.2A2.2A7.BA2BAB$11.B2A2B2AB3.3A5.A19.3B3.4B14.A5.3A3.A2B2A2BA$
11.BA4BAB2.A2.A4.A27.4B14.A4.A2.A2.A2B2A2BA$13.A2BA5.2A5.2A27.3BA
12.2A5.2A5.4A$11.A.A2.A.A40.3BA23.A.A2.A.A$11.2A4.2A41.3AB22.2A4.
2A!
