#CSYNTH gun_1294 costs 6656 cells.
#C period 1294 fullperiod 1294 bbox 104 by 64
#CLL state-numbering golly
x = 104, y = 64, rule = LifeHistory
38.2A$39.A$37.A$37.5A$41.A37.2A$35.4AB38.A.A$35.A2.AB32.2A4.A$36.
6B3.2A23.A2.A2.2A.4A$37.6B2.A24.2A.A.A.A.A2.A$38.5B3.A26.A.ABABAB$
36.7B2.2A9.2A15.A.AB2AB$25.2A8.8B.2B10.A17.AB.2B$26.A9.11B6.BA.A
20.3B$26.A.AB4.15B.2B.B2A21.4B6.2A$27.2AB.23B21.3B2AB6.A$29.25B21.
3B2AB3.BA.A$8.A20.25B19.10B.B2A$8.3A5.2A12.4B2A3B2A13B18.13B$11.A
3.B2AB10.5BABA2BABA13B16.14B$10.2A4.3B8.9B2A3B2A8B.4B14.15B$10.5B
2.B2.2B2.13B2A2BA2B.B.2B4.4B12.4B2.8B$12.26B3A2B11.4B10.4B5.6B$11.
2A21B.4BA4B11.4B8.4B4.9B$11.2A3B2A16B2.7B13.4B6.4B5.2A4.4B$12.B.2B
2A16B2.7B14.4B4.4B7.A5.4B$14.9BABA7B4.6B15.4B2.4B5.3A7.4B$18.5B2AB
10.7B16.8B6.A10.4B$17.7BA12.6B17.6B19.4B10.2A$17.7B13.7B17.4B21.4B
9.A$18.7B12.8B15.6B21.4B10.A$9.2A7.8B6.2A2.9B14.8B14.2A5.4B5.5A$
10.A6.9B5.B2AB2.7B14.4B2.4B11.A2.A5.4B4.A$10.A.AB2.9B7.2B5.4B14.4B
4.4B10.2A.A.AB.7B2.B3A$11.2AB.12B6.2B3.B2A2B5.2A6.4B6.4B11.A.2AB.
7B3.2B.A$13.18B.2BAB3.2A8.A5.4B8.4B10.A3.12B4A$13.20BA.A11.A6.4B
10.4B7.3A3.7B2A3BAB2.2A$11.B2.2A17B.A12.2A4.4B12.4B5.A6.7B2A2B.B3A
2.A$10.2AB.2A16B3.3A10.2B2.4B14.4B4.2A5.10B3.B.A.2A$10.2A20B5.A9.
8B6.2A8.9B4.8B8.A$11.2B.20B13.7B7.A10.6B5.9B7.2A$15.B.20B2.2B2.B2.
7B5.2A.A10.8B2.4B2.3B$18.35B4.A2.A9.15B3.5B$17.9B.27B3.B2A10.14B7.
2A$18.7B2.16B2A14B11.13B8.A$18.7B2.16B2A13B10.2AB.10B10.3A$12.2A4.
6B4.29B10.A.AB3.B2A3B14.A$11.B2AB3.7B10.2B.B.17B10.A6.B2A3B$11.4B
3.6B10.3B4.15B10.2A6.4B$12.2B3.7B6.2A.2BA5.15B19.3B$3.2A7.4B2.5B7.
A.2BA.A5.13B21.2B.BA$3.A.A5.5B.6B8.A2.BA.A2.13B22.B2ABA.A$4.A.19B
7.A3.A.A.2A4.8B20.BABABA.A$5.17B.2A5.A.4A2.AB2A6.6B18.A2.A.A.A.A.
2A$5.14B4.A5.A.A3.A.A2.B8.5B18.4A.2A2.A2.A$5.15B4.3A2.A.A2.A2.2A.
2A9.B.B22.A4.2A$4.3B2A12B5.A3.A3.2A2.A.A9.3B21.A.A$4.3B2A13B16.A.A
9.B2AB20.2A$2.2AB.11B2.4B16.A11.2A$.A.AB2.8B5.4B$.A5.10B4.4B$2A5.B
.B5.2A5.4B$8.3B4.A7.3BA$7.B2AB5.3A5.3BA$8.2A8.A6.3AB!
