#CSYNTH gun_327 costs 4104 cells.
#C period 327 fullperiod 327 bbox 76 by 54
#CLL state-numbering golly
x = 76, y = 54, rule = LifeHistory
39.2A$20.2A.A.2A11.B2AB$15.A3.A2.2A.A2.A.2A.A4.3B$13.3A2.A.A4.A.2A
.A.2A5.B.B$12.A6.A.5A2.B8.5B$12.2A7.A4.AB2A6.6B24.A2.2A$9.5B6.A2.B
A.A.2A4.8B24.4A.A$8.4B7.A.2BA.A2.13B30.A$7.5B7.2A.2BA5.13B21.7A.2A
$6.6B11.3B3.15B19.A2.B3.A.A2.A$4.B.6B12.2B3.15B19.2A2.2A.AB2.2A$3.
2AB.6B10.4B.17B21.B2AB2A$3.2A7B4.16B4A9B22.5B$4.2B.6B2.6B2A8BA3BA
10B22.3B$7.6B2.5BABA8BA4BA10B20.2A3B$.B3.9B.BA5BA9B3A7B3.B2A18.B2A
B2A$2AB.9B2A2BA23B4.A2.A9.2A6.2ABA4B$2A10BA5BA6B2.2B2.B3.6B5.2A.A
9.A5.9B$.10B2AB2A6B14.6B7.A9.A.AB3.7B$.11B4A3BA14.9B6.2A9.2AB.10B$
3.10BA4BA15.2A4.4B18.13B$3.12B3A2B15.A5.4B17.13BA$3.12BA4B12.3A7.
4B16.11BABA$4.10B.3B.B2A10.A10.4B17.8B2.2A$5.9B5.BA.A21.4B16.6B5.B
$5.8B9.A22.4B14.9B$2.B2.9B8.2A22.4B12.4B4.2A$.2AB.9B13.A19.4B10.4B
5.A$.2A10B14.3A12.B.3B.4B8.4B7.3A$2.B.8B18.A10.6B2ABA12B10.A$5.8B
4.A11.2A3.B5.2B3A2B2A2BA10B7.A$5.7B3.3A11.8B3.3B2A6BA10B6.A.A$6.5B
3.A16.8B.4B2A4B2A12B4.A.A$3.A3.4B3.2A15.18BA16B.2A.2A$.3A3.9B14.
15B.2A2.13B2A2B$A7.6B14.17B8.10BABAB$A.2A5.6B3.B2.2B2.19B11.7B.2BA
B$.A2.A4.35B11.7B2.A3.A$2.2AB3.27B.7B12.7B3.4A$3.41B9.2AB.B.3B$4.
41B7.A.AB11.2A$5.8B2A2BA16B2.5BA2B8.A14.2A$5.10B4A3B.B.2B11.B2A3B
7.2A$6.9B2A2BAB4.3B10.B3AB$6.13B2A5.A2B.2A7.4B$7.11B2A5.A.A2B.A7.
4B$9.10B2AB2.A.AB2.A9.B.B2A$8.8B4.2A.A.A3.A12.BA.A$8.6B6.2ABA2.4A.
A13.A$8.5B8.B2.A.A3.A.A12.2A$8.B.B9.2A.2A2.A2.A.A$9.3B9.A.A2.2A3.A
$8.B2AB9.A.A$9.2A11.A!
