#CSYNTH gun_530 costs 3240 cells.
#C period 530 fullperiod 530 bbox 54 by 60
#CLL state-numbering golly
x = 54, y = 60, rule = LifeHistory
25.2A$24.A2.A$19.2A2.A.2A.A$19.A3.A2.B.A$20.3A.ABA.2A$22.A.A.A2.A$
22.BA3B2A$23.2ABA$13.2A7.2AB4A2.2A$13.ABA6.A4B2.A2.A$14.4A4.B3A2.
2A.A$15.BA2B3.3B5.A.3A$14.6B2AB7.A4.A$14.BA.A2.2AB6.2A.2A.3A$15.2A
4.2B4.BAB.2A.A3.A$22.BAB2.3AB5.A2.A$21.BABA.B3A5B3A.A$18.2A.B2A3B
2AB.A2BA4.A.A$18.2A7B.AB2AB.5A.2A$19.7B2.AB2.A.A.A.A$14.2A3.7B4.2A
2.A.A.A4.A$7.2A3.2B2AB3.6B5.A.A.A.A3.3A$6.B2AB2.4B3.8B4.A.A2.A3.A
8.2A$7.2B3.10B2.4B4.2A6.A.2A5.A$8.2B2.10B3.4B10.2A.A.A5.A$7.2B2A
11B4.4B11.B2.A4.2A$4.B.3B2A12B4.4B10.2B2A.2A$3.2A18B5.4B8.BAB.A.A.
5A$3.2AB.15B7.4B6.BA.A.B.A3.B2.A$4.B3.15B7.4B5.BAB2A.5AB.2A$8.17B
6.4B3.2B2A4B.B.B$9.19B2.10B3AB3.2A2B$9.31B3AB3.2A2B$8.3A29B2A4B.B.
B$6.4BA23B2A2B.BAB2A.5AB.2A$6.3BA24B2A3.BA.A.B.A3.B2.A$4.31B5.BAB.
A.A.5A$4.19B3.4B.3B7.2B2A.2A$4.19B4.4B10.B2.A4.2A$5.16B.B2A3.4B7.
2A.A.A5.A$6.15B.BA.A3.4B5.A.A.2A5.A$2A2.16B5.A4.4B5.A9.2A$A.A.2AB.
14B3.A.A3.4B$2.AB2AB.12B2A.A.2A.A3.4B$.A2.B4.8B2.B2AB2A3.A4.4B$.2A
.2A4.6B5.B4.2A.2A3.4B$2.A.A6.5B4.2A.3A.A.A.A3.4B$2.A.A4.9B3.A.A4.A
3.A3.4B$3.A5.2A4.B2A3.A.A5.3A5.4B$10.A5.A5.A3.3A3.3A2.5B$7.3A7.3A
6.A2.A.A2.A3.5B$7.A11.A3.3B2.2A.2A2.3B2.4B$23.BA5B.5BAB3.4B$22.B4A
B5.B4AB3.4B$22.A.2BA2B3.2BA2B.A4.4B$23.2A.BAB3.BAB.2A6.4B$25.3A5.
3A9.4B$23.2A11.2A8.3BA$22.A2.3A5.3A2.A8.3BA$22.2A3.A5.A3.2A9.3AB!
