#CSYNTH gun_582 costs 4425 cells.
#C period 582 fullperiod 582 bbox 75 by 59
#CLL state-numbering golly
x = 75, y = 59, rule = LifeHistory
45.2A$45.A.A$47.A4.2A$43.4A.2A2.A2.A10.A$43.A2.A.A.A.A.2A9.BAB$45.
BABABA.A13.AB$46.B2ABA.A12.2BABA$30.2A15.2B.BA14.A.2AB.2A$29.A.A
14.3B7.A10.6A.A$23.2A4.A7.2A6.4B7.3A9.2B4.A$21.A2.A2.2A.4A4.A6.B2A
3B8.A10.4A$21.2A.A.A.A.A2.A4.A.AB3.B2A3B7.A.A8.BA.B$24.A.ABABAB7.
2AB.10B5.A.AB7.BA.2A$24.A.AB2AB10.13B5.A3B7.A3B$25.AB.2B11.14B6.4B
7.BA$28.3B10.15B5.6B6.BA$28.4B6.2A3.8B2.4B4.7B3.BA.A$26.3B2AB6.A4.
6B5.4B2.8B3.B2A$8.A17.3B2AB3.BA.A3.9B4.17B$7.ABA14.10B.B2A3.4B4.2A
5.16B$7.2B14.13B4.4B5.A6.16B$5.BA2BA12.14B3.4B7.3A3.16B$.2A.ABA.A
12.15B2.4B10.A3.15B$A.2A3BA12.4B2.8B3.4B11.A.2AB.12B$A4.AB12.4B5.
6B2.4B10.2A.A.AB2.11B$.4A13.4B4.13B11.A2.A5.10B3.2A$2.A.2B11.4B5.
2A4.6B14.2A5.2B2A6B3.A$.BA.BA10.4B7.A5.4B21.3B2A6B4.A$.B3A10.4B5.
3A5.6B21.10B3.2A$.2A11.4B6.A6.8B20.8B.B2A$BA11.4B13.4B2.4B18.7B3.B
2AB2A$A.AB2.B5.4B13.4B4.4B17.6B6.B.A$.2AB.3B3.4B13.4B6.4B17.6B4.2A
3.A$3.6B.4B13.4B8.4B16.8B.A2.4A$3.10B13.4B10.4B14.9BA.A.A$3.2B2A5B
13.4B12.4B4.A8.7B.2BAB.A.2A$4.A2BA3B13.4B14.4B3.3A6.6B3.2B2.A.A$4.
BABA4B11.4B16.4B5.A4.7B4.B.2A2.A$5.BA6B9.4B18.4B3.2A4.7B3.A.A2.A.A
$5.3B2.4B7.4B20.4B2.4B.8B3.2A2.A.A$5.3B3.4B5.4B22.4B3.11B8.A$5.B6.
4B3.4B24.4B.12B$4.A2B6.4B.4B26.16B$3.A.A3B5.7B28.B3A10B10.A$3.2A2B
ABA5.5B5.2A.2A20.A9B11.3A$.2A2.A2B2A4.6B4.ABA.A20.2BA9B9.A$2.A.A8.
4B2A3B2.2BA.A19.16B6.2A$2.A.6A2.4BA2BA2B.4B.A.2A9.A6.24B$3.A5.A3.
3BABA3BA2BAB.A.A10.3A3.23B$4.3A7.3BAB4.A.A.2A.A13.A2.24B$6.A5.5B7.
2A3.A13.A.B.24B$12.2A12.3A14.2A27B$13.A12.A14.2A2.A22B.4B$10.3A27.
A2.3A3B3.2B3.B7.2B3.4B$10.A30.A4.2B3.4B.3B5.BA2B3.3BA$42.4A5.B2AB.
B2AB4.A.A5.ABA$44.A7.2A3.2A6.A7.2A$46.A27.B$45.2A!
