#CSYNTH gun_1958 costs 5859 cells.
#C period 1958 fullperiod 1958 bbox 93 by 63
#CLL state-numbering golly
x = 93, y = 63, rule = LifeHistory
2A$.A26.A$A25.3A$2A23.A$.B23.2A$3B20.4B2.A$5B9.B3.B.5B4.3A10.2A$6B
2.B.7B2A7B6.A5.2A2.A$2.14BA2BA7B4.2A5.A.A.A$.15BABA8B4.5B3.B.A$.
16BA10B5.3B2.2B$.30B.9B44.B$2.41B8.2A22.A7.4B$3.26B2A12B8.A14.2A6.
ABA3.9B$6.22BA5BA9B4.BA.A15.A6.A2B.2A9B$6.6B3A3B3A12B3A11B.B2A16.A
.AB2.3B3A5B2A2B$4.7B2ABA3BAB2A10B2AB2A8B2A2B19.2AB.3BA7BA2BA2B$4.
6B2ABA5BAB2A19B.2BA.AB21.3B2A9B2A3B$4.7BAB2ABAB2ABA21B3.2A22.3B2A
9B2A3B$4.8B2AB3AB2A14B.4B22.A7.2BA2BA7BA3B.B2A$4.10BABABA14B.5B7.
2A14.3A6.2B2A5B3A3B2.BA.A$2.2AB.8BABABA14B.4B6.A2.A17.A4.9B2A.2BA
6.A$.A.AB.9B3A14B2.4B6.2A.A.2A.A11.2A3.10B3.ABA6.2A$.A7.7BA15B2.5B
6.B.A.A.2A11.12B7.A$2A6.23B2.8B2.B2ABA18.5B2.B$9.21B2.10B.B2A2.A
17.6B$9.14B3.3B2.13B3.2A16.8B$4.2A3.13B2.3B3.14B15.A.2A2.9B$4.A2.
2AB.10B2.21B15.2A.A12B$5.AB2AB2.8B2.23B6.2A11.12B$2A.A.A.B6.5B2.
15BA7B7.A12.13B$A.2A.A.2A6.4B2.14B3A9B.BA.A12.9B.4B$5.A2.A6.4B.14B
ABABA8B.B2A13.9B2.4B$5.2A7.5B.14BABABA10B14.11B2.4B$13.4B.14B2AB3A
B2A8B14.11B3.4B$5.2A3.21BAB2ABAB2ABA7B14.12B3.4B$4.BA.A2B.19B2ABA
5BAB2A6B8.B4.14B3.4B$4.2B2A8B2AB2A10B2ABA3BAB2A7B7.3B3.10B.4B3.4B$
2.2AB.11B3A12B3A3B3A6B7.6B2.15B4.4B$.A.AB4.9BA5BA22B.4B2.7B.7B2A4B
.B2A3.4B$.A8.12B2A39B2A2BA4BA2B.BA.A3.4B$2A8.53B3A2BA4BAB4.A4.4B$
12.9B.41B2A3BA5BA4.2A4.4B$13.2B2.3B5.10BA17B2A9B2A3BA6B10.4B$11.A.
B3.5B4.8BABA16B2A16BA3BA11.4B$10.A.A.A5.2A4.7BA2BA25BA9BA2BAB11.4B
$10.A2.2A5.A6.7B2A7B.B3.13BABA3B2A4BABA13.3BA$9.2A10.3A4.5B.B3.B
10.4B2.5B2A13B15.ABA$23.A2.4B20.11B2A3BABA5B.B.B13.2A$26.2A23.16BA
2BA6B2A13.B$27.A24.15B4A6B2A$24.3A22.B3.2B.5B2.12B.2B$24.A23.2AB.
3B.4B3.13B$48.2A3BA11.11B.B$49.B.BA.A10.12B2A$52.BA.A9.10B.B2A$55.
A7.2AB.6B4.B$55.2A5.A.AB.4B$62.A5.5B$61.2A8.2A$71.A$72.3A$74.A!
