#CSYNTH gun_952 costs 2565 cells.
#C period 952 fullperiod 952 bbox 57 by 45
#CLL state-numbering golly
x = 57, y = 45, rule = LifeHistory
20.2A$20.2A19.A2.2A$41.4A.A$20.4A3.A18.A$20.A2.AB.A.A10.7A.2A.A$
21.2B.2B.A10.A2.B3.A.A.2A$22.4B12.2A2.2A.AB$21.5B15.B2AB2A6.2A$20.
4B2AB15.5B5.B2A2B$19.5B2A17.3B7.2A2B$19.8B8.2A5.5B6.BA2B$19.7B8.A
2.A3.4BAB5.BABA$18.9B5.BA.A.A3.3BABA2B3.2ABA$16.11B5.3A.A3.4BABA2B
2.4B$8.2A6.12B4.3AB5.4BA2B3.4B$9.A5.13B5.3B3.11B.2B2AB$9.A.AB.15B
7.3BA11B2.2A$10.2AB.14B8.2BABA10B$12.14B11.BABA11B$12.14B13.A7B2.
4B$12.13B13.7B5.4B$13.11B14.9B4.4B$15.13B9.4B4.2A5.4B$15.B3A10B7.
4B5.A7.3BA$15.BABA10B.B4.4B7.3A5.ABA$14.4BA19B10.A6.2A$14.BA4B2A
15B19.B$13.BA6BA14B3.BA2B.2A$10.B.5B2AB2A4B2A7B3.A2B4A.A$9.2AB.11B
A3BA7B2.B4ABA.A$9.2A13BAB2A8B.5BABA.2A$10.2B.3BABA5B2ABA12BA.2A2B.
BAB$13.3B2AB2A13B2.3B3A3.3A2B$15.2BABA12B5.BAB.2B2A.A3B$16.2BA6B.
5B8.2A.ABA5B$16.9B15.A.AB4AB$6.3B3.2A2.7B2A15.A.4A2BA$5.B2AB2.B2A
2B4.3B2A16.2A.2BAB$.B2AB2A.AB2.4B5.2B$.4ABAB3A5B4.4B$16B4.A.A2.A$
5B3ABAB4A3.3A.4A$4B2.BA.2AB2AB2.A3.A$2B2AB2.B2AB6.2A2.A.A$2.2A3.3B
12.2A!
