#CSYNTH gun_1332 costs 3136 cells.
#C period 1332 fullperiod 1332 bbox 49 by 64
#CLL state-numbering golly
x = 49, y = 64, rule = LifeHistory
39.A4.A2BA$37.3A3.BA3B$36.A6.A4BA$36.2A3.BA.A.B2A$32.6B2.2ABA3.B$
28.5B2AB4.3B$26.7B2A3B2.4B$25.14B.A2BAB$25.14B3.2A$25.15B$23.2AB.
13B$22.A.AB2.11B$22.A7.7B$21.2A6.8B$28.9B$27.9B$26.10B$7.2A16.7B4.
4B$5.BABAB14.7B5.3B2A$5.3AB14.7B5.2ABA2B$5.2AB14.7B6.2AB.A.BA$5.BA
BA3.B8.3BA3B8.B3.ABAB$6.BA.A.B2A6.3BA3B14.A2B$8.A2BABA5.4B3A14.4B$
8.B4A5.7B14.B2A2B$9.B2AB4.7B16.2A$13.10B$13.9B$12.9B3.BA$12.8B4.2A
B6.A$12.7B4.B2A5.3A$10.11B3.AB4.A$9.15B6.2A$9.15B3.5B$5.2A3.15B2.
3B9.2A$4.B2A2B.21B8.A.A$5.2A2B2.3B2A15B.B8.A$6.A2B4.B2A5B3.11B3.B.
BA.2A$.B3.ABAB2.6B7.12B.B2A.A.A$3A.A.AB3.2A11.14B2A.A.A$4ABA6.A11.
8B2A5B2.A.2A$.3BAB3.3A10.2AB.5BA2BA3B4A2.A$.4B4.A11.A.AB.6B2A2B.BA
B2.2A$21.A5.7B6.2A$20.2A5.4B.2B7.A$16.2A8.4B9.A$15.B2AB6.4B10.2A$
15.4B5.4B$16.2B5.4B$8.A7.4B2.4B$7.A.A5.5B.4B$8.A.14B$9.14B$9.14B$
9.15B$8.3B2A12B$8.3B2A13B$6.2AB.11B2.4B$5.A.AB2.8B5.4B$5.A5.10B4.
4B$4.2A5.B.B5.2A5.4B$12.3B4.A7.3BA$11.B2AB5.3A5.3BA$12.2A8.A6.3AB!
