#CSYNTH gun_2666 costs 6460 cells.
#C period 2666 fullperiod 2666 bbox 95 by 68
#CLL state-numbering golly
x = 95, y = 68, rule = LifeHistory
7.A33.A29.A$A6.3A29.3A6.A22.3A$3A7.A27.A7.3A25.A$3.A5.2A27.2A5.A
27.2A$2.2A5.5B21.5B5.2A26.4B$2.4B5.6B15.6B5.4B14.2A12.5B$4.3B2.8B
3.BA5.AB3.8B2.3B17.A10.2B3A2B$4.3BA7B2A3BA.A3.A.A3B2A7B2A2B16.A10.
3B3A4B$5.B2A7B2A4BA5.A4B2A8B2A17.2A4.7BA4BA2B$6.ABA10B.B7.B.11BAB
19.B.10BA2BABA2B$2A2.B2.4B2A5B13.4BABA4B2.B2.2A10.A14BA2B3AB$A2.2A
7BA3B17.5BA5B2A2.A9.ABA11B3A2B2AB$.2ABA8BA2B17.5BA5BAB2A9.BA2BA.5B
2A7B2AB$4.6BABABAB17.A5BA5B12.2B2A6BA2BA2BABA2BA2B$.3A.5B2A3BAB4.A
5.A4.A3B2ABA4B.3A7.2AB.9BABA2B6A2B$.A2.A2.2BA5BAB3.A.A3.A.A3.A4BA
4B2.A2.A6.A.AB3.8BA3BA3BA4B$2.A.A3.BA5BA2B2.A2.A.A2.A2.4BA4BA3.A.A
7.A7.12B3A6B$3.A4.BA3B2A5B.3A.3A.4BAB2A3BA4.A7.2A8.7B.4BA7B$9.BABA
BA6B3.A3.5BA5BA25.3B.10B.3B$9.2BA8BABA.A.ABA5BA5B25.7BA4B.7B8.2A$
9.3BA7B2A.A.A.2A5BA5B25.6B3A12B7.A$7.5B2A4B2.B2.A.A2.B2.4BABA4B24.
4BA3BA3BA8B3.BA.A$4.B.10BABA4.A.A4.BA11B.B22.2B6A2BABA9B.B2A$3.A4B
2A7B2AB4.A4.2A8B2A4BA21.2BA2BABA2BA2BA6B2A2B$2.A.A3B2A7BA3B7.2B2A
7B2A3BA.A21.B2A7B2A5B.A2BAB$3.AB3.8B2.4B5.4B2.8B3.BA22.B2A2B3A11BA
BA$8.6B3.13B5.6B17.A8.B3A2BA14BA$11.5B2.11B4.5B20.3A5.2BABA2BA10B.
B$14.2A4.3A5B5.2A26.A4.2BA4BA7B4.2A$9.A4.A6.6B7.A25.2A4.4B3A3B10.A
$9.3A3.3A4.4B5.3A26.6B2.2B3A2B10.A$12.A4.A3.4B6.A30.2B2AB.5B12.2A$
11.2A7.4B37.3B2A2B3.4B$11.5B3.4B38.8B4.2A$13.3B2.4B39.9B3.A$3.2A7.
9B39.11B3.3A$3.A8.8B41.6B.4B4.A$2A.A.A3.10B42.5B3.4B$A2.ABAB.2A9B
26.A12.8B4.4B$.2A2.BA2B2A8B26.3A8.10B5.4B$3.7A2B2A5B29.A6.12B5.4B$
3.A.BA3.3A4B.B2A2.2A10.2A10.AB6.13B5.4B$4.4A2.3A4B.BA.A2.A11.A10.A
3BA3.12B7.4B$7.A4.2A2B5.2A13.A.AB9.2BAB2.13B7.4B$2.5A5.B2AB5.A15.
2AB.3B4.A3BA15B8.4B$2.A10.BA2B6.A15.7B.A22B7.4B$4.A9.4B4.2A15.9B2A
3B2A12BA4B6.4B$3.2A10.4B2.2B17.12BA2BA10BABA4B6.4B$8.2A6.8B15.14BA
BA10BABA4B7.4B$9.A7.7B13.17BA12BA4B9.4B$9.A.2A5.7B2.B2.2B2.19B.B3.
B.2B3.5B12.4B$10.A2.A4.33B6.3B7.B15.4B$11.2AB3.27B.6B6.B2AB5.3B15.
4B$12.32B2.B.5B5.2A6.B2AB15.4B$13.31B7.2A14.2A17.4B$14.10BAB3A14B
8.A35.4B$14.9BA7B.B.2B16.3A33.4B$15.8BA3BA2B4.3B17.A34.4B$15.9B2A
4B5.A2B.2A49.4B$16.13B5.A.A2B.A50.3BA$18.13B2.A.AB2.A52.ABA$17.8B
4.2A.A.A3.A54.2A$17.6B6.2ABA2.4A.A53.B$17.5B8.B2.A.A3.A.A$17.B.B9.
2A.2A2.A2.A.A$18.3B9.A.A2.2A3.A$17.B2AB9.A.A$18.2A11.A!
