#CSYNTH gun_3760 costs 3212 cells.
#C period 3760 fullperiod 3760 bbox 73 by 44
#CLL state-numbering golly
x = 73, y = 44, rule = LifeHistory
48.2A7.A$40.A6.B2AB4.3A$40.3A4.3B4.A$18.2A4.2B4.2A11.A4.B.B3.2A4.
3B.2A.A$17.A2.A.6B.A2.A9.2AB.10B3.5BA.2A$17.3A2.6B2.3A9.12B4.5B$
20.10A14.12B2.4B$19.A2.6A2.A10.2B.17B$19.2A.B4AB.2A6.2A.2A12B2A4B$
24.2B9.A2.A.2A10B2A2BA2B11.2A$24.2B9.2A.A.12BA2BA3B6.2A2.A2.A$25.B
12.A2.2B.8B3A4B.B4.A.A2.2A$24.2AB5.2A4.2A.B4.16B4.B.2A$15.2A6.A2BA
B5.A2.2A2.A.A4.B.12B2AB.2B2.A$16.A4.3B2A3B4.A.A2.A2.2A6.11BA2BA4B.
A.2A$16.A.AB.8B.BA.A.A.A11.11BA2BA2B2A.A2.A$17.2AB.8B.B2A3.A11.8BA
3BA5B2A.2A$19.12B16.A6B2AB2ABA3B.2B$19.12B15.A3B2.3B3A6B$19.12B3.A
10.B3A5.2B2A8B$21.10B3.3A7.4B4.4B2A4B.B2A$23.7B7.A5.4B5.2A3.B.B4.A
$23.8B5.2A4.4B7.A4.3B4.3A$22.5B.4B4.9B5.3A4.BABA6.A$22.6B.4B5.7B5.
A7.2A$21.6B3.4B2.8B$17.B2.3BA3B4.15B$15.7BABA2B5.15B$15.7BABA2B6.
14B$14.9BA3B7.10B3.B2A$14.11B.B2A6.2BA4B5.3AB$15.9B2.BA.A4.2BABA4B
3.A.2AB$2.2B7.A3.7B7.A4.2BABA3B3.A.A.2B$2.BAB5.A.A3.6B7.2A5.BA4B3.
A2.A$2BABA5.BA2B2.5B15.5B5.2A$BA3BA5.2B.B2.5B15.3B$.BA2B.A4.3BA2B
2.4B13.5B$3.A.2BAB2.2BABAB3.4B12.2AB2AB$4.A3BA2B2A2B2A4.4B7.2A2.BA
.2A2.2A$5.ABA2B.2AB2A6.4B6.A2.A.A3.B2.A$5.BAB2.2AB3A7.4B7.2A.7A$6.
2B2.3AB10.3BA8.A$10.BABAB10.3BA7.A.4A$12.2A12.3AB7.2A2.A!
