#CSYNTH gun_3371 costs 11322 cells.
#C period 3371 fullperiod 3371 bbox 111 by 102
#CLL state-numbering golly
x = 111, y = 102, rule = LifeHistory
40.2A$39.A.A$33.2A4.A$31.A2.A2.2A.4A$31.2A.A.A.A.A2.A4.2A$34.A.ABA
BAB7.A$34.A.AB2AB6.A$35.AB.2B7.5A$38.3B10.A$38.4B3.4AB$36.3B2AB3.A
2.AB$36.3B2AB4.4B$34.15B3.2A$33.14B2A.A2.A$32.15B2A.2A$31.15B.B$
30.4B2.9B$14.2A13.4B5.7B$14.A13.4B4.9B$9.2A5.A10.4B5.2A4.4B$9.A5.
2A9.4B7.A5.4B$6.2A.A.3B11.4B5.3A7.4B$6.A2.A.2A2B2A7.4B6.A10.4B$8.
2A.A.2B2AB5.4B19.4B$11.A.4B5.4B21.4B$11.2A.4B3.4B23.4B$4.2A8.3BA6B
8.2A15.4B25.A11.2A$3.A.A8.2BABA4B9.A.A15.4B23.A.A9.B2AB$3.A8.B.3BA
4B12.A4.2A10.4B10.A3.A3.2A2.A.A9.3B$2A.AB.B3.11B9.4A.2A2.A2.A9.4B
7.3A2.A.A2.A2.2A.2A9.B.B$.A.A.2AB.12B9.A2.A.A.A.A.2A10.4B5.A5.A.A
3.A.A2.B8.5B$.A.A.2A14B11.BABABA.A14.7B.2A5.A.4A2.AB2A6.6B$2A.A2.
5B2A8B12.B2ABA.A15.9B7.A3.A.A.2A4.8B$A2.4A3BA2BA5B.B2A11.2B.BA17.
6B8.A2.BA.A2.13B$.2A2.BAB.2B2A6B.BA.A.2A6.3B21.5B7.A.2BA.A5.13B$3.
2A6.7B5.A.A6.4B20.7B6.2A.2BA5.15B$3.A7.2B.4B5.A.A6.B2A3B19.6B10.3B
4.15B$5.A9.4B3.2A.A.AB3.B2A3B19.7B10.2B.B.17B$4.2A10.4B6.2AB.10B
17.6B4.29B$17.4B7.13B16.7B2.16B2A13B$18.4B6.14B15.7B2.16B2A14B$19.
4B5.15B13.9B.27B3.B2A$20.4B6.8B2.4B12.36B4.A2.A$21.4B5.6B5.4B6.B4.
20B2.2B2.B3.6B5.2A.A$22.4B3.9B4.4B4.2AB.19B14.6B7.A$23.4B.4B4.2A5.
4B3.2A19B14.9B6.2A$24.7B5.A7.4B3.B.17B15.2A4.4B$25.5B7.3A5.4B5.17B
15.A5.4B10.2A$25.5B9.A6.4B4.17B12.3A7.4B9.A$24.7B16.4B3.15B.B2A10.
A10.4B10.A$23.4B.4B16.4B2.12B4.BA.A14.2A5.4B5.5A$22.4B3.4B7.A8.15B
9.A15.A5.4B4.A$21.4B5.4B6.3A7.15B8.2A14.A.AB.7B2.B3A$20.4B7.4B8.A
7.14B25.2AB.7B3.2B.A$19.4B9.4B6.A.A7.12B28.12B4A$18.4B11.4B5.A.AB
7.10B29.7B2A3BAB2.2A$17.4B13.4B5.A3B7.9B29.7B2A2B.B3A2.A$16.4B15.
4B6.4B5.9B29.10B3.B.A.2A$3.2A10.4B17.4B5.6B5.6B29.8B8.A$4.A9.4B19.
4B4.7B.2B2.5B28.9B7.2A$2.A10.4B21.4B2.8B.9B27.4B2.3B$2.5A5.4B5.2A
16.24B25.4B3.5B$7.A4.4B5.A18.24B23.4B7.2A$4.3AB2.7B.BA.A18.19B2.4B
21.4B8.A$3.A.2B3.7B.B2A14.2A2.19B4.4B19.4B10.3A$3.4A12B16.A2.A17B
7.4B10.A6.4B13.A$.2A2.BA3B2A7B18.2A.15B9.4B7.3A5.4B$A2.3AB.2B2A7B
23.12B11.4B5.A7.4B$2A.A.B3.10B24.10B13.4B4.2A5.4B$3.A8.8B23.2B2A6B
14.9B4.4B$3.2A7.9B21.3B2A6B15.6B5.4B$13.3B2.4B21.10B3.2A.2A7.8B2.
4B$11.5B3.4B20.8B.B2A2.A.A6.15B$11.2A7.4B18.7B3.B2ABA2.A6.14B$12.A
8.4B17.6B6.B.A.A7.13B$9.3A10.4B17.6B4.2A2.A6.2AB.10B$9.A13.4B16.8B
.A2.2A6.A.AB3.B2A3B$24.4B14.9BA.A.A7.A6.B2A3B$25.4B4.A8.7B.2BAB.A
6.2A6.4B$26.4B3.3A6.6B3.2B2.A.2A12.3B$27.4B5.A4.7B4.B.2A2.A13.2B.B
A$28.4B3.2A4.7B3.A.A2.A14.B2ABA.A$29.4B2.4B.8B3.2A2.A14.BABABA.A$
30.2B2A3.11B8.3A9.A2.A.A.A.A.2A$31.BABA.12B10.A9.4A.2A2.A2.A$32.A
15B24.A4.2A$33.14B10.A12.A.A$34.10B11.3A12.2A$33.12B9.A$32.16B6.2A
$25.A6.24B$25.3A3.23B$28.A2.24B$27.A.B.24B$27.2A27B$25.2A2.A22B.4B
$24.A2.3A3B3.2B3.B7.2B3.4B$25.A4.2B3.4B.3B5.BA2B3.4B$26.4A5.B2AB.B
2AB4.A.A5.4B$28.A7.2A3.2A6.A7.3BA$30.A27.3BA$29.2A28.3AB!
