#CSYNTH gun_934 costs 5320 cells.
#C period 934 fullperiod 934 bbox 70 by 76
#CLL state-numbering golly
x = 70, y = 76, rule = LifeHistory
36.A11.A$36.3A7.3A$39.A5.A$38.2A5.2A15.A$38.5B3.B13.3A$40.4B2.4B9.
A$38.15B6.2A$37.17B2.5B$36.23B$36.22B2A$36.22B2A$34.2AB.19B.B$33.A
.AB2.18B$33.A6.16B$32.2A6.15B$42.12B$42.15B$42.16B$33.A7.4B.12B7.
2A$31.3A6.4B3.11B2.2A2.A2.A$30.A8.4B2.4B.8B2.A.A2.2A$29.A.A6.4B3.
2A4.7B3.B.2A$28.BA.A5.4B5.A4.7B2.2B2.A$27.3BA5.4B3.3A6.6B.2BAB.A.
2A$25.4B6.4B4.A8.8BA.A.2A.A$23.6B5.4B14.8B.A.A$22.7B4.4B16.5B4.A2.
2A$15.B.4B.8B2.4B17.6B4.2A.3A$14.2AB.17B17.6B6.B4.A$14.2A18B18.7B
3.B2AB3A$15.2B.16B19.8B.B2A.A$18.16B19.10B$19.15B18.3B2A6B$20.12B.
B2A10.2A5.2B2A6B$20.11B2.BA.A10.A5.10B$21.10B5.A10.A.AB2.11B$21.6B
2A2B5.2A10.2AB.12B$21.6B2A3B18.3B3A9B$21.10B19.5BA10B$17.A.2AB.8B
19.4BA11B.2B$15.3AB2AB3.7B18.18B2A$14.A4.B6.6B17.17B.B2A$15.3A.2A
4.6B17.4B2.8B.4B.B$17.2A2.A4.5B16.4B4.7B$20.A.A.8B14.4B5.6B$17.3A.
A.A8B8.A4.4B6.4B$16.A2.A.BA2B.6B6.3A3.4B5.A3B$15.A.A.A2.2B2.7B4.A
5.4B5.A.AB$14.A.A2.2A.B3.7B4.2A3.4B6.A.A$14.A.A.A2.A.A2.8B.4B2.4B
8.A$15.2A.2A2.2A2.11B3.4B6.3A$26.12B.4B7.A$26.16B$16.A10.14B$16.3A
11.10B$19.A9.12B$18.2A6.16B$12.2A4.24B6.A$11.B2AB5.23B3.3A$11.4B4.
24B2.A$12.2B5.24B.B.A$4.A7.4B2.27B2A$3.A.A5.5B.4B.22BA2.2A$4.A.14B
3.2B7.B3.2B3.3B3A2.A$5.14B3.2BAB5.3B.4B3.2B4.A$5.14B4.A.A4.B2AB.B
2AB5.4A$5.15B4.A6.2A3.2A7.A$4.3B2A12B22.A$4.3B2A13B21.2A$2.2AB.11B
2.4B$.A.AB2.8B5.4B$.A5.10B4.4B$2A5.B.B5.2A5.4B$8.3B4.A7.3BA$7.B2AB
5.3A5.3BA$8.2A8.A6.3AB!
