#CSYNTH gun_395 costs 3575 cells.
#C period 395 fullperiod 395 bbox 65 by 55
#CLL state-numbering golly
x = 65, y = 55, rule = LifeHistory
15.2A13.A$14.A.A11.3A$8.2A3.A13.A$8.A.A.A.2A11.2A$10.A.A.B.AB6.5B$
9.BA.A2B2AB4.BA3B$8.B2A2BA.A6BABA3B$7.3B3AB2ABA.2BA2BA4B$7.B4AB2.B
A2.3B2A4B$6.BABA11.6B$6.A.A12.5B$7.A12.7B$19.4B.4B$18.4B3.4B$17.4B
5.4B$16.4B7.4B$2A13.4B9.4B$.A12.4B11.4B$.A.AB2.B5.4B13.4B$2.2AB.3B
3.4B15.4B11.2A$4.6B.4B17.4B11.A$4.10B19.4B10.A.AB2.2A$4.2B2A5B21.
4B10.2AB.A.AB$5.A2BA3B23.4B11.3BAB$5.BABA4B23.4B10.4B$6.BA6B23.8B
2.3B.5B$6.3B2.4B21.21B$6.3B3.4B19.23B5.2A$6.B6.4B18.24B4.A$5.4B5.
4B18.22B2.BA.A$4.5A6.4B7.2A10.21B.B2A$4.2A2B.A6.4B6.A11.23B$5.B.2B
A7.4B6.A11.22B$5.3B2.2A6.4B4.2A15.17B$4.2AB3A2.A6.4B2.2B17.16B$4.
2BA4.A.A6.8B15.17B$4.3B4A2.A7.7B13.18B$3.2B3A5.A.2A5.7B2.B2.2B2.
21B$2.4AB2.2A3.A2.A4.37B$.A.2AB4.A4.2AB3.27B.9B$2.AB5.A6.32B2.6B$
8.A8.31B3.6B$8.2A8.12B3A14B6.4B$2.2A9.2A3.9B2A2BA3B.B.2B12.B2A2B$
2.A.A.4A3.A5.8BABA4B4.3B12.2A.B2A$4.A.A3.A4.A3.15B5.A2B.2A11.BA.A$
3.A.A2.B2AB2.2A4.13B5.A.A2B.A14.A$3.A4.2B2ABA2.2A4.13B2.A.AB2.A15.
2A$2A.AB3.3BABA2BA.2B.8B4.2A.A.A3.A$.A.A.2B.5B.2B2AB2A6B6.2ABA2.4A
.A$.A.A.2A2.B2ABA2BA.2B3.4B7.B2.A.A3.A.A$2.A.A2.A.A.ABA2.2A6.4B5.
2A.2A2.A2.A.A$4.A2.2A.A3.2A9.3BA5.A.A2.2A3.A$3.A6.A.2A2.4A6.3BA4.A
.A$3.2A5.2A.A2.A2.A7.3AB4.A!
