#CSYNTH gun_5160 costs 3848 cells.
#C period 5160 fullperiod 5160 bbox 74 by 52
#CLL state-numbering golly
x = 74, y = 52, rule = LifeHistory
26.A33.A$19.A6.3A29.3A6.A$19.3A7.A27.A7.3A$22.A5.2A27.2A5.A$21.2A
5.5B21.5B5.2A$4.2A4.2B4.2A3.4B5.6B15.6B5.4B$3.A2.A.6B.A2.A4.3B2.8B
3.BA5.AB3.8B2.3B$3.3A2.6B2.3A4.2B2A7B2A3BA.A3.A.A3B2A11B$6.10A8.BA
BA6B2A4BA5.A4B2A6B3AB$5.A2.6A2.A8.A12B.B7.B.7BA4BA$5.2A.B4AB.2A2.
2A2.B2.4B2A5B13.6BA3BA2.B2.2A$10.2B7.A2.2A6B3A2B17.3BA7B2A2.A$10.
2B8.2ABA6B3A2B17.2BA3BA4BAB2A$11.B11.6BAB3AB17.BA10B$10.2AB7.3A.4B
3A2B2AB4.A5.A4.2B2AB2A5B.3A$.2A6.A2BAB5.A3.A2.2BA4B3A3.A.A3.A.A3.
2B2AB2A3B2.A2.A$2.A4.3B2A3B4.A.A.A3.3A4BA2B2.A2.A.A2.A2.3B2AB2A2B
3.A.A$2.A.AB.8B.BA.A.2A4.B2A2B3A4B.3A.3A.5B2AB2A2B4.A$3.2AB.8B.B2A
9.B3ABA6B3.A3.10BAB$5.12B11.2B3A6BABA.A.ABA4BA3BA2B$5.12B11.2B3A6B
2A.A.A.2A7BA3B$5.12B9.5B2A4B2.B2.A.A2.B2.A3BA6B$7.10B6.B.12BA4.A.A
4.A4BA7B.B$9.7B6.A4B2A6BABAB4.A4.B3A6B2A4BA$9.8B4.A.A3B2A7B2A2B7.
11B2A3BA.A$8.5B.4B4.AB3.8B2.4B5.4B2.8B3.BA$8.6B.4B8.6B5.13B3.6B$7.
6B3.4B10.5B4.7BA3B2.5B$3.B2.3BA3B4.4B12.2A5.6BAB4.2A$.7BABA2B5.4B
11.A7.5BA6.A10.2A$.7BABA2B6.4B11.3A5.4B4.3A4.2A4.A2.A$9BA3B7.4B12.
A6.4B3.A4.3A2.A3.A.A$11B.B2A6.4B19.4B6.A4.5A.A$.9B2.BA.A6.4B19.4B
5.2A7.A$.7B7.A7.4B10.A8.10B3.2AB2.A$2.6B7.2A7.4B9.3A7.7B4.B2A3B.A$
3.4B18.4B11.A7.9B2.4B.2A$4.4B18.4B9.2A5.B.14B$5.4B18.4B8.23B$6.4B
18.4B9.21B10.2A$7.4B18.4B7.2B2A19B2.2B5.A$8.4B18.4B5.2BA2BA23B.BA.
A$9.4B18.4B4.3B2A4B2.18B.B2A$10.4B18.4B.9B4.8BA6BA4B$11.4B18.12B5.
9BA4BABA4B$12.4B18.10B7.6B3A5BA4B$13.4B18.9B8.16B.B2A$14.4B18.9B
10.13B.BA.A$15.4B18.7B11.2B2A4B2.2B5.A$16.3BA18.6B12.A2BA2B10.2A$
17.3BA19.2B14.B2A3B$18.3AB35.B.B!
