#CSYNTH gun_8800 costs 3337 cells.
#C period 8800 fullperiod 8800 bbox 71 by 47
#CLL state-numbering golly
x = 71, y = 47, rule = LifeHistory
38.2A2.A$37.A.4A$4.2A4.2B4.2A19.A$3.A2.A.6B.A2.A14.A.2A.7A$3.3A2.
6B2.3A14.2A.A.A3.B2.A$6.10A21.BA.2A2.2A$5.A2.6A2.A12.2A6.2AB2AB$5.
2A.B4AB.2A10.2B2AB5.5B$10.2B15.4B7.3B$10.2B15.4B6.5B5.2A$11.B16.3A
B5.6B3.A2.A$10.2AB15.2A2B3.8B3.A.A.2B$.2A6.A2BAB5.2A8.2B2A2.4B3A2B
3.A.2AB$2.A4.3B2A3B4.A9.B3A3.2BA3BA5.3AB$2.A.AB.8B.BA.A8.BABAB.3BA
5BAB3.B2A$3.2AB.8B.B2A10.2A2.3BA3BA3BA3B$5.12B16.3BA2BABA2BA3B$5.
12B15.4BA3BA3BA2B$5.12B3.A10.4B2.A5BAB5.A$7.10B3.3A7.4B5.3BA3B4.3A
$9.7B7.A5.4B4.A3BA4B7.A$9.8B5.2A4.4B5.AB4.4B5.2A$8.5B.4B4.9B7.A5.
4B4.5B$8.6B.4B5.7B4.3A7.4B5.6B$7.6B3.4B2.7BA5.A10.4B2.7BAB4.2A$3.B
2.3BA3B4.11BABAB15.3BA7BABAB4.A2.2A$.7BABA2B5.10BABA2B15.B2A7BABA
2B3.A.A.A$.7BABA2B6.10BA3B16.ABA7BA3B2.2A.A$9BA3B7.10B3.B2A9.2A3.
4B2A4B3.BAB.2A$11B.B2A6.2BA4B5.3AB8.A6.3BA4B3.3AB2.2A$.9B2.BA.A4.
2BABA4B3.A.2AB5.2A.A5.2B2ABA2B3.B3A2B.A$.7B7.A4.2BABA3B3.A.A.2B3.A
2.A.2A3.3B2ABAB4.BA3.A.A$2.6B7.2A5.BA4B3.A2.A5.2A.A2.A2B.4B2A2B5.
5A.2A$3.4B15.5B5.2A7.A.B3A10B11.A$4.4B15.3B14.A2.A.BA4B.4B9.2A.A$
5.4B13.5B13.3AB3A3B4.3B8.A.A$6.4B12.2AB2AB17.A.AB7.2B3.B$7.4B11.BA
.2A2.2A11.2A.3BAB4.6B3A$8.4B6.2A.A.A3.B2.A12.ABA3BA3.B9A$9.4B5.A.
2A.7A11.A4.B.A3.A.BAB.4B$10.4B8.A17.A.5AB4.2A4BAB.3B$11.4B7.A.4A
12.A.A3.3B6.ABA4.2A$12.4B7.2A2.A13.A3.A.2BA2.2A.A6.A$13.4B25.4A2BA
3.2A.A.A5.3A$14.3BA28.2AB7.2A7.A$15.3BA25.2AB$16.3AB24.2A!
