#CSYNTH gun_3478 costs 5760 cells.
#C period 3478 fullperiod 3478 bbox 96 by 60
#CLL state-numbering golly
x = 96, y = 60, rule = LifeHistory
23.2A7.A$22.B2AB4.3A51.4B$22.3B4.A8.A43.6B$11.2A10.B.B3.2A5.3A43.
2BA5B$10.A2.A2.2A3.10B4.A45.B4A4B$11.2A2.A.A3.8B6.2A21.2A7.2B10.2B
A3BA5B$13.2A.B3.11B2.4B20.A.A7.3B9.2B3A6B$13.A2.2B.16B7.A10.2A2.A
7.3BAB6.B2.11B$10.2A.A.14B2A4B5.3A10.A.A.AB5.3B3A2B3.15B$10.A2.A.
2A11BA2BA2B5.A15.A.A.B2.2A2BA3BAB.17B$12.2A.2A11BABA3B4.B2A13.2A.A
BA2B3A2B3ABA4BA15B2.2A$16.2B.9B2A4B.6B11.A2.A.2A5BA6B2A2B2A6BA5B2A
.A2.A$19.17BA2B13.2A2.15BA4BAB3A2B3A2BABA.2A$17.6B.15B.2B16.17B.BA
3BA2B2A2.B.A.A$17.2AB4.12B2A3B2A.2A12.15B3.2B3A3B5.BA.A.A$18.A5.
12B2A3B2A.A2.A10.11B2.B6.BA3B7.A2.2A$9.A5.3A5.8B2A2BABA5B.A.2A2.A
7.6B3A2B9.3B7.A.A$9.3A3.A6.A7B3A2BA3B.2B2.A5.3A4.5BA3BA2B10.2B7.2A
$12.A8.BABA2.4BABABA2B3.B.2A8.A4.4B4AB$11.2A7.2B2A5.3B2AB2A3.A.A2.
2A5.2A4.5BA2B$11.5B3.4B4.5B2AB2A3.2A2.A2.A4.6B2.6B$13.3B2.4B5.2A3.
B.A10.2A7.5B.4B$3.2A7.9B7.A4.2AB18.6B$3.A8.8B5.3A4.B2AB17.8B$2A.A.
B3.10B6.A7.2A12.A.2A2.9B$A2.3AB.2B2A7B28.2A.A12B$.2A2.BA3B2A7B33.
12B$3.4A12B33.13B$3.A.2B3.7B.B2A2.2A27.9B.4B$4.3AB2.7B.BA.A2.A27.
4B3A2B2.4B$7.A4.4B5.2A28.5BA2BA2B2.4B$2.5A5.4B5.A29.9BAB3.4B$2.A
10.4B6.A27.2B2A2BA2BA2B3.4B$4.A9.4B4.2A21.B4.3B2A3BABA3B3.4B$3.2A
10.4B2.2B21.3B3.3B2A5B.4B3.4B$8.2A6.8B18.6B2.15B4.4B$9.A7.7B12.4B
2.7B.13B.B2A3.4B$9.A.2A5.7B2.B2.2B2.3B3A21BAB.BA.A3.4B$10.A2.A4.
19BAB4A14BA2BA2B4.A4.4B$11.2AB3.6BA13BA6BA18B4.2A4.4B$12.12B4A10B
8A11B2A5B10.4B$13.9B6A11BA3BAB2A17B11.4B$14.29BABA19B11.4B$14.17B.
B5.5B2A19B13.4B$15.15B10.B2.20B15.4B$15.15B12.20B.B.B13.4B$16.13B
12.24B2A13.4B$18.13B10.24B2A14.4B$17.8B4.2A.A6.2AB2.5B2.12B.2B16.
4B$17.6B6.2AB3A3.A.AB2.4B3.13B19.4B$17.5B8.B4.A2.A14.11B.B18.4B$
17.B.B9.2A.3A2.2A14.12B2A18.4B$18.3B9.A.A20.10B.B2A19.4B$17.B2AB9.
A.A18.2AB.6B4.B21.4B$18.2A11.A18.A.AB.4B29.4B$50.A5.5B28.4B$49.2A
8.2A29.4B$59.A31.3BA$60.3A29.3BA$62.A30.3A!
