#CSYNTH gun_2977 costs 8400 cells.
#C period 2977 fullperiod 2977 bbox 105 by 80
#CLL state-numbering golly
x = 105, y = 80, rule = LifeHistory
29.2A11.A$28.B2AB9.A.A$29.3B9.A.A2.2A3.A$28.B.B9.2A.2A2.A2.A.A$28.
5B8.B2.A.A3.A.A$28.6B6.2ABA2.4A.A$28.8B4.2A.A.A3.A$29.13B2.A.AB2.A
15.2A$27.13B5.A.A2B.A14.A$26.15B5.A2B.2A11.BA.A$26.8BA6B4.3B12.2A.
B2A$25.9B2A6B.B.2B12.B2A2B14.2A$25.13B2A14B6.4B14.A$24.15BA15B3.6B
16.A$23.14B3A15B2.6B7.B5.4A.A$22.2AB3.27B.7B6.3A3.A3.A.A$21.A2.A4.
35B6.2B3.2A3.A.2A$20.A.2A5.7B2.B2.2B2.20B5.7B5.A.A$20.A7.7B13.21B
2.4B7.A.AB$19.2A6.8B15.27B6.A3B$26.4B2.2B17.28B6.4B$25.4B4.2A15.
30B5.6B$24.4B6.A15.31B4.7B$23.4B6.A14.2AB.3B2.25B2.8B.4B.B$22.4B7.
2A12.A.AB6.19B3.17B.B2A$21.4B22.A8.12B2.4B6.18B2A$11.2A7.4B22.2A7.
12B3.2B2AB5.16B.2B$10.B2AB5.4B31.10B8.2A6.16B$10.3B5.4B31.4B.6B16.
15B$11.B.B3.4B31.4B3.B.B16.2AB.5BABA4B$9.6B.4B31.4B5.3B14.A.AB2.3B
A2BA4B$2A7.10B31.4B5.B2AB14.A5.2B2A6B$.A7.9B7.2A22.4B7.2A14.2A5.3A
B2A4B$.A.AB2.10B8.A22.4B30.B2AB3A4B$2.2AB.10B6.BA.A12.2A7.4B32.2A
2BA5B$4.12B2.3B.B2A14.A6.4B33.B3A4B.B2A.A$4.19B15.A6.4B33.3BA3B3.B
2AB3A$4.19B15.2A4.4B34.6B6.B4.A$4.18B17.2B2.4B36.6B4.2A.3A$5.18B
15.8B6.2A29.5B6.A.A$6.19B13.7B7.A29.6B6.A.A$7.21B2.2B2.B2.7B5.2A.A
29.6B7.A$9.35B4.A2.A29.7B$10.7B.27B3.B2A30.7B8.A$10.6B2.15B3A14B
31.8B5.3A$9.6B3.15BA15B32.8B4.A$9.4B6.14B2A13B34.8B3.2A$9.2B2AB12.
2B.B.6B2A9B34.3B2A2B2.4B$7.2AB.2A12.3B4.6BA8B33.5B2A2B.3B$6.A.AB
11.2A.2BA5.15B33.13B$6.A14.A.2BA.A5.13B33.16B$5.2A15.A2.BA.A2.13B
34.17B$23.A3.A.A.2A4.8B34.16B$21.A.4A2.AB2A6.6B24.2A9.15B$20.A.A3.
A.A2.B8.5B25.A10.13B$20.A.A2.A2.2A.2A9.B.B24.A12.11B8.A$21.A3.2A2.
A.A9.3B17.2A6.2A7.15B6.3A$29.A.A9.B2AB17.A7.B4.20B3.A$30.A11.2A18.
A.AB4.25B3.2A$63.2AB2.32B$58.A6.33B$58.3A4.35B$61.A3.36B$60.AB3.
36B$60.A3BA.35B$62.3B2.32B.B2A$61.BABAB2.11B.19B.BA.A$61.2BA2B3.4B
2.23B5.A$61.5B4.4B3.13B.7B5.2A$61.5B5.4B3.3B4.4B.3B.3B$62.3B7.4B3.
4B4.B3.3B2.2B$57.AB2.5B2.BA3.4B4.2A7.B2AB.B2AB$56.A.A3B3A3BA.A3.4B
3.A9.2A3.2A$56.A.A2B2AB2A2BA.A4.4B3.3A$55.2A.A.A.B.B.A.A.2A4.4B4.A
$56.A2.2A.A.A.2A2.A6.4B$56.A4.2A.2A4.A7.4B$57.3A7.3A9.3BA$59.A.2A.
2A.A12.3BA$60.A.A.A.A14.3AB!
