#CSYNTH gun_1404 costs 3009 cells.
#C period 1404 fullperiod 1404 bbox 59 by 51
#CLL state-numbering golly
x = 59, y = 51, rule = LifeHistory
6.A7.2A10.A.2A4.2A.A$6.3A4.A2BA9.2A2.A2.A2.2A$A8.A4.2BA7.2A3.A4.A
3.2A$3A5.2A3.A.B7.A3.2A.4A.2A3.A$3.A4.5BA3BA3B3.3A.A.B2.B.A.3A$2.
2A6.2BA9B4.A.A.A2BA.A.A$2.4B2.3BA2BABA5B5.2A6B2A$4.7BA2BABA9B.2B6A
2B$4.7BABA2BABA8B3.4B$5.11BA2BA7B4.2B$6.11B2A8B$8.9B2A7B.3B$5.B.
21B2A2B$4.2AB.B2A16BA2BAB.2B$4.2A2B2ABA16BAB2A2B2A$5.2B.BA2BA16B2A
B.B2A$8.2B2A21B.B$10.3B.7B2A9B$13.8B2A11B13.A$13.7BA2BA11B10.3A$3.
2A4.2A2.8BABA2BABA7B8.A$3.A.A2.A2BAB.9BABA2BA6BAB7.2A$5.A3.2BAB5.
5BABA2BA3B2.2B2A3.5B$5.ABA.2BA2B4.9BA2B5.2A2B2.3B9.2A$3.2A2.2BABA
2B5.3BA3BA5B4.9B8.A.A$2.A2.3AB.BAB11.B.A3.2A5.8B.B8.A$3.2A3.4AB10.
A2B4.A7.11B3.B.BA.2A$5.2ABA5.A8.A2BA4.3A4.12B.B2A.A.A$5.A2.A.5A9.
2A7.A4.14B2A.A.A$6.A.A.A27.8B2A5B2.A.2A$7.A4.A23.2AB.5BA2BA3B4A2.A
$11.2A22.A.AB.6B2A2B.BAB2.2A$27.B2A5.A5.7B6.2A$27.3AB3.2A5.4B.2B7.
A$26.A.2AB9.4B9.A$25.A.A.2B8.4B10.2A$25.A2.A2.2B5.4B$26.2A3.3B3.4B
$20.2A9.B2A.5B$19.A.A8.BA2BA4B$19.A8.B.2B2A4B$16.2A.AB.B3.BA9B$17.
A.A.2AB.3A9B$17.A.A.2A2B2A10B$16.2A.A2.5BA9B$16.A2.4A3BA8B.B2A$17.
2A2.BAB.BA8B.BA.A$19.2A6.7B5.A$19.A7.2B.3BA5.2A$21.A9.3BA$20.2A10.
3AB!
