#CSYNTH gun_1035 costs 3780 cells.
#C period 1035 fullperiod 1035 bbox 70 by 54
#CLL state-numbering golly
x = 70, y = 54, rule = LifeHistory
8.2A5.BA15.2A.A.2A$7.A2.A.2B2A.A7.A.2A.A2.A.2A2.A$7.2A.5A.2A7.2A.A
.2A.A4.A.A$8.A.A2.A2.6B8.B2.5A.A$7.AB.A2BA4.5B6.2ABA4.A$6.3BA.BA5.
7B4.2A.A.AB2.A$6.2A2B8.13B2.A.A2B.A15.2A$4.A2B.A7.13B5.A2B.2A15.A$
3.A3BA7.15B3.3B16.BA.A$4.A.A8.15B3.2B14.2A.B2A$14.17B.4B12.B2A2B$
14.29B6.4B$13.13B2A16B3.6B$12.14B2A16B2.6B$11.2AB3.27B.7B9.2A$10.A
2.A4.35B6.2B2AB$9.A.2A5.7B2.B2.2B2.20B5.4B3.B$9.A7.7B13.21B.6B2A2B
$8.2A6.8B15.26B2A2B$3.2A10.4B2.2B17.30B$4.A9.4B4.2A15.31B$2.A10.4B
6.A15.30B$2.5A5.4B5.A15.2AB.3B2.22B$7.A4.4B5.2A13.A.AB6.22B$4.3AB
2.7B.BA.A2.A11.A8.12B3.9B$3.A.2B3.7B.B2A2.2A10.2A7.12B5.8BA$3.4A
12B24.10B6.5B3.ABA$.2A2.BA3B2A7B23.4B.6B6.2A7.2A$A2.3AB.2B2A7B22.
4B3.B.B9.A8.B$2A.A.B3.10B21.4B5.3B5.3A$3.A8.8B19.4B5.B2AB5.A$3.2A
7.9B6.A10.4B7.2A$13.3B2.4B5.3A7.4B$11.5B3.4B7.A5.4B$11.2A7.4B5.2A
4.4B$12.A8.4B4.9B$9.3A10.4B5.6B$9.A13.4B2.3BABA2B$24.8B2A5B$25.8BA
5B$26.13B$27.10B.B2A$29.3B2AB3.BA.A$29.3B2AB6.A$31.4B6.2A$31.3B$
28.AB.2B$27.A.AB2AB$27.A.ABABAB$24.2A.A.A.A.A2.A$24.A2.A2.2A.4A$
26.2A4.A$32.A.A$33.2A!
