#CSYNTH gun_5440 costs 2700 cells.
#C period 5440 fullperiod 5440 bbox 54 by 50
#CLL state-numbering golly
x = 54, y = 50, rule = LifeHistory
40.2A$36.2A2.A$32.A3.A.A.A$30.3A4.B.A$29.A5.3B$28.B2A3.5B3.2A$26.
5B2.2A4B.BAB.A$26.B2A4.3A2B2.B2A.A$17.4BA4.BABA2.5B3.B.B.2A$17.BA
3BA3.3BA2.5B2.2B2A3.A$16.5BA2B.2BA10B.BA2.3A$16.8B.2B3A3BA5BAB2A$
16.BA15B2A5BA2.A$14.9B.11BA4B2.2A$13.4BABA6B.6BABA4B$9.2A2.4BA11B.
9B$9.A2.A5B2A15BAB$10.2ABA5BA3B3A2B.8B6.A$7.3A2.AB.10BA2B.2BA5B4.
3A$6.A3.2A2B2.5B2.A3B3.A3BAB4.A$7.2A.B.B3.5B2.ABAB4.A4B4.2A$8.A.2A
B2.2B3A4.2AB9.6B$8.A.BAB.4B2A2.5B8.5B$9.2A3.5B3.2AB9.7B$15.3B5.A9.
8B$13.A.B4.3A9.9B$12.A.A.A3.A10.10B$12.A2.2A13.4B.8B$11.2A16.4B2.
8B$28.4B3.4B3A2B$27.4B3.10B5.2B.2A$11.B2A12.4B5.5B2A4B2.B2A2.A$11.
3AB10.4B5.5BABAB2AB2.2AB2A$10.A.2AB9.4B6.BA3BA3BA4B2A2B$9.A.A.2B8.
4B7.B2A6BA2B.B2A2B$9.A2.A2.2B5.4B7.6BA2BA3B2.2AB2A$10.2A3.3B3.4B8.
6BA2BA2B3.B2A2.A$4.2A9.B2A.5B7.2AB.B2.2B2A2B5.2B.2A$3.A.A8.BA2BA4B
7.A.AB6.5B2A$3.A8.B.2B2A4B8.A9.2B2.3B$2A.AB.B3.BA9B8.2A13.A3BA$.A.
A.2AB.3A9B22.A4BA$.A.A.2A2B2A10B21.A.ABAB$2A.A2.5BA9B19.BABA.A$A2.
4A3BA8B.B2A16.A4BA$.2A2.BAB.BA8B.BA.A15.A3BA$3.2A6.7B5.A17.3B$3.A
7.2B.3BA5.2A16.2A$5.A9.3BA$4.2A10.3AB!
