#CSYNTH gun_211 costs 3658 cells.
#C period 211 fullperiod 211 bbox 59 by 62
#CLL state-numbering golly
x = 59, y = 62, rule = LifeHistory
39.2A$20.2A.A.2A11.B2AB$15.A3.A2.2A.A2.A.2A.A4.3B$13.3A2.A.A4.A.2A
.A.2A5.B.B$12.A6.A.5A2.B8.5B$12.2A7.A4.AB2A6.6B$9.5B6.A2.BA.A.2A4.
8B$8.4B7.A.2BA.A2.13B$7.5B7.2A.2BA5.13B$6.6B11.3B3.15B$4.B.6B12.2B
3.15B$3.2AB.6B10.4B.17B$3.2A7B4.29B$4.2B.6B2.16B2A13B$7.6B2.16B2A
14B$.B3.9B.27B3.B2A$2AB.37B4.A2.A$2A23B2.2B2.B2.7B5.2A.A$.21B13.7B
7.A$.19B15.8B6.2A$3.16B17.2B2.4B$3.17B15.2A4.2B2A$3.17B15.A6.BABA$
4.10B.3B.B2A14.A6.A3B$5.9B5.BA.A12.2A7.4B$5.8B9.A22.4B$2.B2.2B2A5B
8.2A22.4B$.2AB.2B2A5B33.4B$.2A2BA2BA4B34.4B$2.B.BABA4B35.2BA2B$5.
3BA4B33.2BABA4B$5.A2BA3B34.2BA2BA3B$6.2B2AB35.4BA4B$7.2A2B34.10B$
7.4B33.10B2A$8.4B22.2A8.9BA2BA$9.4B22.A9.8BABA$10.4B6.2A13.A.AB4.
11BA$11.3BA5.A15.2AB.10B3A2B$12.ABAB6.A15.12B2A3B$13.2A2B4.2A15.
17B$14.4B2.2B17.17B.B$7.2A6.8B15.19B2A$8.A7.7B13.19B.B2A$8.A.2A5.
7B2.B2.2B2.20B4.B$9.A2.A4.36B$10.2AB3.27B.9B$11.14B2A16B2.7B$12.
13B2A16B2.7B$13.29B4.6B$13.17B.B.2B10.7B$14.15B4.3B10.6B$14.15B5.A
2B.2A6.7B$15.13B5.A.A2B.A7.5B$17.13B2.A.AB2.A8.6B$16.8B4.2A.A.A3.A
7.9B$16.6B6.2ABA2.4A.A5.2A.7B$16.5B8.B2.A.A3.A.A5.A5.4B$16.B.B9.2A
.2A2.A2.A.A2.3A7.4B$17.3B9.A.A2.2A3.A3.A10.3BA$16.B2AB9.A.A23.3BA$
17.2A11.A25.3A!
