#CSYNTH gun_1246 costs 5103 cells.
#C period 1246 fullperiod 1246 bbox 81 by 63
#CLL state-numbering golly
x = 81, y = 63, rule = LifeHistory
2A$.A26.A$A25.3A$2A23.A$.B23.2A$2AB20.4B2.A$3B2A9.B3.B.5B4.3A10.2A
$A4BA2.B.12BA3B6.A5.2A2.A30.4B$2.19B2A4B4.2A5.A.A.A28.BA4B$.A4BA6B
2A5B2A5B4.5B3.B.A29.2BA2B2A$.2A10B2A5B3A5B5.3B2.2B31.2B2AB2A$.20BA
2BA6B.9B30.B2AB.B$2.B3A10B3A3B3A18B8.2A17.2BA2B$3.19B3A18B8.A17.2A
2B3A$6.14BA23B4.BA.A17.BA.AB2A2B$6.14BA26B.B2A18.2B2ABA.AB$4.16BA
24B2A2B22.3A2B2A$4.38B.2BA.AB23.2BA2B$4.39B3.2A22.B.B2AB$4.31B.4B
22.A6.2AB2A2B$4.29B.5B7.2A14.3A4.2A2BA2B$2.2AB.27B.4B6.A2.A17.A4.
4BAB$.A.AB.26B2.4B6.2A.A.2A.A11.2A4.4B$.A7.23B2.5B6.B.A.A.2A11.6B$
2A6.23B2.8B2.B2ABA18.5B$9.21B2.10B.B2A2.A17.6B$9.14B3.3B2.13B3.2A
16.8B$4.2A3.13B2.3B3.14B15.A.2A2.9B$4.A2.2AB.10B2.21B15.2A.A12B$5.
AB2AB2.8B2.23B6.2A11.12B$2A.A.A.B6.5B2.23B7.A12.13B$A.2A.A.2A6.4B
2.26B.BA.A12.9B.4B$5.A2.A6.4B.27B.B2A13.9B2.4B$5.2A7.5B.29B14.11B
2.4B$13.4B.31B14.11B3.3BA$5.2A3.39B14.12B3.ABA$4.BA.A2B.38B8.B4.
14B3.2A$4.2B2A24BA16B7.3B3.10B.4B3.B$2.2AB.26BA14B7.6B2.15B$.A.AB
4.23BA14B.4B2.7B.13B.B2A$.A8.18B3A44B.BA.A$2A8.18B3A3B3A12B3ABA21B
4.A$12.9B.6BA2BA17BA2B2ABA19B4.2A$13.2B2.3B5.5B3A5B2A11BA4BA19B$
11.A.B3.5B4.5B2A5B2A10BA5B2A18B$10.A.A.A5.2A4.4B2A23B2A20B$10.A2.
2A5.A6.3BA12B.B3.7BA20B$9.2A10.3A4.5B.B3.B10.4B2.20B$23.A2.4B20.
24B.B.B$26.2A23.26B2A$27.A24.25B2A$24.3A22.B3.2B.5B2.12B.2B$24.A
23.2AB.3B.4B3.13B$48.2A3BA11.11B.B$49.B.BA.A10.12B2A$52.BA.A9.10B.
B2A$55.A7.2AB.6B4.B$55.2A5.A.AB.4B$62.A5.5B$61.2A8.2A$71.A$72.3A$
74.A!
