#CSYNTH gun_1149 costs 5106 cells.
#C period 1149 fullperiod 1149 bbox 69 by 74
#CLL state-numbering golly
x = 69, y = 74, rule = LifeHistory
20.2A$20.A.A$22.A4.2A$18.4A.2A2.A2.A$18.A2.A.A.A.A.2A$20.BABABA.A$
21.B2ABA.A$22.2B.BA$21.3B$12.2A6.4B$13.A6.B2A3B$13.A.AB3.B2A3B$14.
2AB.10B$16.13B$16.14B$16.15B$18.8B2.4B$18.6B5.4B$17.9B4.4B$16.4B4.
2A5.4B$15.4B5.A7.4B$4.A9.4B7.3A5.4B10.2A$4.3A6.4B4.2A4.A6.4B9.A.A
2.2A$7.A4.4B5.A13.4B10.A3.A$6.2A3.4B8.A12.4B5.4A.3A$6.8B4.2A2.2A5.
2A6.4B4.A2.A.A$2.2A4.2BA2B5.A.A7.A.A2.2A3.4B6.ABAB3A$.A.BAB.2B2AB
8.A.4A.A2.A.A.A4.4B6.2ABA2.A$.A.2AB2.BABAB5.B2A.A2.A.2ABA.AB5.5B4.
4B2.2A$2A.B.B3.5B3.5B3.A4.AB2A4.14B$A2.2A2B2.2BA2B3.4B5.3A.A3B4.
10BA2B8.A2.2A$.2A2.AB.3B2A3B3A2B.B5.ABAB.4B.9BABAB8.4A.A$3.2ABA4B
2A3BAB2A.B2A5.AB.2B2A11BA2BA13.A$.2A2.A14BAB2A7.2BA2BA.10B2AB6.7A.
2A$A2.A2.12B2A.2B6.AB.2B2A15B5.A2.B3.A.A2.A$.2A3.7BA4BAB5.A2.ABAB.
4B.11B.B2A3.2A2.2A.AB2.2A$7.5B3A4B6.4A.A3B3.10B3.BA.A5.B2AB2A$9.2B
2AB2A2B3.2A7.AB2A2.7B.5B4.A6.5B$6.B.2B2A2B3AB.B2.A4.2ABA.AB3.6B4.
2A4.2A6.3B$5.2A3B2A2B2A3B3A5.A2.A.A.A2.7B3.A3.A.A2.A3.2A3B$5.2AB.B
3A4B.BA8.A.A2.2A2.3B2AB5.4A3.2A2.B2AB2A$6.B3.B2A3B4.2A7.2A7.2B2AB
9.A6.2ABA4B$11.4B6.A16.6B4.2A2.A5.9B$12.4B4.A17.6B4.A.A.A.AB3.7B$
13.4B3.2A15.7B.BA.A.A2.2AB.10B$14.4B19.6B2.B2A2.A4.13B$15.4B19.8B
4.2A3.13BA$16.4B18.8B9.11BABA$17.4B16.8B12.8B2.2A$18.4B15.7B13.6B
5.B$19.4B5.2A7.6B13.9B$20.4B5.A6.7B12.4B4.2A$21.4B4.A.AB3.7B11.4B
5.A$22.4B4.2AB2.8B10.4B7.3A$23.4B5.11B9.4B10.A$24.4B4.11B8.4B$25.
4B3.12B6.4B$26.4B.13B5.4B$27.4B.7B.3B5.4B$28.17B2.4B$29.22B$30.21B
$30.21B2.2A$28.B.21B3.A$27.2A24B.A.2A$27.2A22B2A.A2.A$28.11B3.B.B
3.3B.A.2A$28.4B2.6B10.B.A$34.6B10.A.A$35.2B2A.A2.A4.3A.2A$34.A.A.A
.4A3.A$33.A.2A.A8.2A$33.A5.3A$32.2A7.A!
