#CSYNTH gun_107 costs 4216 cells.
#C period 107 fullperiod 107 bbox 68 by 62
#CLL state-numbering golly
x = 68, y = 62, rule = LifeHistory
31.2A$30.A.A$24.2A4.A$22.A2.A2.2A.4A$22.2A.A.A.A.A2.A$25.A.ABABAB$
25.A.A3BA$26.AB.2B$29.ABA$29.4B6.2A$27.BABABA6.A$27.B5A3.BA.A$25.
2A4BAB2A.B2A$24.A4BA2B2A3B$9.A13.7BABA4B$9.3A10.2B2A5B2A4B$12.A8.
4B2.B5A2B$11.2A7.4B5.BA4B$11.5B3.4B4.9B$13.3B2.4B5.2A4.4B$3.2A7.9B
7.A5.4B$3.A8.8B5.3A7.4B$2A.A.B3.10B6.A10.4B$A2.3AB.2B2A7B18.4B$.2A
2.BA3B2A7B19.4B$3.4A12B20.4B$3.A.2B3.7B.B2A19.4B18.A$4.3AB2.7B.BA.
A19.4B11.2A3.A.A$7.A4.4B5.A20.4B11.A3.A2.A$2.5A5.4B5.2A20.4B10.A.
2A.A.A$2.A10.4B27.4B10.A.A.A.2A$4.A9.4B27.4B10.2B2A.A2.A$3.2A10.4B
27.4B10.4B2.2A$16.4B27.4B6.7B$17.4B27.4B3.8B$18.4B22.2A3.2B2A.8B$
19.4B22.A4.BABA8B$20.3BA7.2A12.A.AB2.A10B.2B$21.3BA6.A14.2AB.14B2A
$22.3AB6.A15.16B2A$23.4B4.2A15.14B.2B$24.4B2.2B17.13B$17.2A6.8B15.
14B.2B$18.A7.7B13.18B2A$18.A.2A5.7B2.B2.BA2.19B.B2A$19.A2.A4.12B4A
19B2.B$20.2AB3.11B5ABA9B.8B$21.15BA6B2A8B2.7B$22.13BA3BAB3A9B2.7B$
23.13BABA2B2A9B3.7B$23.17B.4B11.6B.BA$24.15B3.2B12.7BA.A$24.15B3.
3B11.8BA$25.13B5.A2B.2A7.6B.B$27.13B2.A.A2B.A7.5B$26.8B4.2A.A.AB2.
A8.6B$26.6B6.2ABA4.A7.2AB.5B$26.5B8.B2.5A.A4.A.AB3.4B$26.B.B5.2A.A
.2A.A4.A.A3.A7.4B$27.3B4.A.2A.A2.A.2A2.A3.2A8.3BA$26.B2AB11.2A.A.
2A15.3BA$27.2A35.3AB!
