#CSYNTH gun_3313 costs 14430 cells.
#C period 3313 fullperiod 3313 bbox 130 by 111
#CLL state-numbering golly
x = 130, y = 111, rule = LifeHistory
35.2A2.A$34.A.4A$34.A$32.2A.7A$30.A2.A.A3.B2.A$30.2A2.BA.2A2.2A$
34.2AB2AB$34.5B$35.3B$34.5B$34.BA4B$32.2BABA3B6.2A$32.2BABA4B5.A$
33.2BA4B3.BA.A$32.10B.B2A$31.13B$30.14B$29.15B$28.4B2.8B$12.2A13.
4B5.6B$12.A13.4B4.9B$7.2A5.A10.4B5.2A4.4B$7.A5.2A9.4B7.A5.4B$4.2A.
A.3B11.4B5.3A7.4B$4.A2.A.2A2B2A7.4B6.A10.4B$6.2A.A.2B2AB5.4B19.4B$
9.A.4B5.4B21.4B$9.2A.4B3.4B23.4B$12.3BA6B25.4B$3.2A7.2BABA4B27.4B$
3.A8.3BA4B29.4B$2A.A.B3.10B31.4B$A2.3AB.2B2A7B32.2B2A25.A11.2A$.2A
2.BA3B2A7B33.BABA23.A.A9.B2AB$3.4A12B17.2A15.A3B10.A3.A3.2A2.A.A9.
3B$3.A.2B3.7B.B2A15.A.A15.4B7.3A2.A.A2.A2.2A.2A9.B.B$4.3AB2.7B.BA.
A16.A4.2A10.4B5.A5.A.A3.A.A2.B8.5B$7.A4.4B5.A12.4A.2A2.A2.A9.7B.2A
5.A.4A2.AB2A6.6B$2.5A5.4B5.2A11.A2.A.A.A.A.2A10.9B7.A3.A.A.2A4.8B$
2.A10.4B19.BABABA.A14.6B8.A2.BA.A2.13B$4.A9.4B19.B2ABA.A15.5B7.A.
2BA.A5.13B$3.2A10.4B19.2B.BA15.7B6.2A.2BA5.15B$16.4B17.3B19.6B10.
3B4.15B$17.4B7.2A6.4B19.7B10.2B.B.17B$18.4B7.A6.B2A3B17.6B4.29B$
19.4B6.A.AB3.B2A3B17.7B2.16B2A13B$20.4B6.2AB.10B15.7B2.16B2A14B$
21.4B7.13B13.4BA4B.27B3.B2A$22.4B6.14B12.4BABA29B4.A2.A$23.4B5.15B
6.B4.6BA13B2.2B2.B2.7B5.2A.A$24.4B6.8B2.4B4.2AB.19B13.7B7.A$25.4B
5.6B5.4B3.2A19B15.8B6.2A$26.4B3.9B4.4B3.B.17B17.2B2.4B$27.4B.4B4.
2A5.4B5.17B15.2A4.4B$28.7B5.A3.A3.4B4.3B2A12B15.A6.4B$29.5B7.4A4.
4B3.2BA2BA9B.B2A14.A6.4B$29.5B16.4B2.A11B4.BA.A12.2A7.4B$28.7B4.4A
8.5BA9B9.A22.4B$27.4B.4B3.A2.3A7.3BA7B2A2B8.2A22.4B$26.4B3.4B8.A7.
2BA9BAB33.4B$25.4B5.4B6.A.A7.2BA9B35.4B$24.4B7.4B5.A.AB7.4BA5B37.
4B$23.4B9.4B5.A3B7.4B2A2BA38.4B$22.4B11.4B6.4B5.5BABAB39.4B$21.4B
13.4B5.6B5.6B41.4B$20.4B15.4B4.7B.2B2.5B42.4B$19.4B17.4B2.8B.9B43.
4B$8.A9.4B19.24B43.4B$8.3A6.4B21.24B43.4B$11.A4.4B22.19B2.4B43.4B$
10.2A3.4B8.2A12.19B4.4B43.4B10.2A$10.8B8.A.A8.2A.A17B7.4B43.4B9.A$
6.2A4.5B5.2A2.A10.A.2A.15B9.4B43.4B10.A$5.A.BAB.5B6.A.A.2A16.12B
11.4B36.2A5.4B5.5A$5.A.2AB2.5B6.2A.A2.A15.10B13.4B36.A5.4B4.A$4.2A
.B.B3.5B3.3B.B2.2A15.2B2A6B14.4B35.A.AB.7B2.B3A$3.A3.2A2B2.5B3.4B
19.3B2A6B15.4B35.2AB.7B3.2B.A$4.3A2.AB.13B.B18.10B16.4B36.12B4A$7.
2ABA13B.B2A17.8B.B2A.A13.4B35.7B2A3BAB2.2A$6.A2.A5BA10B2A16.7B3.B
2AB3A12.4B34.7B2A2B.B3A2.A$6.2A2.4BABA7B.2B17.6B6.B4.A12.4B33.10B
3.B.A.2A$10.4BABA7B21.6B4.2A.3A14.4B31.8B8.A$11.4BA7B22.5B4.A2.2A
17.4B29.9B7.2A$13.9B3.2A17.8B.A.A21.4B27.4B2.3B$10.B.10B.B2.A8.A8.
8BA.A.2A.A18.4B25.4B3.5B$9.2A12B3A9.3A6.6B.2BAB.A.2A19.4B23.4B7.2A
$9.2AB.8B.BA14.A4.7B2.2B2.A23.4B21.4B8.A$10.B3.6B4.2A11.2A4.7B3.B.
2A24.4B19.4B10.3A$15.4B6.A11.4B.8B2.A.A2.2A23.4B10.A6.4B13.A$16.4B
4.A14.11B2.2A2.A2.A23.4B7.3A5.4B$17.2B2A3.2A12.12B7.2A25.4B5.A7.4B
$18.BABA16.12B35.4B4.2A5.4B$19.A3B15.11B37.9B4.4B$20.4B13.9B12.2A
27.6B5.4B$21.4B9.2B.10B11.A28.8B2.4B$22.4B7.16B.B4.BA.A26.15B$23.
4B3.23B2.B2A27.14B$24.32B29.13B$25.32B26.2AB.10B$26.31B25.A.AB3.B
2A3B$27.30B25.A6.B2A3B$29.28B24.2A6.4B$30.17B5.B.4B32.3B$30.14B11.
4B32.2B.BA$30.14B12.4B30.B2ABA.A$34.3B4.2B14.4B28.BABABA.A$35.B6.
2B14.4B25.A2.A.A.A.A.2A$41.B2AB14.4B24.4A.2A2.A2.A$42.2A16.3BA27.A
4.2A$61.3BA24.A.A$62.3AB23.2A!
