#CSYNTH gun_1510 costs 7455 cells.
#C period 1510 fullperiod 1510 bbox 105 by 71
#CLL state-numbering golly
x = 105, y = 71, rule = LifeHistory
48.2A20.2A$47.A.A20.A.A$41.2A4.A24.A4.2A$39.A2.A2.2A.4A16.4A.2A2.A
2.A$39.2A.A.A.A.A2.A16.A2.A.A.A.A.2A$42.A.ABABAB20.BABABA.A$42.A.A
B2AB22.B2ABA.A$43.AB.2B24.2B.BA$46.3B22.3B$46.4B6.2A4.2A6.4B$44.3B
2AB6.A6.A6.B2A3B$44.3B2AB3.BA.A6.A.AB3.B2A3B$42.10B.B2A8.2AB.10B7.
A$33.A7.13B12.13B6.3A$31.3A6.14B12.14B8.A$30.A8.15B12.15B6.A.A$29.
A.A6.4B2.8B16.8B2.4B5.A.AB$28.BA.A5.4B5.6B16.6B5.4B5.A3B$27.3BA5.
4B4.9B14.9B4.4B6.4B$25.4B6.4B5.2A4.4B12.4B4.2A5.4B5.6B$23.6B5.4B7.
A5.4B10.4B5.A7.4B4.7B$22.7B4.4B5.3A7.4B8.4B7.3A5.4B2.8B.4B.B$15.B.
4B.8B2.4B6.A10.4B6.4B10.A6.17B.B2A$14.2AB.17B19.4B4.4B19.18B2A$14.
2A18B21.4B2.4B20.16B.2B$15.2B.16B22.8B21.16B$18.16B23.6B22.15B$19.
15B24.4B21.2AB.12B$20.12B.B2A21.6B19.A.AB2.11B$20.11B2.BA.A19.8B
18.A5.10B$21.10B5.A18.4B2.4B16.2A5.2B2A6B$21.6B2A2B5.2A16.4B4.4B
21.3B2A6B$21.6B2A3B21.3AB6.4B21.10B$21.10B21.3BA8.4B20.8B.B2A.A$
17.A.2AB.8B20.3BA10.4B18.7B3.B2AB3A$15.3AB2AB3.7B18.4B12.4B17.6B6.
B4.A$14.A4.B6.6B17.4B14.4B17.6B4.2A.3A$15.3A.2A4.6B17.4B16.4B16.5B
4.A2.2A$17.2A2.A4.5B16.4B18.4B14.8B.A.A$20.A.A.8B14.4B20.4B4.A8.8B
A.A.2A.A$17.3A.A.A8B8.A4.4B22.4B3.3A6.6B.2BAB.A.2A$16.A2.A.BA2B.6B
6.3A3.4B24.4B5.A4.7B2.2B2.A$15.A.A.A2.2B2.7B4.A5.4B26.4B3.2A4.7B3.
B.2A$14.A.A2.2A.B3.7B4.2A3.4B28.4B2.4B.8B2.A.A2.2A$14.A.A.A2.A.A2.
8B.4B2.4B30.4B3.11B2.2A2.A2.A$15.2A.2A2.2A2.11B3.4B32.4B.12B7.2A$
26.12B.4B34.16B$26.16B35.15B$16.A10.14B36.12B$16.3A11.10B27.2A6.
15B$19.A9.12B27.A6.16B$18.2A6.16B26.A.AB2.18B$12.2A4.24B6.A20.2AB.
19B.B$11.B2AB5.23B3.3A22.22B2A$11.4B4.24B2.A25.22B2A$12.2B5.24B.B.
A24.23B$3.2A7.4B2.27B2A25.17B2.5B$3.A.A5.5B.4B.22BA2.2A24.15B6.2A$
4.A.14B3.2B7.B3.2B3.3B3A2.A25.4B2.4B9.A$5.14B3.2BAB5.3B.4B3.2B4.A
24.5B3.B13.3A$5.14B4.A.A4.B2AB.B2AB5.4A25.2A5.2A15.A$5.15B4.A6.2A
3.2A7.A28.A5.A$4.3B2A12B22.A27.3A7.3A$4.3B2A13B21.2A26.A11.A$2.2AB
.11B2.4B$.A.AB2.8B5.4B$.A5.10B4.4B$2A5.B.B5.2A5.4B$8.3B4.A7.3BA$7.
B2AB5.3A5.3BA$8.2A8.A6.3AB!
