#CSYNTH gun_8831 costs 14652 cells.
#C period 8831 fullperiod 8831 bbox 132 by 111
#CLL state-numbering golly
x = 132, y = 111, rule = LifeHistory
37.2A2.A$36.A.4A$36.A$34.2A.7A$32.A2.A.A3.B2.A$32.2A2.BA.2A2.2A$
36.2AB2AB6.2A$36.5B8.A$37.3B7.A$36.5B6.5A$36.BA4B9.A$34.2BABA3B3.
4AB$34.2BABA4B2.A2.AB$35.2BA4B4.4B$34.15B3.2A$33.14B2A.A2.A$32.11B
A3B2A.2A$31.11BABAB.B$30.4B2.7BAB$14.2A13.4B5.7B$14.A13.4B4.9B$9.
2A5.A10.4B5.2A4.4B$9.A5.2A9.4B7.A5.4B$6.2A.A.3B11.4B5.3A7.4B$6.A2.
A.2A2B2A7.4B6.A10.4B$8.2A.A.2B2AB5.4B19.4B$11.A.4B5.4B21.4B$11.2A.
4B3.4B23.4B$4.2A8.3BA6B25.4B25.A11.2A$3.A.A8.2BABA4B27.4B23.A.A9.B
2AB$3.A8.B.3BA4B12.2A15.4B10.A3.A3.2A2.A.A9.3B$2A.AB.B3.11B13.A.A
15.4B7.3A2.A.A2.A2.2A.2A9.B.B$.A.A.2AB.12B15.A4.2A10.4B5.A5.A.A3.A
.A2.B8.5B$.A.A.2A14B11.4A.2A2.A2.A9.7B.2A5.A.4A2.AB2A6.6B$2A.A2.5B
2A8B11.A2.A.A.A.A.2A10.9B7.A3.A.A.2A4.8B$A2.4A3BA2BA5B.B2A11.BABAB
A.A14.6B8.A2.BA.A2.13B$.2A2.BAB.2B2A6B.BA.A11.B2ABA.A15.5B7.A.2BA.
A5.13B$3.2A6.7B5.A12.2B.BA15.7B6.2A.2BA5.15B$3.A7.2B.4B5.2A10.3B
19.6B10.3B4.15B$5.A9.4B7.2A6.4B19.7B10.2B.B.17B$4.2A10.4B7.A6.B2A
3B17.3BA2B4.29B$17.4B6.A.AB3.B2A3B17.2B3A2B2.16B2A13B$18.4B6.2AB.
10B15.2BAB2AB2.16B2A14B$19.4B7.13B13.9B.27B3.B2A$20.4B6.14B12.36B
4.A2.A$21.4B5.15B6.B4.2ABA16B2.2B2.B3.6B5.2A.A$22.4B6.8B2.4B4.2AB.
5BA13B14.6B7.A$23.4B5.6B5.4B3.2A4BA7BABA4B14.9B6.2A$24.4B3.9B4.4B
3.B.3BA3BA3BABA3B15.2A4.4B$25.4B.4B4.2A5.4B5.3BA2BA4BA5B15.A5.4B$
26.7B5.A3.A3.4B4.4B3A10B12.3A7.4B$27.5B7.4A4.4B3.15B.B2A10.A10.4B$
27.5B16.4B2.12B4.BA.A21.4B$26.7B4.4A8.15B9.A22.4B$25.4B.4B3.A2.3A
7.15B8.2A22.4B$24.4B3.4B8.A7.14B33.4B$23.4B5.4B6.A.A7.12B35.4B$22.
4B7.4B5.A.AB7.10B37.4B$21.4B9.4B5.A3B7.9B38.4B$20.4B11.4B6.4B5.9B
39.4B$19.4B13.4B5.6B5.6B41.4B$18.4B15.4B4.7B.2B2.5B42.4B$17.4B17.
4B2.8B.9B43.4B$6.A9.4B19.18B2A4B43.4B$6.3A6.4B21.16BA2BA4B43.4B$9.
A4.4B22.17B2A2.4B43.4B$8.2A3.4B8.2A13.18B4.4B43.4B$8.8B8.A.A13.16B
7.4B43.4B$4.2A4.5B5.2A2.A13.2AB.13B9.4B43.4B$3.A.BAB.5B6.A.A.2A11.
A.AB2.11B11.4B43.4B$3.A.2AB2.5B6.2A.A2.A9.A5.10B13.4B43.4B10.2A$2.
2A.B.B3.5B3.3B.B2.2A8.2A5.2B2A6B14.4B43.4B9.A$.A3.2A2B2.5B3.4B19.
3B2A6B15.4B43.4B10.A$2.3A2.AB.13B.B18.10B16.4B36.2A5.4B5.5A$5.2ABA
13B.B2A17.8B.B2A.A13.4B36.A5.4B4.A$4.A2.A5BA10B2A16.7B3.B2AB3A12.
4B35.A.AB.7B2.B3A$4.2A2.4BABA7B.2B17.6B6.B4.A12.4B35.2AB.7B3.2B.A$
8.4BABA7B21.6B4.2A.3A14.4B36.12B4A$9.4BA7B22.5B4.A2.2A17.4B35.7B2A
3BAB2.2A$11.9B3.2A17.8B.A.A21.4B34.7B2A2B.B3A2.A$8.B.10B.B2.A8.A8.
8BA.A.2A.A18.4B33.10B3.B.A.2A$7.2A12B3A9.3A6.6B.2BAB.A.2A19.4B31.
8B8.A$7.2AB.2B2A4B.BA14.A4.7B2.2B2.A23.4B29.9B7.2A$8.B3.BABA2B4.2A
11.2A4.7B3.B.2A24.4B27.4B2.3B$13.A3B6.A11.4B.8B2.A.A2.2A23.4B25.4B
3.5B$14.4B4.A14.11B2.2A2.A2.A23.4B23.4B7.2A$15.4B3.2A12.12B7.2A25.
4B21.4B8.A$16.4B16.12B35.4B19.4B10.3A$17.4B15.11B37.4B10.A6.4B13.A
$18.4B13.9B12.2A27.4B7.3A5.4B$19.4B9.2B.10B11.A29.4B5.A7.4B$20.4B
7.16B.B4.BA.A30.4B4.2A5.4B$21.4B3.23B2.B2A32.9B4.4B$22.32B35.6B5.
4B$23.32B34.8B2.4B$24.31B32.15B$25.30B32.14B$27.28B32.13B$28.17B5.
B.4B29.2AB.10B$28.14B11.4B27.A.AB3.B2A3B$28.14B12.4B26.A6.B2A3B$
32.3B4.2B14.4B24.2A6.4B$33.B6.2B14.4B32.3B$39.B2AB14.4B32.2B.BA$
40.2A16.4B30.B2ABA.A$59.4B28.BABABA.A$60.4B25.A2.A.A.A.A.2A$61.4B
24.4A.2A2.A2.A$62.3BA27.A4.2A$63.3BA24.A.A$64.3AB23.2A!
