#CSYNTH gun_1073 costs 7623 cells.
#C period 1073 fullperiod 1073 bbox 121 by 63
#CLL state-numbering golly
x = 121, y = 63, rule = LifeHistory
69.2A19.2A$24.2A42.A.A19.A.A$24.A.A.2A32.2A4.A23.A4.2A$18.2A6.A.A
31.A2.A2.2A.4A15.4A.2A2.A2.A$17.B2AB3.B2A.A31.2A.A.A.A.A2.A15.A2.A
.A.A.A.2A$18.2B4.BAB.2A33.A.ABABAB19.BABABA.A$19.2B3.2B2A2.A32.A.A
B2AB21.B2ABA.A$18.4B2.2B.A.A34.AB.2B23.2B.BA$18.4B.3B.A.2A36.3B21.
3B7.A$17.9B2A.A2.A34.4B6.2A3.2A6.4B7.3A$8.2A2.2A.B.11B.A.2A32.3B2A
B6.A5.A6.B2A3B8.A$8.A2.A.A12B3.A35.3B2AB3.BA.A5.A.AB3.B2A3B7.A.A$
9.A.A.B.11B2.2A33.10B.B2A7.2AB.10B5.A.AB$8.2A.2A13B36.13B11.13B5.A
3B$12.B.12B35.14B11.14B6.4B$14.8B.4B33.15B11.15B5.6B$15.8B.4B31.4B
2.8B15.8B2.4B4.7B$16.7B2.4B29.4B5.6B15.6B5.4B2.8B.4B.B$13.11B2.4B
27.4B4.9B13.9B4.17B.B2A$12.12B3.4B25.4B5.2A4.4B11.4B4.2A5.18B2A$3.
2A7.12B4.4B23.4B7.A5.4B9.4B5.A6.16B.2B$2.A2.A2.2A2.11B6.4B21.4B5.
3A7.4B7.4B7.3A2.17B$3.2A2.A.A2.8B.4B5.4B19.4B6.A10.4B5.4B9.A2.A16B
$5.2A.B3.7B4.2A6.4B17.4B19.4B3.4B8.A3.2A.14B$5.A2.2B2.7B4.A8.4B15.
4B21.4B.4B9.2A7.12B$2.2A.A.BA2B.6B6.3A6.4B13.4B23.7B20.10B$2.A.2A.
A.A8B8.A7.4B11.4B25.5B21.2B2A6B$6.A.A.8B17.4B9.4B26.5B20.3B2A6B$3.
2A2.A4.5B19.4B7.4B26.7B20.10B$.3A.2A4.6B20.4B5.4B26.4B.4B19.8B.B2A
.A$A4.B6.6B20.4B3.4B26.4B3.4B17.7B3.B2AB3A$.3AB2AB3.7B21.4B.4B26.
4B5.4B9.2A5.6B6.B4.A$3.A.2AB.8B23.7B26.4B7.4B7.B2AB5.6B4.2A.3A$7.
10B24.5B26.4B9.4B7.3B5.5B4.A2.2A$7.6B2A3B23.5B25.4B11.4B5.B.B5.8B.
A.A$7.6B2A2B5.2A16.7B23.4B13.4B4.5B3.8BA.A.2A.A$7.10B5.A16.4B.4B
21.4B15.4B3.B2A4B.6B.2BAB.A.2A$6.11B2.BA.A15.4B3.4B19.4B17.4B.2B2A
11B2.2B2.A$6.12B.B2A15.4B5.4B10.A6.4B19.19B3.B.2A$5.15B16.4B7.4B7.
3A5.4B21.18B2.A.A2.2A$4.16B4.A10.4B9.4B5.A7.4B23.17B2.2A2.A2.A$.2B
.16B4.3A7.4B11.4B4.2A5.4B25.16B7.2A$2A18B7.A5.4B13.9B4.4B27.15B$2A
B.17B5.2A4.4B15.6B5.4B29.13B$.B.4B.8B2.4B4.9B16.8B2.4B31.9B7.2A$8.
7B4.4B5.6B15.15B33.9B6.A$9.6B5.4B2.8B15.14B35.9B2.BA.A$11.4B6.15B
13.13B37.9B.B2A$13.3BA5.14B11.2AB.10B37.4B2A6B$14.BA.A5.13B10.A.AB
3.B2A3B36.B.5BABA5B$15.A.A6.10B.B2A8.A6.B2A3B35.2A6BA8B$16.A9.3B2A
B3.BA.A6.2A6.4B37.2A18B$17.3A6.3B2AB6.A15.3B38.20B$19.A8.4B6.2A15.
2B.BA35.21B$28.3B23.B2ABA.A36.2B.17B$25.AB.2B23.BABABA.A34.4B3.B2.
13B$24.A.AB2AB20.A2.A.A.A.A.2A31.2A9.8B.4B$24.A.ABABAB19.4A.2A2.A
2.A32.A9.7B3.4B$21.2A.A.A.A.A2.A21.A4.2A31.3A10.9B2.3BA$21.A2.A2.
2A.4A19.A.A37.A19.2A3.ABA$23.2A4.A23.2A58.A5.2A$29.A.A82.3A3.B$30.
2A84.A!
