#CSYNTH gun_1471 costs 7954 cells.
#C period 1471 fullperiod 1471 bbox 97 by 82
#CLL state-numbering golly
x = 97, y = 82, rule = LifeHistory
27.2A11.A$26.B2AB9.A.A$27.3B9.A.A2.2A3.A$26.B.B9.2A.2A2.A2.A.A21.
2A$26.5B8.B2.A.A3.A.A20.B2A2B$26.6B6.2ABA2.4A.A22.4B$26.8B4.2A.A.A
3.A13.A11.4B3.3B$27.13B2.A.AB2.A12.3A8.4B4.5B$25.13B5.A.A2B.A3.A
10.A6.14B$24.15B5.A2B.2A3.3A7.2AB5.14B$24.15B4.3B10.A6.5B3.16B$23.
17B.B.2B10.2A8.5B.16B$23.29B3.4B2A4.22B$22.13B2A16B4.2B2A4.23B$21.
14B2A16B2.7B2.24B4.3B$20.2AB3.27B.7B3.24B.7B$19.A2.A4.35B2.23B.B2A
5B$18.A.2A5.7B2.B2.2B2.19B.25BA2BA5B$18.A7.7B13.43B2A6B$17.2A6.8B
15.48B$24.4B2.2B17.36B.6B.2B$23.4B4.2A15.35B2.8B.B$22.4B6.A15.7B.
26B4.6B.B2A$21.4B5.A15.2AB.3B4.25B8.B3.A.A$20.4B6.2A13.A.AB9.25B
12.2A$19.4B22.A10.5B2.19B4.B$18.4B22.2A10.2A6.20B.B2A$17.4B32.A3.A
6.22B2A$16.4B33.4A6.24B$15.4B43.25B$4.A9.4B35.2A6.24B$4.3A6.4B35.B
2AB4.22B.B$7.A4.4B37.3B3.10B.12B$6.2A3.4B8.2A27.B.B3.8B5.11B$6.8B
8.A.A26.14B9.7B$2.2A4.5B5.2A2.A26.15B9.8B5.2A$.A.BAB.5B6.A.A.2A24.
15B9.8B6.A$.A.2AB2.5B6.2A.A2.A20.16B11.8B2.BA.A$2A.B.B3.5B3.3B.B2.
2A19.16B11.10B.B2A$A2.2A2B2.5B3.4B23.16B12.12B$.2A2.AB.13B.B19.17B
2.B10.12B$3.2ABA13B.B2A17.23B6.2AB2.9B$.2A2.A5BA10B2A16.6B2A17B4.A
.AB2.8B$A2.A2.4BABA7B.2B15.8B2A16B5.A4.8B2.2B$.2A3.4BABA7B9.2A7.
27B3.2A4.8B.4B$7.4BA7B11.A6.28B8.14B$9.9B3.2A7.A.AB.28B10.11B2AB$
6.B.10B.B2.A8.2AB.28B10.11B2A2B$5.2A12B3A11.24B2.B.B12.14B$5.2AB.
8B.BA13.23B2.3B15.11B$6.B3.6B4.2A11.23B2.B2AB13.13B$11.4B6.A12.21B
4.2A13.14B$12.4B4.A14.16B.B.B2A17.14B$13.4B3.2A14.16B2.BA.A9.A7.
13B$14.4B18.11B2.2B6.A9.3A3.14B$15.4B17.10B11.2A11.A2.9B$16.4B17.
9B23.A2.10B$17.4B6.A10.ABA4B19.2A3.2A11B$18.4B5.3A7.B2AB.B21.A2.2A
2.11B$19.4B7.A5.3BA25.2A2.2A10B$20.4B5.2A4.4B28.A.A.B.8B$21.4B4.9B
29.A2.A3.6B$22.4B5.6B31.2A5.4B$23.4B2.8B27.2A8.4B$24.15B24.B2AB6.
4B$25.14B24.4B5.4B$26.13B25.2B5.4B$27.10B.B2A15.A7.4B2.4B$29.3B2AB
3.BA.A13.A.A5.5B.4B$29.3B2AB6.A14.A.14B$31.4B6.2A14.14B$31.3B23.
14B$28.AB.2B24.15B$27.A.AB2AB22.3B2A12B$27.A.ABABAB21.3B2A13B$24.
2A.A.A.A.A2.A17.2AB.11B2.4B$24.A2.A2.2A.4A16.A.AB2.8B5.4B$26.2A4.A
20.A5.10B4.4B$32.A.A17.2A5.B.B5.2A5.4B$33.2A25.3B4.A7.3BA$59.B2AB
5.3A5.3BA$60.2A8.A6.3AB!
