#CSYNTH gun_1482 costs 7313 cells.
#C period 1482 fullperiod 1482 bbox 103 by 71
#CLL state-numbering golly
x = 103, y = 71, rule = LifeHistory
70.2A$70.A.A$46.2A24.A4.2A$45.A.A20.4A.2A2.A2.A$39.2A4.A22.A2.A.A.
A.A.2A$37.A2.A2.2A.4A20.BABABA.A$37.2A.A.A.A.A2.A21.B2ABA.A16.B$
40.A.ABABAB24.2B.BA16.3A$40.A.AB2AB24.3B20.2A$41.AB.2B16.2A6.4B19.
B2ABA$44.3B16.A6.B2A3B18.A.3B.2A$44.4B6.2A7.A.AB3.B2A3B8.A10.A2B3A
.A$42.3B2AB6.A9.2AB.10B6.3A9.AB4.A$33.A8.3B2AB3.BA.A11.13B8.A10.4A
$31.3A6.10B.B2A12.14B6.A.A8.2A.B$30.A8.13B14.15B5.A.AB7.2A.2B$29.A
.A6.14B16.8B2.4B5.A3B7.B3A$28.BA.A5.15B16.6B5.4B6.4B7.2B$27.3BA5.
4B2.8B17.9B4.4B5.6B6.BA$25.4B6.4B5.6B16.4B4.2A5.4B4.7B3.BA.A$23.6B
5.4B4.9B14.4B5.A7.4B2.8B3.B2A$22.7B4.4B5.2A4.4B12.4B7.3A5.17B$15.B
.4B.8B2.4B7.A5.4B10.4B10.A6.16B$14.2AB.17B5.3A7.4B8.4B18.16B$14.2A
18B6.A10.4B6.4B19.16B$15.2B.16B18.4B4.4B20.15B$18.16B19.4B2.4B19.
2AB.12B$19.15B20.8B19.A.AB2.11B$20.12B.B2A19.6B20.A5.10B3.2A$20.
11B2.BA.A19.4B20.2A5.2B2A6B3.A$16.2A3.10B5.A18.6B25.3B2A6B4.A$17.A
3.6B2A2B5.2A16.8B25.10B3.2A$16.A4.6B2A3B21.3AB2.4B24.8B.B2A$16.2A
3.10B21.3BA4.4B22.7B3.B2AB2A$19.2AB.8B20.3BA6.4B21.6B6.B.A$16.2AB
2AB3.7B18.4B8.4B21.6B4.2A3.A$17.A.B6.6B17.4B10.4B20.8B.A2.4A$15.A
3.2A4.6B17.4B12.4B18.9BA.A.A$15.4A2.A.8B16.4B14.4B8.A8.7B.2BAB.A.
2A$18.A.A.A9B14.4B16.4B7.3A6.6B3.2B2.A.A$15.2A.A.BA2B.7B8.A4.4B18.
4B9.A4.7B4.B.2A2.A$16.A.A2.2B3.6B6.3A3.4B20.4B7.2A4.7B3.A.A2.A.A$
15.A2.2A.B4.7B4.A5.4B22.4B6.4B.8B3.2A2.A.A$15.A.A2.A.A3.7B4.2A3.4B
24.4B7.11B8.A$16.A.A2.2A3.8B.4B2.4B26.4B5.12B$17.A8.11B3.4B28.4B4.
12B$26.12B.4B30.4B3.11B$26.16B32.4B3.7B$16.A10.14B34.4B2.8B$16.3A
11.10B36.14B$19.A9.12B34.16B$18.2A6.16B30.B.17B.B$12.2A4.24B6.A22.
2AB.17B2A$11.B2AB5.23B3.3A22.2A19B2A$11.4B4.24B2.A26.2B.18B$12.2B
5.24B.B.A28.13B2.5B$4.A7.4B2.27B2A31.9B6.2A$3.A.A5.5B.4B.22BA2.2A
29.9B6.A$4.A.14B3.2B7.B3.2B3.3B3A2.A29.7B8.3A$5.14B3.2BAB5.3B.4B3.
2B4.A31.5B11.A$5.14B4.A.A4.B2AB.B2AB5.4A30.6B$5.15B4.A6.2A3.2A7.A
32.2A$4.3B2A12B22.A35.A$4.3B2A13B21.2A31.3A$2.2AB.11B2.4B53.A$.A.A
B2.8B5.4B$.A5.10B4.4B$2A5.B.B5.2A5.4B$8.3B4.A7.3BA$7.B2AB5.3A5.3BA
$8.2A8.A6.3AB!
