#CSYNTH gun_1199 costs 5500 cells.
#C period 1199 fullperiod 1199 bbox 100 by 55
#CLL state-numbering golly
x = 100, y = 55, rule = LifeHistory
83.B.B$39.2A41.B2A3B$20.2A.A.2A11.B2AB40.A2BA2B10.2A$15.A3.A2.2A.A
2.A.2A.A4.3B40.2B2A4B2.2B5.A$13.3A2.A.A4.A.2A.A.2A5.B.B28.2A9.13B.
BA.A$12.A6.A.5A2.B8.5B24.2A3.A6.16B.B2A$12.2A7.A4.AB2A6.6B21.A2.A
2.A7.14BA4B$9.5B6.A2.BA.A.2A4.8B21.3A2.3A5.14BABA4B$8.4B7.A.2BA.A
2.13B25.2A3.2B3.15BA4B$7.5B7.2A.2BA5.13B22.A2.3A2B3.18B.B2A$6.6B
11.3B3.15B20.A.2AB.A23B.BA.A$4.B.6B12.2B3.15B20.A3.2A19B2.2B5.A$3.
2AB.6B10.4B.17B17.2A.2A21B10.2A$3.2A7B4.12B2A15B18.A.A.B.19B$4.2B.
6B2.11B2AB2A15B17.A2.A5.16B$7.6B2.11BA2BA17B17.2A6.10B3.4B.2A$.B3.
9B.11BA2BA12B3.B2A25.8B3.B2A3B.A$2AB.23B2A12B4.A2.A23.9B4.2AB2.A$
2A23B2.2B2.B3.6B5.2A.A21.10B8.A$.21B14.6B7.A20.10B5.5A.A$.19B14.9B
6.2A18.7BA3B5.A4.A.A$3.16B15.2A4.4B24.7BABA2B7.A2.A.A$3.17B15.A5.
4B22.8BABA2B6.2A3.A$3.17B12.3A7.4B20.10BA3B$4.10B.3B.B2A10.A10.3BA
18.13B.B2A$5.9B5.BA.A21.B2AB16.2A11B2.BA.A$5.8B9.A22.ABAB14.ABAB.
7B7.A$2.B2.ABABA4B8.2A22.4B12.3BA3.6B7.2A$.2AB.3A2BA3B13.A19.4B10.
4B5.4B$.2A3BA6B14.3A12.B.3B.4B8.4B7.4B$2.B.2BA5B18.A10.22B9.4B$5.B
A4BAB4.A11.2A3.B5.2B2A18B7.A3.4B$5.BA5B3.3A11.8B3.2B2A18B6.A.A3.4B
$6.B3AB3.A16.8B.24B4.A.A4.4B$3.A3.4B3.2A15.B2A32B.2A.2A4.4B$.3A3.
9B14.2BAB2A9B.2B2.13B2A2B10.4B$A7.6B14.7BA9B8.10BABAB11.4B$A.2A5.
6B3.B2.2B2.8BABA8B11.7B.2BAB12.4B$.A2.A4.4BA14BABA2B2A9B11.7B2.A3.
A11.4B$2.2AB3.6BA13B2A5B.7B12.7B3.4A12.4B$3.9B3A2B2A10BA14B9.2AB.B
.3B20.4B$4.13B2A26B7.A.AB11.2A14.4B$5.29B2.8B8.A14.2A15.4B$5.17B.B
.2B11.6B7.2A32.4B$6.15B4.3B10.5B43.4B$6.15B5.A2B.2A7.4B44.4B$7.13B
5.A.A2B.A7.4B45.4B$9.13B2.A.AB2.A9.B.B2A44.4B$8.8B4.2A.A.A3.A12.BA
.A44.4B$8.6B6.2ABA2.4A.A13.A45.4B$8.5B8.B2.A.A3.A.A12.2A45.4B$8.B.
B9.2A.2A2.A2.A.A60.4B$9.3B9.A.A2.2A3.A62.3BA$8.B2AB9.A.A71.3BA$9.
2A11.A73.3AB!
