#CSYNTH gun_1904 costs 2880 cells.
#C period 1904 fullperiod 1904 bbox 64 by 45
#CLL state-numbering golly
x = 64, y = 45, rule = LifeHistory
20.2A$20.2A19.A2.2A$41.4A.A2.2A$20.4A3.A18.A3.A$20.A2.AB.A.A10.7A.
3A4.2B$21.2B.2B.A10.A2.B3.A.A6.BAB$22.4B12.2A2.2A.AB5.2BABA$21.5B
15.B2AB2A5.BA3BA$20.4B2AB15.5B6.BA2B.A$19.5B2A17.3B9.A.2BAB$19.8B
8.2A5.5B9.A3BAB$19.7B8.A2.A3.4BAB10.ABA2B$18.9B5.BA.A.A3.3BABA2B8.
BAB$16.2BA8B5.3A.A3.4BABA2B9.2B$8.2A6.B3A8B4.3AB5.4BA2B5.AB3.B.2AB
$9.A5.5BA7B5.3B3.10B3.A.A3B5A$9.A.2A.B5A9B7.3BA10B3.A4B2ABABA$10.A
2B.B2A11B8.2BABA10B3.B.BA2BAB2A$12.2B3A9B11.BABA11B3.BA2B2A.B$12.A
13B13.A7B2.4B3.B4A$12.B2A10B13.7B5.5B.2BA$13.BA9B14.9B4.5B$15.13B
9.4B4.2A5.4B$15.14B7.4B5.A7.4B$15.14B.B4.4B7.3A5.4B$14.24B10.A6.4B
$14.4BA3B2ABA7B2A2B19.4B$13.6B2A5BA7B2A3.BA2B.2A11.4B$10.B.6BA5BAB
A6BAB3.A2B4A.A11.4B$9.2AB.5B3A4BA10B2.B4ABA.A12.4B$9.2A6BA18B.5BAB
A.2A12.3BA$10.2B.3BA4BA18BA.2A2B.BAB10.BABA$13.3B2ABABA12B2.3B3A3.
3A2B11.B2A$15.17B5.BAB.2B2A.A3B8.2AB2.B$16.9B.5B8.2A.ABA5B3.B2.2B
3A$16.9B15.A.AB4AB3.2A2BA2BABA$6.3B3.2A2.9B15.A.4A2BA3.2A2B2A2B2A$
5.B2AB2.B2A2B4.5B16.2A.2BAB5.3B2A2.B$.B2AB2A.AB2.4B5.2B30.3B$.4ABA
B3A5B4.4B$16B4.A.A2.A$5B3ABAB4A3.3A.4A$4B2.BA.2AB2AB2.A3.A$2B2AB2.
B2AB6.2A2.A.A$2.2A3.3B12.2A!
