#CSYNTH gun_7038 costs 3224 cells.
#C period 7038 fullperiod 7038 bbox 62 by 52
#CLL state-numbering golly
x = 62, y = 52, rule = LifeHistory
36.B6.B$35.A3B2.4B$34.A.3A2.5A3.A2BA$35.AB.A2BA.2B.2B.A2BA.BA$38.A
2BA3.5A2.3A.A$46.4B2.3BA$47.B.B4.B$48.2B$47.5B2.2B$46.11B$43.15B$
42.16B$31.A2BA7.16B$31.3BAB5.16B.2A$30.A4BA5.9BA6B2.A$30.2AB.A.AB
3.8B3A5B2.A.A$31.B3.AB2A2.7BA2B2A4B3.2A$36.3B3.6B2A7B$35.4B.9BA6B$
3.4B3.B.9B.B3.4B4.BA2BA.8BABA4B$3.4A.6B2A9B.4B5.2A2.4BA5BABABA2B$
2.A3BA6BA2BA12B2A9.2B2A8BAB2A$2.A10BA2B2A11B2A9.B3A8BABAB$3.A.2ABA
4BA2BA11B.B8.15BA2B$5.B3A6BA12B9.2AB2A13B$22.3B.B.3B4.BA3B2A13B$5.
B3A6BA15B2.3BA4BA12B$3.A.2ABA4BA2BA19BA4BA9B$2.A10BA2B2A17B2.A3BAB
2.5B$2.A3BA6BA2BA17B4.B3AB4.2B$3.4A.6B2A17B7.2B7.4B$3.4B3.B.9B.3B.
B.4B17.3B2A$27.4B17.2A2B2A$26.4B18.2AB.A.2A$11.A13.4B20.B3.3AB$11.
3A10.4B26.3B$14.A8.4B26.4B$13.2A7.4B26.B2A2B$13.5B3.4B28.2A$4.2A9.
3B2.4B$3.A.A8.9B$3.A8.B.8B$2A.AB.B3.BA9B$.A.A.2AB.3A9B$.A.A.2A2B2A
10B$2A.A2.5BA9B$A2.4A3BA8B.B2A$.2A2.BAB.BA8B.BA.A$3.2A6.7B5.A$3.A
7.2B.3BA5.2A$5.A9.3BA$4.2A10.3AB!
