#CSYNTH gun_1692 costs 2436 cells.
#C period 1692 fullperiod 1692 bbox 58 by 42
#CLL state-numbering golly
x = 58, y = 42, rule = LifeHistory
4.2A4.2B4.2A15.2A7.A$3.A2.A.6B.A2.A13.B2AB4.3A$3.3A2.6B2.3A13.3B4.
A6.3B.2A.A$6.10A17.B.B3.2A4.5BA.2A$5.A2.6A2.A5.2A2.2A3.10B3.5B$5.
2A.B4AB.2A5.A2.A.A3.8B5.4B$10.2B11.2A.B3.11B2.4B$10.2B6.2A.A.A2.2B
.17B6.A$11.B6.A.2A.A.14B2A4B5.3A$10.2AB10.A.2A10B2A2BA2B5.A$9.A2BA
B5.2A.2A.2A10BA2BA3B4.B2A$7.3B2A3B4.A6.2B.8B3A4B.6B$7.8B.BA.A9.20B
$6.9B.B2A8.6B.12B2AB.2B$5.B2A9B10.2AB4.11BA2BA2B2A.2A$4.BA2BA8B5.A
5.A5.11BA2BA2B2A.A2.A$5.B2A9B4.A.A.3A5.8BA3BA7B.A.2A$7.10B3.A2.A.A
6.A6B2AB2ABA3B.2B2.A$9.7B5.3A7.A3B2.3B3A5B3.B.2A$9.8B7.A5.B3A5.2B
2A4B3.A.A2.2A$8.5B.4B5.2A4.4B4.4B2A4B3.2A2.A2.A$8.6B.4B4.9B5.2A3.B
.B10.2A$7.6B3.4B5.6B7.A4.3B$3.B2.3BA3B4.4B2.8B4.3A4.BABA$.7BABA2B
5.15B2.A7.2A$.7BABA2B6.14B$9BA3B7.13B$11B.B2A6.10B.B2A$.9B2.BA.A6.
7B3.BA.A$.7B7.A5.9B5.A$2.6B7.2A4.4B2A2B6.2A$3.4B16.2B2A2B$4.4B15.
5B$5.4B15.3B$6.4B13.5B$7.4B12.2AB2AB$8.4B7.2A2.BA.2A2.2A$9.4B6.A2.
A.A3.B2.A$10.4B7.2A.7A$11.3BA8.A$12.3BA7.A.4A$13.3AB7.2A2.A!
