#CSYNTH gun_183 costs 2860 cells.
#C period 183 fullperiod 183 bbox 55 by 52
#CLL state-numbering golly
x = 55, y = 52, rule = LifeHistory
16.2A17.A$15.B2A2B7.2A6.3A$16.4B6.B2AB8.A$11.2A4.6B4.2B8.A.A$10.B
2AB2.8B4.2B7.A.AB$11.3B.13B2ABA6.A3B$9.2B.B2.18B7.4B$8.18B2ABA3BAB
5.6B$7.19B3AB4A2B4.7B$6.26BA4B2.8B.4B.B$6.45B.B2A$6.26B3.18B2A$4.
2AB4.B.16B.B4.4BA11B.2B$3.A.AB8.10B.2B7.5BA10B$3.A12.7B12.3B3A9B$
2.2A9.11B9.2AB.12B$12.12B8.A.AB2.11B$12.12B8.A5.10B$3.A8.11B8.2A5.
2B2A6B$2.A.A2.2A3.8B.4B12.3B2A6B$.A.A2.A.A3.7B4.2A13.10B$.A2.2A.B
4.7B4.A14.8B.B2A.A$2.A.A2.2B3.6B6.3A10.7B3.B2AB3A$.2A.A.BA2B.7B8.A
10.6B6.B4.A$4.A.A.A9B20.6B4.2A.3A$.4A2.A.8B21.5B4.A2.2A$.A3.2A4.6B
20.8B.A.A$3.A.B6.6B10.A8.8BA.A.2A.A$2.2AB2AB3.7B10.3A6.6B.2BAB.A.
2A$5.2AB.8B14.A4.7B2.2B2.A$2.2A3.10B13.2A4.7B3.B.2A$2.A4.6B2A3B12.
4B.8B2.A.A2.2A$3.A3.6B2A2B15.11B2.2A2.A2.A$2.2A3.10B14.12B7.2A$6.
12B13.12B$6.14B.2A.A6.11B$5.9B3A4BA.2A5.9B12.2A$4.10BA6B6.2B.10B
11.A$.2B.11BA4B6.16B.B4.BA.A$2A18B3.23B2.B2A$2AB.45B$.B.4B.8B2.5B
2A25B$8.7B4.3BA27B$9.6B5.3BABA5B2A17B$11.4B7.2BA6B2A17B$13.3BA6.8B
A8B5.B.4B$14.BA.A5.5B2A7B11.4B$15.A.A5.4BA2BA6B12.4B$16.A10.ABA4.
2B14.4B$17.3A8.A6.2B14.3BA$19.A14.B2AB14.ABA$35.2A16.2A!
