#CSYNTH gun_2460 costs 2808 cells.
#C period 2460 fullperiod 2460 bbox 54 by 52
#CLL state-numbering golly
x = 54, y = 52, rule = LifeHistory
11.2A$12.A$12.A.AB$13.2AB.3B$15.5B$5.A.A8.5B$4.A.2A7.6B$4.A9.8B$A.
2A.3A5.9B$2A.A.A2.A4.9B$4.3B2AB3.5BA2B$6.4B3.4B3AB6.2A$8.8B2ABA2B
5.A$7.2BA5B2A6B.BA.A$7.BABA7B3A2B.B2A$7.A2BA7BA6B$7.B2A8BA3BAB5.2A
8.A$7.12BA4B4.B2AB5.3A$5.2AB.5BA3B4A2B5.2B5.A$4.A.AB3.2BA10B6.2B4.
2A4.2A$4.A4.5BA4B.3B.3B.4BA5B4.A$3.2A4.2A4.2B6.10BA2B3.BA.A$4.A.A
3.A5.2B5.2B4A3BA5B.B2A$3.A2.4A5.B2AB4.4BA12B$3.2A11.2A5.BA3BA8B2AB
$8.2A12.6BA7BA2BA$8.A11.2AB.2B3A7BABAB$9.3A7.A.AB.6B2A5BA2B$6.3A3.
A6.A5.2BAB2A8B$6.A2.ABA.A4.2A6.B3A4B3.4B$7.B2A.A.A12.2BA5B3.B2A3B$
8.2A.A.2A10.9B4.A2.A.A.2A$8.3B2A.BAB8.9B5.3A.2A.A$10.2B.B3A3.2B3.
8B9.A$13.B3A2.3B4.6B7.2A.A$11.2A.BA7B3.5B8.A.A$9.3A.2A2.7B3.5B13.
2B$8.A4.A3.2B2A9B.B2A9.6B$9.3A.A3.BAB2A6B3.BA.A6.10B$11.A.2AB.BA3B
A6B5.A4.2A3BA2BA3B2A$11.A3.A3B3A3B.4B4.2A2.B5A4B5AB$12.3A.4BA2B4.
4B8.2A3BA2BA3B2A$14.A.AB2.B7.4B9.10B$15.2AB.4B6.4B10.6B$19.A.2A7.
4B11.2B$15.5AB2A8.4B7.2AB2.B2A$15.A5.B10.4B4.BA8BAB$18.2A.2A10.5B.
BA2BA4BA2BAB$19.A.A12.7BA8BAB$19.A.A13.3BA2B.2A4.2A$20.A15.3BA$37.
3AB!
