#CSYNTH gun_1167 costs 6534 cells.
#C period 1167 fullperiod 1167 bbox 99 by 66
#CLL state-numbering golly
x = 99, y = 66, rule = LifeHistory
46.2A20.2A$45.A.A20.A.A$39.2A4.A24.A4.2A$37.A2.A2.2A.4A16.4A.2A2.A
2.A$37.2A.A.A.A.A2.A16.A2.A.A.A.A.2A$40.A.ABABAB20.BABABA.A$40.A.A
B2AB22.B2ABA.A$41.AB.2B24.2B.BA$44.3B22.3B7.A$44.4B6.2A4.2A6.4B7.
3A$34.A7.3B2AB6.A6.A6.B2A3B8.A$32.3A7.3B2AB3.BA.A6.A.AB3.B2A3B7.A.
A$31.A8.10B.B2A8.2AB.10B5.A.AB$30.A.A6.13B12.13B5.A3B$29.BA.A5.14B
12.14B6.4B$28.3BA5.15B12.15B5.6B$26.4B6.4B2.8B16.8B2.4B4.7B$24.6B
5.4B5.6B16.6B5.4B2.8B.4B.B$23.7B4.4B4.9B14.9B4.17B.B2A$16.B.4B.8B
2.4B5.2A4.4B12.4B4.2A5.18B2A$15.2AB.17B7.A5.4B10.4B5.A6.16B.2B$15.
2A18B5.3A7.4B8.4B7.3A3.16B$16.2B.16B5.A10.4B6.4B10.A3.15B$19.16B
17.4B4.4B11.A.2AB.12B$20.15B18.4B2.4B10.2A.A.AB2.11B$21.12B.B2A17.
8B11.A2.A5.10B$21.11B2.BA.A17.6B14.2A5.2B2A6B$17.2A3.10B5.A18.4B
21.3B2A6B$18.A3.6B2A2B5.2A16.6B21.10B$17.A4.6B2A3B21.8B20.8B.B2A.A
$17.2A3.10B21.4B2.4B18.7B3.B2AB3A$20.2AB.8B20.4B4.4B17.6B6.B4.A$
17.2AB2AB3.7B18.4B6.4B17.6B4.2A.3A$18.A.B6.6B17.4B8.4B16.5B4.A2.2A
$16.A3.2A4.6B17.4B10.4B14.8B.A.A$16.4A2.A.8B16.4B12.4B4.A8.8BA.A.
3A$19.A.A.A9B14.2A2B14.4B3.3A6.6B.2BAB.A2.A$16.2A.A.BA2B.7B8.A4.AB
AB16.4B5.A4.7B2.2B2.A.2A$17.A.A2.2B3.6B6.3A3.3BA18.4B3.2A4.7B3.B.
2A$16.A2.2A.B4.7B4.A5.4B20.4B2.4B.8B2.A.A2.3A$16.A.A2.A.A3.7B4.2A
3.4B22.4B3.11B2.2A2.A3.A$17.A.A2.2A3.8B.4B2.4B24.3BA.12B7.A.A$18.A
8.11B3.4B26.B2A13B5.A.A.2A$27.12B.4B28.ABA11B5.A.A$27.16B30.10B8.A
$17.A10.14B32.10B5.B2A$17.3A11.10B34.15B$11.A8.A9.12B34.14B4A$11.
3A5.2A6.16B33.14BA2.A$14.A4.24B6.A24.B.14B2.A$13.2A6.23B3.3A23.2A
14B4.3A$13.5B2.24B2.A25.B2A16B4.A$4.2A9.3B2.24B.B.A23.20B$3.A.A8.
32B2A21.AB.3B.15B$3.A8.B.8B.22BA2.2A15.2A.A.A.2B2AB4.9B6.2A$2A.AB.
A3.11B3.2B7.B3.2B3.3B3A2.A14.2A.AB.AB.2A8.7B5.A$.A.A.A2B.2A10B2.2B
AB5.3B.4B3.2B4.A18.A.2AB11.8B.BA.A$.A.A.A15B3.A.A4.B2AB.B2AB5.4A
19.A.A12.9B.B2A$2A.A2.5BA9B4.A6.2A3.2A7.A20.2A.A.A10.11B$A2.4AB4A
7B.B2A21.A26.2A10.11B$.2A2.BAB.10B.BA.A20.2A38.3B2A5B$3.2A6.7B5.A
59.3BA2BA4B$3.A7.2B.4B5.2A57.4BA2BA5B$5.A9.3BA63.5B2A6B$4.2A10.3BA
63.11B$17.3AB64.B.2B!
