#CSYNTH gun_1970 costs 4590 cells.
#C period 1970 fullperiod 7880 bbox 85 by 54
#CLL state-numbering golly
x = 85, y = 54, rule = LifeHistory
59.2A$58.B2A2B3.2A$22.2A22.2A11.4B2.B2AB$21.B2AB5.2A14.A8.B.6B3.2B
$22.2B7.A15.A5.10B2.2B$17.6B7.A15.2A5.11B2A2B$14.B.8B6.2A14.B5.12B
2A3B.B$12.6B3A4B6.B13.B2A4.18B2A$12.6BABA4B6.3B10.BABA5.15B.B2A$.B
9.2A4B2ABA4B5.6B7.3BAB4.15B3.B$2AB.ABA3.B2A4B2ABA4B4.10B3.5B3.17B$
2A2BA2B3.9BA7B2.11B.5B.19B$.B.BA2BAB2.2B2.18B2A31B$3.2B2A2B.2B3.
18B2A22B.7B$5.B2A2B2AB3.41B2.6B$5.3B.B2A5.40B2.7B$10.B7.38B2.9B$
18.9B2.38B7.B$19.7B2.40B5.2AB.3B$20.6B2.41B3.B2A2B2AB$20.7B.22B2A
18B3.2B.2B2A2B$19.31B2A18B2.2B2.BA2BAB.B$19.19B2.4B.11B2.17B3.2BA
2B2A$18.17B4.4B3.10B4.12B2AB3.ABA.B2A$14.B3.15B5.4B7.6B5.12B2A9.B$
13.2AB.15B5.4B10.3B6.13B$13.2A18B3.4B13.B6.13B$14.B.3B2A12B2.4B14.
2A6.8B.B$17.2B2A11B2.4B16.A7.6B$18.2B2.10B.4B15.A8.2B$17.2B3.6B.B
2.4B16.2A6.B2AB$16.B2AB2.4B5.4B26.2A$17.2A3.2B2AB3.4B3.A17.2A$24.
2A3.4B4.3A14.A.A$15.4A9.4B8.A13.A.A.2A$15.A3.A7.4B8.2A11.2A.A.A.A$
18.2A6.4B9.5B6.BA.B.A.A$18.6B.4B7.A4.3BAB4.BA3BA.2A$20.8B6.3A3.3BA
BA5BAB.2BABAB$2.2A13.10B6.A5.4BA2BA2B.B2A2BA2B2AB$2.A2.2A2.B6.10B.
B5.2A5.4B2A3B2.2A2.A3B2A$3.2A2B.3AB3.BA18B6.6B11.B2AB$5.B6A3BABA
15B9.5B12.A.A$3.2A3.2B.A2B.ABA12B2A2B7.7B12.A$2.A2.4ABA5.A12BA2BA
2B5.4B.4B$2.2A3.A.A7.7B2.4B2A3B4.4B3.4B$9.A.A5.7B4.9B.4B5.4B$5.4A.
2A8.3B6.12B7.4B$5.A2.A9.5B7.10B9.4B$6.A.A9.2A10.9B11.4B$7.A11.A9.
9B13.4B$16.3A11.7B15.3BA$16.A13.6B17.3BA$32.2B20.3AB!
