#CSYNTH gun_478 costs 4554 cells.
#C period 478 fullperiod 478 bbox 66 by 69
#CLL state-numbering golly
x = 66, y = 69, rule = LifeHistory
39.2A$20.2A.A.2A11.B2AB$15.A3.A2.2A.A2.A.2A.A4.3B$13.3A2.A.A4.A.2A
.A.2A5.B.B$12.A6.A.5A2.B8.5B$12.2A7.A4.AB2A6.6B$9.5B6.A2.BA.A.2A4.
8B$8.4B7.A.2BA.A2.13B$7.5B7.2A.2BA5.13B$6.6B11.3B3.15B$4.B.6B12.2B
3.15B$3.2AB.6B10.4B.17B$3.2A7B4.29B$4.2B.6B2.16B2A13B$7.6B2.16B2A
14B$.B3.9B.27B3.B2A$2AB.37B4.A2.A$2A23B2.2B2.B3.6B5.2A.A$.21B14.6B
7.A$.19B14.9B6.2A$3.16B15.2A4.4B$3.17B15.A5.4B$3.17B12.3A7.4B$4.
10B.3B.B2A10.A10.4B$5.9B5.BA.A21.4B$5.8B9.A22.4B$2.B2.9B8.2A22.4B$
.2AB.9B33.4B$.2A10B35.2B2A$2.B.8B37.BABA$5.8B37.A3B$5.7B39.4B$6.5B
41.4B$7.4B42.4B$7.4B43.4B$8.4B42.4B$9.4B41.2BA2B$10.4B39.2BABA4B$
11.4B38.2BA2BA3B$12.4B37.4BA4B$13.4B35.10B$14.4B33.10B2A$15.4B22.
2A8.9BA2BA$16.4B22.A9.8BABA$17.4B21.A.AB4.11BA$18.4B10.A10.2AB.10B
3A2B$19.4B7.3A12.12B2A3B$20.4B5.A15.17B$21.4B4.2A15.17B.B$14.2A6.
9B14.19B2A$15.A7.6B14.19B.B2A$15.A.2A5.6B3.B2.2B2.20B4.B$16.A2.A4.
36B$17.2AB3.27B.9B$18.14B2A16B2.7B$19.13B2A16B2.7B$20.29B4.6B$20.
17B.B.2B10.7B$21.15B4.3B10.6B$21.15B5.A2B.2A6.7B$22.13B5.A.A2B.A7.
5B$24.13B2.A.AB2.A8.6B$23.8B4.2A.A.A3.A7.9B$23.6B6.2ABA2.4A.A5.2A.
7B$23.5B8.B2.A.A3.A.A5.A5.4B$23.B.B9.2A.2A2.A2.A.A2.3A7.4B$24.3B9.
A.A2.2A3.A3.A10.3BA$23.B2AB9.A.A23.3BA$24.2A11.A25.3A!
