#CSYNTH gun_4140 costs 2279 cells.
#C period 4140 fullperiod 4140 bbox 53 by 43
#CLL state-numbering golly
x = 53, y = 43, rule = LifeHistory
8.2A4.2A$8.A.A2.A.A$10.4A$8.A2B2A2BA$8.A2B2A2BA$9.BA2BAB$5.B5.2B$
4.3B5.B11.4B3.B.9B.B3.4B$4.3B5.BA2B8.4B.6BA3BA6B.4B$3.2BA2B4.2A3B
6.2A9BA5BA9B2A$3.2BA2B3.B3A3B5.2A9BA15B2A$2.2BABA2B2.5BAB6.B.8B2A
3BA9B.B$2.3BA3B3.4B2A8.10B3A10B$.4BA10B2AB4.3B.B.3B$.4BA9B3A5.13B
3A10B$2.3BA3B.7B2A15B2A3BA9B.B$2.2BABA2B3.4B3A15BA15B2A$3.2BA2B5.
2BA2BA15BA5BA9B2A$3.2BA2B7.2BAB.15BA3BA6B.4B$4.3B14.5B.B.3B.9B.B3.
4B$4.3B15.4B$5.B17.4B$24.4B12.A$25.4B9.3A$26.4B7.A10.B$27.4B6.2A8.
BAB$20.A7.4B.6B8.3A$20.3A6.8B9.5B$23.A6.10B6.5B$22.2A5.B.10B4.2B3A
2B$22.18BAB3.7B$24.15BABA5BABA3B$23.2B2A12BABA.4BABA3B$22.2BA2BA
12BA4.7B$7.2B13.3B2A4B2.2BA4B5.2B3A2B$5.6B6.2B.9B4.BABA3B6.5B$3.
10B.14B6.ABAB8.5B$.3B8A15B7.BAB10.3A$4BAB4ABA15B8.B11.BAB$.3B8A3B.
12B20.B$3.10B4.3BA6B$5.6B7.3BA5B$7.2B10.3A3B!
