#CSYNTH gun_3457 costs 14388 cells.
#C period 3457 fullperiod 3457 bbox 132 by 109
#CLL state-numbering golly
x = 132, y = 109, rule = LifeHistory
40.2A$39.A.A$33.2A4.A$31.A2.A2.2A.4A$31.2A.A.A.A.A2.A4.2A$34.A.ABA
BAB7.A$34.A.AB2AB6.A$35.AB.2B7.5A$38.3B10.A$38.4B3.4AB$36.3B2AB3.A
2.AB$36.3B2AB4.4B$34.15B3.2A$33.14B2A.A2.A$32.11BA3B2A.2A$31.11BAB
AB.B$30.4B2.7BAB$29.4B5.7B$28.4B4.9B$27.4B5.2A4.4B$26.4B7.A5.4B$
11.A13.4B5.3A7.4B$11.3A10.4B6.A10.4B$14.A8.4B19.4B$13.2A7.4B21.4B$
13.5B3.4B23.4B$4.2A9.3B2.4B8.2A15.4B25.A11.2A$3.A.A8.9B9.A.A15.4B
23.A.A9.B2AB$3.A8.B.8B12.A4.2A10.4B10.A3.A3.2A2.A.A9.3B$2A.AB.B3.
11B9.4A.2A2.A2.A9.4B7.3A2.A.A2.A2.2A.2A9.B.B$.A.A.2AB.12B9.A2.A.A.
A.A.2A10.4B5.A5.A.A3.A.A2.B8.5B$.A.A.2A14B11.BABABA.A14.7B.2A5.A.
4A2.AB2A6.6B$2A.A2.5B2A8B12.B2ABA.A15.9B7.A3.A.A.2A4.8B$A2.4A3BA2B
A5B.B2A11.2B.BA17.6B8.A2.BA.A2.13B$.2A2.BAB.2B2A6B.BA.A.2A6.3B21.
5B7.A.2BA.A5.13B$3.2A6.7B5.A.A6.4B20.7B6.2A.2BA5.15B$3.A7.2B.4B5.A
.A6.B2A3B19.6B10.3B4.15B$5.A9.4B3.2A.A.AB3.B2A3B19.7B10.2B.B.17B$
4.2A10.4B6.2AB.10B17.3BA2B4.29B$17.4B7.13B16.2B3A2B2.16B2A13B$18.
4B6.14B15.2BAB2AB2.16B2A14B$19.4B5.15B13.9B.27B3.B2A$20.4B6.8B2.4B
12.36B4.A2.A$21.4B5.6B5.4B6.B4.2ABA16B2.2B2.B3.6B5.2A.A$22.4B3.9B
4.4B4.2AB.5BA13B14.6B7.A$23.4B.4B4.2A5.4B3.2A4BA7BABA4B14.9B6.2A$
24.7B5.A7.4B3.B.3BA3BA3BABA3B15.2A4.4B$25.5B7.3A5.4B5.3BA2BA4BA5B
15.A5.4B$25.5B9.A6.4B4.4B3A10B12.3A7.4B$24.7B16.4B3.15B.B2A10.A10.
4B$23.4B.4B16.4B2.12B4.BA.A21.4B$22.4B3.4B7.A8.15B9.A22.4B$21.4B5.
4B6.3A7.15B8.2A22.4B$20.4B7.4B8.A7.14B33.4B$19.4B9.4B6.A.A7.12B35.
4B$18.4B11.4B5.A.AB7.10B37.4B$17.4B13.4B5.A3B7.9B5.2A31.4B$16.4B
15.4B6.4B5.9B4.A.A32.4B$15.4B17.4B5.6B5.6B5.A35.4B$4.A9.4B19.4B4.
7B.2B2.5B4.2A36.4B$4.3A6.4B21.4B2.8B.9B43.4B$7.A4.4B23.18B2A4B43.
4B$6.2A3.4B8.2A15.16BA2BA4B43.4B$6.8B8.A.A15.17B2A2.4B43.4B$2.2A4.
5B5.2A2.A17.18B4.4B43.4B$.A.BAB.5B6.A.A.2A16.16B7.4B43.4B$.A.2AB2.
5B6.2A.A2.A12.2AB.13B9.4B43.4B$2A.B.B3.5B3.3B.B2.2A11.A.AB2.11B11.
4B43.4B$A2.2A2B2.5B3.4B16.A5.10B13.4B43.4B10.2A$.2A2.AB.13B.B13.2A
5.2B2A6B14.4B43.4B9.A$3.2ABA13B.B2A18.3B2A6B15.4B43.4B10.A$.2A2.A
5BA10B2A19.10B16.4B36.2A5.4B5.5A$A2.A2.4BABA7B.2B20.8B.B2A.A13.4B
36.A5.4B4.A$.2A3.4BABA7B22.7B3.B2AB3A12.4B35.A.AB.7B2.B3A$7.4BA7B
23.6B6.B4.A12.4B35.2AB.7B3.2B.A$9.9B3.2A20.6B4.2A.3A14.4B36.12B4A$
6.B.10B.B2.A20.5B4.A2.2A17.4B35.7B2A3BAB2.2A$5.2A12B3A20.8B.A.A21.
4B34.7B2A2B.B3A2.A$5.2AB.8B.BA13.A8.8BA.A.2A.A18.4B33.10B3.B.A.2A$
6.B3.6B4.2A11.3A6.6B.2BAB.A.2A19.4B31.8B8.A$11.2B2A6.A14.A4.7B2.2B
2.A23.4B29.9B7.2A$12.BABA4.A14.2A4.7B3.B.2A24.4B27.4B2.3B$13.A3B3.
2A13.4B.8B2.A.A2.2A23.4B25.4B3.5B$14.4B19.11B2.2A2.A2.A23.4B23.4B
7.2A$15.4B17.12B7.2A25.4B21.4B8.A$16.4B16.12B35.4B19.4B10.3A$17.4B
15.11B37.4B10.A6.4B13.A$18.4B13.9B12.2A27.4B7.3A5.4B$19.4B9.2B.10B
11.A29.4B5.A7.4B$20.4B7.16B.B4.BA.A30.4B4.2A5.4B$21.4B3.23B2.B2A
32.9B4.4B$22.32B35.6B5.4B$23.32B34.8B2.4B$24.31B32.15B$25.30B32.
14B$27.28B32.13B$28.17B5.B.4B29.2AB.10B$28.14B11.4B27.A.AB3.B2A3B$
28.14B12.4B26.A6.B2A3B$32.3B4.2B14.4B24.2A6.4B$33.B6.2B14.4B32.3B$
39.B2AB14.4B32.2B.BA$40.2A16.4B30.B2ABA.A$59.4B28.BABABA.A$60.4B
25.A2.A.A.A.A.2A$61.4B24.4A.2A2.A2.A$62.3BA27.A4.2A$63.3BA24.A.A$
64.3AB23.2A!
