#CSYNTH gun_842 costs 4620 cells.
#C period 842 fullperiod 842 bbox 84 by 55
#CLL state-numbering golly
x = 84, y = 55, rule = LifeHistory
18.2A11.A$17.B2AB9.A.A47.A$18.3B9.A.A2.2A3.A37.3A$17.B.B9.2A.2A2.A
2.A.A35.A$17.5B8.B2.A.A3.A.A28.A6.2A$17.6B6.2ABA2.4A.A28.A.A3.4B$
17.8B4.2A.A.A3.A31.A.5B$18.13B2.A.AB2.A31.7B$16.13B5.A.A2B.A7.A.2A
19.4B2A4B.B$15.15B5.A2B.2A7.2A.A19.4B2A3B.B2A$15.15B4.3B20.2A12.
11B2A$14.17B.B.2B12.3A5.A.A3.2A7.9B.2B$14.29B4.BA2.A4.A6.A2.2B2.
10B$13.9BA3B2A16B4.2B2A3.2A6.A.2A13B$12.10B2A2B2A16B2.3B.B4.B6.2A.
2A13B$11.2AB3.4BABA20B.7B2.2B6.A3.2B.11B$10.A2.A4.33B2.5B.BA.A6.9B
.B2A$9.A.2A5.6B3.B2.2B2.24B.B2A9.7B.BA.A$9.A7.6B14.23B10.7B5.A$8.
2A6.9B14.21B9.8B5.2A$3.2A10.4B4.2A15.20B8.4B2.4B$4.A9.4B5.A15.22B
6.4B4.4B$2.A10.4B7.3A12.22B5.4B6.4B$2.5A5.4B5.3A2.A10.2AB.3B4.12B
5.4B8.4B$7.A4.4B5.A2.A11.A.AB8.12B4.4B10.4B$4.3AB2.7B.BA.A2.2A10.A
11.13B2.4B12.4B$3.A.2B3.7B.B2A14.2A12.12B.4B14.3BA$3.4A12B28.5B3.
10B16.ABA$.2A2.BA3B2A7B28.2A6.9B18.2A$A2.3AB.2B2A7B29.A6.8B20.B$2A
.A.B3.10B26.3A7.8B.2B$3.A8.8B25.A9.13B$3.2A7.9B34.13B$13.3B2.4B33.
14B$11.5B3.4B31.14B$11.2A7.4B29.4B2.10B$12.A8.4B7.A19.4B2.11B.B$9.
3A10.4B6.3A16.4B.14B2A$9.A13.4B8.A8.26B2A$24.4B6.2A7.28B$25.4B5.5B
.B2.28B$26.4B6.6B.24B$27.4B4.30B2A$28.25B2.2B2.6B2AB.B$29.21B11.8B
2A$28.20B15.4B.B2A$27.20B17.2B3.B$26.2A19B16.2B$26.2A11B2.8B13.B2A
B$27.11B5.B3.2A14.2A$29.11B7.A$29.4B5.2A8.3A$38.A11.A$39.3A$41.A!
