#CSYNTH gun_2530 costs 2623 cells.
#C period 2530 fullperiod 2530 bbox 61 by 43
#CLL state-numbering golly
x = 61, y = 43, rule = LifeHistory
36.2A$35.2BA$33.2A2B$29.A2.B3A$28.ABA2B3AB$26.4BA2.B.AB$15.A10.2AB
A4.2A$15.3A3.2A.BA2BAB26.2A$18.A2.A.A2B2AB27.A.A$17.2A3.AB.BAB29.A
B$17.5B14.4B3.B.9B2.2A$17.2A3B14.4B.9BA3B6A$16.B2A2B2A12.2A12BABA
2B4A2BA$6.A8.B2AB4A12.2A12BA3B2A4B2A$6.3A7.8B12.B.12BA2BA4B.B$9.A
5.3BA10B9.13B3A3B$8.2A4.10B2A5B2.5B.B.3B$8.B3AB2.5B3AB3A24B3A3B$
10.3A.10B2A24BA2BA4B.B$6.3BA2BA5BA10B2.18BA3B2A4B2A$5.3B5ABA12B4.
18BABA2B4A2BA$5.4B4AB4AB4A4B4.19BA3B6A$5.12BAB5A3B5.6B.B.3B.9B2.2A
$3.10BA5BA2BA3B5.B3.4B18.AB$.5B2A10B.3A8.3A3.4B16.A.A$5B3AB3A5B2.B
3AB6.3B4.4B15.2A$.5B2A10B4.2A2.A2.A.A.A4.4B$3.10BA3B5.A3.5AB4A3.4B
$8.8B7.3A4.3B3.A3.4B$9.4AB2AB9.3AB3.B2A.A3.4B$9.2A2B2AB7.2A2.A.AB.
BA.A2.A3.4B$10.3B2A6.A2.2A2.B2A.2AB2.2A4.4B$10.5B6.2A5.2A3.2A9.4B$
8.BA3.2A12.B2AB.B2AB9.4B$5.B.BA.A2.A13.B2AB.B2AB10.4B$4.2ABA2BA3.
3A11.2A3.2A12.4B$.A2.A.2BA2.3A2.A31.4B$A.A.A.B4A2.A35.4B$.A2.A.A4.
2A37.4B$4.A.5A40.4B$5.A4.A41.3BA$7.A45.3BA$6.2A46.3AB!
