#CSYNTH gun_375 costs 2160 cells.
#C period 375 fullperiod 375 bbox 48 by 45
#CLL state-numbering golly
x = 48, y = 45, rule = LifeHistory
10.2B$8.6B$6.10B$4.2A3BA2BA3B2A$3.B5A4B5AB$4.2A3BA2BA3B2A$6.10B$8.
6B$10.2B$10.2B$11.B$10.2AB$.2A6.B2A2B5.2A10.B$2.A4.8B4.A4.B5.3B$2.
A.AB.8B.BA.A3.3B4.3B$3.2AB.2B2A4B.B2A4.3B3.B3AB$5.3BA2BA5B5.B3AB2.
A3BA$5.3BA2BA5B5.B3AB.A5BA$5.4B2A6B6.4B.7B$7.10B6.ABA.A7BA$9.7B7.A
BA.A7BA$9.8B6.4B.7B$8.5B.4B4.B3AB.A5BA7.A$8.6B.4B3.B3AB2.A3BA7.A.A
$7.6B3.4B3.3B3.B3AB8.A$3.B2.3BA3B4.4B.4B4.3B$.7BABA2B5.7B5.3B7.5A$
.7BABA2B6.5B7.B7.AB4.A$9BA3B7.2B2AB15.2BABA2.A$11B.B2A6.BABA3.4B7.
4B.A.2A$.9B2.BA.A6.A6BA3B5.ABABA.A$.7B7.A7.5BABA6B.A.B.A.A$2.6B7.
2A7.3B2AB2A6B.2A.A.2A$3.4B18.4BAB2A5B3.A.A$4.4B19.3B2A6B3.A.A$5.4B
22.5B.B2A.2A$6.4B23.2B2.BA.A$7.4B22.B6.A$8.4B20.2B6.2A$9.4B17.2B2A
2B$10.4B15.B2A2B2AB$11.4B14.BA4BAB$12.3BA15.A2BA$13.3BA12.A.A2.A.A
$14.3AB11.2A4.2A!
