#CSYNTH gun_8719 costs 14410 cells.
#C period 8719 fullperiod 8719 bbox 131 by 110
#CLL state-numbering golly
x = 131, y = 110, rule = LifeHistory
37.2A2.A$36.A.4A$36.A$34.2A.7A$32.A2.A.A3.B2.A$32.2A2.BA.2A2.2A$
36.2AB2AB6.2A$36.5B8.A$37.3B7.A$36.5B6.5A$36.BA4B9.A$34.2BABA3B3.
4AB$34.2BABA4B2.A2.AB$35.2BA4B4.4B$34.15B3.2A$33.14B2A.A2.A$32.11B
A3B2A.2A$31.11BABAB.B$30.4B2.7BAB$14.2A13.4B5.7B$14.A13.4B4.9B$9.
2A5.A10.4B5.2A4.4B$9.A5.2A9.4B7.A5.4B$6.2A.A.3B11.4B5.3A7.4B$6.A2.
A.2A2B2A7.4B6.A10.4B$8.2A.A.2B2AB5.4B19.4B$11.A.4B5.4B21.4B$11.2A.
4B3.4B23.4B$4.2A8.3BA6B25.4B25.A11.2A$3.A.A8.2BABA4B10.2A15.4B23.A
.A9.B2AB$3.A8.B.3BA4B11.A.A15.4B10.A3.A3.2A2.A.A9.3B$2A.AB.B3.11B
14.A4.2A10.4B7.3A2.A.A2.A2.2A.2A9.B.B$.A.A.2AB.12B10.4A.2A2.A2.A9.
4B5.A5.A.A3.A.A2.B8.5B$.A.A.2A14B10.A2.A.A.A.A.2A10.7B.2A5.A.4A2.A
B2A6.6B$2A.A2.5B2A8B12.BABABA.A14.9B7.A3.A.A.2A4.8B$A2.4A3BA2BA5B.
B2A11.B2ABA.A15.6B8.A2.BA.A2.13B$.2A2.BAB.2B2A6B.BA.A.2A8.2B.BA17.
5B7.A.2BA.A5.13B$3.2A6.7B5.A.A8.3B19.7B6.2A.2BA5.15B$3.A7.2B.4B5.A
2.A6.4B20.3BA2B10.3B4.15B$5.A9.4B5.A.A6.B2A3B18.2B3A2B10.2B.B.17B$
4.2A10.4B3.2A.A.AB3.B2A3B18.BA2B2A4.29B$17.4B6.2AB.10B16.BA3BAB2.
16B2A13B$18.4B7.13B15.2B2ABAB2.16B2A14B$19.4B6.14B13.5B2A2B.27B3.B
2A$20.4B5.15B12.36B4.A2.A$21.4B6.8B2.4B6.B4.BABA16B2.2B2.B2.7B5.2A
.A$22.4B5.6B5.4B4.2AB.2BA2BA13B13.7B7.A$23.4B3.9B4.4B3.2A4BA3BA10B
15.8B6.2A$24.4B.4B4.2A5.4B3.B.2B2ABA11B17.2B2.4B$25.7B5.A7.4B5.2BA
3B2A9B15.2A4.4B$26.5B7.3A5.4B4.7BA9B15.A6.4B$26.5B9.A6.4B3.3BA2BA
8B.B2A15.A5.4B$25.7B16.4B2.4B3A5B4.BA.A13.2A6.4B$24.4B.4B7.A8.15B
9.A22.4B$23.4B3.4B6.3A7.15B8.2A22.4B$22.4B5.4B8.A7.14B33.4B$21.4B
7.4B6.A.A7.12B35.4B$20.4B9.4B5.A.AB7.10B37.4B$19.4B11.4B5.A3B7.9B
38.4B$18.4B13.4B6.4B5.9B39.4B$17.4B15.4B5.6B5.6B41.4B$16.4B17.4B4.
7B.2B2.5B42.4B$5.A9.4B19.4B2.8B.9B43.4B$5.3A6.4B21.18B2A4B43.4B$8.
A4.4B23.16BA2BA4B43.4B$7.2A3.4B8.2A14.17B2A2.4B43.4B$7.8B8.A.A9.2A
2.19B4.4B43.4B$3.2A4.5B5.2A2.A11.A2.A17B7.4B43.4B$2.A.BAB.5B6.A.A.
2A12.2A.15B9.4B43.4B$2.A.2AB2.5B6.2A.A2.A15.12B11.4B43.4B10.2A$.2A
.B.B3.5B3.3B.B2.2A16.10B13.4B43.4B9.A$A3.2A2B2.5B3.4B21.2B2A6B14.
4B43.4B10.A$.3A2.AB.13B.B18.3B2A6B15.4B36.2A5.4B5.5A$4.2ABA13B.B2A
18.10B16.4B36.A5.4B4.A$3.A2.A5BA10B2A18.8B.B2A.A13.4B35.A.AB.7B2.B
3A$3.2A2.4BABA7B.2B18.7B3.B2AB3A12.4B35.2AB.7B3.2B.A$7.4BABA7B21.
6B6.B4.A12.4B36.12B4A$8.4BA7B23.6B4.2A.3A14.4B35.7B2A3BAB2.2A$10.
9B3.2A19.5B4.A2.2A17.4B34.7B2A2B.B3A2.A$7.B.10B.B2.A18.8B.A.A21.4B
33.10B3.B.A.2A$6.2A12B3A10.A8.8BA.A.2A.A18.4B31.8B8.A$6.2AB.8B.BA
12.3A6.6B.2BAB.A.2A19.4B29.9B7.2A$7.B3.6B4.2A13.A4.7B2.2B2.A23.4B
27.4B2.3B$12.2B2A6.A12.2A4.7B3.B.2A24.4B25.4B3.5B$13.BABA4.A13.4B.
8B2.A.A2.2A23.4B23.4B7.2A$14.A3B3.2A14.11B2.2A2.A2.A23.4B21.4B8.A$
15.4B17.12B7.2A25.4B19.4B10.3A$16.4B16.12B35.4B10.A6.4B13.A$17.4B
15.11B37.4B7.3A5.4B$18.4B13.9B12.2A27.4B5.A7.4B$19.4B9.2B.10B11.A
29.4B4.2A5.4B$20.4B7.16B.B4.BA.A30.9B4.4B$21.4B3.23B2.B2A32.6B5.4B
$22.32B34.8B2.4B$23.32B31.15B$24.31B31.14B$25.30B31.13B$27.28B29.
2AB.10B$28.17B5.B.4B27.A.AB3.B2A3B$28.14B11.4B26.A6.B2A3B$28.14B
12.4B24.2A6.4B$32.3B4.2B14.4B32.3B$33.B6.2B14.4B32.2B.BA$39.B2AB
14.4B30.B2ABA.A$40.2A16.4B28.BABABA.A$59.4B25.A2.A.A.A.A.2A$60.4B
24.4A.2A2.A2.A$61.3BA27.A4.2A$62.3BA24.A.A$63.3AB23.2A!
