#CSYNTH gun_9600 costs 2691 cells.
#C period 9600 fullperiod 9600 bbox 69 by 39
#CLL state-numbering golly
x = 69, y = 39, rule = LifeHistory
4.2A4.2B4.2A$3.A2.A.6B.A2.A8.2BABAB$3.3A2.6B2.3A6.3BA2BA3B4.B$6.
10A7.4B2A8B.B2A$5.A2.6A2.A6.2B2A3BA8B2A$5.2A.B4AB.2A6.4B2A5B2A4B$
10.2B8.2A.5BA2BA4BA3B$10.2B8.A2.A2B.2BABAB4.B2.A3B$11.B9.3AB14.B2A
4B$10.2AB11.B13.2B2A5B9.2A$.2A6.A2BAB5.4A.A12.16B2.B2A2B6.2A$2.A4.
3B2A3B4.A2.A.3A9.4B.10BAB2.5B6.A$2.A.AB.8B.BA.A7.A7.4B2.9BABA8B6.A
$3.2AB.8B.B2A7.2A6.4B3.8B2ABA5BAB6.2A$5.12B16.4B5.7BA8BA2B.B.BA$5.
12B15.4B6.5B3A3B4ABA6B3A$5.12B3.A10.4B8.6BABAB3A8B.B2.A$7.10B3.3A
7.4B10.7BA12B3.2A$9.7B7.A5.4B14.14B$9.8B5.2A4.4B7.2A3.16B$8.5B.4B
4.9B8.A2.B.B3A4B2A6B$8.6B.4B5.7B9.3A3B3AB5A7B$7.6B3.4B2.7BA12.AB.B
.B2ABAB2A7B.B$3.B2.3BA3B4.11BABAB8.2A6.2B3A10B2A$.7BABA2B5.10BABA
2B7.A6.4B3A9B2A$.7BABA2B6.10BA3B8.A6.4BA2.9B$9BA3B7.10B3.B2A4.2A6.
2BABA2.3B.5B$11B.B2A7.3B2AB5.3AB13.2A$.9B2.BA.A6.3B2AB4.A.2AB$.7B
7.A8.4B3.A.A.2B$2.6B7.2A7.3B4.A2.A$3.4B14.AB.2B6.2A$4.4B12.A.AB2AB
$5.4B11.A.ABABAB$6.4B7.2A.A.A.A.A2.A$7.4B6.A2.A2.2A.4A$8.3BA7.2A4.
A$9.3BA12.A.A$10.3AB12.2A!
