#CSYNTH gun_895 costs 4818 cells.
#C period 895 fullperiod 895 bbox 73 by 66
#CLL state-numbering golly
x = 73, y = 66, rule = LifeHistory
32.2A$31.B2AB11.2A.A.2A$32.3B4.A.2A.A2.A.2A2.A3.A$31.B.B5.2A.A.2A.
A4.A.A2.3A$31.5B8.B2.5A.A6.A$31.6B6.2ABA4.A7.2A$31.8B4.2A.A.AB2.A
6.5B$32.13B2.A.A2B.A7.B3A$30.13B5.A2B.2A7.BABAB$29.15B3.3B11.3B2AB
$29.15B3.2B12.6B.B$28.17B.4B10.A2BA2B.B2A$28.29B4.8BA$27.13B2A16B
2.B2ABAB.2B$26.14B2A16B2.2BABAB$25.2AB3.27B.3BA5B3.B$24.A2.A4.29B
3A5B.B2A$23.A.2A5.6B3.B2.2B2.14B3A6B2A$23.A7.6B14.21B$22.2A6.9B14.
19B$30.4B3.2A15.9B3ABA2B$29.5B3.A15.10B6AB$26.9B3.3A12.15BAB$8.2A
3.2A11.9B5.A10.2AB.3B.7BABA$8.A.A.A.A11.9B15.A.AB5.6BA2B$10.A.A13.
5BA4B14.A9.2B2ABABA$5.2A2.A.2BA11.5B3A4B12.2A8.3BA2BA2B2.B$4.A.A2.
A.ABA10.6BA2BA3B8.2A12.4B3A2B.B2A$3.A2.A.2A.A13.3BABAB2A2B9.A14.4B
A5B2A$4.3A2.AB2A13.4BA7B4.BA.A15.8B.B$7.2A2B2AB12.BABA11B.B2A10.A
4.8B$6.A2.A.2A13.BA15B12.3A3.7B$6.2A2.2AB13.B6A10B15.A3.5B$10.2B
11.B.3BAB3A9B15.2A3.4B3.A$10.2B10.2A19B14.9B3.3A$11.B10.2AB.19B14.
6B7.A$10.2AB10.B4.3B3A14B2.2B2.B3.6B5.2A.A$.2A6.A2BAB5.2A7.4B3A29B
4.A2.A$2.A4.3B2A3B4.A8.3BABA3B.27B3.B2A$2.A.AB.8B.BA.A9.B2ABA2B2.
16B2A14B$3.2AB.8B.B2A10.2BAB2AB2.16B2A13B$5.12B12.6B4.29B$5.12B12.
3BA2BA10.2B.B.17B$5.12B3.A8.6B10.3B4.15B$7.10B3.3A5.2B2A3B6.2A.2BA
5.15B$9.7B7.A5.BA2BA7.A.2BA.A5.13B$9.8B5.2A4.3B3A8.A2.BA.A2.13B$8.
5B.4B4.14B7.A3.A.A.2A4.8B$8.6B.4B5.9B.2A5.A.4A2.AB2A6.6B$7.6B3.4B
2.8B4.A5.A.A3.A.A2.B8.5B$3.B2.3BA3B4.15B3.3A2.A.A2.A2.2A.2A9.B.B$.
7BABA2B5.14B5.A3.A3.2A2.A.A9.3B$.7BABA2B6.13B17.A.A9.B2AB$9BA3B7.
10B.B2A16.A11.2A$11B.B2A7.3B2AB3.BA.A$.9B2.BA.A6.3B2AB6.A$.7B7.A8.
4B6.2A$2.6B7.2A7.3B$3.4B14.AB.2B$4.4B12.A.AB2AB$5.4B11.A.ABABAB$6.
4B7.2A.A.A.A.A2.A$7.4B6.A2.A2.2A.4A$8.3BA7.2A4.A$9.3BA12.A.A$10.3A
B12.2A!
