#CSYNTH gun_1584 costs 2622 cells.
#C period 1584 fullperiod 1584 bbox 46 by 57
#CLL state-numbering golly
x = 46, y = 57, rule = LifeHistory
.A2BA4.A$.3BAB3.3A$A4BA6.A$2AB.A.AB3.2A$.B3.AB2A2.6B$6.3B4.B2A5B$
5.4B2.3B2A7B$4.BA2BA.14B$5.2A3.14B$9.15B$9.13B.B2A$10.11B2.BA.A$
12.7B7.A$12.8B6.2A$12.5BA3B16.2A$13.2BABA4B14.BABAB$13.3B2A5B14.B
3A$9.4B4.7B14.B2A$8.2A3B5.7B8.B3.ABAB$8.2BAB2A5.7B6.2AB.A.AB$6.AB.
A.B2A6.7B5.ABA2BA$5.BABA3.B8.7B5.4AB$5.2BA14.7B4.B2AB$5.4B14.10B$
5.2B2AB14.9B$7.2A3.B2A5.AB3.9B$12.3AB3.B2A4.8B$11.A.2AB4.2AB4.7B$
10.A.A.2B4.BA3.11B$10.A2.A2.2B4.15B$11.2A3.3B3.15B$5.2A9.B2A.16B3.
2A$4.A.A8.BA2BA16B.2B2AB$4.A8.B.2B2A11B2A3B2.2B2A$.2A.AB.B3.11B3.
5B2AB4.2BA$2.A.A.2AB.12B7.6B2.BABA3.B$2.A.A.2A14B11.2A3.BA.A.3A$.
2A.A2.5B2A8B11.A6.AB4A$.A2.4A3BA2BA5B.B2A10.3A3.BA3B$2.2A2.BAB.2B
2A6B.BA.A11.A4.4B$4.2A6.7B5.A$4.A7.2B.4B5.2A$2.A.A11.4B$2.2A13.4B$
18.4B$6.2B7.A3.4B$6.BAB5.A.A3.4B$4.2BABA5.BA2B2.5B$4.BA3BA5.2B.B2.
5B$5.BA2B.A4.3BA2B2.4B$7.A.2BAB2.2BABAB3.4B$8.A3BA2B2A2B2A4.4B$9.A
BA2B.2AB2A6.4B$9.BAB2.2AB3A7.4B$10.2B2.3AB10.3BA$14.BABAB10.3BA$
16.2A12.3AB!
