#CSYNTH gun_3366 costs 3780 cells.
#C period 3366 fullperiod 3366 bbox 90 by 42
#CLL state-numbering golly
x = 90, y = 42, rule = LifeHistory
32.2A39.B.B$32.A.A37.B2A3B$34.A4.2A31.A2BA2B10.2A$30.4A.2A2.A2.A
28.2B2A4B2.2B5.A$30.A2.A.A.A.A.2A17.2A9.13B.BA.A$27.A4.BABABA.A16.
2A3.A6.16B.B2A$25.3A5.B2ABA.A16.A2.A7.BA12BA4B$24.A9.2B.BA14.A4.3A
5.BABA10BABA4B$23.B2A7.3B17.5A3.2B3.BABA11BA4B$21.5B6.4B22.3A2B3.
2BA15B.B2A$16.A4.3B8.B2A3B12.2A3.3AB.A23B.BA.A$6.A7.3A3.2BA2B7.B2A
3B13.A2.A3.2A19B2.2B5.A$5.A.A5.A5.2BABA2B4.10B11.A.A.2A21B10.2A$5.
BA2B4.2A3.2BA3BA16B9.2A.A.A.B.19B$6.2B.6B4.2BABA18B7.A3.A2.A5.16B$
7.6B7.2BA2B.B.15B6.A.2A.2A6.10B3.4B.2A$6.8B7.3B6.8B2.4B6.A.A.A8.8B
3.B2A3B.A$4.9B.B7.2B5.7B5.4B10.A6.9B4.2AB2.A$4.11B14.9B4.4B7.3A5.
10B8.A$2.2AB.10B.B10.4B4.2A5.3BA5.A7.10B5.5A.A$.A.AB.3B2A9B7.4B5.A
7.3BA4.2A5.7BA3B5.A4.A.A$.A4.2BA2BA3B2A3B.2B3.4B7.3A5.3A6B4.7BABA
2B7.A2.A.A$2A4.3BABA3BABA11B5.3A2.A6.6B5.8BABA2B6.2A3.A$4.2AB.2BA
4BAB2A2B3A5B5.A2.A8.8B2.10BA3B$3.A.AB.6BAB2A2B2ABA6B.BA.A2.2A5.24B
.B2A$3.A5.5B3A2B2ABA4BA2B.B2A4.A5.23B2.BA.A$2.2A5.11BABA3BABA3B4.A
7.13B.7B7.A$8.4B3.2B.3B2A3BA2BA2B4.2A4.2AB.10B3.6B7.2A$7.4B7.9B2A
3B.BA.A2.A.A.AB3.7B5.4B$.2A3.5B9.B.10B.B2A2.2A.A5.9B5.4B$.A2.A5B
13.11B7.A6.2B2A4B6.4B$3.2A.3B14.B.9B7.2A5.2B2A2B9.4B$24.8B17.5B10.
4B$25.6B19.3B12.4B$23.6B.2B17.5B12.4B$23.2A4.2BAB15.B2AB2A13.4B$
24.A5.A.A12.2A2.2A.AB2.2A10.4B$21.3A7.A13.A2.B3.A.A2.A11.4B$21.A
24.7A.2A14.4B$53.A17.3BA$48.A.2A.A18.3BA$48.2A.2A20.3AB!
