#CSYNTH gun_5940 costs 3657 cells.
#C period 5940 fullperiod 5940 bbox 69 by 53
#CLL state-numbering golly
x = 69, y = 53, rule = LifeHistory
16.2A$16.A.A3.A4.A$17.ABA.ABAB.A.A4.2A$16.6B.A2B.A4.A.A$16.2A.AB2A
.AB6.A$15.BAB3.3ABA4.2A.A$16.A3.BA4B3.BA2.A$20.A.3BA4.2B2A.2A$21.
2A2.9B.A$25.3B2A2B3.A.A$12.A11.3BA2BAB.B2A.3A$12.3A8.4BAB2A3B.B4.A
18.A2.2A$15.A7.9B.B2AB3A19.4A.A$6.A7.2A9.7B.B2A.A26.A$5.A.A6.5B7.
5B26.7A.2A$3.3A.A8.3B8.4B25.A2.B3.A.A2.A$2.A4.2A5.7B6.3B26.2A2.2A.
AB2.2A$3.3A.B5.8B6.4B28.B2AB2A$5.AB2A4.11B.7B28.5B$6.2A2B3.3B4A8B.
4B28.3B$5.2ABAB3.2B2ABABA8B.4B26.2A3B$4.ABA.AB3.3BA12B2.4B24.B2AB
2A$2.3A.ABAB3.4BA2B2A6B4.4B15.2A6.2ABA4B$.A4.A.A3.5B3A7B6.4B15.A5.
9B$.A.2A2B3A.4BAB2A8B7.4B14.A.AB3.7B$2A.A2.AB2AB.4BA9B8.5B14.2AB.
10B$A3.2AB3A2.12B3.B7.5B15.13B$.2A.A2.BAB3.B.6B5.3B5.7B14.13BA$2.A
.A.2A8.5B5.BAB4.4B.4B10.A2.11BABA$2.A.A.A7.2BA3B5.B3AB3.BAB3.4B7.
3A4.8B2.2A$3.A2.A4.4BABA7.5A2.BABAB3.4B5.A7.6B5.B$6.2A3.2A.A.A7.7B
.BABAB4.4B4.2A5.9B$10.ABABA.A.A5.7B.2ABA6.9B4.4B4.2A$10.A4.A.2A4.
9B.3B7.6B5.4B5.A$11.3A.A7.9B.3B7.8B2.4B7.3A$13.A.A8.7B.2ABA5.15B
10.A$14.A9.7B.BABAB4.14B$25.5A2.BABAB4.13B$25.B3AB3.BAB3.2AB.10B$
26.BAB4.3B2.A.AB3.4BA2B$26.3B5.B3.A5.4BABA2B$27.B9.2A6.3BABA2B$45.
4BAB$46.5B$47.3B$46.5B$45.B2AB2A$42.2A2.2A.AB2.2A$42.A2.B3.A.A2.A$
43.7A.2A$50.A$45.4A.A$45.A2.2A!
