#CSYNTH gun_2726 costs 5160 cells.
#C period 2726 fullperiod 2726 bbox 86 by 60
#CLL state-numbering golly
x = 86, y = 60, rule = LifeHistory
23.2A7.A$22.B2AB4.3A$22.3B4.A8.A$11.2A10.B.B3.2A5.3A35.2A$10.A2.A
2.2A3.10B4.A32.A4.B2AB$11.2A2.A.A3.8B6.2A30.A.A2.2B2A$13.2A.B3.11B
2.4B30.BA2B2.B3A$13.A2.2B.16B7.A25.2B4.3B$10.2A.A.4BABA13B5.3A25.
3A2.A4BA$10.A2.A.2A2BA2BA2BA8B5.A28.5BA4BAB$12.2A.2A2BABA3BA4BA3B
4.B2A25.A4BABA4BA$16.2B.12BA2B.6B22.B.BA4BA7B2.2A$19.7BA5BA6B22.5B
A4BA2B3A2B3.A$17.6B.4B2A3BA5B.2B18.12B.8B.A.2A$17.2AB4.9BA7B2A.2A
14.8B3AB2.5B2A.A2.A$18.A5.4BA2B2A8B2A.A2.A10.B.3A9B2.5B.A.2A$9.A5.
3A5.5BA2BA11B.A.2A2.A6.4A2BAB3.3B4.B.2B.A.A$9.3A3.A6.7BA9B.2B2.A5.
3A4.5ABAB3.5B4.2B2A2.A$12.A8.4B2.11B3.B.2A8.A4.4BA4B4.2A4.BAB.2A$
11.2A7.4B5.8B3.A.A2.2A5.2A4.5B2.2A4.A5.B2A.A$11.5B3.4B4.10B3.2A2.A
2.A4.6B2.B4.A6.3A4.A.A$13.3B2.4B5.2A3.B.B10.2A7.2B2AB7.3A5.A2.A.A.
2A$3.2A7.9B7.A4.3B18.2B2A2B8.A8.2A$3.A8.8B5.3A4.B2AB17.8B$2A.A.B3.
10B6.A7.2A12.A.2A2.9B$A2.AB2A.3A8B28.2A.A12B$.2A2.5BA8B33.12B$3.2A
3BA3B2A5B33.13B$3.A.2B3.7B.B2A2.2A27.9B.4B$4.2ABA2.A6B.BA.A2.A27.
9B2.4B$7.A4.2BAB5.2A28.11B2.4B$2.5A5.ABAB5.A29.11B3.4B$2.A10.2A2B
6.A27.12B3.4B$4.A9.4B4.2A21.B4.14B3.4B$3.2A10.4B2.2B21.3B3.10B.2BA
B3.4B$8.2A6.8B18.6B2.15B4.4B$9.A7.7B12.4B2.7B.13B.B2A3.4B$9.A.2A5.
7B2.B2.2B2.29B.BA.A3.4B$10.A2.A4.36B2A7B4.A4.4B$11.2AB3.10B2A24BAB
2A6B4.2A4.4B$12.14B3A12B2A6B2A3BA2BA6B10.4B$13.13BA2BA11B2A6BABA2B
4A6B11.4B$14.13B2A22BA4BA8B11.4B$14.9B2A6B.B5.13BA12B13.4B$15.8B2A
5B10.B2.2B4ABA5BA6B15.4B$15.15B12.13B3A4B.B.B13.4B$16.13B12.13B2AB
2A6B2A13.4B$18.13B10.12B3AB3A5B2A14.4B$17.8B4.2A.A6.2AB2.5B2.3B2AB
2A4B.2B16.3BA$17.6B6.2AB3A3.A.AB2.4B3.4B3A6B19.ABA$17.5B8.B4.A2.A
14.3BA7B.B18.2A$17.B.B9.2A.3A2.2A14.12B2A18.B$18.3B9.A.A20.10B.B2A
$17.B2AB9.A.A18.2AB.6B4.B$18.2A11.A18.A.AB.4B$50.A5.5B$49.2A8.2A$
59.A$60.3A$62.A!
