#CSYNTH gun_6060 costs 7954 cells.
#C period 6060 fullperiod 6060 bbox 97 by 82
#CLL state-numbering golly
x = 97, y = 82, rule = LifeHistory
75.2A$71.A.A2.A$69.3A.2A11.A$68.A4.B10.3A$43.2A11.A12.3AB2AB7.A$
42.B2AB9.A.A13.A.2AB.4B2.2A$43.3B9.A.A17.10B$42.B.B9.2A.3A15.8B$
42.5B8.B4.A14.11B$42.6B6.2B4A9.4B2.12B$42.8B4.2A.A11.18B$43.13B12.
19B$41.12BA14.17B$40.14BA13.17B$40.13B2A10.B2.18B$39.9B5A3B.B5.23B
3.B$39.12B2A34B.B2A$38.28B2A21B2A$37.29B2A22B$36.2AB3.44B.3B5.2A$
35.A2.A4.43B9.A$34.A.2A5.6B3.B2.2B2.26B4.B2.BA.A$34.A7.6B13.4B2.7B
3.8B3.3B.B2A$33.2A6.9B17.6B8.5B.6B$40.4B4.2A19.3B11.10B$39.4B5.A
21.B13.5B2A2B$38.4B7.3A33.3BA2BA$37.4B10.A32.4BABAB$36.4B43.6BAB$
35.4B43.4B2.3B$34.4B43.4B3.3B$34.4B42.4B6.B$33.5B41.4B6.A3B$30.9B
39.4B6.A2B2A2.2A$30.9B38.4B7.B3A.A2.A$30.9B37.4B9.A.2BA.A$30.10B
35.4B10.BAB2.A$29.12B33.4B10.BAB3A$28.13B8.2A22.4B11.2AB$29.11B9.A
22.4B12.6A$30.12B4.BA.A21.4B12.2ABAB2.A$30.15B.B2A10.A10.4B12.ABA
2B2.2A$30.17B12.3A7.4B12.A.A2B$30.17B15.A5.4B14.AB$27.B.17B15.2A4.
4B$26.2A19B14.9B6.2A$26.2AB.19B14.6B7.A$27.B4.20B2.2B2.B3.6B5.2A.A
$20.2B10.36B4.A2.A$18.6B8.9B.27B3.B2A$16.10B7.7B2.16B2A14B$14.A2B
2A4B2A2BA5.7B2.16B2A13B$13.A3B3A2B3A3BA4.6B4.29B$14.A2B2A4B2A2BA5.
7B10.2B.B.17B$16.10B7.6B10.3B4.15B$18.6B8.7B6.2A.2BA5.15B$20.2B11.
5B7.A.2BA.A5.13B$17.A2B2.2BA7.6B8.A2.BA.A2.13B$15.BABA4BABAB4.9B7.
A3.A.A.2A4.8B$14.B3A6B3AB.8B.2A5.A.4A2.AB2A6.6B$15.BABA4BABA7B5.A
5.A.A3.A.A2.B8.5B$17.AB4.BA.6B7.3A2.A.A2.A2.2A.2A9.B.B$27.4B10.A3.
A3.2A2.A.A9.3B$11.B2A12.4B23.A.A9.B2AB$11.3AB10.4B25.A11.2A$10.A.
2AB9.4B$9.A.A.2B8.4B$9.A2.A2.2B5.4B$10.2A3.3B3.4B$4.2A9.B2A.5B$3.A
.A8.BA2BA4B$3.A8.B.2B2A4B$2A.AB.B3.BA9B$.A.A.2AB.3A9B$.A.A.2A2B2A
10B$2A.A2.5BA9B$A2.4A3BA8B.B2A$.2A2.BAB.BA8B.BA.A$3.2A6.7B5.A$3.A
7.2B.3BA5.2A$5.A9.3BA$4.2A10.3AB!
