#CSYNTH gun_18 costs 3350 cells.
#C period 18 fullperiod 18 bbox 67 by 50
#CLL state-numbering golly
x = 67, y = 50, rule = LifeHistory
30.2A4.A$31.A3.A.A$31.A.3A.A$32.A3.A9.2A13.2A$34.A9.A2.A3.2A3.2A4.
A$33.3A6.4A.A.3A.A2.A2.3A$30.2B4.AB3.A4.A.A4.A3.A.A$30.B3AB3A2.B.
2A2BA.B2ABA.4A.A.3A$28.B2A3.A4B2A.A.3A2B2A.A.B3.3BA2.A$27.A.B3A2BA
3B2AB2A2B.A.BAB2A2B2A3B2.2A$27.5A.A.A.B5.A.2A.2A.A2.BA.A.B$23.2A7.
2A.A.7A2.A.A2.3A3.A.A$.2A21.A2.4A.BA.2A7.2A3.2A3.4A.3A$.A.A20.A.A.
A4B5.2A2.2A7.2A9.A$2.2AB2.2A.A2.2A6.A.2A.A.B2A3B4A2.A2.A7.A.3A5.2A
$3.A.3A.2A2.2A4.3A.A2.A.B.B.A.A2.A2.2A13.A$.A.2A2.A10.A6.2A.3ABA$A
.A.3AB.8A2.6A2.2A2.2BA$.A2.2B.A.A2.B.B2.2A2.B3.A2BA3BAB4.A8.2A$4.
3B2A2B2A2BAB2.AB2ABAB.B.A2BA3.3A9.A2.2A$3.2A.BA3BA4BAB2ABA.A2BAB.B
A2B2.A12.A.A2.A$3.AB.3ABABA2B.AB2.BA2B4A.3B2.ABA8.2A.A2.2A2.A2.A$
2.3B2.B2A3.A7.A.6B2A.3A.A7.A2.A.2A2.6A$.2AB3A.B.3A3.A2.A.2A4.3BAB
4A8.2A.A.B.BA$.2B.2A.2A.A2.7A.A6.B2A4B8.3B.A2B2AB3AB4A$.A2B2A2.A2.
A.A7.A.A3.2ABA.4B6.2A3BABAB2.A.A.A2.A$AB2.A.A2.2A2.A.B4A2.A.A.A.4A
B.AB3.B4A4B6A.A$A.A.A.2A.A3.A.AB3.2A2.A.A.2BA3B2A3.2ABAB.A.ABAB3.A
.A$.A.A5.A4.A.2B2A2.2A2.7AB2A.3B2A2B2A.A.2AB2A2.A$2.A6.2A4.2A.3AB
2.2A3.A5B.4B2AB2.A.A.A3.A.A$7.2A2.A4.B.A.B.2A2.3A3B.2B4A5BA2.A2.3A
2.2A$8.A.A2.3A2.2A2B.A.A2.A.3B.A.B.3BA.A3.A5.2A$8.A.B2AB.3A3.B.A.
2A.2A4BABA2BA.A.A.A.2A3.A2.2A$7.2A.A2.2B3.5ABA3.AB3A2B2.A.A.A.2A.A
6.A3.A3.2A$6.A3.3A2.2A.B2.B4.2A.4A.3A2.2A.A3.A7.2A2.A3.A$7.3A3.A2.
2A2B6A.A.3B3A2.2A3.A3.A.2A.3A2.2A3.A$10.2A.2A3.3B.B4.A.A2B.BA.A2.
3A3.2A.2A.A2.A.A4.4A$9.A2.A2.3A.4A.2AB2A.2AB2AB.A6.A7.B2A.A2.2A3.A
$7.3A.A2.A2.8A.A3B2A2B2A.A.3A2.A8.AB.A.A2.AB$6.A4.A.2A3.6B2.3BA6B.
A.A2.A.2A5.3A2.A.ABA2B$6.5A.A5.6B3.A2BAB.B2ABA.AB2A.A.B.3B2A4B2A.B
AB$4.2A2.3B.A5.4B5.AB4AB.4BABA.B2AB3AB.ABA.A2.A.2A$3.A2.ABABA.2A3.
7B3.3B.2AB2AB5A3BABA2BA.A.A.4A.A.A.2A$3.2A.A.ABAB.A13B2A5.2BA4B2AB
A2.A.2A.A.2A4.A2.2A.A$6.A2.A.2A8B2A5BAB5.5B.2AB3.A.B.A.A3.A2.A.A$
6.2A.A.B.A6BABA5BA2B6.B3.3B4.2A.A2.A.2A3.2A$8.A.A.2A3.3BABA4BA4B
18.A.2A$8.A.A.A4.3B2A5B2.3BA17.A$9.A2.A5.6B6.3BA15.2A$10.2A7.3B9.
3AB!
