#CSYNTH gun_4680 costs 2244 cells.
#C period 4680 fullperiod 4680 bbox 51 by 44
#CLL state-numbering golly
x = 51, y = 44, rule = LifeHistory
35.B2A3B$27.2B4.3B3A4B4.B$26.ABAB.7B2ABA3B.B2A$26.A6BA4BA2BA5B2A$
25.7BA5B2ABA6B$25.2BA4BA3B3A9B$24.5B2A4.B2A3B4.B$24.7B$24.7B$24.2A
3B2A$13.A10.7B$12.A.A9.BA3BAB3.3B$12.BA2B9.B3AB3.2B2AB$13.BA3BA2.
2A2.B3AB3.5B6.A$13.BA3B4A7B2.7B4.3A$14.BA3BA.4B.13B2.A$15.BA.5AB5.
9B3.2A$16.A.A.A.AB4.11B.3B$14.A.A.A.2A5.14B6.B$12.4A.A.A6.16B3.B3A
$11.A5.A.A5.4B2.11B3.3AB$11.3A3.2A5.4B5.3BA8B.B$14.A8.4B6.B2AB2A6B
$13.2A7.4B7.B2AB2A7B$13.5B3.4B8.14B$4.2A9.3B2.4B9.2B2AB2A7B$3.A.A
8.9B7.2A2.B2AB2A7B$3.A8.B.8B8.A4.2BA8B.2A$2A.AB.B3.11B6.2A.A.12B4.
A$.A.A.2AB.12B6.A.2A.2A5B2.4B3.A.A$.A.A.2A14B11.A4.2B.B2A2B4.2A$2A
.A2.5B2A8B11.A.A6.2A.B2A$A2.4A3BA2BA5B.B2A10.2A9.BA.A$.2A2.BAB.2B
2A6B.BA.A23.A$3.2A6.7B5.A23.2A$3.A7.2B.4B5.2A$5.A8.5B$4.2A9.5B$12.
3B2.4B$7.B2.BA3B3.4B$6.3AB2A2B2A3.4B$6.4A4B2A4.3BA$7.3B2A2.B6.3BA$
7.3B12.3AB!
