#CSYNTH gun_784 costs 3672 cells.
#C period 784 fullperiod 784 bbox 72 by 51
#CLL state-numbering golly
x = 72, y = 51, rule = LifeHistory
17.A$11.2A4.3A34.A$12.A2.2A3.A31.3A4.2A$.2A9.A.A2.4A30.A3.2A2.A$2.
A7.B2A.3ABAB31.2ABA2.A.A9.2A$2.A.AB2.2A.A.A2.2BA33.2BAB2A.B2A7.A$
3.2AB.A3BA.2B3AB34.3B2.A.B.2B2.2A.A$5.2B.3B2A.A.2A35.6A.AB3A.2BA$
5.B6AB21.2A18.2B.A.5A.2B$5.BA.3B10.2A2.2A6.B2AB22.5BA2B$9.3B9.A2.B
2A2B5.2B13.2A10.3B.2A$10.3B5.BA.A3.4B3.3B15.A9.3B$8.9B.B2A4.4B3.AB
AB14.A.AB5.3B$6.4B3A6B5.2B2A2.A2B2AB15.2AB.2BA6B$.B.6BA3BA4B6.AB2A
2.3BA2B17.3B2A8B$2AB.4BA2B.2BA4B4.BA2B3.3AB20.BAB6ABA4B.B$2A7BA3BA
6B3.BA2B4.3B19.B2A2B2A.2A2B2AB.B2A$.2B.6B3A6BA2B.BA2BA2.2B20.4BAB
6ABA4B2A$4.11B3.2B2AB2.2A2.B2AB18.12B2A3B.2B$10.3B6.2A2B7.2A10.2A
6.4B3.6BA4B$11.3B6.4B6.5B7.A6.A3B6.3B$12.3B.AB3.4B7.2B2A3.BA.A5.BA
BA6.3B$10.B6AB4.4B5.3B2AB2.B2A5.2B2A3.2A.3B$5.2A.A.2A3B.2B5.4B4.
10B5.4B4.2BA5B$4.B3A2B.A3BA.B2A4.2BAB2.10B5.4B5.2B.5A.A.2B$4.A2B2.
A.A.2A2.BA.A4.2B2A2.9B4.4B4.A2B.3ABA.6A$3.BAB3A.2AB7.A5.2A11B4.4B
4.A.2A2.2B.B.A2.3B$2.4A2.A.A9.2A5.12B3.A3B5.A7.2AB.2ABA2B$2.A3.2A
2.A17.10B3.BABAB4.2A9.A.A2.AB2A$3.3A4.2A17.7B2.B.2B2AB16.A2.2A3.A$
5.A24.13B2.B2A12.2A4.3A$31.11B3.3A2B2.B13.A$27.2A2.4B3A3B3.ABA2BA
2B2A$26.B2AB2.9B3.2A2B2A2B2A$26.4B3.A5BA2B3.B2.2A3B$27.2B3.BA5BAB
9.3B$19.A7.4B2.A5BA$18.A.A5.5B.8B$19.A.14B3A2B$20.20B$20.14B2.3B$
20.15B$19.3B2A12B$19.3B2A13B$17.2AB.11B2.4B$16.A.AB2.8B5.4B$16.A5.
10B4.4B$15.2A5.B.B5.2A5.4B$23.3B4.A7.3BA$22.B2AB5.3A5.3BA$23.2A8.A
6.3AB!
