#CSYNTH gun_9780 costs 7138 cells.
#C period 9780 fullperiod 9780 bbox 86 by 83
#CLL state-numbering golly
x = 86, y = 83, rule = LifeHistory
66.A$54.B9.3A$53.3A7.A$50.BA4B7.2A$49.ABA2BA5.5B$49.B3.B4.BA3B$48.
AB4A4BABA3B4.2A$47.AB.3AB.2BA2BA4B.2B2AB$48.BA.B2.4B2A4B2.4B$46.A
2BA7.6B3.2BA$46.AB9.5B5.ABA4.3B5.2A$47.A8.7B2.5BAB2.4B4.A$44.3A8.
4B.5B2A3B2A6B.BA.A$44.A9.4B3.3BA3B2A2BA5B.B2A$53.4B5.B3A5B2A7B$52.
4B6.2BA7BA7B$51.4B8.2B3A3BA9B$42.A7.4B9.8BA9B$40.3A6.4B10.2BA3BA
11B$39.A8.4B11.5BA12B$38.A.A6.4B13.4B2A10B4.2A$37.BA.A5.4B14.2BAB
2A12B3.A$36.3BA5.4B15.B2A9B4.2A.A$23.2A9.4B6.4B15.2B2AB3A5B4.2AB2A
$24.A7.6B5.4B15.3BA3BA7B4.B$24.A.AB3.7B4.4B15.BABA3B2A7B3.2A.2A$
25.2AB3.8B2.4B15.2B2A6B2A5B4.A.A$27.17B17.BA2BA4B2ABA3B4.A.A$27.
16B19.B3ABA5BAB7.A$27.16B19.6B2AB$27.16B21.7B$28.15B21.8B$29.12B.B
2A18.8B$29.11B2.BA.A17.8B$30.10B5.A17.7B$30.6B2A2B5.2A16.7B$30.6B
2A3B23.6B7.A$30.10B24.6B6.A.A$26.A.2AB.8B25.5B6.A.A$24.3AB2AB3.7B
24.6B4.2A.3A$10.2A11.A4.B6.6B23.6B6.B4.A$8.A4BA10.3A.2A4.6B24.7B3.
B2AB3A$6.BA6BAB10.2A2.A4.5B25.8B.B2A.A$4.2BA8BA2B11.A.A.8B24.10B$
3.3BA8BA3B6.A.2A.A.A8B8.A14.3B2A6B$4.2BA8BA2B7.2A.A.BA2B.6B6.3A8.
2A5.2B2A6B$6.BA6BAB12.A2.2B2.7B4.A12.A5.10B$8.A4BA14.2A.B3.7B4.2A
11.A.AB2.11B$10.2A14.2A2.A.A2.8B.4B12.2AB.12B$10.2B13.A2.A2.2A2.
11B16.15B$11.B14.2A7.12B15.16B$10.2AB22.12B15.16B.2B$.2A6.A2BAB5.
2A15.11B15.18B2A$2.A4.3B2A3B4.A5.2A12.9B13.17B.B2A$2.A.AB.8B.BA.A
6.A11.10B.2B9.4B2.8B.4B.B$3.2AB.8B.B2A7.A.AB4.B.16B7.4B4.7B$5.12B
10.2AB2.23B3.4B5.6B$5.12B12.32B6.4B$5.12B3.A7.32B5.A3B$7.10B3.3A5.
31B5.A.AB$9.7B7.A4.30B6.A.A$9.8B5.2A4.28B9.A$8.5B.4B4.9B.B5.17B7.
3A$8.6B.4B5.7B10.14B7.A$7.6B3.4B2.7BA11.14B$3.B2.3BA3B4.11BABAB10.
2B4.3B$.7BABA2B5.10BABA2B8.2B6.B$.7BABA2B6.10BA3B7.B2AB$9BA3B7.10B
3.B2A5.2A$11B.B2A6.2BA4B5.3AB$.9B2.BA.A4.2BABA4B3.A.2AB$.7B7.A4.2B
ABA3B3.A.A.2B$2.6B7.2A5.BA4B3.A2.A$3.4B15.5B5.2A$4.4B15.3B$5.4B13.
5B$6.4B12.2AB2AB$7.4B11.BA.2A2.2A$8.4B6.2A.A.A3.B2.A$9.4B5.A.2A.7A
$10.3BA8.A$11.3BA7.A.4A$12.3AB7.2A2.A!
