#CSYNTH gun_5340 costs 5508 cells.
#C period 5340 fullperiod 5340 bbox 81 by 68
#CLL state-numbering golly
x = 81, y = 68, rule = LifeHistory
48.2A$48.A.A$50.A4.2A$46.4A.2A2.A2.A$46.A2.A.A.A.A.2A$48.BABABA.A$
49.B2ABA.A$50.2B.BA$49.3B$40.2A6.4B$41.A6.B2A3B$41.A.AB3.B2A3B$42.
2AB.10B$44.13B$44.14B13.A$44.15B10.3A$46.8B2.4B8.A$27.A18.6B5.4B7.
2A$26.A.A3.2A11.9B4.4B3.5B$25.A2.A3.A11.4B4.2A5.4B2.3B$25.A.A.2A.A
10.4B5.A7.9B7.2A$24.2A.A.A.A10.4B7.3A5.8B8.A$22.A2.A.2A2B10.4B10.A
6.10B3.B.A.2A$22.2A2.4B10.4B18.7B2A2B.B3A2.A$26.7B6.4B19.7B2A3BAB
2.2A$10.2A15.8B3.4B20.12B4A$8.A4BA14.8B.4B3.2A14.2AB.7B3.2B.A$6.BA
6BAB12.12B4.A10.2A2.A.AB.7B2.B3A$4.2BA8BA2B7.2B.11B2.BA.A11.A2.A5.
4B4.A$3.3BA8BA3B5.2A14B.B2A10.A2.3A5.4B5.5A$4.2BA8BA2B6.2A16B12.3A
7.4B10.A$6.BA6BAB9.2B.14B15.A5.A3B9.A$8.A4BA14.13B15.2A4.BABA10.2A
$10.2A13.2B.14B14.7B2A6.2A$10.2B12.2A18B14.6B7.A$11.B12.2AB.19B2.
2B2.B3.6B5.2A.A$10.2AB12.B2.35B4.A2.A$.2A6.A2BAB5.2A7.8B.27B3.B2A$
2.A4.3B2A3B4.A8.7B2.16B2A14B$2.A.AB.8B.BA.A8.7B2.16B2A13B$3.2AB.8B
.B2A9.7B3.29B$5.12B8.AB.6B11.2B.B.17B$5.12B7.A.A7B10.3B4.15B$5.12B
3.A4.A8B6.2A.2BA5.15B$7.10B3.3A3.B.6B6.A.2BA.A5.13B$9.7B7.A5.5B7.A
2.BA.A2.13B$9.8B5.2A4.6B8.A3.A.A.2A4.8B$8.5B.4B4.10B.B2A4.A.4A2.AB
2A6.6B$8.6B.4B5.6B3.BA.A3.2A3.A.A2.B8.5B$7.6B3.4B2.8B6.A6.A.A.2A.
2A9.B.B$3.B2.3BA3B4.15B4.2A2.3A.A3.A.A9.3B$.7BABA2B5.14B8.A2.A4.A.
A9.B2AB$.7BABA2B6.13B9.2A6.A11.2A$9BA3B7.10B.B2A$11B.B2A6.2BA4B3.B
A.A$.9B2.BA.A4.2BABA4B5.A$.7B7.A4.2BABA3B6.2A$2.6B7.2A5.BA4B$3.4B
15.5B$4.4B15.3B$5.4B13.5B$6.4B12.2AB2AB$7.4B7.2A2.BA.2A2.2A$8.4B6.
A2.A.A3.B2.A$9.4B7.2A.7A$10.3BA8.A$11.3BA7.A.4A$12.3AB7.2A2.A!
