#CSYNTH gun_5880 costs 3304 cells.
#C period 5880 fullperiod 5880 bbox 59 by 56
#CLL state-numbering golly
x = 59, y = 56, rule = LifeHistory
19.2B.2A$18.3A2.A$18.3B2A12.2A.2B$17.A4B13.A2.2AB$11.4B2.A4B14.2AB
AB$10.6B2.3B2A14.3BAB$8.9B.3A2.A13.3BAB2.4B$7.3B2A9B.A.A11.2ABAB2.
6B$2A5.2B2ABA5B5.2A10.A2.2AB.5B2A2B$.A6.4B2A4B17.2A.7B4A3B$.A.AB2.
4B2A5B3.4A16.8BA2B5.2A$2.2AB.B2A2B2A4B4.A3.A15.4BAB2A2B6.A$4.8BA5B
6.2A10.2A3.4BA2BA3B2.BA.A$4.4BA4B2A3B6.5B7.A5.11B.B2A$4.5BA3BA5B7.
2B2A3.BA.A4.4B4A6B$4.5BA10B5.3B2AB2.B2A5.2B2AB3A6B$5.7BA2B2.4B4.
10B5.5BA9B$6.7B5.4B2.10B5.16B$4.5B.3B6.4B2.9B4.4B2.10B$4.2A7.B2AB
3.13B4.4B5.7B$5.A7.4A4.12B3.4B6.3B.5B$2.3A7.AB2ABA4.10B3.4B3.4B7.
2A$2.A7.3A.2B.3A3.2BA4B2.B.4B4.4B7.A$9.A3.A2.A3.A3.2B2A9B4.6A7.3A$
8.A.4AB.2A.2A4.2A9B3.3A.2A.3A7.A$8.A.B2.2B2.A.A5.10B3.A3.B2.B3.A$
6.A.A.3AB3.A.A6.9B3.2A.2A.5A.A$6.2A.A.2AB4.A8.A5BA2B3.A.A2.2B2.A.A
$9.A.B14.BA5BAB4.A.A3.AB2A.A.A$9.2A16.A5BA6.A4.A2B.A.2A$16.2A8.8B
13.A.A$15.B2AB6.4B3A2B14.2A$15.4B5.10B$16.2B5.4B3.3B$7.2A7.4B2.4B$
7.A.A5.5B.4B$8.A.14B9.2A$9.14B9.B2A2B$9.14B10.4B$9.15B9.4B$8.3B2A
12B7.B3A8.2B$8.3B2A13B6.2B2A6.6B$6.2AB.11B2.4B4.2A2B5.10B$5.A.AB2.
8B5.4B3.3AB3.2A3BA2BA3B2A$5.A5.10B4.5B.BABAB.B5A4B5AB$4.2A5.B.B5.
2A5.5B2.2A3.2A3BA2BA3B2A$12.3B4.A7.4B9.10B$11.B2AB5.3A5.4B10.6B$
12.2A8.A6.4B11.2B$30.4B7.2AB2.B2A$31.4B4.BA8BAB$32.5B.BA2BA4BA2BAB
$33.7BA8BAB$34.3BA2B.2A4.2A$35.3BA$36.3AB!
