#CSYNTH gun_2071 costs 9300 cells.
#C period 2071 fullperiod 2071 bbox 100 by 93
#CLL state-numbering golly
x = 100, y = 93, rule = LifeHistory
41.A11.2A$40.A.A9.B2AB$32.A3.2A2.A.A9.3B$31.A.A2.A2.2A.2A9.B.B$17.
2A12.A.A3.A.A2.B8.5B$18.A13.A.4A2.AB2A6.6B$18.A.AB12.A3.A.A.2A4.8B
$19.2AB.B9.A2.BA.A2.13B$21.4B7.A.2BA.A5.13B$21.4B7.2A.2BA5.15B$5.
2A14.5B10.3B4.5B2A8B$3.2B2AB12.6B11.2B.B.6B2A9B$3.4B13.8B2.14B2A
13B$2.4B13.24BA2BA13B$3.4B13.24B3A14B$.7B13.7B.15B2A10B3.B2A$.7B
12.35B4.A2.A$2A7B11.19B2.2B2.B3.6B5.2A.A$2A9B8.17B14.6B7.A15.2A$.B
.5BABA3B2.2B.15B14.9B6.2A8.A.2A.A.A$4.3BA3BA21B15.2A3.4B16.2A.A.A$
4.2BA4BA12B.8B16.A3.5B19.2AB$4.2BA4BA8B2A2B3.8B11.3A3.9B16.2B$4.2B
A3BA9B2A2B5.B3.2A11.A5.9B16.4B2.B$5.2BA2BA12B10.A18.9B17.8B$12.4B.
3B.B12.3A14.10B17.8B$13.4B19.A13.12B15.8B2A$14.4B22.2A8.13B13.2B2A
3B.B2A$15.4B22.A9.11B14.BABA4B.B$16.4B7.2A12.A.AB4.12B15.ABA4B$17.
4B6.A14.2AB.15B15.BA7B$18.4B6.A15.11BA5B16.8B$19.4B4.2A15.10B3A4B
17.7B$20.4B2.2B17.3B3A3BAB2A4B.B14.8B$13.2A6.8B15.5B2A6B2A4B2A13.
8B$14.A7.3B3AB13.13B3A3B.B2A13.7B$14.A.2A5.BA2BA2B2.B2.2B2.15BA2BA
B4.B14.7B$15.A2.A4.B2A2BA28BAB19.8B$16.2AB3.2A3B2A20B.3BA5B18.10B$
17.4BA2BA24B2.2BA2BAB20.10B$18.3BA2BA24B2.2B3A2B19.7B.4B$19.2BA2BA
23B4.6B19.6B3.4B$19.3B2A3B2A7B.B.2B10.7B19.6B4.4B$20.4B2A2BA6B4.3B
10.6B19.6B5.4B$20.4BA2BA7B5.A2B.2A6.7B2.2A13.8B5.4B$21.4B3A6B5.A.A
2B.A7.5B2.B2AB13.8B5.4B$23.13B2.A.AB2.A8.6B.3B13.9B6.4B$22.8B4.2A.
A.A3.A7.9B.B14.9B7.4B$22.6B6.2ABA2.4A.A5.2A.11B.B9.10B7.4B$22.5B8.
B2.A.A3.A.A5.A4.11B8.5B2A3B8.4B$22.B.B9.2A.2A2.A2.A.A2.3A4.12B8.5B
2A4B8.4B$23.3B9.A.A2.2A3.A3.A6.13B7.11B9.3BA$22.B2AB9.A.A19.12B7.
12BA8.ABA$23.2A11.A21.14B6.8B2.3A7.2A$59.14B5.7B6.A7.B$60.14B4.6B
6.2A$58.16B4.6B$56.A.2AB.12B3.8B$54.3AB2AB3.20B$53.A4.B5.20B$54.3A
.2A5.11B2A6B$56.A.A4.9B2A2B2A7B$56.A.A2.A.2AB.4BABA10B$57.A.3AB2AB
3.2B2A3B.7B$58.A4.B5.16B4.2A$59.3A.2A5.3B.10B5.A$61.A.A4.5B2.9B2.B
A.A$61.A.A4.2A5.9B2.B2A$62.A6.A4.13B4.2A$66.3A5.13B4.A.A2.2A$66.A
6.14B6.A3.A$72.A13B3.4A.3A$70.3A.12B3.A2.A.A$69.A5.5B.5B6.ABAB3A$
69.2A6.2B2.6B6.2ABA2.A$81.7B4.4B2.2A$80.16B$79.13BA2B$75.16BABAB$
74.17BA2BA$74.18B2AB$74.21B$76.17B.B2A$78.13B3.BA.A$76.4B3.10B4.A$
76.2A6.4B3.2A4.2A$77.A5.A3.2B2.A$74.3A4.3A2.B2A3.3A$74.A5.A6.A.A5.
A$80.2A3.A.A.6A$85.2A$91.2A$91.2A!
