#CSYNTH gun_1175 costs 7896 cells.
#C period 1175 fullperiod 1175 bbox 94 by 84
#CLL state-numbering golly
x = 94, y = 84, rule = LifeHistory
76.2A$65.2A7.2B2AB$64.B2AB6.4B$65.2B4.6B4.2A$64.2B4.8B2.B2AB$62.
17B.3B$61.14BA3B2.B.2B$59.15B3A9B$58.15BA3BA9B$57.16B2A2B2A9B$56.
20B2A10B$55.4B3.13B2A11B$54.4B5.B.9B2A5B.B4.B2A$45.A7.4B9.2B.4BA5B
8.BA.A$43.3A6.4B15.2B2A3B12.A$42.A8.4B15.11B9.2A$41.A.A6.4B16.12B$
40.BA.A5.4B17.12B$39.3BA5.4B19.11B2.2A2.2A.2A$37.4B6.4B18.4B.8B2.A
.A2.A.A.A$35.6B5.4B19.2A4.7B3.B.2A2.A.A$34.7B4.4B21.A4.7B2.AB2.A.A
.A$27.B.4B.8B2.4B19.3A6.6B.B2AB.A2.A$26.2AB.17B20.A8.9B.A.3A$26.2A
18B30.8B.A.A$27.2B.16B31.5B4.A2.2A$30.16B31.6B4.2A.3A$31.15B30.6B
6.B4.A$32.12B.B2A28.7B3.B2AB3A$32.11B2.BA.A28.8B.B2A.A$33.10B5.A
28.10B$33.6B2A2B5.2A26.3B2A6B$33.6B2A3B26.2A5.2B2A6B$33.10B28.A5.
10B$29.A.2AB.8B28.A.AB2.11B$27.3AB2AB3.7B28.2AB.12B$26.A4.B6.6B30.
15B$27.3A.2A4.6B31.16B$29.2A2.A4.5B31.16B.2B$32.A.A.8B30.18B2A$28.
A.2A.A.9B8.A20.17B.B2A$28.2A.A.B2AB.6B6.3A19.4B2.8B.4B.B$31.A2.BA
2.7B4.A21.4B4.7B$31.2A.B3.7B4.2A19.4B5.6B$29.2A2.A.A2.8B.4B18.4B6.
4B$28.A2.A2.2A2.11B19.4B5.A3B$29.2A7.12B17.4B5.A.AB$38.12B16.4B6.A
.A$39.11B15.4B8.A$28.2A12.3B2A4B13.4B6.3A$29.A11.5BA4B.2B9.4B7.A$
29.A.AB4.B.5B2A9B7.4B$30.2AB2.8B2A13B3.4B$32.10B2A20B$31.10B2A2B2A
16B$31.11BA3BA15B$31.12B3A15B$31.13BA14B$30.4B.B5.17B$29.4B11.14B$
28.4B12.14B$2A.2A22.4B14.2B4.3B$2A.2AB20.4B3.A10.2B6.B$5.2AB4.A12.
4B4.3A7.B2AB$5A2BA4.3A9.4B8.A7.2A3.2A$A3.A.2BA6.A7.4B8.2A11.A.3A$
2.A2.3B6.2A6.4B9.5B8.A4.A$.5AB7.6B.4B7.A4.3BAB5.2A.3A$A4.B.A8.8B6.
3A3.3BABAB2.2BA.BA$A.ABA3BA4.10B6.A5.4BA2BA4B2A$.2A.3BAB3.10B.B5.
2A5.4B2A5B2A.AB$4.A.AB3.BA18B6.6B2.2BA.BAB2A$.5A5BABA15B9.5B4.2A.A
.2B$.A2.BA4B.ABA12B2A2B7.7B4.A.A.ABA$2.4A2B4.A12BA2BA2B5.4B.4B3.A.
3A2.A$A.A2.A2B5.7B2.4B2A3B4.4B3.4B3.A3.3A$2A2.2A7.7B4.9B.4B5.4B3.
3A$5.A.A8.3B6.12B7.4B5.A$3.A2.A.A5.5B7.10B9.4B3.2A$3.2A.A.A5.2A10.
9B11.4B$5.A.A7.A9.9B13.4B$5.A6.3A11.7B15.3BA$4.2A6.A13.6B17.3BA$
28.2B20.3AB!
