#CSYNTH gun_1882 costs 8448 cells.
#C period 1882 fullperiod 1882 bbox 128 by 66
#CLL state-numbering golly
x = 128, y = 66, rule = LifeHistory
43.2A55.A$42.A.A55.3A$36.2A4.A60.A$34.A2.A2.2A.4A15.2A38.2A$34.2A.
A.A.A.A2.A15.A.A37.6B$37.A.ABABAB19.A4.2A33.5B11.A$37.A.AB2AB16.4A
.2A2.A2.A30.7B8.3A$38.AB.2B17.A2.A.A.A.A.2A29.9B6.A$33.A7.3B18.BAB
ABA.A32.9B6.2A$31.3A7.4B6.2A10.B2ABA.A29.13B2.5B$30.A8.3B2AB6.A12.
2B.BA27.2B.18B$29.A.A7.3B2AB3.BA.A11.3B29.2A19B2A$28.BA.A5.10B.B2A
3.2A6.4B29.2AB.17B2A$27.3BA5.13B6.A6.B2A3B28.B.17B.B$25.4B6.14B6.A
.AB3.B2A3B31.16B$23.6B5.15B7.2AB.10B30.14B$22.7B4.4B2.8B11.13B28.
4B2.8B$15.B.4B.8B2.4B5.6B11.14B26.4B3.7B$14.2AB.17B4.9B10.15B24.4B
3.11B$14.2A18B5.2A4.4B11.8B2.4B22.4B4.12B$15.2B.16B6.A5.4B10.6B5.
4B20.4B5.12B7.2A$18.16B3.3A7.4B8.9B4.4B18.4B7.11B2.2A2.A2.A$19.15B
3.A10.4B6.4B4.2A5.4B16.4B6.4B.8B2.A.A2.2A$20.12B.B2A.A11.4B4.4B5.A
7.4B14.4B7.2A4.7B3.B.2A$20.11B2.BA.A.2A10.4B2.4B7.3A5.4B12.4B9.A4.
7B2.2B2.A$21.10B5.A2.A11.8B10.A6.4B10.4B7.3A6.6B.2BAB.A.2A$21.6B2A
2B5.2A14.6B19.4B8.4B8.A8.8BA.A.2A.A$21.6B2A3B21.3AB21.4B6.4B18.8B.
A.A$21.10B21.3BA2B21.4B4.4B20.5B4.A2.2A$17.A.2AB.8B20.3BA4B21.4B2.
4B21.6B4.2A.3A$15.3AB2AB3.7B18.4B2.4B21.8B21.6B6.B4.A$14.A4.B6.6B
17.4B4.4B21.6B22.7B3.B2AB3A$15.3A.2A4.6B17.4B6.4B21.4B24.8B.B2A.A$
17.2A2.A4.5B16.4B8.4B19.6B23.10B$20.A.A.8B14.4B10.4B6.A10.8B21.3B
2A6B$17.3A.A.A8B8.A4.4B12.4B5.3A7.4B2.4B14.2A5.2B2A6B$16.A2.A.BA2B
.6B6.3A3.4B14.4B7.A5.4B4.4B11.A2.A5.10B$15.A.A.A2.2B2.7B4.A5.4B16.
4B5.2A4.4B6.4B10.2A.A.AB2.11B$14.A.A2.2A.B3.7B4.2A3.4B18.4B4.9B8.
4B11.A.2AB.12B$14.A.A.A2.A.A2.8B.4B2.4B20.4B5.6B10.4B10.A3.15B$15.
2A.2A2.2A2.11B3.4B22.4B2.8B11.4B7.3A3.16B$26.12B.4B24.15B10.4B5.A
6.16B.2B$26.16B26.14B11.4B4.2A5.18B2A$16.A10.14B28.13B12.9B4.17B.B
2A$16.3A11.10B30.10B.B2A11.6B5.4B2.8B.4B.B$19.A9.12B31.3B2AB3.BA.A
10.8B2.4B4.7B$18.2A6.16B30.3B2AB6.A8.15B5.6B$12.2A4.24B6.A25.4B6.
2A7.14B6.4B$11.B2AB5.23B3.3A25.3B16.13B5.A3B$11.4B4.24B2.A25.AB.2B
15.2AB.10B5.A.AB$12.2B5.24B.B.A23.A.AB2AB13.A.AB3.B2A3B7.A.A$4.A7.
4B2.27B2A23.A.ABABAB12.A6.B2A3B8.A$3.A.A5.5B.4B.22BA2.2A18.2A.A.A.
A.A2.A9.2A6.4B7.3A$4.A.14B3.2B7.B3.2B3.3B3A2.A17.A2.A2.2A.4A18.3B
7.A$5.14B3.2BAB5.3B.4B3.2B4.A20.2A4.A23.2B.BA$5.14B4.A.A4.B2AB.B2A
B5.4A27.A.A20.B2ABA.A$5.15B4.A6.2A3.2A7.A30.2A19.BABABA.A$4.3B2A
12B22.A51.A2.A.A.A.A.2A$4.3B2A13B21.2A50.4A.2A2.A2.A$2.2AB.11B2.4B
76.A4.2A$.A.AB2.8B5.4B73.A.A$.A5.10B4.4B72.2A$2A5.B.B5.2A5.4B$8.3B
4.A7.3BA$7.B2AB5.3A5.3BA$8.2A8.A6.3AB!
