#CSYNTH gun_2172 costs 6230 cells.
#C period 2172 fullperiod 2172 bbox 70 by 89
#CLL state-numbering golly
x = 70, y = 89, rule = LifeHistory
31.B9.2A5.2A$30.B2A7.A.2BAB.A.A$27.BAB2AB7.2A.BA2BA$26.6A5.5B2.A2.
A$26.A3.B4.BA3B4.B2A$25.3AB3A3BABA3B3.A$24.BA.2BAB.2BA2BA4B3.B3A$
25.2A.B2.4B2A4B4.2A2.A$23.B2AB7.6B4.A.2BA.A$23.2A9.5B4.A.A2.A.A$
24.A8.7B3.A.A3.A3.A3.2A$21.3A8.4B.4B3.A7.ABA2.A2.2A$8.B12.A9.4B3.
4B10.2B4.A.A$7.3A20.4B5.4B10.BA2.2A.A$7.2A20.4B7.4B9.2A.B2.B.2A$5.
AB2AB18.4B9.4B7.B2A.2ABA.A$.2A.3B.A18.4B11.4B7.2A.2B.A.A$A.3A2BA
10.A7.4B13.4B6.BA3BA.A$A4.BA9.3A6.4B15.4B4.B.B.A.A$.4A10.A8.4B17.
4B3.3B2.A.A$2.B.2A8.A.A6.4B19.4B2.3B3.2A$.2B.2A7.BA.A5.4B21.6BAB$.
3AB7.3BA5.4B23.4BABAB$.2B7.4B6.4B25.3BA2BA$AB6.6B5.4B25.5B2A2B$A.A
B3.7B4.4B25.10B$.2AB3.8B2.4B25.4B.6B$3.17B25.4B3.3B.B2A$3.16B25.4B
5.B2.BA.A$3.16B24.4B12.A$3.16B23.A3B13.2A$4.15B9.2A11.B2AB$5.12B.B
2A7.A2.A8.BABA$5.11B2.BA.A7.5A5.4B5.2A$6.10B5.A12.A4.4B5.A$6.6B2A
2B5.2A8.3AB2.7B.BA.A$2A4.6B2A3B13.A.2B3.7B.B2A$A5.10B14.4A12B$2.A.
2AB.8B12.2A2.BA3B2A7B$.2AB2AB3.7B10.A2.3AB.2B2A7B9.A$4.B6.6B10.2A.
A.B3.10B9.3A$.2A.2A4.6B14.A8.8B11.A$2.2A2.A4.5B14.2A7.9B9.2A$A4.A.
A.8B23.3B2.4B8.4B$2A.2A.A.A8B8.A12.5B3.4B9.B2A$4.A.BA2B.6B6.3A12.
2A7.4B7.BA.A$4.A2.2B2.7B4.A16.A8.4B6.B2A$2.A.2A.B3.7B4.2A12.3A4.2A
4.4B5.3B$.A.A2.A.A2.8B.4B2.2A8.A7.A5.4B2.4B$.A2.A2.2A2.11B5.A16.A.
AB3.9B$2.2A7.12B2.A19.2AB.12B.3B$11.12B2.2A20.16B2A$12.11B3.B20.
16BABA$15.7B4.3B19.16BAB$14.8B3.6B16.19B$13.9B2.10B11.18B2.B2A$12.
23B3.2B2.20B3.BA.A$10.B.16B2A31B7.A$9.2A17B2A22B.7B8.2A$9.2A41B2.
6B$10.42B3.5B$8.5B2.36B5.3B$8.2A6.5B5.13B.4B10.7B$9.A7.2B.3B3.7B.B
4.4B11.2A.B.2A$6.3A12.2A15.4B13.A3.A$6.A14.A15.4B11.3A5.3A$22.3A
11.4B12.A9.A$19.3A2.A10.4B$19.A2.A.A.A7.4B$15.2A5.A2.2A6.4B$15.A5.
2A9.4B$12.2A.A.3B11.4B$12.A2.A.2A2B2A7.4B$14.2A.A.2B2AB5.4B$17.A.
4B5.4B$17.2A.4B3.4B$10.2A8.3BA6B$9.A.A8.2BABA4B$9.A8.B.3BA4B$6.2A.
AB.B3.BA9B$7.A.A.2AB.3A9B$7.A.A.2A2B2A10B$6.2A.A2.5BA9B$6.A2.4A3BA
8B.B2A$7.2A2.BAB.BA8B.BA.A$9.2A6.7B5.A$9.A7.2B.3BA5.2A$11.A9.3BA$
10.2A10.3AB!
