#CSYNTH gun_1690 costs 7372 cells.
#C period 1690 fullperiod 1690 bbox 97 by 76
#CLL state-numbering golly
x = 97, y = 76, rule = LifeHistory
41.2A13.A$40.A.A11.3A9.2A13.A$34.2A3.A13.A11.A.A11.3A$34.A.A.A.2A
11.2A4.2A3.A13.A$36.A.A.A.AB6.5B4.A.A.A.2A11.2A$35.BA.5AB4.BA3B8.A
.A.A.BA6.5B$34.BA3BA.7BABA3B6.BA.2ABA2B4.BA3B$33.BA3B4A2B.2BA2BA4B
4.2A3BA.A2BA3BABA3B$33.BA3BA2.2A2.3B2A4B4.3BABA2BABA.2BA2BA4B$32.B
A2B11.6B5.B2ABAB2.BA2.3B2A4B$32.A.A12.5B5.BA2B11.6B$33.A12.7B4.A.A
12.5B$45.4B.4B4.A12.7B$44.4B3.4B15.4B.4B$43.4B5.4B13.4B3.4B$42.4B
7.4B11.4B5.4B$41.4B9.4B9.4B7.4B10.2A$32.A7.4B11.4B7.4B9.4B9.A$30.
3A6.4B13.4B5.4B11.4B10.A$29.A8.4B15.4B3.4B6.2A5.4B5.5A$28.A.A6.4B
17.4B.4B8.A5.4B4.A$27.BA.A5.4B19.7B9.A.AB.7B2.B3A$26.3BA5.4B21.5B
11.2AB.7B3.2B.A$24.4B6.4B22.5B13.12B4A$22.6B5.4B8.A13.7B12.7B2A3BA
B2.2A$21.7B4.4B9.3A10.4B.4B11.7B2A2B.B3A2.A$14.B.4B.8B2.4B13.A8.4B
3.4B10.10B3.B.A.2A$13.2AB.17B13.2A7.4B5.4B8.8B8.A$13.2A18B14.5B3.
4B7.4B6.9B7.2A$14.2B.16B16.3B2.4B9.4B4.4B2.3B$17.17B2.2A.2A7.9B11.
4B2.4B3.5B$18.16BA2.A.A8.8B13.8B7.2A$19.14B.2A3.A.B3.10B15.6B8.A$
19.12B8.3AB.2B2A7B16.4B10.3A$20.10B7.2A2.BA3B2A7B15.6B11.A$20.6B2A
2B6.A2.4A12B14.8B$20.6B2A3B5.2A.A.2B3.7B.B2A11.4B2.4B$20.10B7.A2.
3AB2.7B.BA.A9.4B4.4B10.2A$16.A.2AB.8B7.A5.A4.4B5.A8.4B6.4B9.A$14.
3AB2AB3.7B7.5A5.4B5.2A6.3AB8.4B10.A$13.A4.B6.6B9.A8.4B11.3BA3.2A5.
4B5.5A$14.3A.2A4.6B20.4B9.3BA5.A5.4B4.A$16.2A2.A4.5B21.4B7.4B6.A.A
B.7B2.B3A$19.A.A.8B21.4B5.4B8.2AB.7B3.2B.A$15.A.2A.A.A8B8.A13.4B3.
4B11.12B4A$15.2A.A.BA2B.6B6.3A14.4B.4B12.7B2A3BAB2.2A$18.A2.2B2.7B
4.A18.7B7.A5.7B2A2B.B3A2.A$18.2A.B3.7B4.2A18.5B6.3A5.10B3.B.A.2A$
16.2A2.A.A2.8B.4B18.5B5.A7.8B8.A$15.A2.A2.2A2.11B19.7B4.2A5.9B7.2A
$16.2A7.12B17.4B.9B4.4B2.3B$25.12B16.4B3.6B5.4B3.5B$26.11B15.4B4.
8B2.4B7.2A$15.2A12.9B13.4B3.15B8.A$16.A11.10B.2B9.4B4.14B10.3A$16.
A.AB4.B.16B7.4B5.13B13.A$17.2AB2.23B3.4B4.2AB.10B$12.2A5.32B4.A.AB
3.B2A3B$11.B2AB3.32B5.A6.B2A3B$11.4B3.31B5.2A6.4B$12.2B4.30B15.3B$
4.A7.4B2.28B18.2B.BA$3.A.A5.5B.4B.B5.17B18.B2ABA.A$4.A.14B11.14B
17.BABABA.A$5.14B12.14B15.A2.A.A.A.A.2A$5.14B13.2B4.3B19.4A.2A2.A
2.A$5.15B11.2B6.B24.A4.2A$4.3B2A12B9.B2AB28.A.A$4.3B2A13B9.2A29.2A
$2.2AB.11B2.4B$.A.AB2.8B5.4B$.A5.10B4.4B$2A5.B.B5.2A5.4B$8.3B4.A7.
3BA$7.B2AB5.3A5.3BA$8.2A8.A6.3AB!
