#CSYNTH gun_1550 costs 4095 cells.
#C period 1550 fullperiod 1550 bbox 65 by 63
#CLL state-numbering golly
x = 65, y = 63, rule = LifeHistory
41.A3.2A.2A$40.A.A.A.A.A$39.A2.A.A.B.A$38.2B3A.AB.BA.2A$36.B2.BA.B
2A.A.A.A.A$35.2A4B2.BABA.A3.A$35.A.AB5.B2A2.A2.2A$36.2AB4.A3.3A3.A
$36.BA5.4A6.A.2A$31.2A2.4B2.2A4.A4.2A.A$31.A.B2.2A2.B.A.3A4.B.A.B.
A2.A$33.ABA2BABA3.A6.B2ABAB4A$29.5A6B4A6.2BA3B$29.A5.4A11.2BA2B.3A
$32.10A4.B2.2B2A2.A2.A$31.A2.6B2.A2.2AB2A.AB3.2A$31.2A.6B.2A2.A3B.
A$27.2A7.3B7.3BAB$28.A6.4B7.A2BA$28.A.AB2.5B4.2B$29.2AB.7B2.4B$31.
9B.6B14.A$30.17B12.3A$30.20B8.A$28.23B7.2A$28.23B5.4B$28.22B3.B.3B
3.B$25.2A.18BA16B$25.A.19BA5B2A10B$26.A2.17BA5BABA10B$27.A2.22BAB
2A9B$22.A.3A5.14B3AB5A9B$20.4A8.14B3ABA2BA9B$19.A5.4A3.14B2A2B3A5.
B.2B$19.2A2.2A4.A3.11BA2B2A4B4.3B$15.A.2A3.A.A.3A3.6B5.B2AB2A2B6.B
2AB$15.2A2.A.2A.ABA4.7B5.2B2A2B9.2A$18.A3.2B2A4.4B3.B2A4.4B$15.3A.
4ABAB3.4B4.BA.A$14.A2.A.A.BA9B8.A12.2A$2A.2A9.2A.A.2B2AB.6B3.A5.2A
12.A$2A.ABA11.A.2B2A3.4B4.3A14.3A$5.2BA4.A4.2A2.B3.4B8.A12.A3.3A$
5A3B4.3A9.4B8.2A11.A.2AB2.A$A3.A.2AB6.A7.4B9.5B8.A.A.ABA$2.A2.BAB
6.2A6.4B12.3BAB5.2A.B.2A$.5AB7.6B.4B7.A4.3BABAB2.2BA.B3AB$A4.A.B8.
8B6.3A3.4BA2BA5BA.AB$A.AB5A4.10B6.A7.4B2A6BA$.2A.5B3.10B.B5.2A7.6B
2.2BA.BA$4.A.2B3.BA18B8.5B4.2A.3A$.4A3BA2BABA15B9.7B4.A4.A$.A2.A3B
AB.ABA12B2A2B7.4B.4B3.A.3A$2.3A3B4.A12BA2BA2B5.4B3.4B3.2A$A.A2.2BA
5.7B2.4B2A3B4.4B5.4B$2A2.2A7.7B4.9B.4B7.4B$5.A.A8.3B6.12B9.4B$3.A
2.A.A5.5B7.10B11.4B$3.2A.A.A5.2A10.9B13.4B$5.A.A7.A9.9B15.4B$5.A6.
3A11.7B17.3BA$4.2A6.A13.6B19.3BA$28.2B22.3AB!
