#CSYNTH gun_998 costs 5920 cells.
#C period 998 fullperiod 998 bbox 74 by 80
#CLL state-numbering golly
x = 74, y = 80, rule = LifeHistory
40.A11.A$40.3A7.3A$43.A5.A$42.2A5.2A15.A$42.5B3.B13.3A$44.4B2.4B9.
A$42.15B6.2A$41.17B2.5B$40.23B$40.22B2A$40.22B2A$38.2AB.19B.B$37.A
.AB2.18B$37.A6.16B$36.2A6.15B$46.12B$46.15B$46.16B$45.4B.12B7.2A$
44.4B3.11B2.2A2.A2.A$43.4B2.4B.8B2.A.A2.2A$42.4B3.2A4.7B3.B.2A$33.
A7.4B5.A4.7B2.2B2.A$31.3A6.4B3.3A6.6B.2BAB.A.2A$30.A8.4B4.A8.8BA.A
.2A.A$29.A.A6.4B14.8B.A.A$28.BA.A5.4B16.5B4.A2.2A$27.3BA5.4B17.6B
4.2A.3A$25.4B6.4B17.6B6.B4.A$23.6B5.4B18.7B3.B2AB3A$22.7B4.4B20.8B
.B2A.A$15.B.4B.8B2.4B21.10B$14.2AB.17B21.3B2A6B$14.2A18B16.2A5.2B
2A6B$15.2B.16B17.A5.10B$18.16B17.A.AB2.11B$19.15B18.2AB.12B$20.12B
.B2A18.15B$20.11B2.BA.A17.16B$21.10B5.A17.16B.2B$21.6B2A2B5.2A16.
18B2A$21.6B2A3B21.3A14B.B2A$21.10B21.3BA2.8B.4B.B$17.A.2AB.8B20.3B
A4.7B$15.3AB2AB3.7B18.4B5.6B$14.A4.B6.6B17.4B6.4B$15.3A.2A4.6B17.
4B5.A3B$17.2A2.A4.5B16.4B5.A.AB$20.A.A.8B14.4B6.A.A$17.3A.A.A8B8.A
4.4B8.A$16.A2.A.BA2B.6B6.3A3.4B6.3A$15.A.A.A2.2B2.7B4.A5.4B7.A$14.
A.A2.2A.B3.7B4.2A3.4B$14.A.A.A2.A.A2.8B.4B2.4B$15.2A.2A2.2A2.11B3.
4B$26.12B.4B$26.16B$16.A10.14B$16.3A11.10B$19.A9.12B$18.2A6.16B$
12.2A4.24B6.A$11.B2AB5.23B3.3A$11.4B4.24B2.A$12.2B5.24B.B.A$4.A7.
4B2.27B2A$3.A.A5.5B.4B.22BA2.2A$4.A.14B3.2B7.B3.2B3.3B3A2.A$5.14B
3.2BAB5.3B.4B3.2B4.A$5.14B4.A.A4.B2AB.B2AB5.4A$5.15B4.A6.2A3.2A7.A
$4.3B2A12B22.A$4.3B2A13B21.2A$2.2AB.11B2.4B$.A.AB2.8B5.4B$.A5.10B
4.4B$2A5.B.B5.2A5.4B$8.3B4.A7.3BA$7.B2AB5.3A5.3BA$8.2A8.A6.3AB!
