#CSYNTH gun_5060 costs 2772 cells.
#C period 5060 fullperiod 5060 bbox 63 by 44
#CLL state-numbering golly
x = 63, y = 44, rule = LifeHistory
25.2A$25.A2B$26.2B2A$27.3AB2.A$26.B3A2BABA$26.BA.B2.A4B$27.2A4.AB
2A10.A$33.BA2BAB.2A3.3A$2.2A30.B2A2BA.A2.A$2.2AB30.BAB.BA3.2A$4.B
2.B.5BA3B.B3.4B14.5B$2.11B2A7B.4B14.5B$.2A9B3ABA9B2A12.7B$.2A8B2A
13B2A12.8B8.A$2.B.8B2A11B.B12.8B7.3A$4.9BA11B9.14B5.A$19.3B.B.5B2.
11BA5B4.2A$4.9BA10BA17B3A3B2.5B$2.B.8B2A8B2ABA23B.3B$.2A8B2A8B2AB
3A5B2.8B3A9B2AB$.2A9B3ABA5BA2BA6B4.5BA11B3A2B$2.11B2A8B2A7B4.22B$
4.B2.B.5BA3B.3B.B.6B5.2B3A11BA5B$2.2AB19.4B3.B5.B2A9B3A8B$2.2A19.
4B3.3A8.3B.17B$12.2A8.4B4.3B6.5B2.3B3A11B$11.B2AB6.4B4.A.A.A2.A2.
2A4.5BA11B$11.4B5.4B3.4AB5A3.A5.14B$12.2B5.4B3.A3.3B4.3A7.8B$4.A7.
4B2.4B3.A.2AB3.B3A9.8B$3.A.A5.5B.4B3.A2.A.AB.BA.A2.2A7.7B$4.A.14B
4.2A2.B2A.2AB2.2A2.A6.5B$5.14B9.2A3.2A5.2A6.5B$5.14B8.B2AB.B2AB12.
2A3.AB$5.15B7.B2AB.B2AB13.A2.A.AB.B$4.3B2A12B7.2A3.2A11.3A3.A2BAB
2A$4.3B2A13B24.A2.3A2.A2B.A2.A$2.2AB.11B2.4B26.A2.4AB.A.A.A$.A.AB
2.8B5.4B26.2A4.A.A2.A$.A5.10B4.4B27.5A.A$2A5.B.B5.2A5.4B26.A4.A$8.
3B4.A7.3BA28.A$7.B2AB5.3A5.3BA27.2A$8.2A8.A6.3AB!
