#CSYNTH gun_1570 costs 7800 cells.
#C period 1570 fullperiod 1570 bbox 104 by 75
#CLL state-numbering golly
x = 104, y = 75, rule = LifeHistory
70.2A$70.A.A$47.2A23.A4.2A$46.A.A19.4A.2A2.A2.A$40.2A4.A21.A2.A.A.
A.A.2A$38.A2.A2.2A.4A19.BABABA.A$38.2A.A.A.A.A2.A20.B2ABA.A$41.A.A
BABAB23.2B.BA$41.A.AB2AB23.3B$42.AB.2B15.2A6.4B$37.A7.3B15.A6.B2A
3B$35.3A7.4B6.2A6.A.AB3.B2A3B8.A$34.A8.3B2AB6.A8.2AB.10B6.3A$33.A.
A7.3B2AB3.BA.A10.13B8.A$32.BA.A5.10B.B2A11.14B6.A.A$31.3BA5.13B13.
15B5.A.AB$29.4B6.14B15.8B2.4B5.A3B$27.6B5.15B15.6B5.4B6.4B$26.7B4.
4B2.8B16.9B4.4B5.6B$19.B.4B.8B2.4B5.6B15.4B4.2A5.4B4.7B$18.2AB.17B
4.9B13.4B5.A7.4B2.8B.4B.B$18.2A18B5.2A4.4B11.4B7.3A5.17B.B2A$19.2B
.16B6.A5.4B9.4B10.A6.18B2A$22.16B3.3A7.4B7.4B18.16B.2B$23.15B3.A
10.4B5.4B19.16B$24.12B.B2A.A11.4B3.4B20.15B$24.11B2.BA.A.2A10.4B.
4B19.2AB.12B$25.10B5.A2.A11.7B19.A.AB2.11B$25.6B2A2B5.2A14.5B20.A
5.10B$25.6B2A3B20.5B19.2A5.2B2A6B$25.10B20.7B24.3B2A6B$21.A.2AB.8B
19.2A2B.4B24.10B$19.3AB2AB3.7B17.ABAB3.4B23.8B.B2A.A$18.A4.B6.6B5.
2A9.3BA5.4B21.7B3.B2AB3A$19.3A.2A4.6B5.B2AB7.4B7.4B20.6B6.B4.A$21.
2A2.A4.5B5.3B7.4B9.4B20.6B4.2A.3A$24.A.A.8B5.B.B5.4B11.4B19.5B4.A
2.2A$20.A.2A.A.A8B3.5B4.4B13.4B17.8B.A.A$20.2A.A.BA2B.6B.4B2AB3.4B
15.4B7.A8.8BA.A.2A.A$23.A2.2B2.11B2A2B.4B17.4B6.3A6.6B.2BAB.A.2A$
23.2A.B3.19B19.4B8.A4.7B2.2B2.A$21.2A2.A.A2.18B21.4B6.2A4.7B3.B.2A
$20.A2.A2.2A2.17B23.4B5.4B.8B2.A.A2.2A$21.2A7.16B25.4B6.11B2.2A2.A
2.A$30.15B27.4B4.12B7.2A$31.13B29.4B3.12B$25.2A7.9B31.4B2.11B$26.A
6.9B33.4B2.7B$26.A.AB2.9B35.4B.8B$27.2AB.9B37.4B.8B$29.12B37.12B.B
$29.13B.B34.13B2A.2A$28.15B2A29.2A2.11B.B.A.A$25.18B2A29.A3.12BA.A
2.A$24.20B27.2A.A.11B.B.2A2.2A$23.21B27.A2.A.2A9B$12.2A8.17B.2B31.
2A.A.3B.4B$11.B2AB6.13B2.B3.4B30.A.A.2B2.4B$11.4B5.4B.8B9.2A29.A2.
2A2B3.2B$12.2B5.4B3.7B9.A31.2A.BAB4.2B$3.2A7.4B2.4B2.9B10.3A29.A.
2AB3.B2AB$3.A.A5.5B.4B3.2A19.A29.A.A6.2A$4.A.14B5.A48.2A.A.A$5.14B
3.3A53.2A$5.14B3.A$5.15B$4.3B2A12B$4.3B2A13B$2.2AB.11B2.4B$.A.AB2.
8B5.4B$.A5.10B4.4B$2A5.B.B5.2A5.4B$8.3B4.A7.3BA$7.B2AB5.3A5.3BA$8.
2A8.A6.3AB!
