#CSYNTH gun_1126 costs 5135 cells.
#C period 1126 fullperiod 1126 bbox 79 by 65
#CLL state-numbering golly
x = 79, y = 65, rule = LifeHistory
10.2A$9.B2AB$9.3B$2A8.B.B$.A6.5B$.A.AB2.6B$2.2AB2.11B$4.14B2A$3.
15B2A3B5.2A46.A$4.20B4.A45.3A$2.2AB.20BA.A20.2A22.A$.A.AB2.19B2A3.
2A17.A13.2A6.B2A$.A5.19B6.A17.A.AB9.B2A2B3.4B$2A5.19B5.A19.2AB.3B
6.4B2.4B$5.21B5.2A20.7B2.12B$3.23B6.B20.21B$2.2B2A20B6.3B19.20B$2.
2B2A21B4.6B16.22B$3.25B2.10B11.24B2.B$3.26B.11B3.2B2.27B.B2A$5.29B
2A41B2A$5.29B2A39B.2B$4.71B$4.70B$4.70B$4.22B5.14B.4B.22B$6.19B7.
7B.B4.4B.19B$6.18B9.4B4.28B$6.9B.7B11.4B3.28B$7.8B4.6B10.4B.14B3A
11B$6.9B8.2A10.17BABA11B$5.10B8.A11.17B2A13B$2.B.12B8.3A7.22B2A8B$
.2A13B10.A8.20B4A6B$.2A12B21.6BA11B2A3BA4B$2.B2.9B2A19.5B4A12BA2BA
4B$4.2B2.5BA2BA2.2A13.5B2A17BA5B$4.2AB3.2B.ABAB3.A2.A10.4B2A3B3A
18B$2A.A.A8.A4B.A.A.A8.6B4A2B2A16B$A.2A.A.A8.B2A.A2.A8.12BA8B3.7B$
6.2A8.BAB.A10.22B5.5B$11.2A.A4.A10.15B2.3B.B6.3B.B2A$12.A.5A10.4B
2.10B17.BA.A$11.A16.4B4.9B20.A$12.3A.2A.A7.4B7.8B19.2A$14.A.A.2A6.
4B8.8B$7.2A5.A10.4B10.6B$7.A5.2A9.4B11.4B.B4.2A$4.2A.A.3B11.4B13.
6B2.A2.A$4.A2.A.2A2B2A7.4B17.2A.A2.2A$6.2A.A.2B2AB5.4B19.A.2A.A$9.
A.4B5.4B18.A.A.A2.A$9.2A.2BAB3.4B19.2A3.2A$12.2B2A6B$2A.2A7.3B2A4B
$2A.A8.8B$3.A.B3.2A8B$3.2A2B.3BA7B$.2A2.A2BAB2A7B$A2.AB2A12B$2A.A.
AB3.7B.B2A$.A2.3AB2.7B.BA.A$.A5.A4.2BAB5.A$2.5A5.3BA5.2A$4.A8.3AB!
