#CSYNTH gun_456 costs 2350 cells.
#C period 456 fullperiod 456 bbox 50 by 47
#CLL state-numbering golly
x = 50, y = 47, rule = LifeHistory
8.2A.2A2.2A$4.2A.A.A.A2.A2.A$3.A2.2A.A2.3A.2A$2.A.A3.AB2A4.A$2.A2.
3A3.B.2AB2.A15.A2.2A$.2A4.B3AB2A2B.4A13.4A.A$7.2A.2B3.2B4.A17.A$.
4A4.AB.4A.3A2.A9.7A.2A$.A3.A3.2AB.2B.2B2.2A9.A2.B3.A.A2.A$3.BA.AB
2AB.4B.B2A11.2A2.2A.AB2.2A$3.AB.ABAB7A.2A3.2A9.B2AB2A6.2A$3.BAB6.
4A.A.3A2.A10.5B5.B2A2B$4.A8.2B3.BA.2A13.3B7.2A2B$13.2B4.A8.2A5.5B
6.BA2B$6.B3.5B5.3A4.A2.A3.4BAB5.BABA$4.12B6.A2.BA.A.A3.3BABA2B3.2A
BA$4.12B9.3A.A3.4BABA2B2.4B$.B.14B.B6.3AB5.4BA2B3.4B$2A12B2A4B6.3B
3.11B.2B2AB$2A12B3A4B8.15B2.2A$.12B2AB3A2B8.15B$.4B2.3B.6BA4B8.15B
$7.5B2A3BA6B8.8B2.4B$9.6BA3B2A5B5.7B5.4B$11.4BA6B.3B5.9B4.4B$12.2B
3AB2A14B4.2A5.4B$12.4B3A14B5.A7.3BA$13.4B2A14B6.3A5.ABA$14.B.17B4.
A.A2.A5.2A$17.16B2A2.2A2.2A6.B$11.2A4.12B2.BAB3A$11.A6.5B3.B4.BA3.
3A$5.2A6.A4.2B9.A3.3AB2.A$6.A2.4A.A3.2B9.4A4.BAB$6.A.A2.A2.A2.4A
13.ABABA$5.2A.2A.2BAB8A8.3A.A2B$5.A2.A.2AB2.B.4B.BAB5.A3.A.A$7.2A.
A2.ABAB.2B.B3AB3.A2.A2.A.A$8.A2.A.A.2B4A.BA.2A2.A.3A.A.3A$6.A3.2A.
A.A2.B2.2B.2B2.2A5.A4.A$6.2A4.2B4A.3ABA.2B3.5A.4A$12.2BA3.5A2.5A6.
A$6.2A2.BAB4A2B.A6.A2.B4A2.A$6.A.BA.A3.AB.A2B.B5.2A.B3.2A$7.A2B.A
4.2B2.4AB3.2B2.ABA$9.2A4.ABA4.3AB2.ABA.B.A$16.A7.A4.BAB2A!
