#CSYNTH gun_1419 costs 3168 cells.
#C period 1419 fullperiod 1419 bbox 72 by 44
#CLL state-numbering golly
x = 72, y = 44, rule = LifeHistory
55.B.B$54.B2A3B$10.2A42.A2BA2B10.2A$2.2A6.A.A.2A37.2B2A4B2.2B5.A$
3.A8.A.A.A7.A17.2A9.13B.BA.A$3.A.AB4.AB.A2.A5.A.A12.2A3.A6.16B.B2A
$4.2AB3.B2AB.2A5.2BAB12.A2.A7.BA12BA4B$6.3B2.4B8.2B11.2A2.3A5.BABA
10BABA4B$6.4B.4B7.3B10.A2.2A3.2B3.BABA11BA4B$2A5.9B5.4B10.A.A2.3A
2B3.2BA15B.B2A$.A5.11B3.6B9.A.2AB.A23B.BA.A$.A.AB.17BA3B7.A.A3.2A
19B2.2B5.A$2.2AB.21B5.4A.2A21B10.2A$4.4B3A11B2A4B3.A5.A.B.19B$4.4B
3A10B3A4B4.A.2A2.A5.3B2A11B$4.4B2A11B3A4B5.2A.2A6.4B2A4B3.4B.2A$5.
21B.B2A15.2BA5B3.B2A3B.A$5.3BA17B.BA.A2.5A6.9B4.2AB2.A$5.6B3.11B5.
A2.A4.A4.10B8.A$7.4B5.9B5.3A2.3A4.10B5.5A.A$7.3B7.4B.4B7.3A5.7BA3B
5.A4.A.A$7.2B8.4B2.4B5.A7.7BABA2B7.A2.A.A$6.BA2B5.2A.B2AB2.4B4.2A
5.8BABA2B6.2A3.A$6.A.A5.A2.A.BA4.BABA5B4.10BA3B$7.A7.A.A.A6.B2A3B
5.13B.B2A$16.2A.A.A4.BA6B2.13B2.BA.A$20.2A2.15B.7B7.A$24.14B3.6B7.
2A$24.13B5.4B$22.2AB.10B7.4B$21.A.AB3.7B9.4B$21.A5.9B9.4B$20.2A6.
2B2A4B10.4B$28.2B2A2B13.4B$29.5B14.4B$30.3B16.4B$29.5B16.4B$28.B2A
B2A17.4B$25.2A2.2A.AB2.2A14.4B$25.A2.B3.A.A2.A15.4B$26.7A.2A18.4B$
33.A21.3BA$28.4A.A22.3BA$28.A2.2A24.3AB!
