#CSYNTH gun_7583 costs 13625 cells.
#C period 7583 fullperiod 7583 bbox 125 by 109
#CLL state-numbering golly
x = 125, y = 109, rule = LifeHistory
37.2A2.A$36.A.4A$36.A$34.2A.7A$32.A2.A.A3.B2.A$32.2A2.BA.2A2.2A$
36.2AB2AB6.2A$36.5B8.A$37.3B7.A$36.5B6.5A$36.BA4B9.A$34.2BABA3B3.
4AB$34.2BABA4B2.A2.AB$35.2BA4B4.4B$34.15B3.2A$33.14B2A.A2.A$32.11B
A3B2A.2A$31.11BABAB.B$30.4B2.7BAB$14.2A13.4B5.7B$14.A13.4B4.7B2A$
9.2A5.A10.4B5.2A4.BABA$9.A5.2A9.4B7.A5.A3B$6.2A.A.3B11.4B5.3A7.4B$
6.A2.A.2A2B2A7.4B6.A10.4B$8.2A.A.2B2AB5.4B19.4B$11.A.4B5.4B21.4B$
11.2A.4B3.4B23.4B$4.2A8.3BA6B25.4B$3.A.A8.2BABA4B10.2A15.4B$3.A8.B
.3BA4B11.A.A15.4B$2A.AB.B3.11B14.A4.2A10.4B$.A.A.2AB.12B10.4A.2A2.
A2.A9.4B25.A11.2A$.A.A.2A14B10.A2.A.A.A.A.2A10.4B23.A.A9.B2AB$2A.A
2.5B2A8B12.BABABA.A14.4B10.A3.A3.2A2.A.A9.3B$A2.4A3BA2BA5B.B2A11.B
2ABA.A15.4B7.3A2.A.A2.A2.2A.2A9.B.B$.2A2.BAB.2B2A6B.BA.A.2A8.2B.BA
17.4B5.A5.A.A3.A.A2.B8.5B$3.2A6.7B5.A.A8.3B21.7B.2A5.A.4A2.AB2A6.
6B$3.A7.2B.4B5.A2.A6.4B22.9B7.A3.A.A.2A4.8B$5.A9.4B5.A.A6.B2A3B21.
6B8.A2.BA.A2.13B$4.2A10.4B3.2A.A.AB3.B2A3B22.5B7.A.2BA.A5.13B$17.
4B6.2AB.10B19.7B6.2A.2BA5.15B$18.4B7.13B19.6B10.3B4.15B$19.4B6.14B
18.7B10.2B.B.17B$20.4B5.15B17.6B4.29B$21.4B6.8B2.4B16.7B2.16B2A13B
$22.4B5.6B5.4B15.7B2.16B2A14B$23.4B3.9B4.4B13.9B.27B3.B2A$24.4B.4B
4.2A5.4B12.36B4.A2.A$25.7B5.A7.4B6.B4.20B2.2B2.B3.6B5.2A.A$26.5B7.
3A5.4B4.2AB.19B14.6B7.A$26.5B9.A6.4B3.2A19B14.9B6.2A$25.7B16.4B3.B
.17B15.2A4.4B$24.4B.4B16.4B5.17B15.A5.4B$23.4B3.4B16.4B4.17B12.3A
7.4B$22.4B5.4B16.4B3.15B.B2A10.A10.4B$21.4B7.4B16.4B2.12B4.BA.A21.
4B$20.4B9.4B7.A8.15B9.A22.4B$19.4B11.4B6.3A7.15B8.2A22.4B$18.4B13.
4B8.A7.14B33.4B$17.4B15.4B6.A.A7.12B35.4B$16.4B17.4B5.A.AB7.10B37.
4B$5.A9.4B19.4B5.A3B7.9B38.4B$5.3A6.4B21.4B6.4B5.9B39.4B10.2A$8.A
4.4B23.4B5.6B5.6B41.4B9.A$7.2A3.4B8.2A15.4B4.7B.2B2.5B42.4B10.A$7.
8B8.A.A16.4B2.8B.9B36.2A5.4B5.5A$3.2A4.5B5.2A2.A19.24B36.A5.4B4.A$
2.A.BAB.5B6.A.A.2A19.24B35.A.AB.7B2.B3A$2.A.2AB2.5B6.2A.A2.A17.19B
2.4B35.2AB.7B3.2B.A$.2A.B.B3.5B3.3B.B2.2A17.18B4.4B36.12B4A$A3.2A
2B2.5B3.4B22.16B7.4B35.7B2A3BAB2.2A$.3A2.AB.13B.B18.2AB.13B9.4B34.
7B2A2B.B3A2.A$4.2ABA13B.B2A16.A.AB2.11B11.4B33.10B3.B.A.2A$3.A2.A
5BA10B2A16.A5.10B13.4B31.8B8.A$3.2A2.4BABA7B.2B16.2A5.2B2A6B8.2A4.
4B29.9B7.2A$7.4BABA7B25.3B2A6B8.2A5.4B27.4B2.3B$8.4BA7B27.10B16.4B
25.4B3.5B$10.9B3.2A23.8B.B2A.A13.4B23.4B7.2A$7.B.10B.B2.A22.7B3.B
2AB3A12.4B21.4B8.A$6.2A12B3A23.6B6.B4.A12.4B19.4B10.3A$6.2AB.8B.BA
26.6B4.2A.3A14.4B10.A6.4B13.A$7.B3.6B4.2A24.5B4.A2.2A17.4B7.3A5.4B
$12.4B6.A23.8B.A.A21.4B5.A7.4B$13.4B4.A15.A8.8BA.A.2A.A18.4B4.2A5.
4B$14.4B3.2A14.3A6.6B.2BAB.A.2A19.9B4.4B$15.4B21.A4.7B2.2B2.A23.6B
5.4B$16.4B19.2A4.7B3.B.2A23.8B2.4B$17.4B18.4B.8B2.A.A2.2A19.15B$
18.4B19.11B2.2A2.A2.A18.14B$19.4B17.12B7.2A19.13B$20.4B16.12B26.2A
B.10B$21.2B2A15.11B26.A.AB3.B2A3B$22.BABA13.9B12.2A15.A6.B2A3B$23.
A3B9.2B.10B11.A15.2A6.4B$24.4B7.16B.B4.BA.A24.3B$25.4B3.23B2.B2A
26.2B.BA$26.32B27.B2ABA.A$27.32B25.BABABA.A$28.3BABA25B23.A2.A.A.A
.A.2A$29.3B2A6BA18B23.4A.2A2.A2.A$31.B2A5BA19B27.A4.2A$32.17B5.B.
4B24.A.A$32.5BA8B11.4B23.2A$32.4BA2BA6B12.4B$36.ABA4.2B14.4B$37.A
6.2B14.3BA$43.B2AB14.3BA$44.2A16.3AB!
