#CSYNTH gun_3402 costs 3564 cells.
#C period 3402 fullperiod 3402 bbox 54 by 66
#CLL state-numbering golly
x = 54, y = 66, rule = LifeHistory
44.A$42.3A$41.A7.2A$41.A2.3A.A2.A$38.2A.A.A2.A.2A2.A$38.A2.ABA2B.B
2.2A$40.A3.B3ABA$41.2A2B.A2.A$43.2A2B.A$9.A29.3A3.BA.4A$9.3A26.A2.
5A.A4.A$3.2A7.A26.A4.A.AB.3A$2.A2.A.3A2.A27.3A.3BA.A$.A2.2A.A2.A.A
.2A26.AB2AB2AB$2.2A2.A.B2ABA2.A27.6A$4.3AB2A3.A29.B3A$4.A2.B.AB2A
29.4B6.2A$5.A.AB2A30.7B4.A$2.4A.AB3.3A25.10BA.A$.A4.A.5A2.A14.A8.
11B2A$2.3A.AB.B5.A12.3A7.12B$4.A.4B.4A.2A9.A9.4B.9B$4.B2A4BA2.A.A
10.2A7.BA2B.5BA4B$5.B5A5.A7.5B6.2A2B.5B3A2B$7.4B5.A.AB3.2A2B7.2B2A
.5B2ABA3B$2A6.4B5.2AB2.B2A3B5.4B2.5BA7B$.A4.3B3AB5.10B4.4B3.3B3A5B
3A$.A.A4BA2BA2B5.10B2.4B4.10B.3A$2.2A8BA2B4.9B2.4B6.8B3.B$4.4B2A6B
4.13B7.6B$3.5BA3B.4B3.12B9.5B$3.3B2A5B.4B3.10B8.A.4B$4.2B2A6B.4B.B
2.7B7.A2BA2.4B$3.6BA3BAB.13B8.A2BA4.2A$2.5BABA5B2.11B6.A3.A6.A$.2A
4BA7B3.5B3A2B4.3A11.3A$.2AB.4BA2BA2B3.9B4.A16.A$2.B3.3B3A2B3.2BA6B
5.2A$8.6B4.BA7B.5B$8.5B6.A6B2.3B9.2A$9.4B.B4.13B8.A.A$7.4B2.3AB2.
2B3A8B.B8.A$7.2A4.B3A2.17B3.B.BA.2A$8.A6.B4.3B2.12B.B2A.A.A$5.3A
17.14B2A.A.A$5.A19.8B2A5B2.A.2A$23.2AB.5BA2BA3B4A2.A$22.A.AB.6B2A
2B.BAB2.2A$15.A6.A5.7B6.2A$15.3A3.2A5.4B.2B7.A$18.A8.4B9.A$17.2A7.
4B10.2A$17.5B3.4B$8.2A9.3B2.4B$7.A.A8.9B$7.A8.B.8B$4.2A.AB.B3.BA9B
$5.A.A.2AB.3A9B$5.A.A.2A2B2A10B$4.2A.A2.5BA9B$4.A2.4A3BA8B.B2A$5.
2A2.BAB.BA8B.BA.A$7.2A6.7B5.A$7.A7.2B.3BA5.2A$9.A9.3BA$8.2A10.3AB!
