#CSYNTH gun_6360 costs 4960 cells.
#C period 6360 fullperiod 6360 bbox 80 by 62
#CLL state-numbering golly
x = 80, y = 62, rule = LifeHistory
37.2A$34.2A2.A$32.3A.2A$31.A4.B14.2A$32.3AB2AB2.3B6.B2AB$34.A.2AB.
4B7.2B$36.10B6.2B3.B$28.2A8.8B5.4B.B2A$29.A6.11B2.8B2A$29.A.AB2.
18B2AB.B$30.2AB.19B2A$32.23B$32.27B$32.27B11.2A$32.26B2A6.2A.B2A$
31.27B2A5.A3BAB$30.2AB2.22B.B6.A.3B$7.2A3.2A15.A.AB3.21B9.2ABA$7.A
.A.A.A15.A6.21B4.2A4.BA$9.A.A16.2A5.23B.2B2A4.B8.2A$8.2AB.A2.2A16.
A.2AB.23B4.2A7.A.A$8.B2A.A2.A.A13.3AB2AB3.23B.B2A7.A$10.B.2A.A2.A
11.A4.B3.5B3A4B.2B3.5B2A3B3A2B.B2A$9.2BAB2.3A13.3A.2A2.2A2.7B7.5BA
BA3.A5B2.2A$8.2B5A18.A.A4.A2.BABA3B6.7BAB3.AB5AB2.A$9.AB.A2.A20.4A
3.4BAB6.8B6.3B2A.A.A.A$9.3B2.2A21.A4.BA3BAB5.4B3.3B6.A3BAB2A.A$10.
2A23.A5.8B4.4B5.4B5.A.A4.A$10.2B23.2A3.3BA2B2A4.4B4.6B3.A.A.A.3A$
11.B27.9B3.4B5.7A2.2A3.2A$10.2AB25.4B.6B.4B5.A.A.2A.3A$9.A2BAB5.2A
16.4B.11B4.3A.2BA.B3.A.A$7.3B2A3B4.A16.4B2.10B4.A3.4A.2A.A.2A$7.8B
.BA.A15.4B3.9B5.3A3.BA2.A.A$6.9B.B2A15.4B5.B2A4B9.5A.A2.A$5.B2A9B
16.4B7.2A3B9.A2.A.A2.2A$4.BA2BA8B15.4B9.4B8.A.A2B.2A.A$5.B2A9B3.A
10.4B10.2B2A9.A2.A.A2.A$7.10B3.3A7.4B12.4B9.3A3.A$9.7B7.A5.4B7.A3.
A6BA3.A6.3A$9.8B5.2A4.4B6.3A2.A8BA2.3A3.A$8.5B.4B4.9B6.A3.3A.2B2A
2B.3A3.A2.2A$8.6B.4B5.7B6.A.2A.5A2B5A.2A.A$7.6B3.4B2.7BA6.2A.A2.B
2.B4AB2.B2.A.2A$3.B2.3BA3B4.11BABAB8.5A.A2.A.5A$.7BABA2B5.10BABA2B
12.2A2.2A$.7BABA2B6.10BA3B9.2ABA4.AB2A$9BA3B7.10B3.B2A6.A2.A4BA2.A
$11B.B2A6.2BA4B5.3AB6.A.A.2B.A.A$.9B2.BA.A4.2BABA4B3.A.2AB4.A.A.6A
.A.A.2A$.7B7.A4.2BABA3B3.A.A.2B2.3A.2AB.2A.B2A.2A.A$2.6B7.2A5.BA4B
3.A2.A3.A4.A8.A$3.4B15.5B5.2A5.A3.A.A4.A.A$4.4B15.3B12.2A4.2A4.2A$
5.4B13.5B$6.4B12.2AB2AB$7.4B7.2A2.BA.2A2.2A$8.4B6.A2.A.A3.B2.A$9.
4B7.2A.7A$10.3BA8.A$11.3BA7.A.4A$12.3AB7.2A2.A!
