#CSYNTH gun_1062 costs 3311 cells.
#C period 1062 fullperiod 1062 bbox 77 by 43
#CLL state-numbering golly
x = 77, y = 43, rule = LifeHistory
5.2A3.A2.A$5.A2.6A$6.2A6.2A$3.3A2.AB2ABA2.A$3.A2.2AB.2A.B2A.A21.A$
4.A.A2.4A2.A.A20.A.A$3.2A.3A4B3A.2A17.3A.A$4.A.A2.4B2.A.A17.A4.A.
2A$4.A.A3.2A3.A.A17.ABABA.A.A$5.A4.2B4.A13.2A4.2A.A.A$11.B19.A4.4B
ABA9.2A$10.2AB18.A.AB4.2BA3B6.A2BAB$9.A2BAB5.2A11.2AB.B4.5B6.2BAB$
7.3B2A3B4.A14.4B2.6B.4BA2BAB$7.8B.BA.A14.10BA5B2AB2A$6.9B.B2A15.9B
A5BA3BAB$5.B2A9B16.11BA3BA3BA2B3.2A10.A$4.BA2BA8B15.4B.8B3A8BA2.A
8.3A$5.B2A9B3.A10.4B3.8BA7B2.2A9.A$7.10B3.3A7.BA2B6.BA3BA3BA3B14.
2A$9.7B7.A5.2A2B5.2B2A2B2AB2A4B10.6B$9.8B5.2A4.2B2A5.10A6B10.4B$8.
5B.4B4.9B5.AB4A3BA8BA7.7B$8.6B.4B5.6B5.B2A3BA3BA.3B2.BABA6.10B$7.
6B3.4B2.8B6.6B2A2B6.A2BA2.3B.11B$3.B2.3BA3B4.15B7.7B7.2A17B$.7BABA
2B5.14B9.4B10.8BABA5B$.7BABA2B6.13B7.6B10.7BABABA3B$9BA3B7.10B.B2A
5.2A14.11B2A$11B.B2A6.4B2AB3.BA.A5.A9.2A2.6BA5BA2BA$.9B2.BA.A4.5B
2A2B5.A2.3A8.A2.A7BAB2A6BAB$.7B7.A4.8B6.A.A11.2A3.6BA9B2A2B2.B$2.
6B7.2A5.6B7.A.A15.6BA5B2A6B.B2A$3.4B15.5B9.A16.11BA2BA7B2A$4.4B15.
3B26.9B.5BA2.4B.B$5.4B13.5B25.4B6.5B4.2B$6.4B12.2AB2AB24.2B2AB6.2B
ABAB$7.4B7.2A2.BA.2A2.2A23.2A9.2A2BA2B$8.4B6.A2.A.A3.B2.A35.A.B.AB
$9.4B7.2A.7A34.A.A.2ABAB$10.3BA8.A40.A.A.A4.A$11.3BA7.A.4A35.A.A.A
.3A$12.3AB7.2A2.A36.A3.2A!
