#CSYNTH gun_987 costs 6138 cells.
#C period 987 fullperiod 987 bbox 93 by 66
#CLL state-numbering golly
x = 93, y = 66, rule = LifeHistory
64.2A$63.A.A$57.2A4.A$33.2A20.A2.A2.2A.4A$33.A.A5.2A12.2A.A.A.A.A
2.A$35.A4.A.A15.A.ABABAB$31.4A.2A2.A17.A.AB2AB$31.A2.A.A.A.2A17.AB
.2B$33.BABABA.A21.3B$34.B2ABA.A21.4B6.2A$35.2B.BA20.3B2AB6.A$34.3B
23.3B2AB3.BA.A$25.2A6.4B21.10B.B2A$26.A6.B2A3B18.13B$26.A.AB3.B2A
3B17.14B$27.2AB.10B14.15B$29.13B12.4B2.8B$29.14B10.4B5.6B$29.15B8.
4B4.9B$31.8B2.4B6.4B5.2A4.4B$31.6B5.4B4.4B7.A5.4B$30.9B4.4B2.4B5.
3A7.4B$11.2A16.4B4.2A5.8B6.A10.4B$4.2A3.2B2AB14.4B5.A7.6B19.4B$3.B
2AB2.4B14.4B7.3A5.4B21.4B$4.2B3.6B.B9.4B10.A4.6B21.4B$5.2B2.10B6.
4B6.2A7.8B21.4B$4.2B2A11B5.4B8.A6.4B2.4B21.4B10.2A$.B.3B2A5BAB2A3B
3.4B8.A6.4B4.4B21.4B9.A$2A10BA2BAB2AB2.4B9.2A4.4B6.4B21.4B10.A$2AB
.8BA5BA2.4B11.2B2.4B4.A3.4B14.2A5.4B5.5A$.B3.5B2A2BABA7B11.8B4.A.A
3.4B11.A2.A5.4B4.A$5.5BA3BAB2A5B12.7B5.A.A4.4B10.2A.A.AB.7B2.B3A$
6.4BABABABA8B2.2B2.B2.7B5.2A.2A4.4B11.A.2AB.7B3.2B.A$6.5B3A27B4.A
2.A2.A4.4B10.A3.12B4A$7.7B.27B3.B2A2.2A5.4B7.3A3.7B2A3BAB2.2A$7.6B
2.6BABA7B2A14B11.4B5.A6.7B2A2B.B3A2.A$6.7B.8B2A7B2A13B13.4B4.2A5.
10B3.B.A.2A$6.6B.9BA22B15.9B4.3A5B8.A$7.9B7.2B.B.17B16.6B5.3BA5B7.
2A$7.8B7.3B4.15B3.A13.8B2.3BA2.3B$6.8B4.2A.2BA5.15B2.A.A10.15B3.5B
$6.7B5.A.2BA.A5.13B3.A.A10.14B7.2A$6.6B7.A2.BA.A2.13B4.2A.A.2A7.
13B8.A$5.7B8.A3.A.A.2A4.8B.AB3.A2.A5.2AB.10B10.3A$5.7B2.2A2.A.4A2.
AB2A6.6BA2B3A.A6.A.AB3.B2A3B14.A$.B3.7B2.A2.A.A3.A.A2.B7.4B2.4B.A.
2A5.A6.B2A3B$2AB.8B3.A.A2.A.A2.2A.2A5.4B3.2B.BAB.A5.2A6.4B$2A10B2.
2A.4A.2A2.A.A5.4B4.BABA.A.A14.3B$.B.9B4.A5.B3.A.A4.4B4.A.A.A.2A16.
2B.BA$4.7B5.A2.2AB2A3.A4.4B3.3A.A2.A17.B2ABA.A$4.4B6.3A.A.A.2A7.4B
3.A5.A.A16.BABABA.A$5.4B4.A3.A4.5B3.4B4.2A5.A15.A2.A.A.A.A.2A$6.B
2A3.A.3A7.3B2.4B28.4A.2A2.A2.A$7.A4.A.A8.9B33.A4.2A$8.3A.A8.B.8B
32.A.A$10.A.AB.B3.BA9B33.2A$10.A.A.2AB.3A9B$7.2A.A.A.2A2B2A10B$7.A
2.A.A2.5BA9B$9.A2.4A3BA8B.B2A$10.2A2.BAB.BA8B.BA.A$12.2A6.7B5.A$
12.A7.2B.3BA5.2A$14.A9.3BA$13.2A10.3AB!
