#CSYNTH gun_355 costs 3500 cells.
#C period 355 fullperiod 355 bbox 70 by 50
#CLL state-numbering golly
x = 70, y = 50, rule = LifeHistory
20.2A11.A$19.B2AB9.A.A$20.3B9.A.A2.2A3.A$19.B.B9.2A.2A2.A2.A.A$19.
5B8.B2.A.A3.A.A$19.6B6.2ABA2.4A.A$19.8B4.2A.A.A3.A$20.13B2.A.AB2.A
15.2A$18.13B5.A.A2B.A14.A$17.15B5.A2B.2A11.BA.A$17.15B4.3B12.2A.B
2A$16.17B.B.2B12.B2A2B$5.A10.29B6.4B$4.A.A.2A5.13B2A16B3.6B14.A$4.
A2.2A.A3.14B2A16B2.6B7.B5.3A$3.2A5.A2.2AB3.27B.7B6.2AB3.A$2A3.4A.A
.A2.A4.35B6.2A3.2A$A.3A3.2A.A.2A5.7B2.B2.2B2.20B5.2A5B$2.A2.AB4.A.
A5.7B13.21B2.2A2B$A2.A.BA4.A.A4.8B15.21B2A4B$5A2B.B3.A4.4B2.2B17.
25BABA$5.B.B2A6.4B4.2A15.28BA$2.4A2B2A5.4B6.A15.21BA6BA$2.A2.AB.B
5.4B4.3A14.2AB.3B2.14BA2BA2BAB$3.A4.2B3.4B4.A12.2A2.A.AB6.19B$3A5.
2B2.4B3.A2.A12.A2.A8.12B2.4B$A6.BA6B4.2A.A4.2A6.A.2A7.12B3.2B2AB$
6.BABA4B8.2A2.B2AB2.2A.A9.10B8.2A$6.A2BA3B6.2A3.B2.3B2.A.A.2A.A4.
4B.6B$5.2B2A5B4.A2.3A3B.B5.A.A.2A3.4B3.B.B$5.10B3.A.A2.A7B2.B2A6.
4B5.3B$5.6B.4B3.A.A.9B2.2B5.4B5.B2AB$3.2AB.3B3.4B3.A3.11B5.4B7.2A$
2.A.AB2.B5.4B8.10B3.4B$2.A12.4B7.11B.ABAB$.2A13.4B6.12B2AB$17.4B3.
15BA$18.4B.6B2A8B$19.9BA2BA6B$20.9B2A6B$20.16B$20.4B2.6B.2B$18.2AB
.B4.5B2.2B$17.A.AB4.2BA3B2.B2AB$17.A4.4BABA5.2A$16.2A4.2A.A.A$21.A
BABA.A.A$21.A4.A.A.A$22.3A.A.A.A$24.2A3.A!
