#CSYNTH gun_1302 costs 4624 cells.
#C period 1302 fullperiod 1302 bbox 68 by 68
#CLL state-numbering golly
x = 68, y = 68, rule = LifeHistory
20.A16.A$20.3A13.A.A$23.A12.A.A2.2A3.A$22.2A11.2A.2A2.A2.A.A$22.6B
8.B2.A.A3.A.A$24.5B6.2ABA2.4A.A$24.7B4.2A.A.A3.A$24.13B2.A.AB2.A4.
A9.A$22.13B5.A.A2B.A3.3A5.3A$21.15B5.A2B.2A6.A3.A$21.15B4.3B9.2A.B
.2A$20.17B.B.2B10.7B$20.29B5.3B$19.13B2A16B3.5B$18.14B2A16B2.6B$
17.2AB3.27B.7B8.2A$16.A2.A4.35B7.A$15.A.2A5.6B3.B2.2B2.20B3.BA.A$
15.A7.6B14.18B2.B2A$14.2A6.9B14.19B$7.2A12.4B4.2A15.16BAB$6.B2AB
10.4B5.A15.16BABA$7.2B10.4B7.3A12.16B2A$8.2B8.4B10.A10.2AB.12B.3B$
A6.4B6.4B21.A.AB3.9B$3A3.6B4.4B22.A5.4B2.4B$3.A2.5B4.4B4.2A16.2A4.
4B5.3B$2.2A2.6B2.4B5.A22.4B6.B2A$2.15B3.BA.A21.4B7.BA.A$4.15B.B2A
10.A10.4B9.B2A$4.10BAB2A3B12.3A7.4B8.4B$5.8BA2BAB2AB15.A5.4B9.2A$
2.B.9BA5BA15.2A4.4B5.A5.A$.2A8B2A2BABA3B14.9B5.A.A.3A$.2AB.6BA3BAB
2A4B14.6B6.A.A.A$2.B4.4BABABABA8B2.2B2.B3.6B5.2A.A$7.5B3A27B4.A2.A
$8.7B.27B3.B2A$7.7B2.6BABA7B2A14B$8.2A2B4.7B2A7B2A13B$8.2A4B3.6BA
22B$12.2A10.2B.B.17B$12.A10.3B4.15B3.A$13.3A3.2A.2BA5.15B2.A.A$15.
A3.A.2BA.A5.13B3.A.A$20.A2.BA.A2.13B4.2A.A.2A$21.A3.A.A.2A4.8B.AB
3.A2.A$19.A.4A2.AB2A6.6BA2B3A.A$18.A.A3.A.A2.B7.4B2.4B.A.2A$18.A2.
A.A2.2A.2A5.4B3.2B.BAB.A$19.3A.2A2.A.A5.4B4.BABA.A.A$23.B3.A.A4.4B
4.A.A.A.2A$18.A.2AB2A3.A4.4B3.3A.A2.A$18.2A.A.2A7.4B3.A5.A.A$23.5B
3.4B4.2A5.A$14.2A9.3B2.4B$13.A.A8.9B$13.A8.B.8B$10.2A.AB.B3.BA9B$
11.A.A.2AB.3A9B$11.A.A.2A2B2A10B$10.2A.A2.5BA9B$10.A2.4A3BA8B.B2A$
11.2A2.BAB.BA8B.BA.A$13.2A6.7B5.A$13.A7.2B.3BA5.2A$15.A9.3BA$14.2A
10.3AB!
