#CSYNTH gun_1036 costs 5159 cells.
#C period 1036 fullperiod 1036 bbox 67 by 77
#CLL state-numbering golly
x = 67, y = 77, rule = LifeHistory
23.A16.A$23.3A13.A.A$26.A12.A.A2.2A3.A$25.2A11.2A.2A2.A2.A.A$25.6B
8.B2.A.A3.A.A$27.5B6.2ABA2.4A.A$27.7B4.2A.A.A3.A$27.13B2.A.AB2.A$
25.13B5.A.A2B.A4.2A8.2A$24.15B5.A2B.2A5.A8.A$24.15B4.3B9.A.2A2.BA.
A$23.17B.B.2B11.AB.A.B2A$23.29B5.B2A2B$22.13B2A16B5.5B$21.14B2A16B
2.B.6B2.A$20.2AB3.27B.9B.A.A$6.A.2A.2A6.A2.A4.36B2.A$6.2A.A.2A5.A.
2A5.7B2.B2.2B2.17BABA$9.A8.A7.7B13.14B3A$4.4ABA.2A4.2A6.8B15.12BA
2B$4.A2.A.ABA2.A9.4B2.2B17.4BA6B3A$5.2B.2BA2.2A8.4B4.2A15.2A3BA3B
2A3BA$6.4B12.4B6.A15.2A7BA3BA$5.6B10.4B5.A17.10B3AB$4.7B9.4B6.2A
16.15B$3.8B8.4B26.15B$3.10B5.4B27.15B$4.11B2.4B28.16B$3.17B28.17B$
2.17B28.17B$2.16B28.4B2.11B$3.15B27.4B5.10B$3.15B26.4B8.8B$4.15B
15.2A7.4B9.7B$5.B3A10B16.A6.4B10.6B$5.A3BA7B2A15.A6.4B12.4B$4.A3B
2A3BA3B2A15.2A4.4B8.2A2.A2B.2B$4.3A6BA4B17.2B2.4B9.A2.ABA.A2.A$4.
2BA12B15.8B6.2A4.2A.AB4A$4.3A14B13.7B7.A8.A$4.ABA17B2.2B2.B2.7B5.
2A.A5.2A.A.2A$.A2.36B4.A2.A6.2A.2A.A$A.A.9B.27B3.B2A$.A2.6B.B2.16B
2A14B$4.5B5.16B2A13B$5.2B2AB5.29B$3.2AB.A.BA11.2B.B.17B$2.A.AB2.2A
.A9.3B4.15B3.A$2.A8.A5.2A.2BA5.15B2.A.A$.2A8.2A4.A.2BA.A5.13B3.A.A
$18.A2.BA.A2.13B4.2A.A.2A$19.A3.A.A.2A4.8B.2B3.A2.A$17.A.4A2.AB2A
6.9B3A.A$16.A.A3.A.A2.B7.4B2.3BA.B.2A$16.A.A2.A2.2A.2A5.4B3.2B.ABA
.A$17.A3.2A2.A.A5.4B4.AB2A.B.A$25.A.A4.4B4.A.A.A.2A$26.A4.4B3.3A.A
2.A$15.B2A12.4B3.A5.A.A$15.3AB10.4B4.2A5.A$14.A.2AB9.4B$13.A.A.2B
8.4B$13.A2.A2.2B5.4B$14.2A3.3B3.4B$8.2A9.B2A.5B$7.A.A8.BA2BA4B$7.A
8.B.2B2A4B$4.2A.AB.B3.BA9B$5.A.A.2AB.3A9B$5.A.A.2A2B2A10B$4.2A.A2.
5BA9B$4.A2.4A3BA8B.B2A$5.2A2.BAB.BA8B.BA.A$7.2A6.7B5.A$7.A7.2B.3BA
5.2A$8.A10.3BA$7.2A11.3AB!
