#CSYNTH gun_1935 costs 3159 cells.
#C period 1935 fullperiod 1935 bbox 81 by 39
#CLL state-numbering golly
x = 81, y = 39, rule = LifeHistory
8.A55.2B5.2A$7.BAB54.4B2.A.A$7.BA54.8BA$5.ABA2B53.7B6.B$.2A.B2A.A
55.6B5.3B$A.6A57.6B4.3A$A4.2B57.7B3.2BA2B$.4A20.A38.7B3.2BA2B$2.B.
AB17.3A36.B2.6B2.2B3A2B$.2A.AB16.A38.2AB.2BA3B2.7B$.3BA17.2A37.2A
4BAB2A4B3A3B$.AB17.4B38.2B.5BA4B3A3B$AB9.B3.B.5B43.3BA2BA.7B$A.AB
3.17B4.3B9.A23.4BA2BA3B3A2B$.2AB.20B3.3B9.3A21.7BAB.2BA2B$3.23B2A
4B11.A21.3BABA3.2BA2B$3.23B3ABABAB8.2A21.6B4.3A$3.23B2ABA4B8.4B18.
7B4.3B$4.23BA4BAB10.2B18.7B5.B$3.25BABA7B4.8B15.6B$4.6B2.17BA9B2.
11B3.2A7.6B$5.3B6.17B.20B2.B2AB6.6B$16.6B2.9BA18B3.3B6.6B$17.4B4.
7BABA17B4.B2.2B4.4B$29.BA4BA27B.4B$29.4BAB2A30B$29.BABAB3A31B$31.
4B2A32B$32.3B3.25B3.4B$32.3B4.17B.B9.4B$41.5B.5B16.4B$39.4B6.B19.
4B$39.2A9.A19.4B$40.A8.BAB19.4B$37.3A7.BA.2A20.4B$37.A9.2A2B.A20.
4B$48.B2.A.A20.3BA$50.A2.A21.3BA$51.2A23.3AB!
