#CSYNTH gun_6800 costs 4366 cells.
#C period 6800 fullperiod 6800 bbox 74 by 59
#CLL state-numbering golly
x = 74, y = 59, rule = LifeHistory
13.2A$10.2A2.A$8.3A.2A$7.A4.B$8.3AB2AB$10.A.2AB.3B$14.6B13.2A$15.
6B13.A12.2A$6.A6.7B13.A12.B2AB4.2A7.2A$5.A.A5.8B12.2A11.3B4.B2A2B
5.A$5.A.A4.11B2A2B7.B11.2B6.4B2.BA.A$4.2A.2A2.14B2AB5.3B9.4B3.7B.B
2A$4.A2.B3.9BA5BAB5.4B8.5B.11B$5.AB2AB.15BA6.5B7.6B.9B6.2A$3.A.A.
2AB2.5B3ABA6B6.5B2.2A8B.9B6.A$3.2A4.8BA2BABA7B.B3.5BA21B2.BA.A$9.
8B2ABABAB2A14B3A20B.B2A$10.43BA11B$8.11B3A30B3A10B$7.23BA19B3AB2A
9B$7.24B2A16BA2BAB3A7B$7.23B2A15B5A10B$5.2AB.38BA4BA10B$4.A.AB2.
26B4.B.6B2A2BA10B4.2A$4.A6.9B.10B2.4B7.8BA7B2.B2A.A.A$3.2A6.9B.6B
7.4B7.16B.B2ABA$10.11B.5B8.4B5.17B3.B2.A$9.2AB.7B3.4B9.4B4.9B2A6B
2.2A.2A$8.A.AB2.4B6.2B11.4B4.8B2A5B4.A.A$8.A5.2B2AB4.3B12.4B9.8B5.
A.A$7.2A7.2A4.B2AB13.4B9.7B6.A$23.2A15.4B7.6B$36.A4.4B7.6B3.2A.A$
21.6A7.3A5.4B7.3B.B2A2.A.3A$20.A5.A6.A9.4B10.B2ABA5.A$19.A.3AB8.2A
9.4B11.B.A.2A.2A$18.A.A2.AB5.5B10.4B9.2A.A.A$18.A2.A2.9B13.4B8.A2.
A.A$19.2A3.10B3.BA2.2A4.4B9.2A.3A$23.12B.BA.A2.A5.4B9.B4.A$12.2A8.
16B2A.A7.4B7.2AB3A5.2A$11.B2AB6.16B3.A9.4B6.2A.A7.A.A$11.4B5.4B.3B
2A8B2A3.A7.4B.6B6.2A.A.A$12.2B5.4B3.BABA7B.A4.3A6.8B8.A.A.A$4.A7.
4B2.4B5.BA7B4.A5.A6.10B7.A$3.A.A5.5B.4B8.4B2AB3.2A4.2A5.B.10B4.A2B
AB$4.A.14B10.3B2A2B8.18BAB3.3BAB$5.14B9.5B.4B9.15BABA2BA3BA2B$5.
14B9.2A5.4B7.2B2A12BABA.BA3BA2B$5.15B9.A6.4B5.2BA2BA12BA4.3BAB$4.
3B2A12B5.3A8.4B4.3B2A4B2.7B5.A2BAB$4.3B2A13B4.A11.4B.9B4.7B7.A$2.
2AB.11B2.4B16.12B6.3B8.A.A.A$.A.AB2.8B5.4B16.10B7.5B6.2A.A.A$.A5.
10B4.4B16.9B10.2A9.A.A$2A5.B.B5.2A5.4B16.9B9.A10.2A$8.3B4.A7.3BA
16.7B11.3A$7.B2AB5.3A5.3BA16.6B13.A$8.2A8.A6.3AB17.2B!
