#CSYNTH gun_1042 costs 7098 cells.
#C period 1042 fullperiod 1042 bbox 91 by 78
#CLL state-numbering golly
x = 91, y = 78, rule = LifeHistory
50.2A$51.A14.2A$37.2A12.A.AB11.2A$36.B2AB12.2AB.B.3B$37.2B15.7B3.
4A$32.B3.2B16.7B2.A3.A$31.2AB.4B15.7B.2BAB$31.2A8B11.10BABAB$32.B.
B2A6B2.2B2.13B2A2B$35.2A28B.2A$35.28B4.A$31.30B6.A.A$31.30B7.2A$
30.2A30B$30.2A14B.4B8.4B$31.B.11B2.4B10.4B$33.10B2.4B12.4B$34.14B
14.4B$33.14B16.4B$34.13B7.2A8.4B13.A$34.13B2.2A2.A2.A8.4B10.3A$36.
2B.8B2.A.A2.2A10.4B8.A$39.8B3.B.2A13.4B7.2A$38.9B2.2B2.A14.4B3.5B$
37.10B.2BAB.A.2A12.4B2.3B$36.4B.8BA.A.2A.A13.9B7.2A$35.4B2.8B.A.A
18.8B8.A$34.4B4.5B4.A2.2A16.10B3.B.A.2A$33.4B5.6B4.2A.3A14.7B2A2B.
B3A2.A$32.4B5.6B6.B4.A13.7B2A3BAB2.2A$31.4B6.7B3.B2AB3A14.12B4A$
30.4B8.8B.B2A.A14.2AB.7B3.2B.A$29.4B9.10B17.A.AB.7B2.B3A$28.4B9.3B
2A6B17.A5.4B4.A$27.4B11.2B2A6B16.2A5.4B5.5A$26.4B12.10B22.4B10.A$
25.4B12.12B20.4B9.A$24.4B8.2A.14B19.4B10.2A$23.4B7.A2.A16B17.4B$
22.4B8.2A2.17B15.4B$7.2A12.4B14.16B.2B11.4B$7.A.A10.4B15.18B2A9.4B
$10.A2.2A4.4B15.17B.B2A8.4B$8.2A.A2.A3.4B15.4B2.8B.4B.B8.4B$7.A.A.
2A4.4B15.4B4.7B14.4B$7.BAB.B4.4B15.4B5.6B14.4B$.2A5.5B2.4B3.2A10.
4B6.4B15.4B$2.A6.9B5.A9.4B5.A3B16.4B$2.A.AB2.6B2AB4.A10.4B5.A.AB
16.4B$3.2AB.7B2A5.5A5.4B5.A.BA16.4B$5.12B2.2A5.A4.4B5.A.A16.4B$5.
12B3.A2.3AB2.7B.BA.A.A.A13.4B$5.12B3.A.A.2B3.7B.B2A3.2A12.4B$6.5B
2A2B.B2A.A.4A12B18.4B$6.5BABA2.BA.A.A2.BA3B2A3B2A2B17.4B$6.6BAB5.A
2.3AB.2B2A2B2A3B5.A10.4B$6.7B6.2A.A.B3.7BA2B5.3A7.4B$4.8B10.A8.8B
7.A5.4B$2A.9B10.2A7.9B5.2A4.4B$A2.A9B19.3B2.4B4.9B$.3A3B.B.4B16.5B
3.4B5.6B$4.B2.3B.4B15.2A7.4B2.8B$.3A2.B2AB2.4B15.A8.15B$A.A4.2A4.
4B11.3A10.14B$A3.A9.4B10.A13.13B$.3A.A9.4B24.10B.B2A$3.A.A10.4B25.
3B2AB3.BA.A$4.A12.4B24.3B2AB6.A$18.4B25.4B6.2A$19.4B24.3B$20.4B20.
AB.2B$21.4B18.A.AB2AB$22.4B17.A.ABABAB$23.4B13.2A.A.A.A.A2.A$24.4B
12.A2.A2.2A.4A$25.3BA13.2A4.A$26.3BA18.A.A$27.3AB18.2A!
