#CSYNTH gun_6972 costs 3525 cells.
#C period 6972 fullperiod 6972 bbox 75 by 47
#CLL state-numbering golly
x = 75, y = 47, rule = LifeHistory
45.2A$45.A.A$47.A$47.2AB$49.2B.3B$45.4A7B$45.A2.AB.5B$46.A2.8B$43.
3A3.8B$43.A4.11B3.B$48.17B$48.17B$46.20B.B$18.A25.A.2A2.BABA13B2A$
18.3A9.A11.3AB2A3.B3A12B2A$21.A7.A.A9.A4.B4.3BA13B$20.2A7.A.A10.3A
.2A2.2B2A9B.4B$20.5B3.2A.3A10.A.A4.14B$22.BAB4.B4.A9.A.A5.4B2A8B$
16.2A3.B3AB.B2AB3A11.A6.2B3A8B$9.4B3.2BA.B5A.3A.A21.ABA6BAB$7.B.4A
.BA2B2.2A3B3A25.BA6BABA$6.4A2.3A.B2.3A3B3A24.8B3A2B6.A$5.A.3A2.2A.
2A2.B2A3B2AB23.8B2A4B5.A.A$6.AB2.B2.B.A3.2B5AB14.B.7B2.14B4.A.A$9.
5A.A3.3B3A2B8.B.13B4.9B2A2B2.2A.2A$10.2B.2A5.3BA5B.32BA3B4.B2.A$
20.5B.36B3AB3.2ABA$22.41BABAB2.2A.A.A$9.B2A11.23B2A23B2.2A$9.3AB
10.4B3.16B2A21B$8.A.2AB9.4B4.4B2.2B3.28B$7.A.A.2B8.4B5.4B8.10B2.B
3.11B4.A$7.A2.A2.2B5.4B5.B2A2B11.6B9.8B3.3A$8.2A3.3B3.4B5.BA2BA.A
12.3B10.8B2.A$13.B2A.5B6.B2A.A.3A12.B11.5B.BA2.A$2A.2A7.BA2BA4B5.
4B2.A4.A11.2A10.7B4A$2A.A8.2B2A4B6.2A4.A.3A13.A11.3B.2B$3.A.B3.2A
8B8.A5.2A14.A17.B2A$3.2A2B.3BA7B5.3A22.2A18.A$.2A2.A2BAB2A7B5.A44.
A.A$A2.AB2A12B51.2A$2A.A.AB3.7B.B2A$.A2.3AB2.7B.BA.A$.A5.A4.2BAB5.
A$2.5A5.3BA5.2A$4.A8.3AB!
