#CSYNTH gun_8171 costs 13696 cells.
#C period 8171 fullperiod 8171 bbox 128 by 107
#CLL state-numbering golly
x = 128, y = 107, rule = LifeHistory
37.2A2.A$36.A.4A$36.A$34.2A.7A$32.A2.A.A3.B2.A$32.2A2.BA.2A2.2A$
36.2AB2AB6.2A$36.5B8.A$37.3B7.A$36.5B6.5A$36.BA4B9.A$34.2BABA3B3.
4AB$34.2BABA4B2.A2.AB$35.2BA4B4.4B$34.15B3.2A$33.14B2A.A2.A$32.11B
A3B2A.2A$31.11BABAB.B$30.4B2.7BAB$14.2A13.4B5.7B$14.A13.4B4.9B$9.
2A5.A10.4B5.2A4.4B$9.A5.2A9.4B7.A5.4B$6.2A.A.3B11.4B5.3A7.4B$6.A2.
A.2A2B2A7.4B6.A10.4B$8.2A.A.2B2AB5.4B19.4B$11.A.4B5.4B21.4B$11.2A.
4B3.4B23.4B$4.2A8.3BA6B8.2A15.4B$3.A.A8.2BABA4B9.A.A15.4B$3.A8.B.
3BA4B12.A4.2A10.2B2A25.A11.2A$2A.AB.B3.11B9.4A.2A2.A2.A9.2A2B23.A.
A9.B2AB$.A.A.2AB.12B9.A2.A.A.A.A.2A10.BA2B10.A3.A3.2A2.A.A9.3B$.A.
A.2A14B11.BABABA.A14.4B7.3A2.A.A2.A2.2A.2A9.B.B$2A.A2.5B2A8B12.B2A
BA.A15.4B5.A5.A.A3.A.A2.B8.5B$A2.4A3BA2BA5B.B2A11.2B.BA17.7B.2A5.A
.4A2.AB2A6.6B$.2A2.BAB.2B2A6B.BA.A.2A6.3B21.9B7.A3.A.A.2A4.8B$3.2A
6.7B5.A.A6.4B22.6B8.A2.BA.A2.13B$3.A7.2B.4B5.A.A6.B2A3B21.5B7.A.2B
A.A5.13B$5.A9.4B3.2A.A.AB3.B2A3B20.7B6.2A.2BA5.15B$4.2A10.4B6.2AB.
10B19.6B10.3B4.15B$17.4B7.13B18.7B10.2B.B.17B$18.4B6.14B17.6B4.29B
$19.4B5.15B16.7B2.16B2A13B$20.4B6.8B2.4B15.7B2.16B2A14B$21.4B5.6B
5.4B13.5BA3B.27B3.B2A$22.4B3.9B4.4B12.36B4.A2.A$23.4B.4B4.2A5.4B6.
B4.5BA14B2.2B2.B2.7B5.2A.A$24.7B5.A7.4B4.2AB.19B13.7B7.A$25.5B7.3A
5.4B3.2A19B15.8B6.2A$25.5B9.A6.4B3.B.17B17.2B2.4B$24.7B16.4B5.17B
15.2A4.4B$23.4B.4B16.4B4.3B2A12B15.A6.4B$22.4B3.4B16.4B3.3B2A10B.B
2A14.A6.4B$21.4B5.4B16.4B2.BA10B4.BA.A12.2A7.4B$20.4B7.4B7.A8.4B2A
9B9.A22.4B$19.4B9.4B6.3A7.3B2A7BA2B8.2A22.4B$18.4B11.4B8.A7.2B2A7B
A2B33.4B$17.4B13.4B6.A.A7.12B35.4B$16.4B15.4B5.A.AB7.5BA4B37.4B$3.
2A10.4B17.4B5.A3B7.4B3A2B38.4B$4.A9.4B19.4B6.4B5.4B3A2B39.4B$2.A
10.4B21.4B5.6B5.6B41.4B$2.5A5.4B5.2A16.4B4.7B.2B2.5B42.4B$7.A4.4B
5.A18.4B2.8B.9B43.4B$4.3AB2.7B.BA.A19.24B43.4B$3.A.2B3.7B.B2A21.
24B43.4B10.2A$3.4A12B23.19B2.4B43.4B9.A$.2A2.BA3B2A7B18.2A2.19B4.
4B43.4B10.A$A2.3AB.2B2A7B18.A2.A17B7.4B36.2A5.4B5.5A$2A.A.B3.10B
20.2A.15B9.4B36.A5.4B4.A$3.A8.8B24.12B11.4B35.A.AB.7B2.B3A$3.2A7.
9B24.10B13.4B35.2AB.7B3.2B.A$13.3B2.4B23.2B2A6B14.4B36.12B4A$11.5B
3.4B21.3B2A6B15.4B35.7B2A3BAB2.2A$11.2A7.4B21.10B3.2A.2A8.4B34.7B
2A2B.B3A2.A$12.A8.4B20.8B.B2A2.A.A10.4B33.10B3.B.A.2A$9.3A10.4B18.
7B3.B2ABA2.A11.4B31.8B8.A$9.A13.4B17.6B6.B.A.A13.4B29.9B7.2A$24.4B
17.6B4.2A2.A15.4B27.4B2.3B$25.4B16.8B.A2.2A17.4B25.4B3.5B$26.4B14.
9BA.A.A19.4B23.4B7.2A$27.4B4.A8.7B.2BAB.A20.4B21.4B8.A$28.4B3.3A6.
6B3.2B2.A.2A18.4B19.4B10.3A$29.4B5.A4.7B4.B.2A2.A19.4B10.A6.4B13.A
$30.4B3.2A4.7B3.A.A2.A22.4B7.3A5.4B$31.2B2A2.4B.8B3.2A2.A24.4B5.A
7.4B$32.BABA3.11B8.3A22.4B4.2A5.4B$33.A3B.12B10.A23.9B4.4B$34.16B
35.6B5.4B$35.14B10.A25.8B2.4B$36.10B11.3A23.15B$35.12B9.A26.14B$
34.16B6.2A25.13B$27.A6.24B23.2AB.10B$27.3A3.23B24.A.AB3.B2A3B$30.A
2.24B23.A6.B2A3B$29.A.B.24B22.2A6.4B$29.2A27B30.3B$27.2A2.A22B.4B
30.2B.BA$26.A2.3A3B3.2B3.B7.2B3.4B28.B2ABA.A$27.A4.2B3.4B.3B5.BA2B
3.4B26.BABABA.A$28.4A5.B2AB.B2AB4.A.A5.4B23.A2.A.A.A.A.2A$30.A7.2A
3.2A6.A7.4B22.4A.2A2.A2.A$32.A27.3BA25.A4.2A$31.2A28.3BA22.A.A$62.
3AB21.2A!
