#CSYNTH gun_588 costs 2668 cells.
#C period 588 fullperiod 588 bbox 58 by 46
#CLL state-numbering golly
x = 58, y = 46, rule = LifeHistory
53.A$4.A46.3A$4.3A43.A$7.A29.2A11.2A$6.2A11.2A17.A5.2A6B$6.8B5.A
18.A.AB.A2BA4B$7.8B.BA.A19.2AB.BA2BA5B$5.6B2A2B.B2A22.7BA6B$3.7BA
2BA3B24.4BA2BA6B$3.3B3ABA2BA3B24.2B2A3BA6B$3.8B2A4B24.BA4BA4B.B$4.
B.11B23.2BA3BA3B$8.10B21.6BA4B.2A$5.2B.11B18.6B2A5BA2BA$4.17B15.5B
2AB2A5B3A$4.6B2A10B15.4B2AB2A7B2A$3.6B2AB2ABA5B17.4B2AB2A6B2AB$2.
2B4AB2A3B3A3B18.18B$2.2BA3BAB2ABA3BA2B18.B2A6B2AB2A4B$2.3B3A3B2AB
4A2B19.2A7B2AB2A4B$.5BAB2AB2A6B21.3A5B2AB2A5B$10B2A6B18.A3.A2BA5B
2A6B$.17B16.3A4.2A.4BA6B$3.11B.2B16.A10.3BA3BA2B$4.10B7.2A10.2A4.
7BA4BAB$5.14B3.A7.5B3.7BA3B2A2B$5.4B2A9B2.A.AB3.2A2B5.7BA2BA4B$5.
3BA2BAB3A4B3.2AB2.B2A3B3.8BA7B$5.3BA2BA9B3.10B4.8BA2BAB.B2A$3.2AB.
2B2A9B5.10B2.10BA2BA.BA.A$2.A.AB.14B4.9B2.6B2.4B2A5.A$2.A5.6B2.6B
4.13B2.2B2.2B8.2A$.2A8.2B2.2B2.4B3.12B2.B2AB2.B$11.B2.B2AB2.4B3.
10B4.2A4.ABA$8.2AB4.2A4.4B.B2.7B11.3BA$7.B3A11.13B11.A.BAB$7.B2A.A
11.11B11.A.A.AB$7.2B.A.A11.10B11.A2.A$9.A2.A11.9B13.2A$10.2A11.9B$
24.9B$25.7B$25.8B$25.8BA$25.9BA$26.3B3.3AB!
