#CSYNTH gun_5537 costs 8064 cells.
#C period 5537 fullperiod 5537 bbox 112 by 72
#CLL state-numbering golly
x = 112, y = 72, rule = LifeHistory
45.2A$38.3B4.A$38.5BA.A$37.6B2A$37.6B$36.6B$35.8B$33.10B$30.12B$
29.13B4.B18.2A$28.16B.B2A18.A4.3B$12.2A4.2A8.B3A14B2A18.A.A5B$11.B
2AB2.B2AB6.4BA15B20.2A6B$11.4B3.3B5.A3B2A13B24.6B$12.2B5.B5.A20B
24.6B$10.5B2.B2A2B2.B3A19B22.8B$10.5B.2B2A2B.18B3.2BAB21.10B$A7.
13B.10B2A7B4.2B2A21.12B$3A5.7B2A7B.7B2A7B5.2A2B15.B4.13B$3.A4.7B2A
10B.13B6.4B11.A.2AB.10BAB2A2B$2.2A4.18B.2B2A2B.5B9.4B8.3A.2A6B3A2B
A3BA2B8.2A4.2A$2.19B3AB2.2B2AB2.5B4.2A4.4B6.A5.6BA2BA5BA4B6.B2AB2.
B2AB$4.19BA5.B5.2B5.A.A5.4B5.2A6.4BA4BA6B2AB5.3B3.4B$4.13B2A3BA5.
3B3.4B4.A8.10B5.5B2A2BA6BA2BAB5.B5.2B$2.15BA4B6.B2AB2.B2AB3.2A9.9B
2.10BA9B2A3B2.2B2AB2.5B$.2A14B3AB8.2A4.2A3.A11.16B3.3B2ABA11B.2B2A
2B.5B$.2AB.16B19.A12.14B4.5BA13B.13B7.A$2.B4.13B19.2A.AB2.6B2.12B
5.16B.16B5.3A$7.12B19.A2.2AB.20B6.13B.13BA5B4.A$6.10B22.2A3.6BA14B
9.5B.2B2A2B.11BAB2A3B4.2A$6.8B29.5B4A13B8.5B2.B2A2B2.3B2A9BA8B$7.
6B31.2B7A12B10.2B5.B5.BA2BA6BA2B2A4B$6.6B32.4A3B2A13B8.4B3.3B5.B2A
6BA4BA4B$4.2A6B31.BABA5B2.11B9.B2AB2.B2AB6.4BA5BA2BA6B$3.A.A5B32.
2BABA4B3.5B2.2B11.2A4.2A8.2BA3BA2B3A6B2A$3.A4.3B32.4BA4B2.5B3.4B
25.2B2ABA10B.B2A$2.2A37.2AB.5BA2.8B3.2A26.13B4.B$40.A.AB.BA2B3.4B
3.2A3.A28.12B$40.A5.ABA2.4B4.A5.3A28.10B$39.2A5.8B6.3A4.A30.8B$45.
8B9.A36.6B$36.2A6.8B48.6B$37.A4.9B.2B46.6B2A$36.A4.12B2A22.A23.5BA
.A$36.2A4.9B.B2A21.A.A22.3B4.A$37.2B5.7B2.B22.A.A29.2A$20.2A5.3B6.
5B2.8B24.2A.2A$21.A5.4B4.12B2AB26.B4.A2.2A$21.A.AB.5B4.10B.A2BAB5.
7B.B10.2AB4A2.A$22.2AB.5B3.13B2A3B4.13B.B4.2A.A6.3A$24.7B3.43B3.B
4A2.A$24.8B3.40B5.BA2.A2B$19.2A4.8B3.40B2.8B$19.A.A3.33B2A27B$21.A
3.33B2A16BA9B$21.2A.41B3.2B.5BA7B.B2A$23.18B3.B2.B3.B2.10B9.3BA7B.
BA.A$18.2A3.18B14.6B13.B.7B5.A$18.A2.B.12B3.5B13.3B19.5B5.2A$19.3A
12B7.2A13.B19.8B$21.AB.9B8.A13.2A19.2AB2.4B$19.2A3.9B3.2A4.3A10.A
21.A4.4B$19.A4.9B4.A6.A11.A17.3A6.4B$16.2A.A2.2AB.3B2A2B4.A.2A14.
2A17.A9.4B$16.2A.A.A.AB.2BA2BA2B.3A2.A44.4B$19.A.A5.BABA3BAB2.2A
46.4B$19.A.A3.4BA4B4A49.4B$20.A4.2A5.4B.A50.4B$26.A7.2A.A.A49.4B$
23.3A9.A2.2A50.3BA$23.A9.A.A55.3BA$33.2A57.3AB!
