#CSYNTH gun_590 costs 3220 cells.
#C period 590 fullperiod 590 bbox 70 by 46
#CLL state-numbering golly
x = 70, y = 46, rule = LifeHistory
7.2A.2A2.2A5.2A36.2A$7.2A.A2.A2.A.2A2.A35.B2AB$10.A.2A.2A.A.2A37.
2B$7.2A.A2.A.B2.A.A3.2A34.2B$7.2A.2A.A.AB2ABA.A2.A2.A22.B6.5B3.2A$
8.BAB.BA3B.6A2.3A21.B2A5.5B.BAB.A$9.A4B.2BA4B2.2A17.2A5.BABA3.5B2.
B2A.A$9.BA2B.ABA5B.A2.A17.A5.2BA2B.5B3.B.B.2A$11.A3.AB.2B4.2A18.A.
AB.6B.5B2.2B2A2.A$18.2B25.2AB.7B2A4B.BA2.2A$19.B27.8BAB2A4BAB2A$
18.2AB26.7B2AB2A5BA2.2A$9.2A6.B2A2B5.2A18.8B3A6B2.A2.A$10.A4.8B4.A
19.17B3.2A$10.A.AB.8B.BA.A21.14B$11.2AB.2B2A4B.B2A7.A17.9B$13.3BA
2BA5B9.3A14.7BA3B$13.3BA2BA5B12.A13.B2A3B3A2B$13.4B2A6B11.2A13.BA
9B$15.6B2A2B11.6B10.A2BAB2A3B$17.4BABA14.4B10.5B2A3B.B$17.4BA3B11.
7B7.A4B2A6B2A$16.5B.4B7.10B6.ABAB3.7B2A$16.6B.4B5.11B.3B2.A2BA4.7B
$15.6B3.4B5.17B2A5.B3.3B$11.B2.3BA3B4.4B5.5B3A8B6.2A$9.7BABA2B5.4B
5.2B2AB2A8B6.A$9.7BABA2B6.4B6.2A11B8.A$8.9BA3B7.4B3.B3A4B2A6B2.2A
2.2A$8.11B.B2A6.4B.B2A6BABA7BA2.A$4.A4.9B2.BA.A6.4B2A9B2A5B3.2A$3.
A.A3.7B7.A7.7B2A12B$3.A.A3.7B7.2A6.6BABA12B$2A.A.2A2.6B16.4B2.6B.
9B$A.2A2.2BA2B.4B13.2AB.B4.A4B6.4B$4.5AB3.4B11.A.AB4.3BA2B6.B2A2B$
4.A2.3BA3.4B10.A4.4BABA9.2A$5.2ABA2BA3.4B8.2A4.BA.A.A$6.A.A2BAB3.
4B12.B4A.A.A$.2A.A3.A.AB5.4B11.A4.A.2A$.A.2A.A.2A2B6.4B11.3A.A$5.A
.A4.A6.4B12.A.A$5.A.A.4A7.4B12.A$6.2A.A11.3BA$10.3A9.3BA$12.A10.3A
B!
