#CSYNTH gun_1749 costs 4646 cells.
#C period 1749 fullperiod 1749 bbox 101 by 46
#CLL state-numbering golly
x = 101, y = 46, rule = LifeHistory
46.A$46.3A35.B.B$49.A6.2A25.B2A3B$48.2A5.A.A25.A2BA2B10.2A$48.4B3.
A26.2B2A4B2.2B5.A$42.2A6.3B.2A15.2A9.13B.BA.A$41.AB.AB3.B3A14.2A3.
A6.16B.B2A$41.3BAB2.BA3B3A11.A2.A7.BA12BA4B$39.A2B.A4BA5B.A9.2A2.
3A5.BABA10BABA4B$25.2A3.2A6.A.2A3.3BA3BA.A9.A2.2A3.2B3.BABA11BA4B$
26.A2.A.A6.A5.7BA3.3A6.A.A2.3A2B3.2BA15B.B2A$25.A3.A2.2A.2A.A5.4B
2AB6.A4.2A.A.2AB.A23B.BA.A$19.A5.4A.A.A.2A.A6.8B10.A2.A3.2A19B2.2B
5.A$5.2A10.3A8.A.2A8.11B12.2A.2A21B10.2A$6.A9.A8.2A.4B7.12B13.A.A.
B.19B$6.A.AB6.2A7.A.2B.2B7.11B14.A2.A5.16B$7.2AB.7B4.2A.A.4B6.9B2A
4B13.2A6.10B3.4B.2A$9.7B4.A2.A.2A2B2AB5.8BABA5B21.8B3.B2A3B.A$9.5B
A3B2.2A.A.B.2B2A2B4.9BA7B19.9B4.2AB2.A$10.3B3A2B5.A2.7B5.7B2A8B10.
A6.10B8.A$4.B5.2BA5B5.2A2.7B4.9BA2B2.4B7.3A5.10B5.5A.A$3.3B3.BA4BA
2B9.8B2.11B5.4B5.A7.A6BA3B5.A4.A.A$2.5B2.BA5BA3B8.12B.3B.A3BA4.4B
4.2A5.B2A4BABA2B7.A2.A.A$.5B2A2BA3BABA4B7.4BA7B8.BA5.3BA5B4.BABA4B
ABA2B6.2A3.A$5B2A6BA3BABAB2.8BABA6B8.A7.3BA2B5.10BA3B$6BA5BA4BA2BA
B.11BA5B9.3A4.B3A4B2.13B.B2A$7BAB4A3BA2BA7BABA4BA7B9.A2.24B2.BA.A$
.12B2AB3A6B3AB2A12B11.14B.7B7.A$2.7BA4BABA7BA2BA3B4ABA7B10.13B3.6B
7.2A$4.5BA11B.BA2BA4BA5BA6B8.2AB.10B5.4B$4.6BABA8B2.BABA3BA6B2A5B
7.A.AB3.4BA2B7.4B$4.7BA4B7.4BABA3BA2B2A5B8.A5.4BABA2B7.4B$4.12B8.
3BA5BAB2.5B8.2A6.3BABA2B8.4B$5.2B2.8B9.2BA4BAB3.3B17.4BAB11.4B$10.
7B2.2A5.5BA2B5.B19.5B12.4B$11.7B2.A5.2B3A3B26.3B14.4B$11.2B2A2B.B.
A.2A2.3BA5B24.5B14.4B$12.B2A2B2A.A2.A4.7B23.B2AB2A15.4B$13.4B.A.2A
4.7B.B2A18.2A2.2A.AB2.2A12.4B$12.2B.2B.A7.2A6.BA.A17.A2.B3.A.A2.A
13.4B$12.4B.2A8.A9.A18.7A.2A16.4B$12.2A.A8.3A10.2A24.A19.4B$8.2A.A
.A.4A5.A33.4A.A20.4B$8.A.2A2.A3.A39.A2.2A22.3BA$12.A.A2.A68.3BA$
12.2A3.2A68.3AB!
