#CSYNTH gun_6732 costs 3713 cells.
#C period 6732 fullperiod 6732 bbox 79 by 47
#CLL state-numbering golly
x = 79, y = 47, rule = LifeHistory
62.2A$14.B.B45.A$12.3B2AB36.2A3.2A.A$2A10.2BA2BA36.A4.A.A$.A5.2B2.
4B2A2B21.2A.2A10.3A.A11.2A$.A.AB.13B9.2A11.A.A.A11.A.2A2.3B5.A$2.
2AB.16B6.A3.2A6.A2.A.2B10.10B.BA.A$4.4BA12BAB7.A2.A6.2ABA2BA11.2B.
6B.B2A$3.4BABA10BABAB5.3A4.A6.B.2AB8.2B.10B$4.4BA11BABAB3.2B3.5A3.
3AB3A5.BA.14B$2.2AB.15BA2B3.2B3A8.A2.A.AB4.BABA13B$.A.AB.23BA.B3A
6.A.A.B3.2BA17B$.A5.2B2.19B2A3.A4.2A.A8BA2B2A13B$2A10.21B2A.A.A2.A
2.A2.5B3A2BA14B$12.19B.B.A.A.2A2.2A3.5B3A2B2A13B5.2A$12.16B5.A2.A
11.4BA4B2A11B2A5.A$8.2A.4B3.10B6.2A.2A.A6.3B3A4B2A4B2A4B3AB.BA.A$
8.A.3B2AB3.8B8.A.A.2A5.4B2A11B2A4BA3B.B2A$9.A2.B2A4.9B6.A10.4B.13B
2A2B3A6B$10.A8.10B5.3A7.4B2.14BA2B3A5B$8.A.5A5.10B7.A5.4B5.13B2A2B
A5B$7.A.A4.A5.3BA7B5.2A4.4B7.17BA2B$7.A.A2.A7.2BABA7B4.9B9.13BABAB
$8.A3.2A6.2BABA8B5.6B9.13B2.AB$20.3BA10B2.8B4.2A3.10B.2B$18.2AB.
16BA7B2.A2.2AB.6B.2B$17.A.AB2.14B3A6B3.2A.AB.10B$17.A7.7B.4B2A7B4.
A5.3B2.2A.A$16.2A7.6B3.10B.B2A2.A11.A.3A$12.A13.4B5.4B2AB3.BA.A.2A
8.A.A4.A$12.3A10.4B5.5B2A2B5.A2.A7.A.2A3.2A$15.A8.4B6.8B6.2A9.A$
14.2A7.4B9.6B16.2A$14.5B3.4B10.5B$5.2A9.3B2.4B12.3B$4.A.A8.9B12.5B
$4.A8.B.8B13.2AB2AB$.2A.AB.B3.BA9B14.BA.2A2.2A$2.A.A.2AB.3A9B10.2A
.A.A3.B2.A$2.A.A.2A2B2A10B10.A.2A.7A$.2A.A2.5BA9B14.A$.A2.4A3BA8B.
B2A12.A.4A$2.2A2.BAB.BA8B.BA.A12.2A2.A$4.2A6.7B5.A$4.A7.2B.3BA5.2A
$6.A9.3BA$5.2A10.3AB!
