#CSYNTH gun_4337 costs 17816 cells.
#C period 4337 fullperiod 4337 bbox 136 by 131
#CLL state-numbering golly
x = 136, y = 131, rule = LifeHistory
82.2A.A$82.A.4A$88.A$83.2A.BA.A$83.A.2B2AB$84.A.3B$81.3A3.4B$81.A
5.4B$62.2A5.2A14.8B$61.BA.AB.2B2AB12.12B$61.2B2AB.4B12.14B$59.2AB.
10B.B7.14B$58.A.AB3.12B4.15B$58.A7.12B3.16B$57.2A7.12B2.17B$67.10B
2.6B2A11B$65.19BA2BA11B$64.20BA2BA11B$63.A.20B2A9B2.B2A.A$60.A.A.A
29B4.B2AB3A$60.2A.A2.B2.25B6.B4.A$22.2A11.A27.A.A2.A4.21B5.2A.3A$
21.B2AB9.A.A26.A.4A6.9B2.2B.5B6.A.A$22.3B9.A.A2.2A3.A19.A11.8B7.3B
2A4.A$21.B.B9.2A.2A2.A2.A.A20.A8.6B12.A2BA2.2A$21.5B8.B2.A.A3.A.A
19.2A7.8B11.ABAB3.A.2A$21.6B6.2ABA2.4A.A28.4B2.4B11.A4B.A.2A$21.8B
4.2A.A.A3.A29.4B4.4B12.B2A.A$22.13B2.A.AB2.A15.2A7.B2.4B6.4B11.BAB
.A$20.13B5.A.A2B.A14.A6.8B8.4B8.A4.A$19.15B5.A2B.2A11.BA.A4.9B10.
4B7.5A$19.15B4.3B12.2A.B2A5.8B12.4B$18.17B.B.2B12.B2A2B6.8B14.4B7.
A$18.20BAB2A5B6.4B5.10B14.4B5.A.A$17.13B2A6B4A6B3.6B5.9B16.4B5.A$
16.14B2A6BA3BA5B2.6B7.7B8.2A8.4B$15.2AB3.18B3A6B.7B5.9B7.B2AB8.4B$
14.A2.A4.17B3A15B3.11B7.2B10.4B$13.A.2A5.7B2.B2.2B2.BA18B2.12B7.2B
10.4B$13.A7.7B13.30B6.2B2AB10.4B$12.2A6.8B15.29B2.2B.BAB.A11.4B$
19.4B2.2B17.33B.A.A13.4B$18.4B4.2A15.33BA.A.A.A12.4B$17.4B6.A15.
32BABA.A.A.A12.4B$16.4B6.A14.2AB.3B2.23B2.BA2.A2.A14.4B$3.2A10.4B
7.2A12.A.AB6.22B4.B2A.2A16.4B$4.A9.4B22.A8.24B5.A.A18.4B$2.A10.4B
22.2A7.24B6.A.A19.4B$2.5A5.4B5.2A25.9B4.9B9.A21.4B$7.A4.4B5.A24.2A
B2.6B6.7B32.4B$4.3AB2.7B.BA.A23.A.AB3.B.B7.9B32.4B$3.A.2B3.7B.B2A
24.A7.3B6.10B32.4B$3.4A12B23.2A.A6.B2AB7.8B34.4B$.2A2.BA3B2A7B18.
2A3.A.A7.B2AB8.8B34.4B$A2.3AB.2B2A7B9.A3.2A3.A2.A.A9.3B9.9B34.4B$
2A.A.B3.10B7.3A2.A2.A4.2A.2A9.B.B10.8B34.4B$3.A8.8B5.A5.A.A3.A.A2.
B8.5B12.B2.4B34.4B13.A$3.2A7.12B.2A5.A.4A2.AB2A6.6B16.4B34.4B10.3A
$13.3B2.9B7.A3.A.A.2A4.8B17.4B34.4B8.A$11.5B3.6B8.A2.BA.A2.13B19.
4B34.4B7.2A$11.2A7.5B7.A.2BA.A5.13B18.4B34.4B3.5B$12.A6.7B6.2A.2BA
5.15B18.4B34.4B2.3B$9.3A8.6B10.3B4.15B19.4B34.9B7.2A$9.A10.7B10.2B
.B.17B19.4B34.8B8.A$20.8B2.29B20.4B34.10B3.B.A.2A$20.25B2A13B20.4B
33.7B2A2B.B3A2.A$20.25B2A14B20.4B32.7B2A3BAB2.2A$19.37B3.B2A20.4B
31.12B4A$19.36B4.A2.A20.4B28.2AB.7B3.2B.A$14.B4.20B2.2B2.B2.7B5.2A
.A20.4B26.A.AB.7B2.B3A$13.2AB.21B11.7B7.A21.4B25.A5.4B4.A$13.2A24B
10.8B6.2A21.4B23.2A5.4B5.5A$14.B.23B11.2B2.4B29.4B28.4B8.A2.A$17.
24B8.2A4.4B29.4B26.4B11.2A$17.25B7.A6.4B29.4B24.4B$17.25B9.A5.4B
29.4B22.4B$17.12B4.8B9.2A6.4B29.4B20.4B$16.11B6.8B18.4B29.4B18.4B$
15.13B6.3B.4B18.4B29.4B16.4B$16.12B11.4B18.4B29.4B14.4B$17.10B13.
4B18.4B29.4B12.4B$17.9B15.4B18.4B29.4B10.4B$17.9B16.4B18.4B29.4B8.
4B$17.9B17.4B18.4B29.4B6.4B$20.5B19.4B18.4B29.4B4.4B$21.4B20.4B18.
4B29.4B2.4B6.2A$21.4B21.4B18.4B29.8B8.A$22.4B21.4B18.4B29.6B8.A5.
2A$23.4B21.4B18.4B29.4B9.2A5.A$24.4B21.4B18.4B27.6B11.3B.A.2A$25.
4B21.4B18.4B25.8B7.2A2B2A.A2.A$26.4B21.4B18.4B23.4B2.4B5.B2A2B.A.
2A$27.4B21.4B18.4B21.4B4.4B5.4B.A$28.4B21.4B18.4B19.4B6.4B3.4B.2A$
29.4B21.4B18.4B17.4B8.6BA3B$30.4B21.4B18.4B15.4B10.4BABA2B7.2A$31.
4B21.4B18.4B13.4B12.4BA3B8.A$32.4B21.4B18.4B11.4B14.10B3.B.A.2A$
33.4B21.4B18.4B9.4B15.7B2A2B.B3A2.A$34.4B21.4B18.4B7.4B16.7B2A3BAB
2.2A$35.4B21.4B18.4B5.4B17.12B4A$36.4B21.4B18.4B3.4B16.2AB.7B3.2B.
A$37.4B21.4B18.4B.4B16.A.AB.7B2.B3A$38.4B21.4B18.7B17.A5.4B4.A$39.
4B21.4B18.5B17.2A5.4B5.5A$40.4B21.4B6.A10.5B23.4B8.A2.A$41.4B21.4B
5.3A7.7B21.4B11.2A$42.4B21.4B7.A5.4B.4B19.4B$43.4B21.4B5.2A4.4B3.
4B6.A10.4B$44.4B21.4B4.9B5.4B5.3A7.4B$45.4B21.4B5.6B7.4B7.A5.4B$
46.4B21.4B2.8B8.4B5.2A4.4B$47.4B21.15B7.4B4.9B$48.4B21.14B8.4B5.7B
$49.4B21.13B9.4B2.7BAB$50.4B21.10B.B2A8.11BABAB.B$51.4B22.3B2AB3.B
A.A8.11BA3B2A.2A$52.4B21.3B2AB6.A9.14B2A.A2.A$53.4B22.4B6.2A9.15B
3.2A$54.4B21.3B20.3B2AB4.4B$55.4B17.AB.2B21.3B2AB3.A2.AB$56.4B15.A
.AB2AB22.4B3.4AB$57.4B14.A.ABABAB21.3B10.A$58.4B10.2A.A.A.A.A2.A
16.AB.2B7.5A$59.4B9.A2.A2.2A.4A15.A.AB2AB6.A$60.4B10.2A4.A19.A.ABA
BAB7.A$61.4B15.A.A14.2A.A.A.A.A2.A4.2A$62.4B15.2A14.A2.A2.2A.4A$
63.3BA32.2A4.A$64.3BA37.A.A$65.3AB37.2A!
