#CSYNTH gun_942 costs 5256 cells.
#C period 942 fullperiod 942 bbox 72 by 73
#CLL state-numbering golly
x = 72, y = 73, rule = LifeHistory
43.4B16.2A$41.5B2A14.B2AB$39.2B2A3B2A15.2B$36.5B2A4B17.2B3.B$35.
13B15.4B.B2A$35.15B11.8B2A$35.18B2.2B2.6B2AB.B$31.A.2AB.28B2A$29.
3AB2AB2.4B.24B$28.A4.B6.B2.28B$29.3A.2A8.28B$31.A.A10.26B2A$31.A.A
17.4B.14B2A$32.A19.4B2.11B.B$53.4B2.10B$26.2A11.A14.14B$25.B2AB9.A
.A14.14B$26.3B9.A.A2.2A3.A6.13B$25.B.B9.2A.2A2.A2.A.A5.13B$25.5B8.
B2.A.A3.A.A5.8B.2B$25.6B6.2ABA2.4A.A6.8B$25.8B4.2A.A.A3.A8.9B$26.
13B2.A.AB2.A7.10B$24.13B5.A.A2B.A5.7B.4B$23.15B5.A2B.2A4.8B2.4B$
23.15B4.3B7.8B4.4B$22.17B.B.2B7.9B5.4B$22.32B.6B5.4B$21.13B2A17B.
7B6.4B$20.14B2A16B2.6B8.3BA$19.2AB3.27B.7B9.ABA$18.A2.A4.35B9.2A$
17.A.2A5.7B2.B2.2B2.19B10.B$17.A7.7B12.18B$16.2A6.8B11.19B3.B$23.
4B2.2B11.4B2.15B.B2A$11.2A9.4B4.2A9.4B2.18B2A$11.A9.4B6.A8.4B3.12B
2A3B.B$8.BA.A8.4B5.A9.4B5.11B2A2B$6.B.B2A8.4B6.2A7.4B6.10B2.2B$5.B
2AB9.4B15.4B9.B.6B3.2B$3.B2A.AB8.4B15.4B14.4B2.B2AB$2.2A.AB9.4B15.
4B14.B2A2B3.2A$2.2B.2BA7.4B15.4B16.2A$2.AB.2B7.4B15.4B$.BAB3A6.4B
15.4B$2A2B.B.B4.4B15.4B$.BA2.3B3.4B15.4B$5.3B2.4B15.4B$5.BA6B15.4B
$4.BABA4B4.A10.4B$4.A2BA3B5.3A7.4B$3.2B2A5B7.A5.4B$3.10B5.2A4.4B$
3.6B.4B4.9B$.2AB.3B3.4B5.6B$A.AB2.B5.4B2.8B$AB11.7BA7B$.AB11.5B3A
6B$.3BA10.4B2A7B$.2A.AB10.10B.B2A$2.B.AB12.3B2AB3.BA.A$.4A13.3B2AB
6.A$A4.2B13.4B6.2A$A.6A12.3B$.2A.B2A.A8.AB.2B$5.ABA2B6.A.AB2AB$7.B
A7.A.ABABAB$7.BAB3.2A.A.A.A.A2.A$8.A4.A2.A2.2A.4A$15.2A4.A$21.A.A$
22.2A!
