#CSYNTH gun_3137 costs 13268 cells.
#C period 3137 fullperiod 3137 bbox 124 by 107
#CLL state-numbering golly
x = 124, y = 107, rule = LifeHistory
35.2A2.A$34.A.4A$34.A$32.2A.7A$30.A2.A.A3.B2.A$30.2A2.BA.2A2.2A$
34.2AB2AB$34.5B$35.3B$34.5B$34.BA4B$32.2BABA3B6.2A$32.2BABA4B5.A$
33.2BA4B3.BA.A$32.10B.B2A$31.13B$30.14B$29.15B$28.4B2.8B$12.2A13.
4B5.6B$12.A13.4B4.9B$7.2A5.A10.4B5.2A4.4B$7.A5.2A9.4B7.A5.4B$4.2A.
A.3B11.4B5.3A7.4B$4.A2.A.2A2B2A7.4B6.A10.4B$6.2A.A.2B2AB5.4B19.4B$
9.A.4B5.4B21.4B$9.2A.4B3.4B23.4B$12.3BA6B25.2B2A$2A.2A7.2BABA4B27.
BABA$2A.A8.3BA4B29.A3B25.A11.2A$3.A.B3.10B31.4B23.A.A9.B2AB$3.3AB.
2B2A7B15.2A15.4B10.A3.A3.2A2.A.A9.3B$.2A2.BA3B2A7B15.A.A15.4B7.3A
2.A.A2.A2.2A.2A9.B.B$A2.4A12B17.A4.2A10.4B5.A5.A.A3.A.A2.B8.5B$2A.
A.2B3.7B.B2A11.4A.2A2.A2.A9.7B.2A5.A.4A2.AB2A6.6B$.A2.3AB2.7B.BA.A
10.A2.A.A.A.A.2A10.9B7.A3.A.A.2A4.8B$.A5.A4.4B5.A12.BABABA.A14.6B
8.A2.BA.A2.13B$2.5A5.4B5.2A12.B2ABA.A15.5B7.A.2BA.A5.13B$4.A8.4B
19.2B.BA15.7B6.2A.2BA5.15B$14.4B17.3B19.6B10.3B4.15B$15.4B7.2A6.4B
19.7B10.2B.B.17B$16.4B7.A6.B2A3B17.6B4.29B$17.4B6.A.AB3.B2A3B17.7B
2.16B2A13B$18.4B6.2AB.10B15.7B2.16B2A14B$19.4B7.13B13.9B.27B3.B2A$
20.4B6.14B12.36B4.A2.A$21.4B5.15B6.B4.20B2.2B2.B3.6B5.2A.A$22.4B6.
8B2.4B4.2AB.19B14.6B7.A$23.4B5.6B5.4B3.2A19B14.9B6.2A$24.4B3.9B4.
4B3.B.17B15.2A4.4B$25.4B.4B4.2A5.4B5.17B15.A5.4B$26.7B5.A3.A3.4B4.
17B12.3A7.4B$27.5B7.4A4.4B3.15B.B2A10.A10.4B$27.5B16.4B2.12B4.BA.A
21.4B$26.7B4.4A8.15B9.A22.4B$25.4B.4B3.A2.3A7.15B8.2A22.4B$24.4B3.
4B8.A7.14B33.4B$23.4B5.4B6.A.A7.12B35.4B$22.4B7.4B5.A.AB7.10B37.4B
$21.4B9.4B5.A3B7.9B38.4B$20.4B11.4B6.4B5.9B39.4B$19.4B13.4B5.6B5.
6B41.4B$18.4B15.4B4.7B.2B2.5B42.4B$17.4B17.4B2.8B.9B43.4B10.2A$6.A
9.4B19.24B43.4B9.A$6.3A6.4B21.24B43.4B10.A$9.A4.4B22.19B2.4B36.2A
5.4B5.5A$8.2A3.4B8.2A13.18B4.4B36.A5.4B4.A$8.8B8.A.A13.16B7.4B35.A
.AB.7B2.B3A$4.2A4.5B5.2A2.A13.2AB.13B9.4B35.2AB.7B3.2B.A$3.A.BAB.
5B6.A.A.2A11.A.AB2.11B11.4B36.12B4A$3.A.2AB2.5B6.2A.A2.A9.A5.10B
13.4B35.7B2A3BAB2.2A$2.2A.B.B3.5B3.3B.B2.2A8.2A5.2B2A6B14.4B34.7B
2A2B.B3A2.A$2.A2.2A2B2.5B3.4B19.3B2A6B15.4B33.10B3.B.A.2A$3.2A2.AB
.13B.B18.10B16.4B31.8B8.A$5.2ABA13B.B2A17.8B.B2A.A13.4B29.9B7.2A$
3.2A2.A5BA10B2A16.7B3.B2AB3A12.4B27.4B2.3B$2.A2.A2.4BABA7B.2B17.6B
6.B4.A12.4B25.4B3.5B$3.2A3.4BABA7B21.6B4.2A.3A14.4B23.4B7.2A$9.4BA
7B22.5B4.A2.2A17.4B21.4B8.A$11.9B3.2A17.8B.A.A21.4B19.4B10.3A$8.B.
10B.B2.A8.A8.8BA.A.2A.A18.4B10.A6.4B13.A$7.2A12B3A9.3A6.6B.2BAB.A.
2A19.4B7.3A5.4B$7.2AB.8B.BA14.A4.7B2.2B2.A23.4B5.A7.4B$8.B3.6B4.2A
11.2A4.7B3.B.2A24.4B4.2A5.4B$13.4B6.A11.4B.8B2.A.A2.2A23.9B4.4B$
14.4B4.A14.11B2.2A2.A2.A23.6B5.4B$15.4B3.2A12.12B7.2A24.8B2.4B$16.
4B16.12B31.15B$17.2B2A15.11B32.14B$18.BABA13.9B12.2A21.13B$19.A3B
9.2B.10B11.A20.2AB.10B$20.4B7.16B.B4.BA.A19.A.AB3.B2A3B$21.4B3.23B
2.B2A20.A6.B2A3B$22.32B21.2A6.4B$23.32B29.3B$24.3BABA25B30.2B.BA$
25.3B2A6BA18B29.B2ABA.A$27.B2A5BA19B28.BABABA.A$28.17B5.B.4B25.A2.
A.A.A.A.2A$28.5BA8B11.4B24.4A.2A2.A2.A$28.4BA2BA6B12.4B27.A4.2A$
32.ABA4.2B14.4B24.A.A$33.A6.2B14.3BA23.2A$39.B2AB14.3BA$40.2A16.3A
B!
