#CSYNTH gun_1500 costs 2365 cells.
#C period 1500 fullperiod 1500 bbox 55 by 43
#CLL state-numbering golly
x = 55, y = 43, rule = LifeHistory
4.2A4.2B4.2A$3.A2.A.6B.A2.A$3.3A2.6B2.3A9.2B12.2A4.2A$6.10A10.6B
10.A.A2.A.A$5.A2.6A2.A7.10B10.A2BA$5.2A.B4AB.2A5.BA2BAB2ABA2BAB6.B
A4BAB$10.2B9.2B4AB2AB4A2B5.B6AB$10.2B10.BA2BAB2ABA2BAB7.B4AB$11.B
12.10B11.2B6.2A$10.2AB13.6B14.B6.A$.2A6.A2BAB5.2A7.2B16.2B2.BA.A$
2.A4.3B2A3B4.A5.B2A2.2AB11.2BA2B.B2A$2.A.AB.8B.BA.A3.2BAB4ABA2B5.
6B2A3B$3.2AB.8B.B2A3.2B2AB4AB2A2B.4BA5B2A2B$5.12B6.BA2BA2BA2BA7B2A
4BA3B.2A$5.12B8.2A4.2A.7BAB2ABA3B.A.A$5.12B18.8B2AB5.BA$7.10B17.4B
3.BA2B7.2B$9.7B6.A10.4B14.4B$9.8B5.3A7.4B14.B3A$8.5B.4B7.A5.4B14.
2A.AB$8.6B.4B5.2A4.4B15.3BA$7.6B3.4B4.9B8.2A2.AB.5B$3.B2.3BA3B4.4B
5.7B8.A2.A.2AB3A$.7BABA2B5.4B2.8B10.A.A.BA2B.AB$.7BABA2B6.15B9.A2.
ABA.B.A$9BA3B7.15B9.2A.3B2A$11B.B2A6.14B11.4B$.9B2.BA.A6.10B3.B2A
6.3A.6A$.7B7.A7.7B5.3AB4.A2.3BA.B2.A$2.6B7.2A5.9B3.A.2AB5.A.A2.A.
2B2A$3.4B15.4B2A2B3.A.A.2B4.2A.A5B$4.4B16.2B2A2B3.A2.A4.A2.A.A.3B
4A$5.4B15.5B5.2A5.2A3.A.ABA3.A$6.4B15.3B18.2ABA2BA$7.4B13.5B15.2A
2.B2A.2A$8.4B12.2AB2AB13.A2.2A2B2A2.A$9.4B7.2A2.BA.2A2.2A10.2A.A2.
B.A.2A$10.4B6.A2.A.A3.B2.A13.A2.2BA.A$11.4B7.2A.7A14.2A2.A2.A$12.
3BA8.A26.2A$13.3BA7.A.4A$14.3AB7.2A2.A!
