#CSYNTH gun_985 costs 5840 cells.
#C period 985 fullperiod 985 bbox 80 by 73
#CLL state-numbering golly
x = 80, y = 73, rule = LifeHistory
50.2A$49.A.A$43.2A4.A$41.A2.A2.2A.4A$41.2A.A.A.A.A2.A$44.A.ABABAB$
44.A.AB2AB$45.AB.2B$48.3B$48.4B6.2A$46.3B2AB6.A$46.3B2AB3.BA.A$44.
10B.B2A$43.4B2A7B$42.5B3A6B$41.7BA7B$40.4B2.8B$39.4B5.6B$38.4B4.9B
$37.4B5.2A4.4B$24.2A10.4B3.A3.A5.4B$19.2A2.A.A9.4B4.4A7.4B$19.A3.A
10.4B17.4B$20.3A.4A5.4B6.2A.3A7.4B$22.A.A2.A4.4B6.A.A.A2.A7.4B$18.
3ABABA6.4B3.2A2.A.A3.2A8.4B$8.2A3.2A2.A2.AB2A6.4B4.A.A.A2.A13.4B$
8.A.A.A.A2.2A2.4B4.5B5.BA.AB2A14.4B$10.A.A8.14B4.2ABA18.4B10.2A$5.
2A2.A.ABA8.2BA10B4.3BA.2A16.4B9.A$4.A.A2.A.3B8.BABA9B.4B.BABA2.A
15.4B10.A$3.A2.A.2A.A10.A2BA11B2A2B.BA2.2A9.2A5.4B5.5A$4.3A2.A3B9.
B2A10B.A2BA2B16.A5.4B4.A$7.3A3BA8.15B2A2B.BA2.2A10.A.AB.7B2.B3A$6.
A2.A.2B7.2AB.11B.4B.BABA2.A11.2AB.7B3.2B.A$6.2A2.3A6.A.AB3.10B3.3B
A.2A15.12B4A$10.2B7.A4.5B.7B2.2ABA18.7B2A3BAB2.2A$10.2B6.2A4.2A4.
6B3.BA.AB2A15.7B2A2B.B3A2.A$11.B6.A6.A3.7B2.A.A.A2.A15.10B3.B.A.2A
$10.2AB7.A.3A5.B2A3B2.2A2.A.A15.8B8.A$.2A6.A2BAB5.2A.A7.B2A2B7.2A
15.9B7.2A$2.A4.3B2A3B4.A3.2A4.6B23.4B2.3B$2.A.AB.8B.BA.A4.A4.6B22.
4B3.5B$3.2AB.8B.B2A5.A.AB.7B20.4B7.2A$5.12B8.2AB2.6B19.4B8.A$5.12B
10.8B19.4B10.3A$5.12B10.8B18.4B13.A$7.10B11.8B16.4B$9.7B13.7B15.4B
$9.8B13.6B7.2A5.4B$8.5B.4B12.7B6.A5.4B$8.6B.4B11.7B3.BA.A4.4B$7.6B
3.4B10.8B2.B2A4.4B$3.B2.3BA3B4.4B9.11B5.4B$.7BABA2B5.4B8.11B4.4B$.
7BABA2B6.4B6.12B3.4B$9BA3B7.4B5.13B.4B$11B.B2A6.4B5.3B.7B.4B$.9B2.
BA.A6.4B2.5BA11B$.7B7.A6.9BA3BA8B$2.6B7.2A5.13BA7B$3.4B11.2A2.7B2A
5BA2B2A2B$4.4B7.2A.A3.7BA5BA3BABAB.B$5.4B7.A.A.9BA5BA5B2AB2A$6.4B
6.A.A.2A8B2AB3A4B2A2B2A$7.4B6.2A.A.3B3.B.B3.11B$8.4B8.A.B10.6B2.4B
$9.4B7.A.A10.A5B$10.4B5.2A.3A7.A.BA2B$11.4B10.A4.3A.A.A.A$12.3BA8.
2A3.A4.A.2A.A$13.3BA12.2A3.A4.A$14.3AB15.2A4.2A!
