#CSYNTH gun_996 costs 2814 cells.
#C period 996 fullperiod 996 bbox 67 by 42
#CLL state-numbering golly
x = 67, y = 42, rule = LifeHistory
62.2A$61.A.A$41.2A18.A$41.A17.B2A$42.A11.3B.2B$41.2A10.7B4A$41.B
11.5B.BA2.A$28.2A9.3B10.8B2.A$27.B2AB6.6B9.8B3.3A$27.3B4.10B2.B3.
5BA5B4.A$24.2B2.B2.24B2A4B$7.2A13.19BA12BABA4B$7.A.A10.20B2A11B3A
7B2.2A$10.A2.2A4.22B2A10B2A4B2.2A.A.A$8.2A.A2.A3.35B2A3B3.2ABA$7.A
.A.2A4.34B3A4B4.B2.A$7.BAB.B4.4B3.B3.B.13B4.13B2.2A.2A$.2A5.5B2.4B
5.B8.B.7B2.14B4.A.A$2.A6.9B5.A2B17.14B5.A.A$2.A.AB2.6B2AB5.A.2A2B
16.13B6.A$3.2AB.7B2A6.AB2AB2A16.11B$5.12B3.2A2.2AB2A16.11B$5.12B4.
A.A13.A6.13B$5.12B4.A.6A7.A.A5.14B$6.5B2A2B.B2A3.A5.A7.A.A4.14B$6.
5BABA2.BA.A3.3A8.3A.2A2.13B.4B$6.6BAB5.A5.A7.A4.B4.4B3A10B$6.7B6.
2A13.3AB2A3.3B2A11B2A$4.8B24.A.2A2.4B2A11B2A$2A.9B26.7B3A10B.B$A2.
A9B27.4BABA10B$.3A3B.B.4B26.4B2A11B$4.B2.3B.4B20.A4.5BA5B3.B$.3A2.
B2AB2.4B19.3A3.8B$A.A4.2A4.4B21.A2.8B$A3.A9.4B19.A2.AB.5B$.3A.A9.
4B18.4A7B$3.A.A10.4B21.2B.3B$4.A12.4B18.2AB$18.3BA17.A$19.3BA14.A.
A$20.3AB13.2A!
