#CSYNTH gun_1540 costs 3036 cells.
#C period 1540 fullperiod 1540 bbox 44 by 69
#CLL state-numbering golly
x = 44, y = 69, rule = LifeHistory
20.2B.2A$19.B2A2.A$19.2AB2A$18.B2A2B$12.4B2.B2A2B$11.6B2.2AB2A$9.A
BA6B.B2A2.A$8.A2B2A9B.2A$.2A5.5B2A4B18.2A$2.A6.A5B2A2B11.B6.A$2.A.
AB2.2BA2BA5B10.3A2.BA.A$3.2AB.6BA3BA10.5B.B2A$5.7B2A3BAB8.A8B$5.6B
A2BA2BAB7.BA7B$5.6B2A2B2A3B6.BA7B$5.16B7.5B$6.10B2.4B7.3A$7.7B5.4B
5.3B$5.5B.3B6.4B5.2B$5.2A7.4B3.4B3.3B$6.A7.4A4.5B.3B$3.3A7.A4BA4.
9B7.2A$3.A7.3A.2B.3A3.8B8.A$10.A3.B2.B3.A3.10B3.B.A.2A$9.A.4AB.2A.
2A3.7B2A2B.B3A2.A$9.A.B2.BA2.A.A4.7B2A3BAB2.2A$7.A.A.3AB3.A.A4.12B
4A$7.2A.A.A2B4.A3.2AB.7B3.2B.A$10.A.B9.A.AB.7B2.B3A$7.2A.2A10.A5.
4B4.A$5.A2.A8.A3.2A5.4B5.5A$5.3A2.2A3.3A9.4B10.A$8.2A2.A.A11.4B9.A
$7.A2.2A3.A9.4B10.2A$7.A.A2.2A.A8.4B$5.2A.A.A.A.A8.4B$5.A2.A.A.2B
8.4B$7.A.ABAB8.6B$6.2A.A.A2B6.8B$4.A2.A.2A3B5.10B$4.2A2.6B4.12B$8.
8B.A13B$10.7BABA12B$10.7B2A9B.4B$10.11B2A3B4.4B$7.13BA2BA2B5.4B$6.
B2A12B2A2B7.4B$5.BA2BA14B9.4B$5.2B2A17B8.4B$5.14B5.2A9.4B$3.13B8.A
11.4B$.BA12B10.3A9.4B$BABA11B12.A10.4B$.ABA11B.B22.4B$2BA13B2A.2A
19.3BA$.15B2A.A2.A18.ABA$.17B.A.2A19.2A$3.9B3.2B2.A23.B$4.7B5.B.2A
$4.3BA3B4.A.A2.2A$3.3BABA3B3.2A2.A2.A$3.4BA4B8.2A$4.7B$6.3B$4.7B$
4.2A.B.2A$5.A3.A$2.3A5.3A$2.A9.A!
