#CSYNTH gun_216 costs 1221 cells.
#C period 216 fullperiod 216 bbox 33 by 37
#CLL state-numbering golly
x = 33, y = 37, rule = LifeHistory
9.A$9.3A$3.2A7.A$2.A2.A.3A2.A13.A$.A2.2A.A2.A.A.2A5.2A2.A.A$2.2A2.
B.2A2BA2.A5.A3.A.A$4.5AB3.A8.3A.A.2A$4.A2.A.4A11.A.B.A.A$5.A.BABA
2.3A8.ABA.B2.A$2.4A.AB3.A3.A5.B2.B5A$.A4.A.B4A.A2.A3.2A3B.A$2.3A.
2A.A4.3A4.2A4BA.2A$4.A.A2BA.2A9.5BA.A2.A$4.A6BA.2A7.4BAB.A.2A$5.A
5B3.A6.5B3.A$7.3BA3.A.AB2.4B4.2A$2A6.A3B3.2AB.5B$.A4.7B3.5BA4B$.A.
A10B3.2B2AB2A2B$2.2A12B.4BA3B$4.13B2.5B4.2A$3.9B.4B3.3B4.BABAB$3.
10B.4B3.B6.B3A$4.10B.4B9.2B2A$3.4B2A6B.4B7.2A2B$2.5BABA5B2.4B6.3AB
$.2A3BA2BA5B3.4B4.4B$.2AB.2B2A6B4.4B3.4B$2.B3.BA6B6.5B.2B2AB$8.6B
7.5B2.2A$8.5B9.4B$9.4B.B8.4B$7.4B2.3AB7.4B$7.2A4.B3A8.4B$8.A6.B10.
3BA$5.3A19.3BA$5.A22.3AB!
