#CSYNTH gun_2490 costs 1683 cells.
#C period 2490 fullperiod 2490 bbox 51 by 33
#CLL state-numbering golly
x = 51, y = 33, rule = LifeHistory
12.2A$8.2A2.A2.2A21.A5B$8.A4.2A.3A12.B4.BABA6B$2A3.2A.A5.B4.A3.A6.
2AB.2BAB2A8B$A4.A.A4.B2AB3A4.3A4.2A3B2AB2A8B$.3A.A6.B2A.A9.A4.5BAB
2A8B$3.A.2A2.4B12.2A4.6BABA8B.2A$3.10B12.6B2.B4.A5B.2BA2.A$4.2B.7B
2.B10.5B14.B3A$5.13B5.B2.7B13.B$4.10BABA3B2.3B.8B12.A.2A$4.8B3AB2A
7B.9B9.3A.2A$4.8BABA2B2A17B7.A$5.7B2A3B2A4B3A6B.4B6.2A$7.5B4AB2A
13B2.4B$9.3BA2BABA9B2A3B3.4B$9.3B4A10B4A3B3.4B$10.3B2A9BABA2BA3B4.
4B$10.13B2AB4A5B3.4B$10.6B3A4B2A3B2A7B2.4B$9.14B2A2BABA8B2.4B$10.
6B.7B2AB3A8B3.4B$10.10B2.3BABA10B4.4B$12.5B.B5.13B6.4B$13.4B8.B2.
7B.2B6.4B$12.B2A2B12.10B6.4B$13.2A14.4B2.2A.A7.4B$25.A.2AB6.A.3A6.
3BA$23.3AB2AB4.A.A4.A6.ABA$22.A4.B5.A.2A3.2A7.2A$23.3A.2A4.A16.B$
25.2A2.A2.2A$28.2A!
