#CSYNTH gun_1233 costs 5460 cells.
#C period 1233 fullperiod 1233 bbox 78 by 70
#CLL state-numbering golly
x = 78, y = 70, rule = LifeHistory
37.2A$37.A.A$39.A4.2A$35.4A.2A2.A2.A$35.A2.A.A.A.A.2A$37.BABABA.A$
38.B2ABA.A$39.2B.BA$38.3B$29.2A6.4B$30.A6.B2A3B$30.A.AB3.B2A3B$31.
2AB.10B$33.13B$33.14B$33.15B$35.8B2.4B$35.6B5.4B$34.9B4.4B$33.4B4.
2A5.4B$32.4B5.A7.4B$31.4B7.3A5.4B$30.2A2B10.A6.4B13.A$29.ABAB19.4B
10.3A$28.3BA21.4B8.A$27.4B23.4B7.2A$26.4B25.4B3.5B$25.4B27.4B2.3B$
24.4B29.9B7.2A$23.4B31.8B8.A$22.4B33.10B3.B.A.2A$21.4B34.7B2A2B.B
3A2.A$20.4B35.7B2A3BAB2.2A$20.4B35.12B4A$19.5B33.2AB.7B3.2B.A$16.
9B31.A.AB.7B2.B3A$16.9B31.A5.4B4.A$16.9B30.2A5.4B5.5A$16.10B35.4B
10.A$15.12B33.4B9.A$14.13B8.2A22.4B10.2A$15.11B9.A22.4B$16.12B4.BA
.A13.2A6.4B$16.15B.B2A15.A5.4B$16.17B15.A6.4B$16.17B15.2A4.4B$13.B
.17B17.2B2.4B$12.2A19B15.8B6.2A$12.2AB.19B13.7B7.A$13.B4.20B2.2B2.
B2.7B5.2A.A$18.36B4.A2.A$18.9B.27B3.B2A$11.A7.7B2.16B2A14B$11.3A5.
7B2.16B2A13B$14.A4.6B4.29B$13.2A4.7B10.2B.B.17B$13.5B.6B10.3B4.15B
$4.2A9.10B6.2A.2BA5.15B$3.A.A8.10B7.A.2BA.A5.13B$3.A8.B.10B8.A2.BA
.A2.13B$2A.AB.B3.BA14B7.A3.A.A.2A4.8B$.A.A.2AB.3A11B.2A5.A.4A2.AB
2A6.6B$.A.A.2A2B2A10B3.A5.A.A3.A.A2.B8.5B$2A.A2.5BA9B4.3A2.A.A2.A
2.2A.2A9.B.B$A2.4A3BA8B.B2A4.A3.A3.2A2.A.A9.3B$.2A2.BAB.BA8B.BA.A
15.A.A9.B2AB$3.2A6.7B5.A16.A11.2A$3.A7.2B.3BA5.2A$5.A9.3BA$4.2A10.
3AB!
