#CSYNTH gun_9992 costs 13983 cells.
#C period 9992 fullperiod 9992 bbox 177 by 79
#CLL state-numbering golly
x = 177, y = 79, rule = LifeHistory
155.2A3.2A$143.A11.A.A.A2.A$143.3A11.A.2A.A$146.A8.B2A.A2.2A$145.
2A7.5B2.A2.A$145.5B4.4B4.2A$147.11B.B$137.2A2.AB3.11B.B2A$137.A2.A
.AB.14B2A7.2A$138.A.2A15B.2B7.A.A$139.A3.15B4.2A2.A$140.2A8B2A7B3.
A2.A.2A$141.A.7BABAB2.4B4.2A.A.A$139.A4.7BAB4.4B4.B.BAB$139.2A3.B
2A4B7.4B2.5B5.2A$143.2B2A3B9.9B6.A$137.A4.4B.5B8.B2A6B2.BA.A$24.2A
109.3A3.4B5.2A9.2A7B.B2A$24.A.A.2A104.A5.4B6.A9.12B$18.2A6.A.A85.A
19.2A3.4B8.3A6.12B$17.B2AB3.B2A.A85.3A10.9B2.4B11.A6.12B$18.2B4.BA
B.2A87.A9.7B3.4B17.2AB.2B2A5B$19.2B3.2B2A2.A85.2A9.8B.4B17.A.AB2.A
BA5B$18.4B2.2B.A.A86.4B3.B2.13B18.A5.BA6B$18.4B.3B.A.2A87.2B.17B
18.2A6.7B$17.9B2A.A2.A27.2A19.2A33.21B28.8B$8.2A2.2A.B.11B.A.2A26.
A.A19.A.A32.20B29.9B.2A$8.A2.A.A12B3.A23.2A4.A23.A4.2A25.2A18B15.
2A12.9BA2.A$9.A.A.B.11B2.2A21.A2.A2.2A.4A15.4A.2A2.A2.A23.2A15B18.
A.A10.4B.B.3B3A$8.2A.2A13B25.2A.A.A.A.A2.A15.A2.A.A.A.A.2A24.B.13B
22.A2.2A4.4B.3B2.B$12.B.12B28.A.ABABAB19.BABABA.A30.12B20.2A.A2.A
3.4B2.B2AB2.3A$14.8B.4B27.A.AB2AB21.B2ABA.A31.9B.B2A17.A.A.2A4.4B
4.2A4.A.A$15.8B.4B27.AB.2B23.2B.BA31.9B2.BA.A16.BAB.B4.4B9.A3.A$
16.7B2.4B29.3B21.3B33.9B6.A10.2A5.5B2.4B9.A.3A$13.11B2.4B28.4B6.2A
3.2A6.4B32.9B7.2A10.A6.9B10.A.A$12.12B3.4B25.3B2AB6.A5.A6.B2A3B29.
13B16.A.AB2.6B2AB12.A$3.2A7.12B4.4B24.3B2AB3.BA.A5.A.AB3.B2A3B28.
15B16.2AB.7B2A$2.A2.A2.2A2.11B6.4B21.10B.B2A7.2AB.10B25.16B18.12B$
3.2A2.A.A2.8B.4B5.4B19.13B11.13B23.17B8.A9.12B$5.2A.B3.7B4.2A6.4B
17.14B11.14B21.18B3.2A2.A.A8.12B$5.A2.2B2.7B4.A8.4B15.15B11.15B19.
19B3.A.A2.A.A8.5B2A2B.B2A$2.2A.A.BA2B.6B6.3A6.4B13.4B2.8B15.8B2.4B
17.4B.2B2A11B4.B.2A2.A8.5BABA2.BA.A$2.A.2A.A.A8B8.A7.4B11.4B5.6B
15.6B5.4B15.4B3.B2A4B.6B3.2B2.A.A9.6BAB5.A$6.A.A.8B17.4B9.4B4.9B
13.9B4.4B13.4B4.5B3.7B.2BAB.A.2A8.7B6.2A$3.2A2.A4.5B19.4B7.4B5.2A
4.4B11.4B4.2A5.4B11.4B5.B.B5.9BA.A.A9.8B$.3A.2A4.6B20.4B5.4B7.A5.
4B9.4B5.A7.4B9.4B7.3B5.8B.A2.4A2.2A.9B$A4.B6.6B20.4B3.A3B5.3A7.4B
7.4B7.3A5.4B7.4B7.B2AB5.6B4.2A3.A2.A2.A9B$.3AB2AB3.7B21.4B.A3B6.A
10.4B5.4B10.A6.4B5.4B9.2A5.6B6.B.A5.3A3B.B.4B$3.A.2AB.8B23.4B3A19.
4B3.4B19.4B3.4B17.7B3.B2AB2A7.B2.3B.4B$7.10B24.5B21.4B.4B21.4B.4B
19.8B.B2A7.3A2.B2AB2.4B$7.6B2A3B23.5B22.7B23.7B20.10B3.2A3.A.A4.2A
4.4B$7.6B2A2B5.2A16.7B22.5B25.5B20.3B2A6B4.A3.A3.A9.4B$7.10B5.A16.
4B.4B21.5B25.5B14.2A5.2B2A6B3.A5.3A.A9.4B$6.11B2.BA.A15.4B3.4B19.
7B23.7B11.A2.A5.10B3.2A6.A.A10.4B$6.12B.B2A15.4B5.4B10.A6.4B.4B21.
4B.4B10.2A.A.AB2.11B11.A12.4B$5.15B16.4B7.4B7.3A5.4B3.4B19.4B3.4B
11.A.2AB.12B25.4B$4.16B4.A10.4B9.4B5.A7.4B5.4B6.A10.4B5.4B10.A3.
15B25.4B$.2B.16B4.3A7.4B11.4B4.2A5.4B7.4B5.3A7.4B7.4B7.3A3.16B25.
4B$2A18B7.A5.4B13.9B4.4B9.4B7.A5.4B9.4B5.A6.16B.2B23.4B$2AB.17B5.
2A4.4B15.6B5.4B11.4B5.2A4.4B11.4B4.2A5.18B2A23.4B$.B.4B.8B2.4B4.9B
16.8B2.4B13.4B4.9B13.9B4.17B.B2A24.4B$8.7B4.4B5.6B15.15B15.4B5.6B
15.6B5.4B2.8B.4B.B26.4B$9.6B5.4B2.8B15.14B17.4B2.8B15.8B2.4B4.7B
34.4B$11.4B6.15B13.13B19.15B11.15B5.6B36.4B$13.3BA5.14B11.2AB.10B
21.14B11.14B6.4B39.4B$14.BA.A5.13B10.A.AB3.B2A3B24.13B11.13B5.A3B
42.4B$15.A.A6.10B.B2A8.A6.B2A3B25.10B.B2A7.2AB.10B5.A.AB44.4B$16.A
9.3B2AB3.BA.A6.2A6.4B29.3B2AB3.BA.A5.A.AB3.B2A3B7.A.A46.3BA$17.3A
6.3B2AB6.A15.3B29.3B2AB6.A5.A6.B2A3B8.A48.ABA$19.A8.4B6.2A15.2B.BA
28.4B6.2A3.2A6.4B7.3A50.2A$28.3B23.B2ABA.A27.3B21.3B7.A53.B$25.AB.
2B23.BABABA.A24.AB.2B23.2B.BA$24.A.AB2AB20.A2.A.A.A.A.2A20.A.AB2AB
21.B2ABA.A$24.A.ABABAB19.4A.2A2.A2.A20.A.ABABAB19.BABABA.A$21.2A.A
.A.A.A2.A21.A4.2A19.2A.A.A.A.A2.A15.A2.A.A.A.A.2A$21.A2.A2.2A.4A
19.A.A25.A2.A2.2A.4A15.4A.2A2.A2.A$23.2A4.A23.2A28.2A4.A23.A4.2A$
29.A.A57.A.A19.A.A$30.2A58.2A19.2A!
