#CSYNTH gun_4079 costs 12772 cells.
#C period 4079 fullperiod 4079 bbox 124 by 103
#CLL state-numbering golly
x = 124, y = 103, rule = LifeHistory
40.2A$32.2A5.A.A$32.A.A4.A$34.A2.2A.4A$33.2A.A.A.A2.A4.2A$34.A.ABA
BAB7.A$34.A.AB2AB6.A$35.AB.2B7.5A$38.3B10.A$38.4B3.4AB$36.3B2AB3.A
2.AB$36.3B2AB4.4B$34.15B$33.14B2A.A.2A$32.11BA3B2A.2A.A$31.11BABAB
.B$30.4B2.7BAB$15.2A12.4B5.7B$15.A12.4B4.9B$9.2A5.A10.4B5.2A4.4B$
9.A5.2A9.4B7.A5.4B$6.2A.A.3B11.4B5.3A7.4B$6.A2.A.2A2B2A7.4B6.A10.
4B$8.2A.A.2B2AB5.4B19.4B$11.A.4B5.4B21.4B$11.2A.4B3.4B23.4B$4.2A8.
3BA6B25.4B25.A11.2A$3.A.A8.2BABA4B10.2A15.4B23.A.A9.B2AB$3.A8.B.3B
A4B11.A.A5.2A8.2B2A10.A3.A3.2A2.A.A9.3B$2A.AB.B3.11B14.A4.A.A9.BAB
A7.3A2.A.A2.A2.2A.2A9.B.B$.A.A.2AB.12B10.4A.2A2.A12.A3B5.A5.A.A3.A
.A2.B8.5B$.A.A.2A14B10.A2.A.A.A.2A12.7B.2A5.A.4A2.AB2A6.6B$2A.A2.
5B2A8B12.BABABA.A14.9B7.A3.A.A.2A4.8B$A2.4A3BA2BA5B.B2A3.2A6.B2ABA
.A15.6B8.A2.BA.A2.13B$.2A2.BAB.2B2A6B.BA.A.A.A7.2B.BA17.5B7.A.2BA.
A5.13B$3.2A6.7B5.A.A8.3B19.7B6.2A.2BA5.15B$3.A7.2B.4B5.2A.A6.4B20.
6B10.3B4.15B$4.A10.4B7.A6.B2A3B18.7B10.2B.B.17B$3.2A11.4B6.A.AB3.B
2A3B18.6B4.29B$17.4B6.2AB.10B16.7B2.16B2A13B$18.4B7.13B15.7B2.16B
2A14B$19.4B6.14B13.9B.27B3.B2A$20.4B5.15B12.36B4.A2.A$21.4B6.8B2.
4B6.B4.2B3A15B2.2B2.B3.6B5.2A.A$22.4B5.6B5.4B4.2AB.2B2ABA13B14.6B
7.A$23.4B3.9B4.4B3.2A4B3A12B14.9B6.2A$24.4B.4B4.2A5.4B3.B.17B15.2A
4.4B$25.7B5.A7.4B5.17B15.A5.4B$26.5B7.3A5.4B4.BABA13B12.3A7.4B$26.
5B9.A6.4B3.AB2A11B.B2A10.A10.4B$25.7B16.4B2.BA10B4.BA.A21.4B$24.4B
.4B7.A8.7BA7B9.A22.4B$23.4B3.4B6.3A7.6B2A7B8.2A22.4B$22.4B5.4B8.A
7.7B2A5B33.4B$21.4B7.4B6.A.A7.6BAB2A2B35.4B$20.4B9.4B5.A.AB7.BA3BA
2BAB37.4B$19.4B11.4B5.A3B7.B2ABABA2B38.4B$18.4B13.4B6.4B5.3B3A3B
39.4B$17.4B15.4B5.6B5.6B41.4B$16.4B17.4B4.7B.2B2.5B42.4B$5.A9.4B
19.4B2.8B.9B43.4B10.2A$5.3A6.4B21.24B43.4B9.A$8.A4.4B23.24B43.4B
10.A$7.2A3.4B8.2A14.19B2.4B36.2A5.4B5.5A$7.8B8.A.A14.18B4.4B36.A5.
4B4.A$3.2A4.5B5.2A2.A16.16B7.4B35.A.AB.7B2.B3A$2.A.BAB.5B6.A.A.2A
13.2AB.13B9.4B35.2AB.7B3.2B.A$2.A.2AB2.5B6.2A.A2.A10.A.AB2.11B11.
4B36.12B4A$.2A.B.B3.5B3.3B.B2.2A10.A5.10B13.4B35.7B2A3BAB2.2A$A3.
2A2B2.5B3.4B14.2A5.2B2A6B14.4B34.7B2A2B.B3A2.A$.3A2.AB.13B.B18.3B
2A6B15.4B33.10B3.B.A.2A$4.2ABA13B.B2A18.10B16.4B31.8B8.A$3.A2.A5BA
10B2A18.8B.B2A.A13.4B29.9B7.2A$3.2A2.4BABA7B.2B18.7B3.B2AB3A12.4B
27.4B2.3B$7.4BABA7B21.6B6.B4.A12.4B25.4B3.5B$8.4BA7B23.6B4.2A.3A
14.4B23.4B7.2A$10.9B3.2A19.5B4.A2.2A17.4B21.4B8.A$7.B.10B.B2.A18.
8B.A.A21.4B19.4B10.3A$6.2A12B3A10.A8.8BA.A.2A.A18.4B10.A6.4B13.A$
6.2AB.8B.BA12.3A6.6B.2BAB.A.2A19.4B7.3A5.4B$7.B3.6B4.2A13.A4.7B2.
2B2.A23.4B5.A7.4B$12.4B6.A12.2A4.7B3.B.2A24.4B4.2A5.4B$13.4B4.A13.
4B.8B2.A.A2.2A23.9B4.4B$14.4B3.2A14.11B2.2A2.A2.A23.6B5.4B$15.4B
17.12B7.2A24.8B2.4B$16.4B16.12B31.15B$17.2B2A15.11B32.14B$18.BABA
13.9B12.2A21.13B$19.A3B9.2B.10B11.A20.2AB.10B$20.4B7.16B.B4.BA.A
19.A.AB3.B2A3B$21.4B3.23B2.B2A20.A6.B2A3B$22.32B21.2A6.4B$23.32B
29.3B$24.3BABA25B30.2B.BA$25.3B2A6BA18B29.B2ABA.A$27.B2A5BA19B28.B
ABABA.A$28.17B5.B.4B25.A2.A.A.A.2A$28.5BA8B11.4B24.4A.2A2.A$28.4BA
2BA6B12.4B27.A4.A.A$32.ABA4.2B14.4B24.A.A5.2A$33.A6.2B14.3BA23.2A$
39.B2AB14.3BA$40.2A16.3AB!
