#CSYNTH gun_390 costs 1640 cells.
#C period 390 fullperiod 390 bbox 41 by 40
#CLL state-numbering golly
x = 41, y = 40, rule = LifeHistory
18.B$17.3B$17.3B$16.B3AB$16.A3BA$15.A5BA$15.7B$14.A7BA$14.A7BA$15.
7B$15.A5BA8.A$16.A3BA8.A.A$16.B3AB8.A.A4.2A.2A$17.3B8.2A.2A4.A.A$
17.3B7.B4.2B.A.A2.A$18.5B4.5AB4AB3A$6.2A9.7B3.2B2.A3B$7.A8.3B.6BA
3B4AB4A$7.A.AB4.10B.A4B.A2.B.A.A$8.2AB.10B2A5B.A.4A3.A$3.A6.11BA2B
AB.ABA.A4.3A$3.3A4.11BA2BAB3.A.A.2A.A$6.A3.B2A9BABAB3.A2.A.2A$5.AB
3.B2A12B5.2A$5.A3BA.14B$7.3B2.5B2.6B5.2B$6.BABAB2.4B3.4B4.B4AB$6.
2BA2B3.4B3.4B.2B6A2B$6.5B4.4B4.4B8A3B$6.5B5.4B3.3B2A6B2A3B$7.3B7.
4B3.3B8A3B$2.AB2.5B2.BA3.4B4.2B6A2B$.A.A3B3A3BA.A3.4B5.B4AB$.A.A2B
2AB2A2BA.A4.4B6.2B$2A.A.A.B.B.A.A.2A4.4B$.A2.2A.A.A.2A2.A6.4B$.A4.
2A.2A4.A7.4B$2.3A7.3A9.3BA$4.A.2A.2A.A12.3BA$5.A.A.A.A14.3AB!
