#CSYNTH gun_4416 costs 1980 cells.
#C period 4416 fullperiod 4416 bbox 55 by 36
#CLL state-numbering golly
x = 55, y = 36, rule = LifeHistory
52.2A$51.B2A$28.3B.B.3B.9B.B2.B$28.26B$26.12B3A12B2A$25.13BA3BA10B
2A$26.12BA4BA8B.B$28.11BA3BA8B$28.3B.B.3B$31.8BA3BA8B$29.B.7BA4BA
8B.B$28.2A8BA3BA10B2A$28.2A8B3A12B2A$29.4B.20B$29.4B3.B.9B.B2.B$
25.4B22.B2A$23.7B22.2A$11.2A9.9B$.2A6.2B2AB2.16B$2.A6.5B2.12B.4B$.
A6.20B2.4B$.2A6.BA12B3A2B3.4B$3.AB.B.2BA16B5.4B$.3A6BA6BA9B6.4B$A
2.B.11B3A7B8.4B$2A3.10BA2B2A5B10.4B$8.7B2A3BAB14.4B$9.11B2A3B3.2A
7.4B$9.11B3A2B.B2.A8.4B$7.13B2A4B3A10.4B$5.B.8B2A3BAB.B.BA13.4B$4.
2A9BA2B2AB6.2A12.4B$4.2A10BA2BA2B6.A13.4B$5.3B2A4B2.3BAB6.A15.3BA$
5.5B.3B2.A2BAB6.2A15.3BA$17.2A26.3AB!
