#CSYNTH gun_5519 costs 12947 cells.
#C period 5519 fullperiod 5519 bbox 121 by 107
#CLL state-numbering golly
x = 121, y = 107, rule = LifeHistory
37.2A2.A$36.A.4A$36.A$34.2A.7A$32.A2.A.A3.B2.A$32.2A2.BA.2A2.2A$
36.2AB2AB6.2A$36.5B8.A$37.3B7.A$36.5B6.5A$36.BA4B9.A$34.2BABA3B3.
4AB$34.2BABA4B2.A2.AB$35.2BA4B4.4B$34.15B3.2A$33.14B2A.A2.A$32.15B
2A.2A$31.15B.B$30.4B2.9B$29.4B5.7B$28.4B4.9B$27.4B5.2A4.4B$26.4B7.
A5.4B$11.A13.4B5.3A7.4B$11.3A10.4B6.A10.4B$14.A8.4B19.4B$13.2A7.4B
21.4B$13.5B3.4B23.4B$4.2A9.3B2.4B8.2A15.4B$3.A.A8.9B9.A.A15.4B$3.A
8.B.8B12.A4.2A10.4B$2A.AB.B3.11B9.4A.2A2.A2.A9.4B25.A11.2A$.A.A.2A
B.12B9.A2.A.A.A.A.2A10.4B23.A.A9.B2AB$.A.A.2A14B11.BABABA.A14.4B
10.A3.A3.2A2.A.A9.3B$2A.A2.5B2A8B12.B2ABA.A15.4B7.3A2.A.A2.A2.2A.
2A9.B.B$A2.4A3BA2BA5B.B2A11.2B.BA17.4B5.A5.A.A3.A.A2.B8.5B$.2A2.BA
B.2B2A6B.BA.A.2A6.3B21.7B.2A5.A.4A2.AB2A6.6B$3.2A6.7B5.A.A6.4B22.
9B7.A3.A.A.2A4.8B$3.A7.2B.4B5.A.A6.B2A3B21.6B8.A2.BA.A2.13B$5.A9.
4B3.2A.A.AB3.B2A3B22.5B7.A.2BA.A5.13B$4.2A10.4B6.2AB.10B19.7B6.2A.
2BA5.15B$17.4B7.13B19.6B10.3B4.15B$18.4B6.14B18.7B10.2B.B.17B$19.
4B5.15B17.6B4.29B$20.4B6.8B2.4B16.7B2.16B2A13B$21.4B5.6B5.4B15.7B
2.16B2A14B$22.4B3.9B4.4B13.9B.27B3.B2A$23.4B.4B4.2A5.4B12.36B4.A2.
A$24.7B5.A7.4B6.B4.20B2.2B2.B2.7B5.2A.A$25.5B7.3A5.4B4.2AB.19B13.
7B7.A$25.5B9.A6.4B3.2A19B15.8B6.2A$24.7B16.4B3.B.17B17.2B2.4B$23.
4B.4B16.4B5.17B15.2A4.4B$22.4B3.4B16.4B4.17B15.A6.4B$21.4B5.4B16.
4B3.15B.B2A14.A6.4B$20.4B7.4B16.4B2.12B4.BA.A12.2A7.4B$19.4B9.4B7.
A8.15B9.A22.4B$18.4B11.4B6.3A7.15B8.2A22.4B$17.4B13.4B8.A7.14B33.
4B$16.4B15.4B6.A.A7.12B35.4B10.2A$3.2A10.4B17.4B5.A.AB7.10B37.4B9.
A$4.A9.4B19.4B5.A3B7.9B38.4B10.A$2.A10.4B21.4B6.4B5.9B32.2A5.4B5.
5A$2.5A5.4B5.2A16.4B5.6B5.6B34.A5.4B4.A$7.A4.4B5.A18.4B4.7B.2B2.5B
34.A.AB.7B2.B3A$4.3AB2.7B.BA.A19.4B2.8B.9B35.2AB.7B3.2B.A$3.A.2B3.
7B.B2A21.24B36.12B4A$3.4A12B24.24B35.7B2A3BAB2.2A$.2A2.BA3B2A7B24.
19B2.4B34.7B2A2B.B3A2.A$A2.3AB.2B2A7B19.2A2.19B4.4B33.10B3.B.A.2A$
2A.A.B3.10B19.A2.A17B7.4B31.8B8.A$3.A8.8B20.2A.15B9.4B29.9B7.2A$3.
2A7.9B24.12B11.4B27.4B2.3B$13.3B2.4B24.10B13.4B25.4B3.5B$11.5B3.4B
23.2B2A6B14.4B23.4B7.2A$11.2A7.4B21.3B2A6B15.4B21.4B8.A$12.A8.4B
21.10B3.2A.2A8.4B19.4B10.3A$9.3A10.4B20.8B.B2A2.A.A10.4B10.A6.4B
13.A$9.A13.4B18.7B3.B2ABA2.A11.4B7.3A5.4B$24.4B17.6B6.B.A.A13.4B5.
A7.4B$25.4B17.6B4.2A2.A15.4B4.2A5.4B$26.4B16.8B.A2.2A17.9B4.4B$27.
4B14.9BA.A.A19.6B5.4B$28.4B4.A8.7B.2BAB.A19.8B2.4B$29.4B3.3A6.6B3.
2B2.A.2A14.15B$30.4B5.A4.7B4.B.2A2.A14.14B$31.4B3.2A4.7B3.A.A2.A
16.13B$32.4B2.4B.8B3.2A2.A15.2AB.10B$33.2B2A3.11B8.3A11.A.AB3.B2A
3B$34.BABA.12B10.A11.A6.B2A3B$35.A15B21.2A6.4B$36.14B10.A20.3B$37.
10B11.3A21.2B.BA$36.12B9.A23.B2ABA.A$35.16B6.2A21.BABABA.A$28.A6.
24B19.A2.A.A.A.A.2A$28.3A3.23B21.4A.2A2.A2.A$31.A2.24B24.A4.2A$30.
A.B.24B22.A.A$30.2A27B21.2A$28.2A2.A22B.4B$27.A2.3A3B3.2B3.B7.2B3.
4B$28.A4.2B3.4B.3B5.BA2B3.4B$29.4A5.B2AB.B2AB4.A.A5.4B$31.A7.2A3.
2A6.A7.3BA$33.A27.3BA$32.2A28.3AB!
