#CSYNTH gun_2116 costs 6532 cells.
#C period 2116 fullperiod 2116 bbox 92 by 71
#CLL state-numbering golly
x = 92, y = 71, rule = LifeHistory
26.B.5BA3B.B3.4B12.2A$.2A19.B.8B2A7B.4B11.A.A$.2AB17.10B3ABA9B2A4.
2A4.A$3.B2.B.9B.B2.9B2A13B2A2.A2.A2.2A.4A$.9B3A18B2A11B.B3.2A.A.A.
A.A2.A$2A6BA4BA18BA11B8.A.ABABAB$2A6BA5BA8B29.A.AB2AB$.B.10BA18BA
11B9.AB.2B$3.8B2A18B2A11B.B10.3B$21.9B2A13B2A9.4B6.2A$3.8B2A9B.8B
3ABA9B2A7.3B2AB6.A$.B.10BA18B2A7B.4B8.3B2AB3.BA.A$2A6BA5BA8B2.8BA
3B.B3.4B6.10B.B2A$2A6BA4BA9B3.4B21.13B$.9B3A11B3.4B19.7B2A5B$3.B2.
B.9B.B2.3B4.4B17.8BABA4B$.2AB17.4B4.4B15.4B2.3BA4B$.2A19.4B4.4B13.
A3B5.6B$23.4B4.4B11.A3B4.9B$24.2B2A4.4B9.B3A5.2A4.4B$25.BABA4.4B7.
4B7.A5.4B$26.A3B4.4B5.4B5.3A7.4B$27.4B4.5B2.4B6.A6.AB2.4B3.B.9B.B
3.4B$28.4B4.4B.4B13.BAB3.5B3A3BA9B.4B$29.4B4.7B13.2BA2B.B.2B5A2BAB
A12B2A$30.4B4.5B13.10B2A3B2A3BA12B2A$31.4B3.5B12.3A3B3A3B2A3BA2BA
12B.B$32.4B.7B12.7B2.3BA3B3A13B$33.7B.4B12.5B4.2B$34.5B3.4B12.3B6.
BA3B3A13B$34.5B4.4B9.5B4.A.2A3BA2BA12B.B$33.4B3A4.4B8.2AB5.A6B2A3B
A12B2A$32.4B.A3B4.4B8.A6.A3B4A2BABA12B2A$31.4B3.A3B4.4B4.3A8.3AB3A
3BA9B.4B$30.4B5.4B4.4B3.A12.B2.B.9B.B3.4B$29.4B7.4B4.4B13.2AB$28.
4B9.4B4.4B12.2A$27.4B11.4B4.4B$26.4B13.4B4.4B$25.4B15.4B4.4B$24.4B
17.4B4.4B$23.4B19.4B4.4B$12.2A8.4B21.2B2A4.4B$11.B2AB6.4B23.BABA4.
4B$11.4B5.4B25.A3B4.4B$12.2B5.4B27.4B4.4B$4.A7.4B2.4B29.4B4.4B$3.A
.A5.5B.4B31.4B4.4B$4.A.14B33.4B4.4B$5.14B35.4B4.4B$5.14B36.4B4.4B$
5.15B36.4B4.4B$4.3B2A12B36.4B4.4B$4.3B2A13B36.4B4.4B19.2A$2.2AB.
11B2.4B36.B3A4.4B17.B2A$.A.AB2.8B5.4B36.A3B4.3B2.B.9B.B2.B$.A5.10B
4.4B36.A3B3.11B3A9B$2A5.B.B5.2A5.4B36.4B3.9BA4BA6B2A$8.3B4.A7.4B
19.4B3.B.3BA8B2.8BA5BA6B2A$7.B2AB5.3A5.4B18.4B.7B2A18BA10B.B$8.2A
8.A6.4B16.2A9BAB3A8B.9B2A8B$26.4B15.2A13B2A9B$27.4B15.B.11B2A18B2A
8B$28.4B16.11BA18BA10B.B$29.4B36.8BA5BA6B2A$30.4B14.11BA18BA4BA6B
2A$31.4B11.B.11B2A18B3A9B$32.4B9.2A13B2A9B2.B.9B.B2.B$33.3BA8.2A9B
AB3A10B17.B2A$34.3BA8.4B.7B2A8B.B19.2A$35.3AB7.4B3.B.3BA5B.B!
