#CSYNTH gun_260 costs 2346 cells.
#C period 260 fullperiod 260 bbox 51 by 46
#CLL state-numbering golly
x = 51, y = 46, rule = LifeHistory
44.2A$13.A29.B2AB$13.3A10.4B14.2B$16.A8.6B9.2A3.2B$15.2A8.8B6.B2AB
.B2AB$2.A12.4B2.14B4.3B2.B2A$2.3A12.18B5.B.5B$5.A11.10B2A17B$4.2A
4.2B5.9BA2BA16B$4.10B.BA10B2A18B$6.10BA30B$.B4.9B3A27B.B2A$2AB.40B
2.BA.A$2A30B3.B.B.4B6.A$.2B.11BAB3A13B5.4B7.2A$4.12BA2BA13B4.4B$5.
15BA11B.2B.4B$5.11BA10B2A4.6B$6.9B2A10B2A3.7B$6.9B2AB2A8B3.9B7.A$
6.9B2A2BA4B.3B2.11B4.3A$7.9B2ABA4B2.B.12B4.A$5.5B2.5BA5B5.11B5.2A$
5.2A5.11B5.5BA5B2.5B$6.A4.12B.B2.4BAB2A9B$3.3A4.11B2.3B.4BA2B2A9B$
3.A7.9B3.8B2AB2A9B$12.7B3.2A10B2A9B$12.6B4.2A10BA11B$11.4B.2B.11BA
15B$10.4B4.13BA2BA12B$2A7.4B5.13B3ABA11B.2B$.A6.4B.B.B3.30B2A$.A.A
B2.40B.B2A$2.2AB.27B3A9B4.B$4.30BA10B$4.18B2A10BAB.10B$5.16BA2BA9B
5.2B4.2A$5.17B2A10B11.A$4.5B.B5.19B11.3A$4.2AB2.3B4.14B2.4B12.A$3.
B2AB.B2AB6.8B7.4B$4.2B3.2A9.6B8.4B$5.2B14.4B10.3BA$4.B2AB28.3BA$5.
2A30.3AB!
