#CSYNTH gun_2693 costs 11544 cells.
#C period 2693 fullperiod 2693 bbox 111 by 104
#CLL state-numbering golly
x = 111, y = 104, rule = LifeHistory
35.2A2.A$34.A.4A$34.A$32.2A.7A$30.A2.A.A3.B2.A$30.2A2.BA.2A2.2A$
34.2AB2AB$34.5B$35.3B$34.5B$34.2B2A2B$32.4B2A2B6.2A$32.9B5.A$33.7B
3.BA.A$32.10B.B2A$31.13B$30.14B$29.15B$28.4B2.8B$12.2A13.4B5.6B$
12.A13.4B4.9B$7.2A5.A10.4B5.2A4.4B$7.A5.2A9.4B7.A5.4B$4.2A.A.3B11.
4B5.3A7.4B$4.A2.A.2A2B2A7.4B6.A10.4B$6.2A.A.2B2AB5.4B19.4B$9.A.4B
5.4B21.4B$9.2A.4B3.4B23.4B$12.3BA6B25.4B25.A11.2A$2A.2A7.2BABA4B
27.4B23.A.A9.B2AB$2A.A8.3BA4B12.2A15.4B10.A3.A3.2A2.A.A9.3B$3.A.B
3.10B13.A.A15.4B7.3A2.A.A2.A2.2A.2A9.B.B$3.3AB.2B2A7B15.A4.2A10.4B
5.A5.A.A3.A.A2.B8.5B$.2A2.BA3B2A7B11.4A.2A2.A2.A9.7B.2A5.A.4A2.AB
2A6.6B$A2.4A12B11.A2.A.A.A.A.2A10.9B7.A3.A.A.2A4.8B$2A.A.2B3.7B.B
2A11.BABABA.A14.6B8.A2.BA.A2.13B$.A2.3AB2.7B.BA.A11.B2ABA.A15.5B7.
A.2BA.A5.13B$.A5.A4.4B5.A12.2B.BA15.7B6.2A.2BA5.15B$2.5A5.4B5.2A
10.3B19.6B10.3B4.15B$4.A8.4B7.2A6.4B19.7B10.2B.B.17B$14.4B7.A6.B2A
3B17.6B4.29B$15.4B6.A.AB3.B2A3B17.7B2.16B2A13B$16.4B6.2AB.10B15.7B
2.16B2A14B$17.4B7.13B13.9B.27B3.B2A$18.4B6.14B12.36B4.A2.A$19.4B5.
15B6.B4.20B2.2B2.B3.6B5.2A.A$20.4B6.8B2.4B4.2AB.19B14.6B7.A$21.4B
5.6B5.4B3.2A19B14.9B6.2A$22.4B3.9B4.4B3.B.17B15.2A4.4B$23.4B.4B4.
2A5.4B5.17B15.A5.4B$24.7B5.A3.A3.4B4.17B12.3A7.4B$25.5B7.4A4.4B3.
15B.B2A10.A10.4B10.2A$25.5B16.4B2.12B4.BA.A21.4B9.A$24.7B4.4A8.15B
9.A22.4B10.A$23.4B.4B3.A2.3A7.15B8.2A15.2A5.4B5.5A$22.4B3.4B8.A7.
14B26.A5.4B4.A$21.4B5.4B6.A.A7.12B27.A.AB.7B2.B3A$20.4B7.4B5.A.AB
7.10B29.2AB.7B3.2B.A$19.4B9.4B5.A3B7.9B31.12B4A$18.4B11.4B6.4B5.9B
31.7B2A3BAB2.2A$17.4B13.4B5.6B5.6B32.7B2A2B.B3A2.A$16.4B15.4B4.7B.
2B2.5B32.10B3.B.A.2A$3.2A10.4B17.4B2.8B.9B31.8B8.A$4.A9.4B19.24B
29.9B7.2A$2.A10.4B21.24B27.4B2.3B$2.5A5.4B5.2A15.19B2.4B25.4B3.5B$
7.A4.4B5.A16.18B4.4B23.4B7.2A$4.3AB2.7B.BA.A16.16B7.4B21.4B8.A$3.A
.2B3.7B.B2A15.2AB.13B9.4B19.4B10.3A$3.4A12B16.A.AB2.11B11.4B10.A6.
4B13.A$.2A2.BA3B2A7B16.A5.10B3.2A8.4B7.3A5.4B$A2.3AB.2B2A7B15.2A5.
2B2A6B3.A10.4B5.A7.4B$2A.A.B3.10B21.3B2A6B4.A10.4B4.2A5.4B$3.A8.8B
21.10B3.2A11.9B4.4B$3.2A7.9B20.8B.B2A15.6B5.4B$13.3B2.4B18.7B3.B2A
B2A12.8B2.4B$11.5B3.4B17.6B6.B.A11.15B$11.2A7.4B17.6B4.2A3.A9.14B$
12.A8.4B16.8B.A2.4A9.13B$9.3A10.4B14.9BA.A.A10.2AB.10B$9.A13.4B4.A
8.7B.2BAB.A.2A6.A.AB3.B2A3B$24.4B3.3A6.6B3.2B2.A.A7.A6.B2A3B$25.4B
5.A4.7B4.B.2A2.A5.2A6.4B$26.4B3.2A4.7B3.A.A2.A.A14.3B$27.4B2.4B.8B
3.2A2.A.A16.2B.BA$28.2B2A3.11B8.A16.B2ABA.A$29.BABA.12B24.BABABA.A
$30.A15B22.A2.A.A.A.A.2A$31.14B10.A12.4A.2A2.A2.A$32.10B11.3A16.A
4.2A$31.12B9.A17.A.A$30.16B6.2A16.2A$23.A6.24B$23.3A3.23B$26.A2.
24B$25.A.B.24B$25.2A27B$23.2A2.A22B.4B$22.A2.3A3B3.2B3.B7.2B3.4B$
23.A4.2B3.4B.3B5.BA2B3.4B$24.4A5.B2AB.B2AB4.A.A5.4B$26.A7.2A3.2A6.
A7.3BA$28.A27.3BA$27.2A28.3AB!
