#CSYNTH gun_710 costs 4350 cells.
#C period 710 fullperiod 710 bbox 87 by 50
#CLL state-numbering golly
x = 87, y = 50, rule = LifeHistory
24.2A3.A$22.3A.A.A.A$21.A4.A.A.A52.A$21.ABABA.A.A51.3A$16.2A4.2A.A
.A52.A$17.A4.4BABA5.2A36.2A6.2A$17.A.AB4.2BA3B2.B2AB35.A.A3.4B$18.
2AB.B4.5B2.2B37.A.5B$20.4B2.6B.2B39.7B$20.16B38.4B2A4B.B$20.9B2A6B
37.4B2A3B.B2A$19.9BA2BA6B36.11B2A$18.4B.6B2A8B35.9B.2B$17.4B3.16B
29.2B2.10B$.2A13.4B6.15B27.2A13B$2.A12.4B7.11B.4B26.2A13B$2.A.AB2.
B5.4B8.10B3.4B21.2A3.2B.11B$3.2AB.3B3.4B3.A3.11B5.4B7.2A12.A6.9B.B
2A$5.6B.4B3.A.A.9B2.2B5.4B5.B2AB9.A10.7B.BA.A$5.10B3.A.A2.A7B2.B2A
6.4B5.3B4.2A2.A.4A5.7B5.A$5.9B4.A2.3A3B.B5.A.A.2A3.4B3.B.B5.A3.A4.
A4.8B5.2A$6.2B3A2B6.2A3.B2.3B2.A.A.2A.A4.4B.6B4.3A.ABA5.4B2.4B$6.B
2ABA3B8.2A2.B2AB2.2A.A9.10B6.A.A.2A3.4B4.4B$A6.2A6B4.2A.A4.2A6.A.
2A7.12B3.BAB.B3.4B6.4B$3A5.2B2.4B3.A2.A12.A2.A8.12B2.11B8.4B$3.A4.
2B3.4B3.2A3.4A5.2A2.A.AB6.13B.9B10.4B$2.A2.AB.A5.4B6.A3.A10.2AB.3B
2.22B12.4B$2.4A3BA5.4B6.A15.29B13.3BA$5.B.2BA6.4B4.2A15.29B14.ABA$
3AB2AB.A3.A4.4B2.2B17.28B15.2A$A2.A.2B4.A.A4.8B15.27B.B2A14.B$2.A
2.2A4.A.A5.7B13.21B.6B2.BA.A$A.3A3.2A.A.2A5.7B2.B2.2B2.20B5.4B7.A$
2A3.4A.A.A2.A4.35B6.2B2AB6.2A$3.2A5.A2.2AB3.27B.7B9.2A$4.A2.2A.A3.
14B2A16B2.6B$4.A.A.2A5.13B2A16B3.6B$5.A10.29B6.4B$16.17B.B.2B12.B
2A2B$17.15B4.3B12.2A.B2A$17.15B5.A2B.2A11.BA.A$18.13B5.A.A2B.A14.A
$20.13B2.A.AB2.A15.2A$19.8B4.2A.A.A3.A$19.6B6.2ABA2.4A.A$19.5B8.B
2.A.A3.A.A$19.B.B9.2A.2A2.A2.A.A$20.3B9.A.A2.2A3.A$19.B2AB9.A.A$
20.2A11.A!
