#CSYNTH gun_3920 costs 2760 cells.
#C period 3920 fullperiod 3920 bbox 69 by 40
#CLL state-numbering golly
x = 69, y = 40, rule = LifeHistory
17.4B27.4B$15.BA4B27.A5B$14.2A4B2A25.AB4A2B$14.2A2B2A.3A21.3A.2ABA
2B$14.BA2B.2B3.A19.A3.BA.3BA$14.5B.2ABAB19.AB3A.A3BA$15.ABAB.BABA
21.3BA.A3B$14.BAB2A.5B19.A3BA.3ABA$14.A3.2B.2BAB19.A3B.AB3.A$10.A
4.3A.2A2B2A19.2BAB2A.3A4.A$10.3A4.2A4B2A19.2B4ABA4.3A$13.A4.4BAB
21.5BA4.A$12.2A4.4B25.4B4.2A$12.6B24.A8.6B$14.5B21.3A7.2A3B$13.7B
19.A9.7B$13.8B6.2A10.2A7.8B$13.9B6.A7.5B6.9B$13.10B5.A.AB3.2A2B7.
10B$11.8B.4B5.2AB2.B2A3B5.4B.8B$11.8B2.4B5.10B4.4B2.8B$10.9B3.4B5.
10B2.4B3.9B$2A.2A5.2B3A5B3.4B4.9B2.4B3.10B5.AB.2A$A2.3B2.3BA3BA3B
5.4B4.13B5.3BABA5B2.B2A2.A$.2A2BA2.3BA3BA4B5.4B3.12B5.3BA2BA5B2.5A
$2.3A6BA3BA4B6.4B3.10B6.3B2ABA11B$2.3A2B.4B3A5B7.4B.B2.7B7.2B2A8B.
5B$.2A2BA2.9B2A2B7.13B7.2B2A9B2.5A$A2.3B3.8B2A2B8.11B8.2BA9B3.B2A
2.A$2A.2A5.6B2.B.B2A7.10B6.2AB.B2.6B5.AB.2A$7.7B6.BA.A6.9B6.A.AB6.
7B$7.BAB2.2B9.A5.9B7.A9.2B2.BAB$5.2BABA13.2A5.9B5.2A13.5B$5.BA3BA
20.7B20.3ABAB$6.BA2B.A19.8B18.A.2A2B$8.A.2BAB17.9B15.2B2A.A$9.A3BA
B16.10B13.BAB3A$10.ABA2B17.3B3.3BA12.5B$10.BAB26.3BA13.BAB$11.2B
27.3AB12.2B!
