#CSYNTH gun_4293 costs 5060 cells.
#C period 4293 fullperiod 4293 bbox 110 by 46
#CLL state-numbering golly
x = 110, y = 46, rule = LifeHistory
46.A$46.3A$49.A6.2A14.A2.2A23.A2.2A$48.2A5.A.A14.4A.A22.4A.A$48.4B
3.A21.A27.A$42.2A6.3B.2A14.7A.2A18.7A.2A$41.BA.AB3.4B16.A2.B3.A.A
2.A15.A2.B3.A.A2.A$41.2B2AB2.2A4B2A13.2A2.2A.AB2.2A15.2A2.2A.AB2.
2A$39.2AB.5B2A3BA.A16.B2AB2A22.B2AB2A$25.2A3.2A6.A.AB3.8B.A18.5B
23.5B$26.A2.A.A6.A5.8B3.3A16.3B25.3B$25.A3.A2.2A.2A.A5.7B6.A15.5B
23.2A3B$19.A5.4A.A.A.2A.A6.8B20.4BAB22.B2AB2A$5.2A10.3A8.A.2A8.11B
13.2A6.3BABA2B12.2A6.2ABA4B$6.A9.A8.2A.4B7.12B14.A5.4BABA2B13.A5.
9B$6.A.AB6.BA7.A.2B.2B7.8BA2B15.A.AB3.4BA2B14.A.AB3.7B$7.2AB.2BA3B
A4.2A.A.4B6.10BA4B14.2AB.10B14.2AB.10B$9.3BA3B4.A2.A.2A2B2AB5.8BA
7B15.13B15.13B$9.3BA4BA2.2A.A.B.2B2A2B4.8B2A7B14.14B14.13BA$10.2BA
BA2BA5.A2.7B5.6BABA8B10.A2.15B10.A2.11BABA$4.B5.3B2A3B5.2A2.7B4.6B
A5B2.4B7.3A4.B2A5B2.4B7.3A4.8B2.2A$3.3B3.2A5B2A9.8B2.11B5.4B5.A7.
2B2A2B5.4B5.A7.6B5.B$2.3B2A2.5BA5B8.5BA6B.3B.5B4.4B4.2A5.2BA6B4.4B
4.2A5.9B$.2B2ABA2BAB2ABA2BA3B7.4B3A5B8.2A5.9B4.4B4.2A5.9B4.4B4.2A$
3BA2B2A3BABAB2A4B2.8B5A4B8.A7.6B5.4B5.A7.6B5.4B5.A$3BA3B2ABA2BA8B.
7B2A4BA3B9.3A4.4BA3B2.4B7.3A4.8B2.4B7.3A$4BA4BA2BA18B2A2B3A4B9.A2.
4BABA8B10.A2.15B10.A$.4BA2BABA22BABA2BA4B11.5B2A7B14.14B$2.4B3A2B
2A18BA2BA4BA4B10.13B15.13B$4.3BA4B2A7B.8BA2BAB2A3BA3B8.2AB.10B14.
2AB.10B$4.4B5A8B2.4B2ABABA3B2A2BA3B7.A.AB3.4BA2B14.A.AB3.4BA2B$4.
5B3A4B7.3BA2BAB2ABA2BAB2A2B8.A5.4BABA2B13.A5.4BABA2B$4.6BA5B8.5BA
5B2.2A3B8.2A6.3BABA2B12.2A6.3BABA2B$5.2B2.8B9.2A5B2A3.3B17.4BAB22.
4BAB$10.7B2.2A5.3B2A3B5.B19.5B23.5B$11.7B2.A5.A2BABA2B26.3B25.3B$
11.2B2A2B.B.A.2A2.A4BA3B24.5B23.5B$12.B2A2B2A.A2.A4.3BA3B23.B2AB2A
22.B2AB2A$13.4B.A.2A4.A3BA2B.B2A18.2A2.2A.AB19.2A2.2A.AB2.2A$12.2B
.2B.A7.AB6.BA.A17.A2.B3.A.A.2A15.A2.B3.A.A2.A$12.4B.2A8.A9.A18.7A.
2A.A16.7A.2A$12.2A.A8.3A10.2A24.A27.A$8.2A.A.A.4A5.A33.4A.A22.A.2A
.A$8.A.2A2.A3.A39.A2.2A23.2A.2A$12.A.A2.A$12.2A3.2A!
