#CSYNTH gun_3180 costs 5208 cells.
#C period 3180 fullperiod 3180 bbox 62 by 84
#CLL state-numbering golly
x = 62, y = 84, rule = LifeHistory
27.A11.2A$26.A.A9.B2AB$18.A3.2A2.A.A9.3B$11.2A4.A.A2.A2.2A.2A9.B.B
$11.A5.A.A3.A.A2.B8.5B$8.2A.A6.A.4A2.AB2A6.6B$8.A.A9.A3.A.A.2A4.8B
$9.B9.A2.BA.A2.13B$8.3B7.A.2BA.A5.13B$7.5B6.2A.2BA5.15B$4.B.6B10.
3B4.15B$3.2AB.6B10.2B.B.17B$3.2A7B4.5B2ABA20B$4.2B.6B2.6B4A6B2A13B
$7.6B2.5BA3BA6B2A14B$7.7B.6B3A18B3.B2A$6.15B3A17B4.A2.A$6.17BAB2.
2B2.B3.6B5.2A.A$5.17B14.6B7.A$.B3.15B14.9B6.2A$2AB.15B15.2A4.4B$2A
18B15.A5.4B4.2A$.B.3B2A12B12.3A7.4B2.B2A2B3.2A$4.2B2A11B13.A10.4B
2.4B2.B2AB$5.2B2.10B25.9B3.2B$4.2B3.9B25.10B2.2B$3.B2AB2.4B2.4B10.
A13.11B2A2B$4.2A3.2B2AB2.4B7.3A12.12B2A3B.B$11.2A4.4B5.A15.18B2A$
18.4B4.2A15.15B.B2A$11.2A6.9B14.15B3.B$12.A7.6B14.17B$12.A.2A5.6B
3.B2.2B2.BA17B$13.A2.A4.17B3A15B$14.2AB3.18B3A6B.7B$15.14B2A6BA3BA
5B2.6B$16.13B2A6B4A6B2.6B.2B$17.20BAB2A5B4.7B2A$12.A4.17B.B.2B10.
6B.B2A$11.A.A4.15B4.3B10.6B.B$11.A.A4.15B5.A2B.2A6.5B$8.2A.A.2A4.
13B5.A.A2B.A7.3B$7.A.A.A3.BAB3.13B2.A.AB2.A9.B$6.A.B.A.3AB2AB.8B4.
2A.A.A3.A9.A.A$5.A.2B3A2.B.10B6.2ABA2.4A.A6.A.2A$6.2A.A.2A2B2A2B3.
4B7.B2.A.A3.A.A5.A$9.A.B.2B3A5.4B5.2A.2A2.A2.A.A4.2A$9.2A.2ABABAB
5.4B5.A.A2.2A3.A$7.2A.A.A.B2A2.A5.4B4.A.A$7.2A.A2.A3.2A.A5.4B4.A$
10.A3.3A3.A6.4B$10.2A4.A3.2A6.4B$29.4B12.A$16.B13.4B9.3A$15.2AB2.B
A9.4B7.A11.A$14.B2AB.BA.A9.BABA6.2A9.A.A$14.B.5BA3.A7.B2AB.6B9.A2.
A$13.6B.B4.3A6.A7B8.2A.4A$9.B3.5B10.A6.10B5.A.A$8.2AB.2A5B8.2A5.B.
10B6.A.A3.2A$8.2A2B2A6B7.18BAB4.2AB3A2.A$9.B.10B8.15BABA2BAB.2A3.
2A$13.2B2.5B6.2B2A12BABA.BA2BA2BAB$13.B4.5B4.2BA2BA12BA4.BA2B.4A$
11.3BA4.5B3.3B2A4B2.7B7.B2.BA2.A$7.2A2.2A2BA4.14B4.7B13.2A$7.A2.A.
3AB5.12B6.3B$8.A.A2B.A7.10B5.5B$9.A2.BAB8.9B5.2A8.2B$10.3ABAB8.9B
5.A6.6B$13.B2A9.7B3.3A5.10B$10.6A10.6B3.A5.2A3BA2BA3B2A$9.A2.BAB2A
11.4B8.B5A4B5AB$9.2A2.2BABA11.4B8.2A3BA2BA3B2A$14.2BA.A11.4B9.10B$
16.BA13.4B10.6B$32.4B11.2B$33.4B7.2AB2.B2A$34.4B4.BA8BAB$35.5B.BA
2BA4BA2BAB$36.7BA8BAB$37.3BA2B.2A4.2A$38.3BA$39.3AB!
