#CSYNTH gun_2448 costs 2914 cells.
#C period 2448 fullperiod 2448 bbox 62 by 47
#CLL state-numbering golly
x = 62, y = 47, rule = LifeHistory
2.A9.A$2.3A5.3A$5.A3.A$4.2A.B.2A$4.7B$6.3B10.2A$4.7B8.A20.A$3.4BA
4B8.A9.A7.3A$3.3BABA3B3.2A2.2A8.A.A5.A16.2A$4.3BA3B4.A.A3.2A6.BA2B
4.2A15.A$4.7B5.B.2A.A8.2B.6B17.A$3.9B3.2B2.A.A9.6B18.2A$.17B.A2.2A
6.8B17.B$.15B2A.2A.A5.9B.B15.3B$2BA13B2A4.A5.11B14.4B$.ABA8BA2B.B
2.2A.2A2.2AB.10B.B10.5B$BABA7BABAB5.A.A2.A.AB.3B2A4BABA2B7.5B$.BA
8B2A3B4.A3.2A4.2BA2B2ABA2BA2B.2B3.5B$3.13B.BA.A4.A4.3BA12B2A5B5.2A
$5.11B.B2A3.A4.2AB.2BA4BA8BA4B5.A$5.2B2A9B5.2A2.A.AB.22B.BA.A$5.BA
2BA8B6.A2.A5.4BA8BA4BA2B.B2A$6.B2A9B4.A2.3A5.5B2A12BA3B4.2A$7.11B
4.3A7.4B3.2B.2BA2BAB2A2BA2B4.A$10.8B7.A5.4B7.2BABA4B2A3B.BA.A$10.
9B5.2A4.4B10.B.10B.B2A$9.5B2.4B4.9B14.11B$9.6B2.4B5.7B14.B.9B$8.6B
4.4B2.8B16.8B$4.B2.3BA3B5.15B15.6B$2.7BABA2B6.5BABA7B12.6B.2B$2.7B
ABA2B7.4B2A8B12.2A4.2BAB$.9BA3B8.4BA5B3.3B10.A5.A.A$.11B.B2A7.7B5.
B3A6.3A7.A$2.9B2.BA.A5.9B3.A.3A6.A$2.7B7.A5.4B2A2B3.A.A.AB$3.6B7.
2A6.2B2A2B3.A2.A$4.4B16.5B5.2A$5.4B16.3B$6.4B14.5B$7.4B13.2AB2AB$
8.4B12.BA.2A2.2A$9.4B7.2A.A.A3.B2.A$10.4B6.A.2A.7A$11.3BA9.A$12.3B
A8.A.4A$13.3AB8.2A2.A!
