#CSYNTH gun_2673 costs 6528 cells.
#C period 2673 fullperiod 2673 bbox 96 by 68
#CLL state-numbering golly
x = 96, y = 68, rule = LifeHistory
38.2A$24.2A3.2A7.A2.A$24.A.A.A.A9.4A$17.2A7.A.A7.4A4.A$18.A6.2A.2A
6.A2.A.2A2.A$18.A.AB2.A.A.A.A2.BA.A2.A2B.3A$10.2A7.2AB.A3BA3BA.B2A
4.B.A$11.A9.BA3B3A3BAB5.2B2.A$11.A.AB6.B2AB5AB2AB5.4A.A$12.2AB7.2B
.5B.2B5.A.A.BA$3.2A9.3B9.3B6.AB.2AB$3.A4.A5.BABA9.B6.A.2A.A$5.A.A.
A5.A2BA9.3B2.B2A.2B3.2A$4.3A2.A5.3BA.3B2.7B2.2AB.A2.A2.A$.2A6.A.AB
.11B2A6B2.A2BA2B3A.A$.A.4A3.2AB.A4B2A6BA2B2AB2.A2BA2BA2.A$3.B3.A4.
2BA2BABA6B2A2B2A2B6.A.2A$3.2B2A5.B2ABA2B2A4B2A2BAB2AB5.2A2B$2.2A.A
6.2B2A2B2A6BABA2BA2B4.A3.B$.A2.A2BA2BA2.B2A2BA6B2A4BA.B2A3.4A.A$A.
3A2BA2BA2.6B2A11B.BA.A6.2A$.A2.A2.A.B2A2.7B2.3B.A3B5.A2.3A$2.2A3.
2B.2AB2.3B9.A2BA5.A.A.A$6.A.2A.A6.B9.ABAB5.A4.A$5.B2A.BA6.3B9.4B8.
2A$2.AB.A.A5.2B.5B.2B6.4B$.A.4A5.B2AB5AB2AB6.4B$2.A2.2B5.BA3B3A3BA
B7.3BA43.B.B$3.A.B4.2AB.A3BA3BA.B2A6.ABAB41.B2A3B$3A.2BA2.A.AB2.A.
A.A.A2.BA.A6.2A2B40.A2BA2B10.2A$A2.2A.A2.A6.2A.2A6.A7.4B38.2B2A4B
2.2B5.A$.A4.4A7.A.A7.2A7.5B25.2A9.13B.BA.A$2.4A9.A.A.A.A13.8B19.2A
3.A6.16B.B2A$6.2A6.A.A.A.A.A10.10B19.A2.A7.BA12BA4B$4.A2.A6.A.A.A.
A.A10.7BABA17.2A2.3A5.BABA10BABA4B$2.4A9.A.A.A.A11.8B2AB15.A2.2A3.
2B3.BABA11BA4B$.A4.4A7.A.A7.2A4.8BA3B14.A.A2.3A2B3.2BA15B.B2A$A2.A
B.A2.A6.BA.AB6.A7.5B2.4B14.A.2AB.A23B.BA.A$3A.2AB2.A.AB2.A.A.A.A2.
BA.A5.5B5.4B9.A.A.A3.2A19B2.2B5.A$3.A.B4.3A.ABA3BABA.3A6.4B7.4B8.
2A.A.2A21B10.2A$2.A2.AB5.2AB2A3B2AB2A7.2A3B8.4B10.A.A.B.19B$.A.4A
5.B2ABA3BAB2AB6.ABA2B10.4B9.A2.A5.16B$2.2A.B.A5.2B.B3AB.2B6.3BAB
12.4B9.2A6.10B3.4B.2A$5.A2B.2A6.3B9.4B8.2A5.4B17.8B3.B2A3B.A$6.A.
2A.A6.B9.4B5.A4.A6.4B7.4A4.9B4.2AB2.A$2.2A3.2A.2BA2.3B9.4B5.A.A.A
9.4B5.A3.A3.10B8.A$.A2.A2.B.A2B2.7B2.3B.4B5.A2.3A9.4B4.2A5.10B5.5A
.A$A.AB7A2.3BA12BA2B.BA.A6.2A7.9B4.7BA3B5.A4.A.A$.A2.B2A4B2.2B3A
10B3AB.B2A3.4A.A8.6B5.7BABA2B7.A2.A.A$2.2A.A6.2B5A8B5A2B4.A3.B10.
8B2.8BABA2B6.2A3.A$3.B3A5.B2A3B2A6B2A3B2AB5.3AB8.21BA3B$3.B3.A4.2B
5A8B5A2B6.A.2A7.23B.B2A$.A.4A3.2AB.B3A10B3A2B2.4B2AB2.A6.22B2.BA.A
$.2A6.A.AB.2BA12BA3B2.7ABA.A3.2AB.10B.7B7.A$4.3A2.A5.4B.3B2.7B2.2B
A.B2.A2.A3.A.AB3.B2A4B3.6B7.2A$5.A.A.A5.4B9.3B2.A2B.2A3.2A4.A5.2B
2A5B3.4B$3.A4.A5.4B9.B6.A.2A.A7.2A6.8B4.4B$3.2A9.3B9.3B6.2A.2BA14.
6B7.4B$12.2AB7.2B.B3AB.2B5.A.B.2A12.5B8.4B$11.A.AB6.B2ABA3BAB2AB5.
4A.A12.3B10.4B$11.A9.2AB2A3B2AB2A5.BA2.A12.5B10.4B$10.2A7.3A.ABA3B
ABA.3A4.B.A12.B2AB2A11.4B$18.A.AB2.A.A.A.A2.BA.A2.B2A.3A6.2A2.2A.A
B2.2A8.4B$18.A6.BA.AB6.A2.A.BA2.A6.A2.B3.A.A2.A9.4B$17.2A7.A.A7.4A
4.A8.7A.2A12.4B$24.A.A.A.A9.4A16.A15.3BA$24.2A3.2A7.A2.A13.4A.A16.
3BA$38.2A15.A2.2A18.3AB!
