#CSYNTH gun_265 costs 2808 cells.
#C period 265 fullperiod 265 bbox 54 by 52
#CLL state-numbering golly
x = 54, y = 52, rule = LifeHistory
25.2A$24.A2.A$19.2A2.A.2A.A$19.A3.A2.A.A$20.3A.BAB.2A$22.A.A.A2.A$
22.2B2AB2A$23.B2AB$13.2A7.2BA2B2A2.2A$13.2AB6.2BABA2.A2.A$14.BABA
4.A3B2.2A.A$15.3BA3.3A5.A.3A$14.A2BA2B3A7.A4.A$14.AB.A2.2AB6.2A.2A
.3A$15.2A4.2B4.2BA.BA.A3.A$22.BAB2.2B2A5.A2.A$21.BABA.3B9A.A$18.2A
.B2A5BA.BABA4.A.A$18.2A7B.B2ABA.2AB2A.2A$19.7B2.BA2.A.A.B.A$14.2A
3.7B4.2A2.A.A.A4.A$7.2A3.2B2AB3.6B5.A.A.A.A3.3A$6.B2AB2.4B3.8B4.A.
A2.A3.A8.2A$7.2B3.10B2.4B4.2A6.A.2A5.A$8.2B2.10B3.4B10.2A.A.A5.A$
7.2B2A11B4.4B11.A2.A4.2A$4.B.3B2A12B4.4B10.2ABA.2A$3.2A18B5.4B8.3A
.A.A.5A$3.2AB.15B7.4B6.AB.A.A.B3.A2.A$4.B3.15B7.4B5.3BAB.5AB.2A$8.
17B6.4B3.4B4A.B.A$9.19B2.7BA3BABA3.2B2A$9.28BA3BABA3.2B2A$8.34B4A.
B.A$6.28B2A2B.3BAB.5AB.2A$6.28B2A3.AB.A.A.B3.A2.A$4.9B3A19B5.3A.A.
A.5A$4.8BA3BA6B3.4B.3B7.2ABA.2A$4.7BA5BA5B4.4B10.A2.A4.2A$5.5BA3BA
3BA2B.B2A3.4B7.2A.A.A5.A$6.4BA7BA2B.BA.A3.4B7.A.2A5.A$2A2.6BABA3BA
BAB5.A4.4B6.A8.2A$A.A.2AB.3B2A3B2A4B3.2A4.4B6.3A$2.AB2AB.12B2A.A.A
2.A3.4B7.A$.A2.B4.8B2.B2AB2A2.2A4.4B$.2A.2A4.6B5.B12.4B$2.A.A6.5B
4.2A.2A10.4B$2.A.A4.9B3.A.A12.4B$3.A5.2A4.B2A3.A.A13.4B$10.A5.A5.A
15.3BA$7.3A7.3A19.3BA$7.A11.A20.3AB!
