#CSYNTH gun_2862 costs 4453 cells.
#C period 2862 fullperiod 2862 bbox 73 by 61
#CLL state-numbering golly
x = 73, y = 61, rule = LifeHistory
51.2A$50.BABAB$51.B3A$52.B2A8.A2.2A$47.B3.ABAB8.4A.A$30.4B12.2AB.A
.AB14.A$30.3B2A11.ABA2BA9.7A.2A$29.2A2B2A12.4AB8.A2.B3.A.A2.A$29.
2AB.A.2A10.B2AB9.2A2.2A.AB2.2A$30.B3.3AB6.2B7.2A8.B2AB2A$35.3B5.5B
5.A10.5B$34.4B5.6B.BA.A11.3B$33.B2A2B2.9B.B2A11.2A3B$34.2A2.13B12.
B2AB2A$38.10B2AB4.2A6.2ABA4B$38.10B2AB5.A5.9B$38.13B5.A.AB3.7B$37.
13B7.2AB.10B$36.14B9.13B$35.7B.7B9.13BA$34.7B2.7B6.A2.11BABA$33.7B
4.5B5.3A4.8B2.2A$32.7B5.5B4.A7.6B5.B$31.7B4.B.5B4.2A5.9B$30.7B3.B
3A2.9B4.4B4.2A$29.7B4.3AB3.6B5.4B5.A$28.7B6.B5.8B2.4B7.3A$27.7B11.
15B10.A$26.7B12.14B$25.7B13.13B$24.7B12.2AB.10B$23.7B12.A.AB3.4BA
2B$22.7B13.A5.4BABA2B$13.A7.7B13.2A6.3BABA2B$11.3A6.7B22.4BAB$10.A
8.7B24.5B$10.2A6.7B26.3B$7.5B5.7B26.5B$6.4B6.7B26.B2AB2A$6.5B4.7B
24.2A2.2A.AB2.2A$5.7B2.7B25.A2.B3.A.A2.A$5.7B.7B27.7A.2A$5.8BA5B
35.A$5.6B2A5B31.4A.A$4.8B2A3B32.A2.2A$4.B2A10B$4.B2A10B$4.13B2.2A$
2.2AB.9B2.BA2BA$.A.AB.6B5.BA2B$.A5.5B5.BAB$2A7.2B6.BABA3.A$4.4B10.
BA.A.2BA$3.2A3B12.A4BA$3.2BAB2A11.B4A$.AB.A.B2A12.4B$BABA3.B$2BA$
4B$2B2AB$2.2A!
