#CSYNTH guntrue_3800 costs 5428 cells.
#C period 3800 fullperiod 3800 bbox 92 by 59
#CLL state-numbering golly
x = 92, y = 59, rule = LifeHistory
65.2A4.2B4.2A$64.A2.A.B4AB.A2.A$4.2A2.2A.2A10.B9.A30.3A2.6A2.3A$2.
3A.A2.A.A.A7.B2AB.2A3.3A33.10A$.A4.2A.A.B.A2.2A.A2B2ABA.A2.A35.A2.
6B2.A$.A.2AB.A.A2B2A.A.3BA.2B.BA3.2A34.2A.6B.2A$2.2A.AB3AB2.A.BA.
3B2A4.5B38.4B$3.5B2A2B3AB.ABA2B4.4B5.AB.2A31.3B$5.A2B2AB.2A4BAB6.
5B3.B2A2.A31.4B$2.A2.A.A2.A.A.BA2BA7.ABA3B2.5A31.6B$2.4A.4ABABA.AB
2A6.ABA9B31.10B6.2B$6.A6.A.A3.A5.2B2A2B2.5B32.11B4.3A$4.A.A2.3A.A.
A.2A5.2BABA2B3.5A31.11B.B.5B$4.2A4.A.A3.A7.2BABAB4.B2A2.A30.3A10BA
5BA$8.A8.A.A4.2BA3B5.AB.2A28.4BA10BA5BAB$8.2A8.2A4.6B38.BA11B2.A5B
A$25.5B2.2A32.3BABA7B5.5B$25.4B4.A2.A21.A6.5BA7B7.3B$25.ABAB4.A.A.
A20.3A4.14B6.5B$9.ABA12.B2A3B2.2A.A.A23.A4.13B8.B2A$9.3BA10.3BA3BA
2B2.2A23.2A4.14B8.A$8.A.BAB9.4B3.B5A25.6B3.12B8.3A$7.A.A.AB8.4B3.A
3B2.A27.2B2AB2.13B9.A$7.A2.A2.2B5.4B3.A2BAB2A27.3B2A2B2.12B$8.2A3.
3B3.4B3.BA2BA.A28.8B3.9B$13.3B.5B5.BA.A3.A.2A23.9B3.5B$3.2A7.9B6.
2B2A.A.2A.A22.11B3.4B5.2A$3.A8.8B6.A4.A.A27.6B.4B3.2B5.B2A2B$2A.A.
B3.10B7.4A.A.A27.5B3.4B10.4B$A2.3AB.2B2A7B10.A.2A12.A12.8B4.4B9.4B
$.2A2.BA3B2A7B7.3A16.3A8.10B5.4B7.AB2A$3.4A12B7.A21.A6.12B5.4B6.AB
AB$3.A.2B3.7B.B2A2.2A.A8.2A10.2A6.13B5.4B4.2BAB$4.3AB2.7B.BA.A2.A.
2A8.A10.5B3.12B7.4B3.2B2A$7.A4.4B5.2A13.A.AB9.4B2.13B7.5B.2B2AB$2.
5A5.4B5.A15.2AB.3B4.20B8.5B2.2A$2.A10.4B6.A15.7B.23B7.4B$4.A9.4B4.
2A15.28BA4B6.4B$3.2A10.4B2.2B17.26BABA4B6.4B$8.2A6.8B15.27BABA4B7.
4B$9.A7.7B13.30BA4B9.4B$9.A.2A5.7B2.B2.2B2.4BA2BA11B.B3.B.2B3.5B
12.4B$10.A2.A4.2BABA12B2ABA2B2A8B6.3B7.B15.4B$11.2AB3.4B2A12B2ABA
4BA.6B6.B2AB5.3B15.4B$12.9BA4B2A7B2A7B2.B.5B5.2A6.B2AB15.4B$13.13B
2A9BA4B2A7.2A14.2A17.4B$14.23B2AB2AB8.A35.4B$14.17B.B.2B16.3A33.3B
A$15.15B4.3B17.A34.ABA$15.15B5.A2B.2A49.2A$16.13B5.A.A2B.A50.B$18.
13B2.A.AB2.A$17.8B4.2A.A.A3.A$17.6B6.2ABA2.4A.A$17.5B8.B2.A.A3.A.A
$17.B.B9.2A.2A2.A2.A.A$18.3B9.A.A2.2A3.A$17.B2AB9.A.A$18.2A11.A!
