#CSYNTH guntrue_1184 costs 3780 cells.
#C period 1184 fullperiod 1184 bbox 84 by 45
#CLL state-numbering golly
x = 84, y = 45, rule = LifeHistory
25.A$25.3A$28.A24.A$27.2A6.A17.3A$27.4B3.A.A14.2A3.A$29.5B.A14.A3.
2A.A$28.7B15.4A.A.A2.A$23.B.10B18.B.B2.3A$22.2AB.9B13.3ABA.4A$22.
2A6B2A3B12.A2.A.2A.A2.A$23.2B.4B2A3B12.2A2.4B2.2A$26.10B2.2B12.3B
20.A$26.13B2A.A8.4B19.A.A$26.13B2A.3A6.B2AB19.A.3A$26.11B.2B5.A4.B
A5B14.2A.A4.A$24.2AB.9B7.2A4.8B13.A.A.ABABA$23.A.AB.7B9.5B.8B15.A.
A.2A$23.A5.5B2A10.9BA2B6.3B5.ABA4B$22.2A5.5BABA8.10B2A5.7B.3BA2B$
28.4B2.A3B7.6BABAB2AB3.3B3A7B4.2B$27.4B4.4B6.6BA3B2A2B2.3BA2BA7B2.
4B.B$11.B2A12.4B6.4B3.7B2A6B3.B2A3BA14B2A$11.3AB10.4B8.4B.8B3AB3A
5BA2BABA12B.B2A$10.A.2AB9.4B10.16B4A4B4A14B2.B$9.A.A.2B8.4B12.13BA
BA2BA5B3AB3A8B$9.A2.A2.2B5.4B13.13BA3B2AB3.6B2A7B$10.2A3.3B3.5B13.
4B2.7BA2BA3B2.2B2A3BA6B$4.2A9.B2A.6B12.2AB.B4.7B3A3B3.B2ABABA6B$3.
A.A8.BA2BA4B2.3B8.A.AB4.2BA3B.7B5.2A10B$3.A8.B.2B2A4B3.3BAB2.B3.A
4.4BABA5.3B6.2BA9B$2A.AB.B3.11B3.2A2B2AB3A.2A4.2A.A.A15.8B.5B$.A.A
.2AB.12B3.2A4B4A.A4.ABABA.A.A13.8B4.2A$.A.A.2A14B4.B2.2A3B4.A2.A4.
A.2A14.5BAB4.A$2A.A2.5B2A8B9.3B3.2A3.3A.A19.B2AB6.3A$A2.4A3BA2BA5B
.B2A20.A.A19.4B8.A$.2A2.BAB.2B2A6B.BA.A20.A20.3B$3.2A6.7B5.A37.2A
2.4B2.2A$3.A7.2B.4B5.2A36.A2.A.2A.A2.A$4.A10.4B43.4A.AB3A$3.2A11.
4B39.3A2.B.B$17.4B38.A2.A.A.4A$18.4B40.A.2A3.A$19.3BA40.A3.2A$20.
3BA40.3A$21.3AB41.A!
