#CSYNTH guntrue_1729 costs 7326 cells.
#C period 1729 fullperiod 1729 bbox 74 by 99
#CLL state-numbering golly
x = 74, y = 99, rule = LifeHistory
19.2A$15.A.A2.A4.2A$13.3A.2A5.B2AB$12.A4.B6.3B5.2A8.A$13.3AB2AB5.B
2.B2.B2AB7.3A7.2A$15.A.2AB.14B10.A6.A3.2A$17.17B10.2A8.A2.A$18.17B
9.4B5.2A.A8.2A$18.18B10.BAB2.A2B2.4A6.A$17.11BA8B8.BABA.BAB3A3.BA
5.A.2A$17.10BABA7B5.2A.B2A2B.A2B.B2A2B3A2.2A2.A$18.8BA2BA7B.B3.2A
7B2.2A.A.AB2ABAB2.2A$19.8B2A9B2A3.7B4.A.2A2B2ABAB2A$18.18B.B2A3.7B
4.A.A.B2.A.A2.A$18.16B4.B5.6B5.2A.4A.A.A$17.17B9.8B6.A4.2A.2A$16.
2A19B5.4B2.4B5.A.2A$16.2A20B3.4B4.4B3.2A.A$17.21B2.4B6.4B5.A$18.4B
2A13B2.4B8.4B4.2A$19.4B2A17B10.4B$19.3BA9B.8B12.BABA13.2A$19.21B
14.B2AB12.A$18.4B.15B17.A3B5.B2.BA.A$18.4B2.6B2.4B20.4B3.3B.B2A$
17.3A2B5.3B3.3B21.4B.6B$14.B4ABA2B4.5B26.10B$14.2AB2ABA2B6.B2A27.
5B2A2B$14.2BA3B2AB7.A3.A25.3BA2BA$14.2B2A3B2AB7.4A24.4BABAB2.2A$
13.3BA3B2A3B33.6BAB3.A$12.3B2A8B8.2A22.4B2.3B4.A$13.2BA8B9.A22.4B
3.3B3.2A$14.3B2A7B4.BA.A21.4B6.2BAB$14.A3BA10B.B2A10.A10.4B6.2B5A$
14.2BA14B12.3A7.4B7.2AB.B2.A$14.2B2A13B15.A5.4B7.A.AB3A2.A$11.B.3B
2A12B15.2A4.4B6.3A.A.B2.2A$10.2A4B2A13B14.9B6.A4.A2B2A$10.2AB.2BA
2BA13B14.6B7.A.3A4.A$11.B4.B2AB2A14B2.2B2.B3.6B5.2A.A.A2.4A$16.2B
3A31B4.A2.A5.A2.A.A$16.9B.27B3.B2A10.A.A$17.7B2.32B8.A3.A$17.7B2.
21B2A8B4.2A.6A$17.6B4.20B2A7B4.A.2A$17.7B10.2B.B.8BA8B4.A4.2A.2A$
17.6B10.3B4.2B3A10B3.2A.4A.A.A2.2A$16.7B6.2A.2BA5.2BA2BA9B2.A.A.A
2.B.A2.A.A$17.6B6.A.2BA.A5.BA2BA8B3.A.B3A2B2AB2A2.A$18.5B7.A2.BA.A
2.4BA2BA5B4.2A.A.A3B2AB2.A.A$18.6B7.A3.A.A.2A4.A7B.2BA.B2A5B2.2A.A
$20.4B5.A.4A2.AB2A6.BA9BA3.AB5.A$19.B2A2B4.A.A3.A.A2.B7.A3B3.2BA2.
4A4.A.A$20.2A6.A.A2.A2.2A.2A5.B3A6.2A.A7.2A$29.A3.2A2.A.A5.4B8.A2.
A$37.A.A4.4B7.A3.2A$28.A9.A4.4B8.2A$27.A.A12.4B$27.A.A11.4B$25.3A.
2A5.2B2.4B$24.A4.B5.8B$25.3AB2AB2.8B$27.A.2AB.8B$29.11B.2B$22.2A7.
11B2A$23.A6.10B.B2A$23.A.AB3.10B2.B$18.2A4.2AB.12B$18.A.A5.4B2A7B$
20.A5.3BA2BA7B21.A$20.2A4.3BA2BA6B21.A.A$21.2B5.2B2A5B23.A.A$4.2A
5.3B6.5B2.8B24.2A.2A$5.A5.4B4.16B25.B4.A2.2A$5.A.AB.5B4.10B.B2A2B
5.7B.B10.2AB4A2.A$6.2AB.5B3.13B2A3B4.13B.B4.2A.A6.3A$8.7B3.43B3.B
4A2.A$8.8B3.40B5.BA2.A2B$3.2A4.8B3.40B2.8B$3.A.A3.33B2A27B$5.A3.
33B2A16BA9B$5.2A.41B3.2B.5BA7B.B2A$7.18B3.B2.B3.B2.10B9.3BA7B.BA.A
$2.2A3.18B14.6B13.B.7B5.A$2.A2.B.12B3.5B13.3B19.5B5.2A$3.3A12B7.2A
13.B19.8B$5.AB.9B8.A13.2A19.2AB2.4B$3.2A3.9B3.2A4.3A10.A21.A4.4B$
3.A4.9B4.A6.A11.A17.3A6.4B$2A.A2.2AB.3B2A2B4.A.2A14.2A17.A9.4B$2A.
A.A.AB.2BA2BA2B.3A2.A44.4B$3.A.A5.BABA3BAB2.2A46.3BA$3.A.A3.4BA4B
4A49.ABA$4.A4.2A5.4B.A50.2A$10.A7.2A.A.A49.B$7.3A9.A2.2A$7.A9.A.A$
17.2A!
