#CSYNTH guntrue_633 costs 4615 cells.
#C period 633 fullperiod 633 bbox 71 by 65
#CLL state-numbering golly
x = 71, y = 65, rule = LifeHistory
30.2A$29.B2AB11.2A.A.2A$30.3B4.A.2A.A2.A.2A2.A3.A$29.B.B5.2A.A.2A.
A4.A.A2.3A$29.5B8.B2.5A.A6.A$29.6B6.2ABA4.A7.2A$29.8B4.2A.A.AB2.A
6.5B$30.13B2.A.A2B.A7.4B$28.13B5.A2B.2A7.5B$27.15B3.3B11.6B$27.15B
3.2B12.6B.B$26.17B.4B10.6B.B2A$26.29B4.7B2A$25.13B2A16B2.6B.2B$24.
14B2A16B2.6B$23.2AB3.27B.9B3.B$22.A2.A4.37B.B2A$21.A.2A5.2A4B3.B2.
2B2.23B2A$21.A7.ABA3B14.21B$20.2A6.3BA5B14.19B$27.4B4.2A15.16B$26.
4B5.A15.17B$25.4B7.3A12.17B$24.4B10.A10.2AB.3B.10B$23.4B21.A.AB5.
9B$22.4B22.A9.8B$21.4B22.2A8.9B2.B$20.4B33.9B.B2A$20.4B34.10B2A$
19.5B35.8B.B$16.9B33.8B$16.9B34.7B$16.9B35.5B$16.10B34.4B$15.12B
33.4B$14.13B8.2A22.4B$15.11B9.A22.4B$16.12B4.BA.A21.4B$16.15B.B2A
10.A10.4B$16.17B12.3A7.4B$16.17B15.A5.4B$13.B.17B15.2A4.4B$12.2A
19B14.5BA3B6.2A$12.2AB.19B14.3BABA7.A$13.B4.20B2.2B2.B3.4B2A5.2A.A
$18.36B4.A2.A$18.9B.27B3.B2A$11.A7.7B2.16B2A14B$11.3A5.7B2.16B2A
13B$14.A4.6B4.29B$13.2A4.7B10.2B.B.17B$13.5B.6B10.3B4.15B$4.2A9.
10B6.2A.2BA5.15B$3.A.A8.10B7.A.2BA.A5.13B$3.A8.B.10B8.A2.BA.A2.13B
$2A.AB.B3.BA14B7.A3.A.A.2A4.8B$.A.A.2AB.3A11B.2A5.A.4A2.AB2A6.6B$.
A.A.2A2B2A10B3.A5.A.A3.A.A2.B8.5B$2A.A2.5BA9B4.3A2.A.A2.A2.2A.2A9.
B.B$A2.4A3BA8B.B2A4.A3.A3.2A2.A.A9.3B$.2A2.BAB.BA8B.BA.A15.A.A9.B
2AB$3.2A6.7B5.A16.A11.2A$3.A7.2B.3BA5.2A$5.A9.3BA$4.2A10.3AB!
