#CSYNTH guntrue_4248 costs 3835 cells.
#C period 4248 fullperiod 4248 bbox 65 by 59
#CLL state-numbering golly
x = 65, y = 59, rule = LifeHistory
52.A3.2A$51.A.A.A.3A$51.A.A.A4.A$52.A.A.ABABA$54.A.A.2A$42.2A9.ABA
4B$40.2B2AB6.3BA2B$40.4B6.5B4.2B$40.9B.6B2.4B.B$41.10B2A10B2A$41.
6BA3B2A8B.B2A$36.2A3.8B2A2BA7B2.B$36.A2.A11B2A6B$34.2A2.2A2.9BA6B$
34.A8.13B$36.A6.15B$35.2A6.16B$2.A9.A16.3B3.B5.A18B$2.3A5.3A16.7B
4.B2AB2.3B.11B$5.A3.A18.2A7B3.B3A6.10B$4.2A.B.2A17.2A6B2A5B7.7B$4.
7B18.B.4BABA3B10.4B$6.3B22.3B2AB3AB10.6B$4.7B20.3BA3B3AB13.2A$3.4B
A4B8.2A9.2B3ABABA2B13.A$3.3BABA3B3.2A2.A2.A8.11B14.3A$4.3BA3B4.A.A
2.A.A9.9B17.A$4.7B5.B.2A.A8.14B$3.9B3.2B2.A9.7BA9B$.17B.A2.A2.2A2.
5BA2BA6B2A$.15B2A.4A2.A2.A5BA2BA8B$2BA13B2A8.2ABA5BABA8B$.ABA8BA2B
.B2.2A.4A2.AB.4B2A7B.B2A$BABA7BABAB5.A.A3.2A2B2.5B.6B.BA.A$.BA8B2A
3B4.A2.2A.B.B3.5B.BA3B5.A$3.13B.BA.A3.A.2AB2.5B3.B2AB5.2A$5.11B.B
2A4.A.BAB.5B5.2AB$5.2B2A9B7.2A4.4BA5.B$5.BA2BA8B11.4BABAB12.A$6.B
2A9B11.2A3.2A2B9.3A$7.11B8.A3.A4.4B7.A8.A.2A$10.8B8.4A6.4B6.2A5.4A
.A$10.9B18.4B.6B4.A5.A.2A$9.5B2.4B8.4A6.8B7.2AB2A.A.A$9.6B2.4B7.A
3.A6.10B6.A.A.A$8.6B4.4B9.2A5.B.10B5.A.2B.A$4.B2.3BA3B5.4B8.20B3.
2AB.A.A$2.7BABA2B6.4B9.16B2A3B2A2BA.2A$2.7BABA2B7.4B7.2B2A9B2A2B2A
.2B2A2BA.A$.9BA3B8.4B5.2BA2BA7BABA3B4.2AB.A.A$.11B.B2A7.4B4.3B2A4B
2.2B2A3B6.A.2B.2A$2.9B2.BA.A7.4B.9B4.7B6.A.A.A$2.7B7.A8.12B6.4B6.
2AB2A.A$3.6B7.2A8.10B7.3B6.A5.A$4.4B19.9B8.B8.5A$5.4B19.9B18.A$6.
3BA19.7B$7.3BA19.6B$8.3AB20.2B!
