#CSYNTH guntrue_5544 costs 3752 cells.
#C period 5544 fullperiod 5544 bbox 67 by 56
#CLL state-numbering golly
x = 67, y = 56, rule = LifeHistory
14.B.B$12.3B2AB$2A10.2BA2BA$.A5.2B2.4B2A2B$.A.AB.13B9.2A$2.2AB.16B
6.A3.2A$4.4BA14B7.A2.A$3.4BABA14B5.3A2.2A$4.4BA15B3.2B3.2A2.A$2.2A
B.18B3.2B3A2.A.A$.A.AB.23BA.B2A.A.2A$.A5.2B2.19B2A3.A2.A$2A10.21B
2A.2A$12.19B.B.A.A$12.16B5.A2.A$8.2A.4B3.10B6.2A10.2A$8.A.3B2AB3.
8B12.2A5.A.A2.2B$9.A2.B2A4.9B10.A2.A5.A6B$10.A8.10B7.AB.A.A7.6B$8.
A.5A5.10B5.BA2B.A8.6B.B$7.A.A4.A5.3BA7B5.A.B4.2A3.6B.B2A$7.A.A2.A
7.2BABA7B5.2BA2.A.A4.7B2A5.A$8.A3.2A6.2BABA8B4.2A3.BA4.6B.2B5.A.A$
20.3BA10B4.3B2.2B3.6B8.A.A$18.2AB.13B3.7B2.7B7.2A.2A$17.A.AB2.13B.
17B8.B2.A$17.A7.7B.14BA9B3.B2ABA$16.2A7.6B3.11B2AB2A7B2A2B2A.A.A$
11.B2A12.4B5.10BA2BA7BA2BAB4.2A$11.3AB10.4B8.9B2A8BA2BA2B$10.A.2AB
9.4B6.AB4.4B.10B2AB2AB$9.A.A.2B8.4B6.BA.A3.16B2A2B$9.A2.A2.2B5.4B
7.A.AB5.19B$10.2A3.3B3.4B9.BA8.17B$4.2A9.B2A.5B21.15B$3.A.A8.BA2BA
4B23.13B$3.A8.B.2B2A4B24.12B$2A.AB.B3.11B23.2AB.B.7B$.A.A.2AB.12B
22.A.AB3.8B$.A.A.2A14B22.A6.8B$2A.A2.5B2A8B21.2A5.2B3A5B$A2.4A3BA
2BA5B.B2A25.2BA3BA4B$.2A2.BAB.2B2A6B.BA.A24.BA4BA4B$3.2A6.7B5.A24.
A3B2A4B$3.A7.2B.4B5.2A23.A4BA4B$5.A9.4B24.2A3.2BAB3A2B2.AB$4.2A10.
4B23.A.A2.2B2A2B2AB.B.2A$17.4B24.A2.2B3A3B2.2A.B$18.4B23.3A3B2A3B
3.BA$19.4B20.2A2.BA3B2A2B$20.4B18.A2.4A2B.BA2B$21.4B17.2A.A.4B2.3B
$22.4B19.A.2A5.B$23.3BA18.A.A$24.3BA16.2A.A.A$25.3AB19.2A!
