#CSYNTH guntrue_3391 costs 11322 cells.
#C period 3391 fullperiod 3391 bbox 111 by 102
#CLL state-numbering golly
x = 111, y = 102, rule = LifeHistory
40.2A$39.A.A$33.2A4.A$31.A2.A2.2A.4A$31.2A.A.A.A.A2.A4.2A$34.A.ABA
BAB7.A$34.A.AB2AB6.A$35.AB.2B7.5A$38.3B10.A$38.4B3.4AB$36.3B2AB3.A
2.AB$36.3B2AB4.4B$34.15B$33.14B2A.A.2A$32.15B2A.2A.A$31.15B.B$30.
4B2.9B$15.2A12.4B5.7B$15.A12.4B4.9B$9.2A5.A10.4B5.2A4.4B$9.A5.2A9.
4B7.A5.4B$6.2A.A.3B11.4B5.3A7.4B$6.A2.A.2A2B2A7.4B6.A10.4B$8.2A.A.
2B2AB5.4B19.4B$11.A.4B5.4B21.4B$11.2A.4B3.4B23.4B25.A11.2A$4.2A8.
3BA6B25.4B23.A.A9.B2AB$3.A.A8.2BABA4B10.2A15.4B10.A3.A3.2A2.A.A9.
3B$3.A8.B.3BA4B11.A.A5.2A8.4B7.3A2.A.A2.A2.2A.2A9.B.B$2A.AB.B3.11B
14.A4.A.A9.4B5.A5.A.A3.A.A2.B8.5B$A2.A.2AB.12B10.4A.2A2.A12.7B.2A
5.A.4A2.AB2A6.6B$.A.A.2A14B10.A2.A.A.A.2A12.9B7.A3.A.A.2A4.8B$2A.A
2.5B2A8B12.BABABA.A14.6B8.A2.BA.A2.13B$A2.4A3BA2BA5B.B2A11.B2ABA.A
15.5B7.A.2BA.A5.13B$.2A2.BAB.2B2A6B.BA.A.2A8.2B.BA15.7B6.2A.2BA5.
15B$3.2A6.7B5.A.A8.3B19.6B10.3B4.15B$3.A7.2B.4B5.A2.A6.4B19.7B10.
2B.B.17B$4.A10.4B5.A.A6.B2A3B17.6B4.29B$3.2A11.4B3.2A.A.AB3.B2A3B
17.7B2.16B2A13B$17.4B6.2AB.10B15.7B2.16B2A14B$18.4B7.13B13.9B.27B
3.B2A$19.4B6.14B12.36B4.A2.A$20.4B5.15B6.B4.20B2.2B2.B3.6B5.2A.A$
21.4B6.8B2.4B4.2AB.19B14.6B7.A$22.4B5.6B5.4B3.2A19B14.9B6.2A$23.4B
3.9B4.4B3.B.17B15.2A4.4B$24.4B.4B4.2A5.4B5.17B15.A5.4B$25.7B5.A3.A
3.4B4.17B12.3A7.4B$26.5B7.4A4.4B3.15B.B2A10.A10.4B11.2A$26.5B16.4B
2.12B4.BA.A21.4B8.A2.A$25.7B6.2A8.15B9.A15.2A5.4B5.5A$24.4B.4B5.A
2.A7.15B8.2A15.A5.4B4.A$23.4B3.4B5.2A.A7.14B25.A.AB.7B2.B3A$22.4B
5.4B6.A.A7.12B27.2AB.7B3.2B.A$21.4B7.4B5.A.AB7.10B30.12B4A$20.4B9.
4B5.A3B7.9B30.7B2A3BAB2.2A$19.4B11.4B6.4B5.9B30.7B2A2B.B3A2.A$18.
4B13.4B5.6B5.6B31.10B3.B.A.2A$17.4B15.4B4.7B.2B2.5B30.8B8.A$16.4B
17.4B2.8B.9B29.9B7.2A$5.A9.4B19.24B27.4B2.3B$5.3A6.4B21.24B25.4B3.
5B$8.A4.4B22.19B2.4B23.4B7.2A$7.2A3.4B8.2A13.18B4.4B21.4B8.A$7.8B
8.A.A13.16B7.4B19.4B10.3A$3.2A4.5B5.2A2.A13.2AB.13B9.4B10.A6.4B13.
A$2.A.BAB.5B6.A.A.2A11.A.AB2.11B11.4B7.3A5.4B$2.A.2AB2.5B6.2A.A2.A
9.A5.10B13.4B5.A7.4B$.2A.B.B3.5B3.3B.B2.2A8.2A5.2B2A6B14.4B4.2A5.
4B$A3.2A2B2.5B3.4B19.3B2A6B15.9B4.4B$.3A2.AB.13B.B18.10B16.6B5.4B$
4.2ABA13B.B2A17.8B.B2A.A12.8B2.4B$3.A2.A5BA10B2A16.7B3.B2AB3A8.15B
$3.2A2.4BABA7B.2B17.6B6.B4.A7.14B$7.4BABA7B21.6B4.2A.3A8.13B$8.4BA
7B22.5B4.A2.2A8.2AB.10B$10.9B3.2A17.8B.A.A10.A.AB3.B2A3B$7.B.10B.B
2.A8.A8.8BA.A.2A.A6.A6.B2A3B$6.2A12B3A9.3A6.6B.2BAB.A.2A5.2A6.4B$
6.2AB.8B.BA14.A4.7B2.2B2.A17.3B$7.B3.6B4.2A11.2A4.7B3.B.2A18.2B.BA
$12.4B6.A11.4B.8B2.A.A2.2A15.B2ABA.A$13.4B4.A14.11B2.2A2.A2.A13.BA
BABA.A$14.4B3.2A12.12B7.2A12.A2.A.A.A.2A$15.4B16.12B21.4A.2A2.A$
16.2B2A15.11B26.A4.A.A$17.BABA13.9B12.2A13.A.A5.2A$18.A3B9.2B.10B
11.A14.2A$19.4B7.16B.B4.BA.A$20.4B3.23B2.B2A$21.32B$22.32B$23.3BAB
A25B$24.3B2A6BA18B$26.B2A5BA19B$27.17B5.B.4B$27.5BA8B11.4B$27.4BA
2BA6B12.4B$31.ABA4.2B14.4B$32.A6.2B14.3BA$38.B2AB14.3BA$39.2A16.3A
B!
