#CSYNTH guntrue_1722 costs 3213 cells.
#C period 1722 fullperiod 1722 bbox 63 by 51
#CLL state-numbering golly
x = 63, y = 51, rule = LifeHistory
6.2A13.2A5.A$3.A.A2.A11.A.BABA.A.A.2A$3.2A2.2A11.2A.2BABA.A.2A$.2A
14.5B2.B2.A.A$A.A.7A.2A2.4B4.4A.6A$3A.A5.A.A.B.5B4.2B.A3.B2.A$.BA.
A.2A4.A.7B7.3AB2.2A$5A.A.A3.2A8B7.BA$BA2.BA2.A4.2B.6B$B2A3B2.3A5.
6B.BA7.A$.A.2A6.A4.5B.ABAB4.3A$3AB6.2A2.7BA6B.A$2B8.11BABA4B2.A$.
2B9.15B4A$A2BA7.11BA4BA5.2A$.2A8.10BA4B.2BA.A2.A7.2A$.3B.2B4.2BA2B
A4BA2B4.2A.2A8.A.A$.11BA4BA6B13.2A2.A$10B2A6BA7B11.A.A.2A$9BABA6BA
8B12.A.B.A$9BABABA4BA9B11.A2BAB$2.12BA2BA10B6.A.2A.A.3B.2A3B$4.B.
20B.B2A4.2A.A.B2A3B3A4B$10.16B.BA.A6.A.2BA5BA8B$12.13B5.A6.2A6B3A
5B2A2B$5.2A6.5B.5B6.2A6.B.3B2AB2A3B2A2BAB$6.A5.13B15.B2ABA3B.3BAB
2AB$6.A.AB.16B13.BA2B2A3B2AB2A3B.B$7.2AB.20B.B7.2B2A5B3A6B2A$9.10B
A2BA15B.10BA5BA2B.A$9.9BA4BABABA14B3.4B3A3B2AB.A.2A$10.8BA6BABA15B
4.3B2A.3B.A.2A.A$11.7BA6B2A17B9.BA2BA$13.6BA4BA13B3.4B8.A.B.A$4.2A
.2A4.2BA4BA2BA2B4.2B2.4B4.4B8.2A.A.A$2.A2.A.A2B.4BA10B8.4B5.4B8.A
2.2A$2.2A5.A4BA11B8.2B2AB5.4B5.A.A$6.4A15B8.A.A2BAB5.4B4.2A$6.A2.
4BABA11B4.3A.A.2AB6.4B$7.A.6BA7B2.2A3.A4.A2.4B5.4B$4.3A4.BABA.5B4.
A5.3A.A4.2A6.4B$4.A7.AB.6B5.3A4.2A5.A8.4B$15.6B.2B4.A12.3A6.4B$6.A
B7.8B2A18.A7.4B$.2A2.B3A7.7B.A27.4B$.A2.B3.A.2B4.5B.B.A.2A25.4B$2.
6A.4A4.4B2.2A.2A26.4B$7.A.A2.B2.5B35.4B$4.2A.A.ABA2B.2A39.3BA$4.2A
.A.A.ABAB.A40.3BA$8.A5.2A42.3AB!
