#CSYNTH guntrue_1347 costs 5928 cells.
#C period 1347 fullperiod 1347 bbox 78 by 76
#CLL state-numbering golly
x = 78, y = 76, rule = LifeHistory
24.2A$24.A.A$26.A4.2A$22.4A.2A2.A2.A$22.A2.A.A.A.A.2A$24.BABABA.A$
25.B2ABA.A$26.2B.BA$25.3B$16.2A6.4B$17.A6.B2A3B$17.A.AB3.B2A3B$18.
2AB.10B$20.13B$20.14B$20.15B$22.8B2.4B$22.6B5.4B$21.A8B4.4B14.A$
20.B2AB4.2A5.4B11.3A$19.BABA5.A7.4B9.A$18.4B7.3A.A3.4B8.2A17.A2.2A
$17.4B10.2A.A3.4B4.5B3.2A12.4A.A$16.4B14.A4.4B2.4B5.A18.A$15.4B15.
A.AB.5B.5B.BA.A11.7A.2A$4.A9.4B17.2AB.11B.B2A11.A2.B3.A.A2.A$4.3A
6.4B20.15B13.2A2.2A.AB2.2A$7.A4.4B21.15B16.B2AB2A$6.2A3.4B8.2A7.2A
5.13B17.5B$6.8B8.A.A8.A5.13B6.2A10.3B$2.2A4.5B5.2A2.A5.A4.A.AB.16B
5.A9.2A3B$.A.BAB.5B6.A.A.2A4.3A3.2AB.17B4.A.2A5.B2AB2A$.A.2AB2.5B
6.2A.A2.A5.A4.10B2A7B.BA.A.A6.2ABA4B$2A.B.B3.5B3.3B.B2.2A4.2AB2.
11B2A7B.B2A2.A5.9B$A2.2A2B2.5B3.4B9.27B4.A.AB3.7B$.2A2.AB.13B.B9.
25B5.2AB.10B$3.2ABA13B.B2A6.27B7.13B$.2A2.A5BA10B2A6.25B9.13BA$A2.
A2.4BABA7B.2B6.2A20B2.4B7.11BABA$.2A3.4BABA7B9.2A11B.5B.B5.2A9.8B
2.2A$7.4BA7B11.B.9B2.5B7.A10.6B5.B$9.9B3.2A10.9B2.3B9.3A6.9B$6.B.
10B.B2.A10.5B2A2B3.4B9.A5.4B4.2A$5.2A12B3A13.3B2AB6.2A14.4B5.A$5.
2AB.8B.BA16.6B5.A14.4B7.3A$6.B3.6B4.2A14.6B6.3A10.4B10.A$11.4B6.A
13.7B9.A8.4B$12.4B4.A14.6B7.3A8.4B$13.4B3.2A14.6B4.3A9.4B$14.4B18.
8B.A11.4B$15.4B16.9BA.A9.4B$16.4B15.7B.2BAB8.4B$17.4B5.2A7.6B3.2B
8.4B$18.4B5.A6.7B2.2B8.4B$19.4B4.A.AB3.7B.B2AB6.4B$20.4B4.2AB2.8B
2.2A6.4B$21.4B5.11B9.4B$22.4B4.11B8.4B$23.4B3.12B6.4B$24.4B.13B5.
4B$25.4B.7B.3B5.4B$26.17B2.4B$27.22B$28.21B$28.21B2.2A$26.B.21B3.A
$25.2A24B.A.2A$25.2A22B2A.A2.A$26.11B3.B.B3.3B.A.2A$26.4B2.6B10.B.
A$32.6B10.A.A$33.2B2A.A2.A4.3A.2A$32.A.A.A.4A3.A$31.A.2A.A8.2A$31.
A5.3A$30.2A7.A!
