#CSYNTH guntrue_3306 costs 7696 cells.
#C period 3306 fullperiod 3306 bbox 104 by 74
#CLL state-numbering golly
x = 104, y = 74, rule = LifeHistory
94.A2.2A$94.4A.A$60.2A4.2A31.A$61.A4.A3.2A20.7A.2A$61.A.2A.A4.A3.
2A14.A2.B3.A.A2.A$62.A.A.A.3A4.A15.2A2.2A.AB2.2A$63.2B2A.A7.3A.2A
12.B2AB2A$62.6B10.A.A14.5B$56.4B2.6B10.B.A15.3B$29.2A25.11B3.B.B3.
3B.A.2A11.2A3B$28.A.A24.2A22B2A.A2.A.2A5.B2AB2A$22.2A4.A26.2A24B.A
.2A.A6.2ABA4B$20.A2.A2.2A.4A23.B.21B3.A4.A5.9B$20.2A.A.A.A.A2.A25.
21B2.2A4.A.AB3.7B$23.A.ABABAB27.21B9.2AB.10B$23.A.AB2AB27.22B11.
13B$24.AB.2B27.17B2.4B11.13BA$27.3B25.4B.7B.3B5.4B10.11BABA$27.4B
6.2A15.4B.13B5.4B11.8B2.2A$25.3B2AB6.A15.4B3.12B6.4B10.6B5.B$25.3B
2AB3.BA.A14.4B4.11B8.4B8.9B$9.A13.10B.B2A14.4B5.11B9.4B6.4B4.2A$9.
3A10.13B15.4B4.2AB2.8B10.4B4.4B5.A$12.A8.14B14.4B4.A.AB3.7B11.4B2.
4B7.3A$11.2A7.15B2.A10.4B5.A6.7B12.8B5.3A2.A$11.5B3.A3B2.8B4.3A7.
4B5.2A7.6B13.7B5.A2.A$13.3B2.A3B5.6B7.A5.4B15.7B13.7B.BA.A2.2A$3.
2A7.6B3A4.9B5.2A4.4B16.8B10.9B.B2A$3.A8.8B5.2A4.4B4.9B18.8B6.2B.
11B$2A.A.B3.10B7.A5.4B5.6B19.8B5.2A13B$A2.3AB.2B2A7B4.3A7.4B2.8B
18.6B2.B2A3.2A13B$.2A2.BA3B2A7B4.A10.15B16.7B.BA.A3.2B2.10B$3.4A
12B16.14B17.6B4.A8.9B.2B$3.A.2B3.7B.B2A15.13B17.6B4.2A7.11B2A$4.3A
B2.7B.BA.A15.10B.B2A6.2A7.2B2AB14.4B2A3B.B2A$7.A4.4B5.A17.3B2AB3.B
A.A4.A.A2.2A2.3B2AB5.4A.2A2.4B2A4B.B$2.5A5.4B5.2A16.3B2AB6.A3.A2.A
.A.A2.7B3.A3.A.A3.7B$2.A10.4B24.4B6.2A2.2ABA.AB3.6B4.2A4.A2.A.5B$
4.A9.4B23.3B14.AB2A2.7B.5B4.A.A.A3.4B$3.2A10.4B19.AB.2B12.2A.A3B3.
10B3.BA.A.2A6.2A$16.4B17.A.AB2AB9.A2.ABAB.4B.11B.B2A10.A$17.4B16.A
.ABABAB8.2A2.AB.2B2A15B13.3A$18.4B12.2A.A.A.A.A2.A12.2BA2BA.10B2AB
15.A$19.4B11.A2.A2.2A.4A6.2A2.AB.2B2A11BA2BA$20.4B12.2A4.A10.A2.AB
AB.4B.9BABAB$21.4B17.A.A10.2A.A3B4.10BA2B$22.4B17.2A13.AB2A4.12B$
23.4B28.2ABA.AB5.5B4.4B$24.4B23.2A2.A2.A.A.A4.4B5.B2A3B$25.4B22.A.
A.A2.A2.2A3.4B7.A2.A.A.2A$26.4B17.2A4.A.A.2A6.4B9.3A.2A.A$27.4B11.
2A2.B2AB2.2A.A8.4B13.A$28.4B4.A.2A.A.A2.3B2.B3.4A4.4B11.2A.A$29.4B
3.2A.A.A5.B.3B3A3.A3.4B12.A.A$30.4B6.2AB2.7BA2.A5.4B$31.4B5.2B2.9B
.2A4.4B$32.4B5.11B7.4B$33.4B3.10B8.4B$34.4B.11B7.4B$35.15B6.4B$36.
16B3.4B$37.8B2A6B.4B$38.6BA2BA9B$39.6B2A9B$40.16B$41.2B.6B2.4B$40.
2B2.5B4.B.B2A$39.B2AB2.3BA2B4.BA.A$40.2A5.ABA4B4.A$48.A.A.2A4.2A$
46.A.A.ABABA$45.A.A.A4.A$45.A.A.A.3A$46.A3.2A!
