#CSYNTH guntrue_875 costs 4558 cells.
#C period 875 fullperiod 875 bbox 86 by 53
#CLL state-numbering golly
x = 86, y = 53, rule = LifeHistory
49.A13.2A$49.3A11.A.A$52.A13.A3.2A$51.2A11.2A.A.A.A$8.2A3.2A36.5B
6.BA.B.A.A$8.A.A.A.A38.3BAB4.B2A2BA.AB$10.A.A39.3BABA6BA.A2B2AB$5.
2A2.A.2BA37.4BA2BA2B.AB2AB3A3B$4.A.A2.A.3A38.4B2A3B2.AB2.B4AB$3.A
2.A.2A.A41.6B11.ABAB$4.3A2.2BAB41.5B12.A.A$7.2A2BA2B39.7B12.A$6.A
2.A.AB39.4B.4B$6.2A2.2AB38.4B3.4B$10.2B38.4B5.4B13.A$10.2B37.4B7.
4B10.3A$11.B36.4B9.4B8.A$10.2AB34.4B11.4B7.2A$.2A6.A2BAB5.2A25.4B
13.4B3.5B$2.A4.3B2A3B4.A25.4B15.4B2.3B$2.A.AB.8B.BA.A15.2A7.4B17.
9B7.2A$3.2AB.8B.B2A15.B2AB5.4B19.8B8.A$5.12B17.3B5.4B21.10B3.B.A.
2A$5.12B18.B.B3.4B22.7B2A2B.B3A2.A$5.12B16.6B.4B23.7B2A3BAB2.2A$7.
10B6.2A8.6B3AB24.12B4A$9.7B6.B2A2B3.BA9BA7.2A10.2A2.2AB.7B3.2B.A$
9.8B6.4B2.A2B2A6BA8.A11.A2.A.AB.7B2.B3A$8.5B.4B3.10B2A7B6.BA.A13.
2A5.4B4.A$8.6B.13BAB3A7B2.3B.B2A15.A5.4B5.5A$7.6B3.13B2A4BA11B15.A
6.4B10.A$3.B2.3BA3B4.12B2A3B3A10B15.2A4.4B9.A$.7BABA2B5.13BA4BA9B
17.2B2.4B10.2A$.7BABA2B7.12B3A12B15.4BA3B6.2A$9BA3B9.4B2.6BA14B13.
4BABA7.A$11B.B2A5.7B5.20B2.2B2.B2.5B2A5.2A.A$.9B2.BA.A4.2A3.BA6.
35B4.A2.A$.7B7.A5.A3.BAB6.7B.27B3.B2A$2.6B7.2A.3A5.A7.6B2.16B2A14B
$3.4B9.A.A14.6B3.16B2A13B$4.4B8.A.A14.4B6.29B$5.4B8.A15.2B2AB12.2B
.B.17B$6.4B21.2AB.2A12.3B4.15B$7.4B19.A.AB11.2A.2BA5.15B$8.4B18.A
14.A.2BA.A5.13B$9.4B16.2A15.A2.BA.A2.13B$10.4B33.A3.A.A.2A4.8B$11.
4B30.A.4A2.AB2A6.6B$12.4B28.A.A3.A.A2.B8.5B$13.4B27.A.A2.A2.2A.2A
9.B.B$14.3BA27.A3.2A2.A.A9.3B$15.3BA34.A.A9.B2AB$16.3AB34.A11.2A!
