#CSYNTH guntrue_69 costs 5330 cells.
#C period 69 fullperiod 69 bbox 82 by 65
#CLL state-numbering golly
x = 82, y = 65, rule = LifeHistory
27.2A$26.A.A9.A$22.2A2.A9.3A$22.A.A.2A7.A$24.A.4B5.2A$24.4A4BA4B3.
2A$22.2A2.BA3BABAB5.A.A$21.A2.3A.2BA2BA2B.BA.A.3A$21.2A.A4.2B2A3B.
B2A5.A23.2A$24.A4.9B6.2A23.A$24.2A3.9B6.4B18.BA.A$29.9B8.2BA14.2A.
B2A$28.6B3A2.B2.3B.B2AB12.B2A2B$27.13BA6BABA7B6.4B$26.13BABA16B3.
6B14.A$25.3B3A7B2ABA16B2.6B7.B5.3A$24.4B2A5BABA2BA17B.4BA2B6.2AB3.
A$23.4B2.BA4B2A25B3A2B6.2A3.2A$22.4B6.B.B.5B3.2B2.13B2A2BA2B5.2A5B
$21.3AB6.5B.B13.9B2A3B2A5B2.2A2B$20.3BA7.B3AB17.5BABA2BABA8B2A4B$
19.3BA3.2A3.5B3.2A13.4B2A3B2A14BABA$18.4B4.A.11B.A12.28BA$17.4B6.
2A2B.3A.2B2A13.21BA6BA$16.4B9.2BA.B.A2B13.2AB.3B2.14BA2BA2BAB$15.
4B6.7AB.B7A8.A.AB6.19B$.2A11.4B7.A2.B2.BA.AB2.B2.A8.A8.12B2.4B$.A
2.A8.4B9.A.A.2A3.2A.A.A8.2A7.12B3.2B2AB$2.5A5.4B5.2A4.2A.A5.A.2A
17.10B8.2A$7.A4.4B5.A8.A3.A21.4B.6B$4.3AB2.7B.BA.A8.2A2.2A19.4B3.B
.B$3.A.2B3.7B.B2A33.4B5.3B$3.4A12B34.4B5.B2AB$.2A2.BA3B2A7B33.4B7.
2A$A2.3AB.2B2A7B32.4B$2A.A.B3.8B2A31.ABAB$3.A8.4B2A2B29.B2AB$3.2A
7.6BA2B27.3BA$13.3B2.4B25.4B$11.5B3.4B23.4B$11.2A7.4B21.4B$12.A8.
4B19.4B$9.3A10.4B6.A10.4B$9.A13.4B5.3A7.4B$24.4B7.A5.4B$25.4B5.2A
4.4B$26.4B4.9B$27.4B5.3A3B$28.4B2.BA3BA2B$29.5BA5BA3B$30.4BA5BA3B$
31.3BA5BA3B$32.3BA3BA2B.B2A$34.2B3AB3.BA.A$34.6B6.A$36.4B6.2A$36.
3B$33.AB.2B$32.A.AB2AB$32.A.ABABAB$31.2A.A.A.A2.A$32.A2.2A.4A$30.A
.A4.A$30.2A5.A.A$38.2A!
