#CSYNTH guntrue_99 costs 3648 cells.
#C period 99 fullperiod 99 bbox 64 by 57
#CLL state-numbering golly
x = 64, y = 57, rule = LifeHistory
31.2A$30.A.A$24.2A4.A$22.A2.A2.2A.4A$22.2A.A.A.A.A2.A$25.A.BABA2B$
25.A.A4B$26.AB.BA$29.BAB$29.2B2A6.2A$27.3B2AB6.A$27.3BA2B3.BA.A$
25.10B.B2A$24.ABA10B$9.A13.B2A11B$9.3A10.3BA11B$12.A8.4B2.8B$11.2A
7.4B5.6B$11.5B3.4B4.9B$13.3B2.4B5.2A4.4B$3.2A7.9B7.A5.4B$3.A8.8B5.
3A7.4B$2A.A.B3.10B6.A10.4B18.A$A2.3AB.2B2A7B18.4B11.2A3.A.A$.2A2.B
A3B2A7B19.4B11.A3.A2.A$3.4A12B20.4B10.A.2A.A.A$3.A.2B3.7B.B2A19.4B
10.A.A.A.2A$4.3AB2.7B.BA.A19.4B10.2B2A.A2.A$7.A4.4B5.A20.4B10.4B2.
2A$2.5A5.4B5.2A20.4B6.7B$2.A10.4B27.4B3.8B$4.A9.4B22.2A3.4B.8B$3.
2A10.4B22.A4.2B2A8B$16.4B7.2A12.A.AB2.BABA7B.2B$17.4B6.A14.2AB.2BA
11B2A$18.4B6.A15.16B2A$19.3BA4.2A15.14B.2B$20.3BA2.2B17.13B$13.2A
6.3A5B15.14B.2B$14.A7.7B13.18B2A$14.A.2A5.7B2.B2.2B2.19B.B2A$15.A
2.A4.12BA3B2A17B2.B$16.2AB3.10BA3BAB2ABA7B.8B$17.14BA2BABA4B2A6B2.
7B$18.13B2A2B3A2B2A7B2.7B$19.17B2A10B3.7B$19.17B.4B11.6B.BA$9.B.B
8.15B3.2B12.7BA.A$8.3ABA7.15B3.3B11.8BA$9.2BA.A7.13B5.A2B.2A7.6B.B
$11.B2AB8.13B2.A.A2B.A7.5B$11.3AB.2B5.7B4.2A.A.AB2.A8.6B$12.BA.4A
4.5B6.2ABA4.A7.2AB.5B$13.A.A2.B2.6B8.B2.5A.A4.A.AB3.4B$12.2A.ABA2B
.2A7.2A.A.2A.A4.A.A3.A7.3BA$12.A2.A.ABAB.A7.A.2A.A2.A.2A2.A3.2A8.
3BA$13.2A5.2A15.2A.A.2A15.3AB!
