#CSYNTH guntrue_1620 costs 2420 cells.
#C period 1620 fullperiod 1620 bbox 55 by 44
#CLL state-numbering golly
x = 55, y = 44, rule = LifeHistory
45.A2.2A$45.4A.A$50.A$43.7A.2A$13.2A27.A2.B3.A.A2.A$13.A.A3.A4.A
17.2A2.2A.AB2.2A$14.2AB.2BAB.A.A4.2A13.B2AB2A$13.2A3BA.2AB.A4.A.A
14.5B$13.2A.B2AB.AB6.A17.3B$12.2AB3.2B2AB4.2A.A15.2A3B$13.B3.2A2BA
B3.BA2.A14.B2AB2A$17.A.A3B4.2B2A.2A3.2A6.2ABA4B$18.AB2.B2A6B.A.A3.
A5.9B$22.4A3B3.A.A3.A.AB3.7B$21.B5A2B.B2A.2A3.2AB.10B$20.6B2A3B.B
8.13B$20.9B.B2AB4A3.13BA$10.2A10.7B.B2A.A2.A3.11BABA$9.B2AB10.A4B
15.8B2.2A$2.BA5.3B12.4B8.A6.6B5.B$2BABA.2B2.B2.2B2.AB5.3B7.3A5.9B$
B2A17BA7B5.A7.4B4.2A$.A4BA7B2A5BA7B4.2A5.4B5.A$.B2A2B2A5B3ABA3BA3B
.9B4.4B7.3A$2.2B2A2B2AB2AB4A3BA2B3.6B5.4B10.A$2.5BA5BA3BA2BA2B4.8B
2.4B$.AB2.13B.A5.15B$A.A7.5B10.14B$2A8.2B.2B10.13B$8.6B9.2AB.10B$
6.2A6B2A6.A.AB3.4BA2B$4.A4BA2BA4BA4.A5.4BABA2B$3.BA4BA2BA4BAB2.2A
6.3BABA2B$4.A4BA2BA4BA11.4BAB$6.2A6B2A14.5B$8.6B17.3B$10.2B18.5B$
29.B2AB2A$26.2A2.2A.AB2.2A$26.A2.B3.A.A2.A$27.7A.2A$34.A$29.4A.A$
29.A2.2A!
