#CSYNTH guntrue_8087 costs 15494 cells.
#C period 8087 fullperiod 8087 bbox 127 by 122
#CLL state-numbering golly
x = 127, y = 122, rule = LifeHistory
61.A11.2A$60.A.A9.B2AB$52.A3.2A2.A.A9.3B$38.A12.A.A2.A2.2A.2A9.B.B
$38.3A10.A.A3.A.A2.B8.5B$41.A10.A.4A2.AB2A6.6B$40.2A12.A3.A.A.2A4.
8B$40.4B9.A2.BA.A2.13B$42.3B7.A.2BA.A5.13B$41.4B7.2A.2BA5.15B$41.
5B10.3B4.6BA8B$31.2A7.6B11.2B.B.5BABA9B$15.2A14.A8.8B2.14BA4BA9B$
15.2A11.BA.A7.26B3A12B$22.3B.B.B2A9.25BA15B2.2A$15.4A3.7B12.7B.27B
3.B2A2.A4.2A$15.A3.A2.7B11.35B4.A.B2A4.B2AB$17.BA2B.7B11.19B2.2B2.
B2.7B5.A8.2B6.B$17.BABA10B8.17B13.7B5.3A6.2B4.3B$8.2A7.2B2A13B2.2B
.15B15.8B6.A5.14B$8.A.A2.A.2A.35B17.2B2.4B11.14B$10.4A.A4.24B.8B
16.2A4.4B.B5.17B$9.A5.A6.18B2A2B3.8B14.A6.28B$9.3A3.2A5.18B2A2B5.B
3.2A16.A4.30B$12.A8.22B10.A16.2A4.31B$11.2A7.4B8.4B.3B.B12.3A19.
32B$11.5B3.4B10.4B19.A20.32B$13.3B2.4B12.4B37.2AB2.23B3.4B$3.2A7.
9B14.4B35.A.AB4.18B7.4B$3.A8.8B16.4B34.A8.13B.2B9.4B$2A.A.B3.10B
18.4B32.2A9.12B13.4B$A2.3AB.2B2A7B19.4B42.11B15.4B$.2A2.BA3B2A7B
20.4B40.12B16.4B$3.4A12B21.4B30.2A7.12B17.4B$3.A.2B3.7B.B2A20.4B
28.A2.A2.2A2.9B2AB18.4B$4.3AB2.7B.BA.A20.4B28.2A2.A.A2.9B2A3B17.4B
$7.A4.4B5.A21.4B29.2A.B3.15B17.4B$2.5A5.4B5.2A21.4B28.A2.2B2.15B
18.4B$.A2.A8.4B28.4B24.2A.A.BA2B.15B19.4B$.2A11.4B28.4B23.A.2A.A.A
16B21.4B$15.4B28.4B26.A.A.8B.8B21.4B$16.4B28.4B22.2A2.A4.5B4.7B21.
4B$17.4B28.4B19.3A.2A4.6B4.8B21.4B$18.4B28.4B17.A4.B6.6B4.2B2.4B
21.4B$19.4B28.4B17.3AB2AB3.7B9.4B21.3BA$20.4B28.4B18.A.2AB.8B11.4B
21.ABA$21.3BA28.4B21.10B12.4B21.2A$22.3BA28.4B20.6B2A3B12.4B21.B$
23.3AB28.2BAB19.6B2A2B14.4B$24.4B28.2B2A18.10B15.4B$25.4B28.2A2B
16.12B15.4B$26.4B28.4B15.14B.2A.A9.4B$27.4B28.4B13.16BA.2A10.4B$
28.4B28.4B11.17B15.4B$29.4B28.4B7.2B.16B17.4B10.2A$30.4B28.4B5.2A
18B18.4B9.A$31.4B28.4B4.2AB.17B18.4B10.A$32.4B28.4B4.B.4B.8B2.4B
11.2A5.4B5.5A$33.4B28.4B10.7B4.4B11.A5.4B4.A$34.4B28.4B10.6B5.4B
10.A.AB.7B2.B3A$35.4B28.4B11.4B6.4B10.2AB.7B3.2B.A$36.4B28.4B12.3B
A5.4B11.12B4A$37.4B28.4B12.BA.A5.4B10.7B2A3BAB2.2A$38.4B28.4B12.A.
A6.4B9.7B2A2B.B3A2.A$39.4B28.4B12.A8.4B8.10B3.B.A.2A$40.4B28.4B12.
3A6.4B6.8B8.A$41.4B28.4B13.A7.4B4.9B7.2A$42.4B28.4B21.4B2.4B2.3B$
43.4B28.4B21.8B3.5B$44.4B28.4B21.6B7.2A$45.4B28.4B21.4B8.A$46.4B
28.4B19.6B8.3A$47.4B28.4B10.A6.8B9.A$48.4B28.4B7.3A5.4B2.4B$49.4B
28.4B5.A7.4B4.4B$50.4B28.4B4.2A5.4B6.4B10.2A$51.4B28.9B4.4B8.4B9.A
$52.4B28.6B5.4B3.2A5.4B.2B7.A$53.4B27.8B2.4B5.A5.7B6.2A$54.4B24.
15B6.A.AB.6B2A2B.BAB2.2A$55.4B23.14B8.2AB.5BA2BA3B4A2.A$56.4B22.
13B11.8B2A5B2.A.2A$57.4B19.2AB.10B12.14B2A.A.A$58.4B17.A.AB3.B2A3B
14.12B.B2A.A.A$59.4B16.A6.B2A3B14.11B3.B.BA.2A$60.4B14.2A6.4B15.8B
.B8.A$61.4B22.3B14.9B8.A.A$62.4B22.2B.BA10.4B2.3B9.2A$63.4B20.B2AB
A.A8.4B3.5B$64.4B18.BABABA.A7.4B7.2A$65.4B15.A2.A.A.A.2A5.4B8.A$
66.4B14.4A.2A2.A5.4B10.3A$67.4B17.A4.A4.4B13.A$68.4B12.2A2.A.3A4.
4B$69.4B11.2A3.2A5.4B$70.4B21.4B$71.4B19.4B$72.4B10.A6.4B$73.4B7.
3A5.4B$74.4B5.A7.4B$75.4B4.2A5.4B$76.9B4.4B$76.7B5.4B$76.BA7B2.4B$
73.B.BABA11B$69.2A.2A3BA11B$67.A2.A.2A14B$67.2A3.15B$71.4B4.4BA2B$
71.BA2.A2.4BABA2B$71.B4A3.3BABA2B$69.A9.4BAB$69.5A6.5B$73.A7.3B$
71.A8.5B$71.2A6.B2AB2A$76.2A2.2A.AB2.2A$76.A2.B3.A.A2.A$77.7A.2A$
84.A$79.4A.A$79.A2.2A!
