#CSYNTH guntrue_2034 costs 3738 cells.
#C period 2034 fullperiod 2034 bbox 89 by 42
#CLL state-numbering golly
x = 89, y = 42, rule = LifeHistory
48.A2.2A$2.2A44.4A.A31.A$3.A4.ABA42.A29.3A$3.A.A2BABA35.7A.2A26.A$
4.2A3BA2B33.A2.B3.A.A2.A17.A6.2A$6.6B33.2A2.2A.AB2.2A16.A.A3.4B$7.
B2AB2A35.B2AB2A21.A.5B$6.2B2AB2AB35.5B22.7B$6.3BA6B34.3B23.4B2A4B.
B$7.3B3A6B30.5B22.4B2A3B.B2A$2.B4.4BA8B28.2B2A2B22.11B2A$.2AB.2B2A
8B2A2B19.2A6.2B2A4B20.9B.2B$.2A3B3A8B2A2B8.2A4.2A4.A5.9B15.2B2.10B
$2.20B6.B2AB2.A2BA3.A.AB3.7B15.2A13B$4.16B2AB5.3B3.A2BA4.2AB.10B
14.2A13B$4.15BA2BAB5.B5.2B7.13B14.2B.11B$2.12B3A2BABA3B2.5B2.5B5.
14B16.9B.B2A$2.2A4.6B2A2B2A6B.6B.2A3B5.15B10.A6.7B.BA.A$3.A4.19B.
13B5.8B2.4B7.3A5.7B5.A$3A5.16B.16B5.6B5.4B5.A7.8B5.2A$A7.13B.19B4.
9B4.4B4.2A5.4B2.4B$10.3B2A.6B.6B2A2B2A6B3.4B4.2A5.9B4.4B4.4B$10.5B
2.5B2.3BABA2B3A12B5.A7.6B5.4B6.4B$12.2B5.B5.BA2BA16B7.3A4.8B2.4B8.
4B$11.A2BA3.3B5.B2A16B10.A2.15B10.4B$11.A2BA2.B2AB6.20B11.14B12.4B
$12.2A4.2A8.2B2A8B3A3B2A10.13B14.3BA$28.2B2A8B2A2B.B2A8.2AB.10B16.
ABA$29.8BA4B4.B8.A.AB3.4BA2B18.2A$30.6B3A3B13.A5.4BABA2B18.B$33.6B
A3B11.2A6.3BABA2B$35.B2AB2A2B19.4BAB$36.2AB2AB21.5B$37.6B21.3B$37.
2BA3B2A18.5B$38.ABA2BA.A16.B2AB2A$38.ABA4.A13.2A2.2A.AB2.2A$45.2A
12.A2.B3.A.A2.A$60.7A.2A$67.A$62.4A.A$62.A2.2A!
