#CSYNTH guntrue_1119 costs 6867 cells.
#C period 1119 fullperiod 1119 bbox 109 by 63
#CLL state-numbering golly
x = 109, y = 63, rule = LifeHistory
44.2A$43.A.A17.2A11.A$37.2A4.A18.B2AB9.A.A$35.A2.A2.2A.4A15.3B9.A.
A2.2A3.A$35.2A.A.A.A.A2.A14.B.B9.2A.2A2.A2.A.A$38.A.ABABAB16.5B8.B
2.A.A3.A.A$38.A.AB2AB17.6B6.2ABA2.4A.A$39.AB.2B18.8B4.2A.A.A3.A$
34.A7.3B18.13B2.A.AB2.A15.2A$32.3A7.4B6.2A7.13B5.A.A2B.A14.A$31.A
8.3B2AB6.A7.15B5.A2B.2A11.BA.A$30.A.A7.3B2AB3.BA.A7.15B4.3B12.2A.B
2A$29.BA.A5.10B.B2A7.17B.B.2B12.B2A2B$28.3BA5.13B9.29B6.4B$26.4B6.
14B8.13B2A16B3.6B$24.6B5.15B7.14B2A16B2.6B$23.7B4.4B2.8B4.2A2.2AB
3.27B.7B$16.B.4B.8B2.4B5.6B4.A2.A2.A4.35B$15.2AB.17B4.9B4.2A.2A5.
6B3.B2.2B2.20B$15.2A18B5.2A4.4B4.A.A5.6B14.17B8.2A$16.2B.16B6.A5.
4B3.A.A4.9B14.16B7.A$19.16B3.3A7.4B3.A4.4B4.2A15.17B2.BA.A$20.15B
3.A10.4B6.4B5.A15.19B.B2A$21.12B.B2A.A11.4B4.4B7.3A12.21B$21.11B2.
BA.A.2A10.4B2.4B10.A10.2AB.3B3.13B$17.2A3.10B5.A2.A11.8B21.A.AB6.
13B$18.A3.6B2A2B5.2A14.6B22.A8.16B$17.A4.6B2A3B21.4B22.2A8.12B2.2A
$17.2A3.10B21.6B31.12B2.A$20.2AB.8B20.8B28.2AB.10B3.3A$17.2AB2AB3.
7B18.4B2.4B26.A.AB.11B4.A$18.A.B6.6B17.4B4.4B25.A4.11B$16.A3.2A4.
6B17.4B6.4B23.2A3.10B.B2A$16.4A2.A.8B16.4B8.4B27.10B.BA.A$19.A.A.A
9B14.4B10.4B25.10B5.A$16.2A.A.BA2B.7B8.A4.2A2B12.4B23.4B2.5B5.2A$
17.A.A2.2B3.6B6.3A3.ABAB14.4B21.4B3.4B$16.A2.2A.B4.7B4.A5.3BA16.4B
19.4B$16.A.A2.A.A3.7B4.2A3.4B18.4B6.A10.4B$17.A.A2.2A3.8B.4B2.4B
20.4B5.3A7.4B$18.A8.11B3.4B22.3BA7.A5.4B$27.12B.4B24.B2AB5.2A4.4B$
27.16B26.ABAB4.9B$17.A10.14B28.4B5.6B$17.3A11.10B30.4B2.8B$11.A8.A
9.12B30.15B$11.3A5.2A6.16B30.14B$14.A4.24B6.A24.13B$13.2A6.23B3.3A
25.10B.B2A$13.5B2.24B2.A30.3B2AB3.BA.A$4.2A9.3B2.24B.B.A29.3B2AB6.
A$3.A.A8.32B2A31.4B6.2A$3.A8.B.8B.22BA2.2A29.3B$2A.AB.B3.BA9B3.2B
7.B3.2B3.3B3A2.A25.AB.2B$.A.A.2AB.3A9B2.2BAB5.3B.4B3.2B4.A25.A.AB
2AB$.A.A.2A2B2A10B3.A.A4.B2AB.B2AB5.4A26.A.ABABAB$2A.A2.5BA9B4.A6.
2A3.2A7.A25.2A.A.A.A.A2.A$A2.4A3BA8B.B2A21.A27.A2.A2.2A.4A$.2A2.BA
B.BA8B.BA.A20.2A28.2A4.A$3.2A6.7B5.A56.A.A$3.A7.2B.3BA5.2A56.2A$5.
A9.3BA$4.2A10.3AB!
