#CSYNTH guntrue_229 costs 4661 cells.
#C period 229 fullperiod 229 bbox 79 by 59
#CLL state-numbering golly
x = 79, y = 59, rule = LifeHistory
29.2A11.A$28.B2AB9.A.A$29.3B9.A.A2.2A3.A$28.B.B9.2A.2A2.A2.A.A$28.
5B8.B2.A.A3.A.A$28.6B6.2ABA2.4A.A$28.8B4.2A.A.A3.A$29.13B2.A.AB2.A
15.2A$27.13B5.A.A2B.A14.A$26.15B5.A2B.2A11.BA.A$26.15B4.3B12.2A.B
2A$25.17B.B.2B12.B2A2B$25.29B6.4B$24.13B2A16B3.6B14.A$23.14B2A16B
2.6B7.B5.3A$22.2AB3.27B.7B6.2AB3.A$21.A2.A4.35B6.2A3.2A$20.A.2A5.
7B2.B2.2B2.20B5.2A5B$20.A7.7B13.21B2.2A2B$19.2A6.8B15.21B2A4B$26.
4B2.2B17.25BABA$25.4B4.2A15.28BA$24.A3B6.A15.21BA6BA$23.B2AB6.A14.
2AB.3B2.14BA2BA2BAB$22.BABA7.2A12.A.AB6.19B$21.4B22.A8.12B2.4B$11.
2A7.4B22.2A7.12B3.2B2AB$10.B2AB5.4B31.10B8.2A$10.3B5.4B31.4B.6B$
11.B.B3.4B31.4B3.B.B$9.6B.4B31.4B5.3B$2A7.10B31.4B5.B2AB$.A7.9B7.
2A22.4B7.2A$.A.AB2.10B8.A22.4B$2.2AB.10B6.BA.A13.2A6.ABAB$4.12B2.
3B.B2A15.A5.B2AB$4.19B15.A6.3BA$4.19B15.2A4.4B$4.18B17.2B2.4B$5.
18B15.8B6.2A$6.19B13.7B7.A$7.21B2.2B2.B2.7B5.2A.A$9.35B4.A2.A$10.
7B.27B3.B2A$10.6B2.16B2A14B$9.6B3.16B2A13B$9.4B6.29B$9.2B2AB12.2B.
B.17B$7.2AB.2A12.3B4.15B$6.A.AB11.2A.2BA5.15B$6.A14.A.2BA.A5.13B$
5.2A15.A2.BA.A2.13B$23.A3.A.A.2A4.8B$21.A.4A2.AB2A6.6B$20.A.A3.A.A
2.B8.5B$20.A.A2.A2.2A.2A9.B.B$21.A3.2A2.A.A9.3B$29.A.A9.B2AB$30.A
11.2A!
