#CSYNTH guntrue_2035 costs 5934 cells.
#C period 2035 fullperiod 2035 bbox 86 by 69
#CLL state-numbering golly
x = 86, y = 69, rule = LifeHistory
48.2A3.2A$48.A.A.A.A$45.2A.A.A.A.A.2A$42.A.A2.A.A.A.A.A.A$40.3A.2A
3.A3.A$39.A4.B3.2A.B.2A$40.3AB2A2.7B3.2A$42.A.2A4.3B4.A.A$44.10B3.
A$46.8B2.2A9.2A$36.2A8.8B.2B10.A$37.A8.12B6.BA.A$37.A.AB5.14B.2B.B
2A$38.2AB.23B$40.25B11.A$19.A20.25B9.3A$19.3A5.2A12.24B8.A$22.A3.B
2AB10.26B7.2A$21.2A4.3B8.24B.4B3.5B$21.5B2.B2.2B2.20B.B.2B4.4B2.3B
$23.31B11.3BA5B7.2A$22.2A21B.9B11.ABA5B8.A$22.2A3B2A16B2.7B13.2A8B
3.B.A.2A$23.B.2B2A16B2.7B13.7B2A2B.B3A2.A$25.19B4.6B13.7B2A3BAB2.
2A$29.8B10.7B13.12B4A$7.2A3.2A14.8B12.6B11.2AB.7B3.2B.A$7.A.A.A.A
14.7B13.7B9.A.AB.7B2.B3A$9.A.A17.7B12.8B8.A5.4B4.A$8.A2B.A2.2A3.2A
7.8B6.2A2.9B7.2A5.4B5.5A$8.ABA.A2.A.A3.A6.9B5.B2AB2.7B14.4B10.A$
10.A.2A.A2.A2.A.AB2.9B7.2B5.4B14.4B9.A$9.2ABA2.3A4.2AB.12B6.2B3.B
2A2B4.2A7.4B10.2A$8.B2A2B2A9.18B.2BAB3.2A7.A6.4B$9.2A.A2.A8.20BA.A
11.A6.4B$9.B2A2.2A6.B2.19B.A12.2A4.4B$10.2B9.2AB.18B3.3A10.2B2.4B$
10.2B9.2A20B5.A9.8B6.2A$11.B10.2B.20B13.7B7.A$10.2AB13.B.20B2.2B2.
B2.7B5.2A.A$.2A6.A2BAB5.2A8.35B4.A2.A$2.A4.3B2A3B4.A8.9B.27B3.B2A$
2.A.AB.8B.BA.A9.7B2.16B2A14B$3.2AB.8B.B2A10.7B2.16B2A13B$5.12B12.
6B4.29B$5.12B12.7B10.2B.B.17B$5.12B3.A8.6B10.3B4.15B$7.10B3.3A5.7B
6.2A.2BA5.15B$9.7B7.A5.5B7.A.2BA.A5.13B$9.8B5.2A4.6B8.A2.BA.A2.13B
$8.5B.4B4.14B7.A3.A.A.2A4.8B$8.6B.4B5.9B.2A5.A.4A2.AB2A6.6B$7.6B3.
4B2.8B4.A5.A.A3.A.A2.B8.5B$3.B2.3BA3B4.15B3.3A2.A.A2.A2.2A.2A9.B.B
$.7BABA2B5.14B5.A3.A3.2A2.A.A9.3B$.7BABA2B6.13B17.A.A9.B2AB$9BA3B
7.10B.B2A16.A11.2A$11B.B2A7.3B2AB3.BA.A$.9B2.BA.A6.3B2AB6.A$.7B7.A
8.4B6.2A$2.6B7.2A7.3B$3.4B14.AB.2B$4.4B12.A.AB2AB$5.4B11.A.ABABAB$
6.4B7.2A.A.A.A.A2.A$7.4B6.A2.A2.2A.4A$8.3BA7.2A4.A$9.3BA12.A.A$10.
3AB12.2A!
