#CSYNTH guntrue_1305 costs 3264 cells.
#C period 1305 fullperiod 1305 bbox 51 by 64
#CLL state-numbering golly
x = 51, y = 64, rule = LifeHistory
6.A$5.A.A$4.A2.A$4.2A.2A.2A$5.A2.A.2A13.2A$3.A2.AB.B4.2A9.A$3.3A2.
3B2.B2A2B4.BA.A11.A$6.3A2B3.4B4.B2A11.A.A$5.A2.BAB.6B2.3B12.2BAB$
4.A.2ABAB.B3A7B13.2B$4.A2.BA.2BA2BA9B10.3B$2.2A.2AB.2BA15B.2B5.3B$
3.A.A4.2BA2BA11B.3B3.6B$3.A.A3.4B3A15B.9B$4.A4.33B$9.33B$9.34B$10.
34B$11.33B$11.33B4.A$12.9B.15B3A4B3.A.A$13.6B3.3B.11BA2BA2B4.A.A$
15.3B5.2B.15BA2B.B2A.2A$15.3B10.9BA2BA2B.AB2.A$15.2B13.A6B3AB.BAB
2A.A$14.BA2B11.A3B2.6B.BAB2.A$14.A.A11.B3A3.4B3.2B3A$15.A11.4B4.2B
2AB2.3B2.3A$26.4B7.2A4.B.BA2.A$12.A12.4B12.2A.A2.A$12.3A9.4B13.2A.
2A.2A$4.B10.A7.4B18.A2.A$3.3B8.2A6.4B19.A.A$3.3B8.6B.4B7.A13.A$2.
2BA2B9.8B6.3A$2.BABAB6.10B6.A$.BA3BAB4.10B.B5.2A$.BA3BAB3.20B$2BA
3BA4B2A3B2A11B$2BA3BA3B.2A2BA2BA7B2A2B$.BA3BAB4.3BA2BA6BA2BA2B$.BA
3BAB5.3B2A2B2.4B2A3B$2.BABAB6.7B4.9B$2.2BA2B9.3B6.8B$3.3B8.5B7.8B
7.2A$3.3B8.2A10.7B6.A4BA$4.B10.A3.A5.11B.BA6BAB$12.3A4.3A4.11BA8BA
2B$12.A9.A3.11BA8BA3B$21.2A5.6B.2BA8BA2B$21.5B3.4B4.BA6BAB$12.2A9.
3B2.4B7.A4BA$11.A.A8.9B10.2A$11.A8.B.8B$8.2A.AB.B3.BA9B$9.A.A.2AB.
3A9B$9.A.A.2A2B2A10B$8.2A.A2.5BA9B$8.A2.4A3BA8B.B2A$9.2A2.BAB.BA8B
.BA.A$11.2A6.7B5.A$11.A7.2B.3BA5.2A$13.A9.3BA$12.2A10.3AB!
