#CSYNTH guntrue_3978 costs 4959 cells.
#C period 3978 fullperiod 3978 bbox 87 by 57
#CLL state-numbering golly
x = 87, y = 57, rule = LifeHistory
30.A11.2A$29.A.A9.B2AB$21.A3.2A2.A.A9.3B$20.A.A2.A2.2A.2A9.B.B$20.
A.A3.A.A2.B8.5B$21.A.4A2.AB2A6.6B$23.A3.A.A.2A4.2B3A3B$5.2A15.A2.B
A.A2.8BA2BAB$6.A14.A.2BA.A5.4B2A2B2A3B$6.A.AB11.2A.2BA5.5BABA2BA4B
$7.2AB.2A12.3B4.5BABA7B$9.2B2AB12.2B.B.17B29.A2.2A$9.4B6.19BA2BA3B
A2B29.4A.A$9.6B3.23BA2B2A3B33.A$10.6B2.20BA2BA3BA4B25.7A.2A$10.7B.
27B3.B2A23.A2.B3.A.A2.A$9.28BABA4B4.A2.A22.2A2.2A.AB2.2A$7.21B2.2B
2.B2.ABA2BAB5.2A.A24.B2AB2A$6.19B13.2B3A2B7.A25.5B$5.18B15.5A3B6.
2A25.3B$4.18B17.BA2.4B31.2A3B$4.19B15.2A4.4B29.B2AB2A$4.19B15.A6.
4B20.2A6.2ABA4B$4.12B2.3B.B2A14.A6.4B20.A5.9B$2.2AB.10B6.BA.A12.2A
7.4B7.2A10.A.AB3.7B$.A.AB2.10B8.A22.4B5.B2AB5.A4.2AB.10B$.A7.9B7.
2A22.4B5.3B5.3A4.13B$2A7.10B31.4B3.B.B9.A3.13BA$9.6B.4B31.4B.6B6.
2A3.11BABA$11.B.B3.4B31.10B6.5B2.8B2.2A$10.3B5.4B22.2A7.12B5.11B5.
B$10.B2AB5.4B22.A8.12B3.14B$11.2A7.4B7.2A12.A.AB6.22B4.2A$21.4B6.A
14.2AB.3B2.22B4.A$22.4B6.A15.30B4.3A$23.4B4.2A15.31B5.A$24.4B2.2B
17.30B$17.2A6.8B15.26B2A2B$18.A7.7B13.21B.6B2A2B$18.A.2A5.7B2.B2.
2B2.20B5.4B3.B$19.A2.A4.35B6.2B2AB$20.2AB3.27B.7B9.2A$21.14B2A16B
2.6B$22.13B2A16B3.6B$23.29B6.4B$23.17B.B.2B12.B2A2B$24.15B4.3B12.
2A.B2A$24.15B5.A2B.2A11.BA.A$25.13B5.A.A2B.A14.A$27.13B2.A.AB2.A
15.2A$26.8B4.2A.A.A3.A$26.6B6.2ABA2.4A.A$26.5B8.B2.A.A3.A.A$26.B.B
9.2A.2A2.A2.A.A$27.3B9.A.A2.2A3.A$26.B2AB9.A.A$27.2A11.A!
