#CSYNTH guntrue_3729 costs 3780 cells.
#C period 3729 fullperiod 3729 bbox 90 by 42
#CLL state-numbering golly
x = 90, y = 42, rule = LifeHistory
73.B.B$72.B2A3B$72.A2BA2B10.2A$71.2B2A4B2.2B5.A$45.2A13.2A9.13B.BA
.A$38.3B4.A10.2A3.A6.16B.B2A$38.5BA.A10.A2.A7.BA12BA4B$37.6B2A9.2A
2.3A5.BABA10BABA4B$37.6B10.A2.2A3.2B3.BABA11BA4B$36.2A4B6.2A3.A.A
2.3A2B3.2BA15B.B2A$35.A7B5.A2.2A.A.2AB.A23B.BA.A$33.10B7.2A2.A3.2A
19B2.2B5.A$30.9BA2B11.A.2A21B10.2A$29.7BA5B4.B3.4A.A.B.19B$28.2B2A
5BA3BA2B.B2A.A6.A5.16B$12.2A4.2A8.2B2A7BABA4B2A.A.2A.2A6.10B3.4B.
2A$11.B2AB2.B2AB6.13B2A5B3.A.A.A8.8B3.B2A3B.A$11.4B3.3B5.B2A16B10.
A6.9B4.2AB2.A$12.2B5.B5.2B2A2BABA12B7.3A5.10B8.A$10.5B2.5B2.4BABA
16B5.A7.10B5.5A.A$10.5B.6B.5B2ABABA7B3.4B4.2A5.7BA3B5.A4.A.A$A7.
13B.6B3A10B4.9B4.7BABA2B7.A2.A.A$3A5.16B.16B5.6B5.8BABA2B6.2A3.A$
3.A4.10B3A6B.13B5.8B2.10BA3B$2.2A4.7BABAB2A5B.6B.5B5.24B.B2A$2.16B
ABA4B2.5B2.5B5.23B2.BA.A$4.11BABA2B2A2B5.B5.2B7.13B.7B7.A$4.16B2AB
5.3B3.4B4.2AB.10B3.6B7.2A$2.5B2A13B6.B2AB2.B2AB3.A.AB3.7B5.4B$.2A
4BABA7B2A2B8.2A4.2A4.A5.9B5.4B$.2AB.2BA3BA5B2A2B19.2A6.2B2A4B6.4B$
2.B4.5BA7B28.2B2A2B9.4B$7.2BA9B30.5B10.4B$6.10B34.3B12.4B$6.7BA35.
5B12.4B$7.4B2A35.B2AB2A13.4B$6.6B33.2A2.2A.AB2.2A10.4B$4.2A6B33.A
2.B3.A.A2.A11.4B$3.A.A5B35.7A.2A14.4B$3.A4.3B42.A17.3BA$2.2A44.4A.
A18.3BA$48.A2.2A20.3AB!
