#CSYNTH guntrue_1034 costs 4860 cells.
#C period 1034 fullperiod 1034 bbox 81 by 60
#CLL state-numbering golly
x = 81, y = 60, rule = LifeHistory
23.2A7.A$22.B2AB4.3A$22.3B4.A8.A$11.2A10.B.B3.2A5.3A$10.A2.A2.2A3.
10B4.A$11.2A2.A.A3.8B6.2A$13.2A.B3.11B2.4B$13.A2.2B.2BAB2A10B7.A$
10.2A.A.6BABA8B2AB5.3A30.B$10.A2.A.2A4BA6BA2B2AB5.A23.A7.4B$12.2A.
2A11B4A2B4.B2A13.2A6.ABA3.9B$16.2B.10B2A3B.6B14.A6.A2B.2A9B$19.7B
2AB2A8B16.A.AB2.3B3A5B2A2B$17.6B.2B3A10B.2B14.2AB.3BA7BA2BA2B$17.
2AB4.17B2A.2A12.3B2A9B2A3B$18.A5.17B2A.A2.A10.3B2A9B2A3B$9.A5.3A5.
20B.A.2A2.A7.2BA2BA7BA3B.B2A$9.3A3.A6.17B.2B2.A5.3A6.2B2A5B3A3B2.B
A.A$12.A8.4B2.11B3.B.2A8.A4.9B2A.2BA6.A$11.2A7.4B5.8B3.A.A2.2A5.2A
3.10B3.ABA6.2A$11.5B3.4B4.10B3.2A2.A2.A4.B3A8B7.A$13.3B2.4B5.2A3.B
.B10.2A7.3A2B2.B$3.2A7.9B7.A4.3B18.AB2A2B$3.A8.8B5.3A4.B2AB17.8B$
2A.A.B3.10B6.A7.2A12.A.2A2.9B$A2.3AB.2B2A7B28.2A.A12B$.2A2.BA3B2A
2BA4B33.12B$3.4A6B3A3B33.13B$3.A.2B3.3B2A2B.B2A2.2A27.9B.4B$4.3AB
2.7B.BA.A2.A27.5BABAB2.4B$7.A4.4B5.2A28.7B2A2B2.4B$2.5A5.4B5.A29.
7BA3B3.4B$2.A10.4B6.A27.12B3.4B$4.A9.4B4.2A21.B4.14B3.4B$3.2A10.4B
2.2B21.3A3.10B.4B3.4B$8.2A6.8B18.2B3AB2.7BA7B4.4B$9.A7.7B12.4B2.2A
5B.7BA5B.B2A3.4B$9.A.2A5.7B2.B2.2B2.8BA2B4A6BA7B.BA.A3.4B$10.A2.A
4.31BA4B3AB2A3B4.A4.4B$11.2AB3.26B2AB2ABA4B3AB2A3B4.2A4.4B$12.30BA
BABABA2BA9BA2B10.4B$13.8BA20B2A2BABA2BA8B3AB11.4B$14.7B2A22BA2BAB
2A10BA2B11.4B$14.8BA8B.B5.5BA3B3A14B13.3BA$15.6BA3B2A3B10.B2.2BA8B
2ABA2BA2B15.ABA$15.11B2A2B12.3BA9BA3BA2B.B.B13.2A$16.8B3A2B12.16B
2A6B2A13.B$18.A4BABA5B10.24B2A$17.A3BA2BA4.2A.A6.2AB2.5B2.12B.2B$
17.6B6.2AB3A3.A.AB2.4B3.13B$17.2BABA8.B4.A2.A14.11B.B$17.B.B9.2A.
3A2.2A14.12B2A$18.3B9.A.A20.10B.B2A$17.BA2B9.A.A18.2AB.6B4.B$18.2A
11.A18.A.AB.4B$50.A5.5B$49.2A8.2A$59.A$60.3A$62.A!
