#CSYNTH guntrue_150 costs 1080 cells.
#C period 150 fullperiod 150 bbox 40 by 27
#CLL state-numbering golly
x = 40, y = 27, rule = LifeHistory
11.2A4.2A12.2B$11.A.A2.A.A10.6B$13.A2BA10.10B$11.BA4BAB6.BA2BAB2AB
A2BAB$11.BA4BAB5.B2A2BA4BA2B2AB$12.A4BA7.BA2BAB2ABA2BAB$6.2A6.2A
11.10B$4.A2.A6.B14.6B$4.2A.A.AB2.2B16.2B$6.A.2AB.5B11.B2A2.2AB$6.A
3.6B2A3B5.B2A6B2AB$5.2A3.3B2A9B.2B2A6B2A2B$4.A2.2A.3B2A2BA5BA3BA2B
A2BA2BAB$3.A.A.B.A.3BA2BA3BABA3B.2A4.2A$3.A.2ABAB5.2BA4B2A2B$2A.A.
ABAB7.4B3.4B$A2.2A3B16.4B$2.A4.AB15.5B$.2A.4A4.5BA4.B2.5B$2.A.A5.
6BABA6B2.4B$2.A2.A3.6BA3B2A4B3.4B$3.2A3.7BA3B2A3B2A3.4B$8.7BA3B2AB
.B2A4.4B$6.2AB.6BABAB4.B6.4B$5.A.AB3.5BA14.3BA$5.A27.3BA$4.2A28.3A
B!
