#CSYNTH guntrue_5100 costs 3015 cells.
#C period 5100 fullperiod 5100 bbox 67 by 45
#CLL state-numbering golly
x = 67, y = 45, rule = LifeHistory
31.B$30.3A5.B$8.2A3.2A15.3A4.BAB$8.A.A.A.A14.2BA2B3.ABA$10.A.A16.
2BA2B2.A3BA17.2A$5.2A2.A.2BA14.3BA3B.ABABA16.BA2BA$4.A.A2.A.ABA14.
2BABA2B.4B18.4B$3.A2.A.2A.A15.9B.3B19.3B$4.3A2.AB2A14.9B.3B14.B3.A
B2A$7.2A2B2AB14.2BABA2B.4B13.2AB.A.AB$6.A2.A.2A15.3BA3B.ABABA12.A
4BA$6.2A2.2AB16.2BA2B2.A3BA13.3BAB$10.2B17.2BA2B3.ABA5.2A7.A2BA$
10.2B18.3A4.BAB3.2B2AB4.2B$11.B18.3A5.3B.6B2.5B$10.2AB18.B6.6B2AB
2A7B$.2A6.A2BAB5.2A16.7B5A10B$2.A4.3B2A3B4.A16.8B2A14B$2.A.AB.8B.B
A.A15.4B3.16BAB$3.2AB.8B.B2A15.4B5.3BA10BA3B$5.12B16.4B8.11B2A3B$
5.12B15.4B9.12BA3B$5.12B3.A10.4B5.2A2.11B2A4B$7.10B3.3A7.4B5.BABAB
.9B2A4B$9.7B7.A5.4B7.B3A.7B3A6B$9.8B5.2A4.4B9.B2A3.5B3A2B2A3B$8.5B
.4B4.9B5.B3.ABAB2.6B2A3B2A3B3.2A$8.6B.4B5.7B4.2AB.A.AB3.9BA6B2.A.A
$7.6B3.4B2.7BA5.ABA2BA5.7BA3BA4B2.A$3.B2.3BA3B4.11BABAB4.4AB5.8BA
2BA4B.2A$.7BABA2B5.10BABA2B3.B2AB7.7B3A6B$.7BABA2B6.10BA3B14.16B$
9BA3B7.10B3.B2A12.15B$11B.B2A7.3B2AB5.3AB14.11B$.9B2.BA.A6.3B2AB4.
A.2AB15.5B2.2B$.7B7.A8.4B3.A.A.2B16.2B$2.6B7.2A7.3B4.A2.A14.4B$3.
4B14.AB.2B6.2A14.BA3B$4.4B12.A.AB2AB21.AB4A$5.4B11.A.ABABAB18.BA.A
.3A$6.4B7.2A.A.A.A.A2.A15.BABA3.B$7.4B6.A2.A2.2A.4A15.2BA$8.3BA7.
2A4.A19.2B2A$9.3BA12.A.A17.2B2AB$10.3AB12.2A19.2A!
