#CSYNTH guntrue_3528 costs 2730 cells.
#C period 3528 fullperiod 3528 bbox 65 by 42
#CLL state-numbering golly
x = 65, y = 42, rule = LifeHistory
47.2B$46.4B$16.2B28.5B$15.4B26.6B$14.3BAB19.2A5.B3A5B$14.2BABAB17.
BA.AB2.BA2BA5B9.2A$11.4BA3BA5.2A10.2B2A3BA2B2A6B8.A$2A9.4BA3BAB2.B
A.AB7.2AB.5B3A5BA3B4.BA.A$.A8.2B3AB2AB3A2B2A2B6.A.AB4.3BA5B3A5B.B
2A$.A.AB4.B2AB2A3BAB2A4B.B2A4.A8.6B2A2BA3B2A2B$2.2AB.4B2ABA3B2AB2A
B4.BA.A2.2A9.5BA2BAB2.BA.AB$4.2B2A2B3AB2AB3A2B8.A13.5B3AB5.2A$4.BA
.AB2.BA3BA4B9.2A15.6B$5.2A5.A3BA4B26.5B9.2A$12.BABA2B30.4B9.A.A$2.
2A9.BA3B30.4B6.2A.A.A$.A.A9.4B31.4B6.A.A.A$.A.A.2A6.4B22.A8.4B8.A$
2.A.A.A6.4B20.3A7.5B6.B2A2B$4.A8.4B19.A9.7B2A2.B3A2B$2.A2BAB6.5B6.
2A10.2A7.8B2A3B3A3B$2.3BA2B2.2A7B6.A7.5B6.13B.3A2B$.A3BA4B2A8B5.A.
AB3.2A2B7.14B.B2A2B$2.3BAB.13B5.2AB2.B2A3B5.14B4.A$2.A2BAB.14B5.
10B4.4B.10B2.A.A.A$4.A4.14B5.10B2.4B2.4B2A3B2.A.A.A.A$2.A.A.A2.5B
2A3B.4B4.9B2.4B3.2BAB2A2B4.A2.A.A$.A.A.A.A2.3BA2BA2B2.4B4.13B4.BA
3B2AB5.2A.A$.A.A2.A4.5BA2B3.4B3.12B5.2B3A2BAB5.A$2.A.2A5.BA6B4.4B
3.10B6.3B5A2B3.A2.A$4.A5.3A3B2AB5.4B.B2.7B6.B2A4BA5B2.2A.A$2.A2.A
3.BA5BA2B6.13B6.B2ABA8B3A2.A$.A.2A2.3B3A7B6.11B7.2BABA8BA2.2A$2.A
2.3A6BA2BA2BA6.10B8.4BA5B3.2A$3.2A2.A7B5AB6.9B9.10B4.A$5.2A3.6B3AB
6.9B9.10B4.A$5.A4.10B7.9B7.2AB2.3B7.2A$6.A4.10B7.7B7.A.AB$5.2A7.3B
2.B2A6.8B6.A$19.BA.A5.8BA4.2A$22.A5.9BA$22.2A5.3B3.3AB!
