#CSYNTH guntrue_2254 costs 3082 cells.
#C period 2254 fullperiod 2254 bbox 67 by 46
#CLL state-numbering golly
x = 67, y = 46, rule = LifeHistory
16.2B31.2B$15.4B29.4B$14.5B29.5B$14.6B27.B3A2B$11.6B2AB5.2A13.2A5.
B3A5B$2A9.5B2ABAB2.BA.AB11.BA.AB2.BA3BA4B9.2A$.A8.7BA2BA3B2A2B11.
2B2A3BA2B2A3BA2B8.A$.A.AB4.9B3A5B.B2A7.2AB.4B2A3BAB2ABA2B4.BA.A$2.
2AB.5B3A9B4.BA.A5.A.AB4.2BAB2ABA3B2A4B.B2A$4.2B2A3BA2BA7B8.A5.A8.
2BA3B2A2BA3B2A2B$4.BA.AB2.BAB2A5B9.2A3.2A9.4BA3BAB2.BA.AB$5.2A5.B
2A6B25.5B3AB5.2A$12.6B31.2B3AB$13.5B31.5B$13.4B33.4B$13.4B33.4B$
13.4B33.4B$13.4B24.A8.4B$13.5B21.3A7.5B$13.6B19.A9.6B$7.2A2.9B6.2A
10.2A7.9B2.2A$5.2B2AB.10B6.A7.5B6.10B.B2A2B$5.4B2.11B5.A.AB3.2A2B
7.11B2.4B$5.6B.5B2.4B5.2AB2.B2A3B5.4B2.5B.6B$5.13B2.4B5.10B4.4B2.
13B$7.3AB.B3AB4.4B5.10B2.4B4.5B.4B$6.A2BA3BA2BAB4.4B4.9B2.4B4.12B$
6.4BABA5B5.4B4.13B5.12B$5.B2A7B2AB6.4B3.12B6.13B$6.2A3B.3B2A8.4B3.
10B8.5B.5B$5.4BAB.BA4B8.4B.B2.7B8.3BA2B.2BA3B$5.4B2A.2A4B9.13B9.2B
3AB.B3A2B$5.2B3AB.B3A2B10.11B10.2BAB2A.2ABA2B$5.2B2A2B.2B2A2B11.
10B10.4B2A.2A4B$5.2BA3B.3BA2B11.9B11.4B2A.2A4B$5.6B.6B10.9B12.4B2A
.2A4B$5.6B.6B11.9B11.6B.6B$5.6B.6B12.7B12.6B.6B$5.6B.6B12.8B11.6B.
6B$6.5B.5B13.9B11.5B.5B$6.5B.5B13.10B10.5B.5B$2.2A.6B.6B.2A10.3B3.
4B5.2A.6B.6B.2A$2.A.A5B3.5BA.A17.4B4.A.A5B3.5BA.A$3.AB.3B5.3B.BA
19.3BA4.AB.3B5.3B.BA$6.B2AB3.B2AB23.3BA6.B2AB3.B2AB$7.2A5.2A25.3AB
6.2A5.2A!
