#CSYNTH guntrue_6586 costs 6804 cells.
#C period 6586 fullperiod 6586 bbox 108 by 63
#CLL state-numbering golly
x = 108, y = 63, rule = LifeHistory
2A$.A26.A$A25.3A$2A23.A$.B23.2A69.4B$3B20.4B2.A64.6B$5B9.B3.B.5B4.
3A10.2A50.2BA5B$6B2.B.16B6.A5.2A2.A50.B4A4B$2.25B4.2A5.A.A.A27.2A
7.2B10.2BA3BA5B$.20B2A4B4.5B3.B.A27.A.A7.3B9.2B3A6B$.19BAB2A2BAB5.
3B2.2B25.2A2.A7.3BAB6.B2.11B$.19BA6BA3B.9B24.A.A.AB5.3B3A2B3.15B$
2.18B2A21B8.2A14.A.A.B2.2A2BA3BAB.17B$3.16BA23B8.A14.2A.ABA2B3A2B
3ABA4BA15B2.2A$6.12BA2BA3BA4BA13B4.BA.A12.A2.A.2A5BA6B2A2B2A6BA5B
2A.A2.A$6.6BA5BA2BA3BA3B3A15B.B2A13.2A2.15BA4BAB3A2B3A2BABA.2A$4.
7B2A9B2A4B5A12B2A2B21.17B.BA3BA2B2A2.B.A.A$4.7BABA7BA5B2A3B2A8B.2B
A.AB21.15B3.2B3A3B5.BA.A.A$4.16BA2B3AB2A3B3A8B3.2A22.11B2.B6.BA3B
7.A2.2A$4.16BA7BA3B3A.4B22.A7.6B3A2B9.3B7.A.A$4.16BA3BA3B5A.3A2B7.
2A14.3A4.5BA3BA2B10.2B7.2A$2.2AB.15BA4BA2B3AB.B2AB6.A2.A17.A4.4B4A
B$.A.AB.16B3A5BAB2.4B6.2A.A.2A.A11.2A4.5BA2B$.A7.14BA8B2.5B6.B.A.A
.2A11.6B2.6B$2A6.23B2.8B2.B2ABA18.5B.4B$9.21B2.10B.B2A2.A17.6B$9.
14B3.3B2.13B3.2A16.8B$4.2A3.13B2.3B3.14B15.A.2A2.9B$4.A2.2AB.10B2.
21B15.2A.A7BA4B$5.AB2AB2.8B2.23B6.2A11.4B5A3B$2A.A.A.B6.5B2.8BA14B
7.A12.3BA9B$A.2A.A.2A6.4B2.BA5B3A16B.BA.A12.9B.4B$5.A2.A6.B2AB.B3A
2BA4BA15B.B2A13.3B3A3B2.4B$5.2A7.2B3A.5A3BA3BA16B14.9BAB2.4B$13.4B
.3A3BA7BA16B14.7B2A2B3.4B$5.2A3.8B3A3B2AB3A2BA16B14.2B2A8B3.4B$4.B
A.A2B.8B2A3B2A5BA7BABA7B8.B4.2BA2BA8B3.4B$4.2B2A12B5A4B2A9B2A7B7.
3B3.3B2A5B.4B3.4B$2.2AB.15B3A3BA3BA2BA5BA6B7.6B2.15B4.4B$.A.AB4.
13BA4BA3BA2BA12B.4B2.7B.13B.B2A3.4B$.A8.23BA41B.BA.A3.4B$2A8.21B2A
42B4.A4.4B$12.9B.3BA6BA42B4.2A4.4B$13.2B2.3B5.BA2B2ABA20B2A21B10.
4B$11.A.B3.5B4.4B2A21B2A21B11.4B$10.A.A.A5.2A4.51B11.4B$10.A2.2A5.
A6.16B.B3.28B13.4B$9.2A10.3A4.5B.B3.B10.4B2.20B15.4B$23.A2.4B20.
24B.B.B13.4B$26.2A23.26B2A13.4B$27.A24.25B2A14.4B$24.3A22.B3.2B.5B
2.12B.2B16.4B$24.A23.2AB.3B.4B3.13B19.4B$48.2A3BA11.11B.B18.4B$49.
B.BA.A10.12B2A18.4B$52.BA.A9.10B.B2A19.4B$55.A7.2AB.6B4.B21.4B$55.
2A5.A.AB.4B29.4B$62.A5.5B28.4B$61.2A8.2A29.4B$71.A31.3BA$72.3A29.
3BA$74.A30.3A!
