#CSYNTH guntrue_956 costs 5775 cells.
#C period 956 fullperiod 956 bbox 77 by 75
#CLL state-numbering golly
x = 77, y = 75, rule = LifeHistory
36.2A11.A6.2A$35.B2AB9.A.A4.A2.A$36.3B9.A.A3.A.3A2.A$35.B.B9.2A.2A
.A.A5.3A$35.5B8.B2.A.A3.2A5.A$35.6B6.2ABA2.4A.A4.2A$35.8B4.2A.A.A
3.A6.5B$36.13B2.A.AB2.A7.4B$34.13B5.A.A2B.A6.5B$33.15B5.A2B.2A6.6B
$33.15B4.3B10.6B.B$32.17B.B.2B10.6B.B2A$32.29B4.7B2A$31.13B2A16B2.
6B.2B$30.14B2A16B2.6B$29.2AB3.27B.9B3.B$28.A2.A4.B3A33B.B2A$27.A.
2A5.3BA2B3.B2.2B2.23B2A$27.A7.3BA2B14.21B$26.2A6.9B14.19B$33.4B4.
2A15.16B$32.4B5.A15.17B$31.4B7.3A12.17B$30.4B10.A10.2AB.3B.10B$29.
4B21.A.AB5.9B$28.4B22.A9.8B$27.4B22.2A8.9B2.B$26.4B33.9B.B2A$25.4B
35.10B2A$24.4B37.8B.B$23.4B37.8B$22.4B39.7B$21.4B41.5B$20.4B42.4B$
19.4B43.4B$19.4B42.4B$18.5B41.4B$15.9B39.4B$15.9B38.4B$15.9B37.4B$
15.10B35.4B$14.12B33.4B$13.13B8.2A22.4B$14.11B9.A22.4B$15.12B4.BA.
A21.4B$15.15B.B2A10.A10.4B$15.17B12.3A7.4B$15.17B15.A5.4B$12.B.17B
15.2A4.4B$11.2A19B14.9B6.2A$11.2AB.19B14.6B7.A$12.B4.20B2.2B2.B3.
6B5.2A.A$17.36B4.A2.A$17.9B.27B3.B2A$18.7B2.16B2A14B$18.7B2.16B2A
13B$12.2A4.6B4.29B$11.B2AB3.7B10.2B.B.17B$11.4B3.6B10.3B4.15B$12.
2B3.7B6.2A.2BA5.15B$3.2A7.4B2.5B7.A.2BA.A5.13B$3.A.A5.5B.6B8.A2.BA
.A2.13B$4.A.19B7.A3.A.A.2A4.8B$5.17B.2A5.A.4A2.AB2A6.6B$5.14B4.A5.
A.A3.A.A2.B8.5B$5.15B4.3A2.A.A2.A2.2A.2A9.B.B$4.3B2A12B5.A3.A3.2A
2.A.A9.3B$4.3B2A13B16.A.A9.B2AB$2.2AB.11B2.4B16.A11.2A$.A.AB2.8B5.
4B$.A5.10B4.4B$2A5.B.B5.2A5.4B$8.3B4.A7.3BA$7.B2AB5.3A5.3BA$8.2A8.
A6.3AB!
