#CSYNTH guntrue_2856 costs 2394 cells.
#C period 2856 fullperiod 2856 bbox 57 by 42
#CLL state-numbering golly
x = 57, y = 42, rule = LifeHistory
20.A$20.3A9.A$23.A7.A.A$22.2A7.A.A14.2A$22.5B3.2A.3A11.BA2BA$24.3B
4.A4.A11.4B$18.2A3.5B.B6A13.3B$11.A2BA3.2AB.6B.A2B.A10.B3.AB2A$9.B
.A2BA.B3A2.5BA2B13.2AB.A.AB$8.AB2A2.2AB.A2.4B2A3B13.A4BA$7.A.A2B2.
2B.2A2.4BA4B14.3BAB$8.AB2.A2.A.A3.5B2AB6.AB7.A2BA$11.BA2BA.A3.8B4.
BA3B4.2B$12.AB.2A5.9B.BA4B2.5B$22.5B.5BA3BA8B$24.10BABA12B$11.B2A
11.22BA2B$11.3AB10.4B3.14B3AB$10.A.2AB9.4B5.11B2A3BAB$9.A.A.2B8.4B
8.9B5A2B$9.A2.A2.2B5.4B9.9BA6B$10.2A3.3B3.4B5.2A2.17B$4.2A9.B2A.5B
5.BABAB.9B3A3B$3.A.A8.BA2BA4B7.B3A.16B$3.A8.B.2B2A4B9.B2A3.7BABA5B
$2A.AB.B3.11B5.B3.ABAB2.9BA6B3.2A$.A.A.2AB.12B4.2AB.A.AB3.6BA9B2.A
.A$.A.A.2A14B4.ABA2BA5.6BA9B2.A$2A.A2.5B2A8B5.4AB5.5BA10B.2A$A2.4A
3BA2BA5B.B2A3.B2AB7.6BABA7B$.2A2.BAB.2B2A6B.BA.A13.7BAB2A5B$3.2A6.
7B5.A14.6BABA6B$3.A7.2B.4B5.2A16.3B3A5B$4.A10.4B23.5B2.2B$3.2A11.
4B23.2B$17.4B21.A.B4.A$18.4B19.A2BA2.A2BA$19.4B10.B2AB3.5B2.3B.A$
20.4B6.2A.4A.2A.2A.4A.2A$21.3BA4.A.3B2.5B3.B2AB$22.3BA4.A2BA2.A2BA
$23.3AB4.A6.A!
