#CSYNTH guntrue_1293 costs 6240 cells.
#C period 1293 fullperiod 1293 bbox 80 by 78
#CLL state-numbering golly
x = 80, y = 78, rule = LifeHistory
29.2A3.A$27.3A.A.A.A$26.A4.A.A.A$26.ABABA.A.A$21.2A4.2A.A.A$22.A4.
2B2AB2A5.2A$22.A.AB4.BA3BA2.B2AB$23.2AB.B4.4AB2.2B$25.4B2.2B2ABA.
2B$25.10B4A2B$25.5BAB6ABA2B$24.4B2A2B2ABA2B3A2B$9.A13.4B.BA4BA4BA
4B$9.3A10.4B3.B2A5B2A6B$12.A8.4B6.BA3BA9B$11.2A7.4B7.BABABA5B.4B$
11.5B3.4B8.2B3A5B3.4B$13.3B2.4B7.5BA5B5.4B$3.2A7.9B5.2A.8B2.2B5.4B
$3.A8.8B6.A.A7B2.B2A6.4B$2A.A.B3.10B8.2A.2B.B5.A.A.2A3.4B$A2.3AB.
2B2A7B10.B2.3B2.A.A.2A.A4.4B$.2A2.BA3B2A7B6.4A2.B2AB2.2A11.4B$3.4A
12B5.A2.A4.2A17.4B$3.A.2B3.7B.B2A3.2A3.A22.4B$4.3AB2.7B.BA.A6.2A
23.4B$7.A4.4B5.A32.4B$2.5A5.4B5.2A32.4B$2.A10.4B39.4B$4.A9.4B39.4B
$3.2A10.4B39.4B$16.4B17.2A.2A17.4B$17.4B17.A.A19.4B$18.4B11.2A.A5.
A.2A15.4B5.2A$19.4B9.A.A.2A3.2A.A.A9.A5.4B3.B2A2B$20.4B7.A2.B2.BA.
AB2.B2.A8.3A4.4B3.4B$21.4B6.7AB.B7A11.A4.10B$22.4B9.3B.B.3B14.2A3.
B.9B$23.4B6.3AB.3B.B3A12.15B6.A$24.4B4.A.BA3BA3BAB.A13.13B4.3A$25.
4B3.2A3.BABAB3.2A13.15B.A$26.4B7.BABAB17.17B.A$27.4B6.2BA2B.B13.
19B2A$28.4B6.B.B.5B3.2B2.21BA$29.4B2.40B5A$30.34B.7B.2B4.A$31.15B
2A24B3.2A$32.14B2A24B4.A$33.40B3.A.A$34.9B2.B2.3B.4B6.2B.7B5.2A$
35.9B8.3B10.8B$28.2A5.9B6.4B12.6B$28.A.A4.9B6.2A14.6B$30.A4.2B2A3B
.B2A5.A13.7B4.2A$30.3A.2BA2BA2B.BA.A.3A13.9B2.A.A$28.2A2.BA3BABAB
5.A.A14.10B2.A$27.A2.4A4BA4B3.A.A13.12B2A$27.2A.A.4B5.2A2.2A.A.2A
9.4B5.BA$30.A.2A7.A6.A.A9.4B6.B5A$30.A.A9.7A2.A7.4B5.A6.A$29.2A.A.
A15.2A6.4B6.5A$33.2A9.3A10.4B11.A$40.2A.A3.A8.4B8.2A$40.A.2A2.2A7.
4B9.2A$46.5B3.4B$37.2A9.3B2.4B$36.A.A8.9B$36.A8.B.8B$33.2A.AB.B3.B
A9B$34.A.A.2AB.3A9B$34.A.A.2A2B2A10B$33.2A.A2.5BA9B$33.A2.4A3BA8B.
B2A$34.2A2.BAB.BA8B.BA.A$36.2A6.7B5.A$36.A7.2B.3BA5.2A$38.A9.3BA$
37.2A10.3AB!
