#CSYNTH guntrue_1295 costs 5226 cells.
#C period 1295 fullperiod 1295 bbox 67 by 78
#CLL state-numbering golly
x = 67, y = 78, rule = LifeHistory
27.2A11.A$26.B2AB9.A.A$27.3B9.A.A2.2A3.A$26.B.B9.2A.2A2.A2.A.A$26.
5B8.B2.A.A3.A.A$26.6B6.2ABA2.4A.A$26.8B4.2A.A.A3.A$27.13B2.A.AB2.A
$25.13B5.A.A2B.A4.2A8.2A$24.15B5.A2B.2A5.A8.A$24.15B4.3B9.A.2A2.BA
.A$23.17B.B.2B11.AB.A.B2A$23.29B5.B2A2B$22.13B2A16B5.5B$21.14B2A
16B2.B.6B2.A$20.2AB3.27B.9B.A.A$6.A.2A.2A6.A2.A4.36B2.A$6.2A.A.2A
5.A.2A5.6B3.B2.2B2.20B$9.A8.A7.6B14.17B$4.4ABA.2A4.2A6.9B14.15B$4.
A2.A.ABA2.A9.2A2B4.2A15.14B$5.2B.2BA2.2A8.2B2A5.A15.15B$6.4B12.2BA
B7.3A12.14B$5.6B10.4B10.A12.14B$4.7B9.4B24.15B$3.8B8.4B26.15B$3.
10B5.4B27.15B$4.11B2.4B28.16B$3.17B28.17B$2.17B28.17B$2.16B28.4B2.
11B$3.15B27.4B5.10B$3.15B26.4B8.8B$4.15B24.4B9.7B$5.14B12.A10.4B
10.6B$5.14B12.3A7.BA2B12.4B$4.15B15.A5.2A2B8.2A2.A2B.2B$4.14B15.2A
4.2B2A9.A2.ABA.A2.A$4.15B14.9B6.2A4.2A.AB4A$4.17B14.6B7.A8.A$4.20B
2.2B2.B3.6B5.2A.A5.2A.A.2A$.A2.36B4.A2.A6.2A.2A.A$A.A.9B.27B3.B2A$
.A2.6B.B2.16B2A14B$4.5B5.16B2A13B4.2A.2A4.2A$5.2B2AB5.29B4.A.2A.A
4.A$3.2AB.A.BA11.2B.B.17B4.A4.A.2A.A$2.A.AB2.2A.A9.3B4.15B3.2A.4A.
A.A2.2A$2.A8.A5.2A.2BA5.15B2.A.A.B2.A.A2.A.A$.2A8.2A4.A.2BA.A5.13B
3.A.B2A2BAB4A2.A$18.A2.BA.A2.13B4.2A.A.3BABAB2.2A$19.A3.A.A.2A4.8B
.BAB.2ABA2BAB2.2A$17.A.4A2.AB2A6.7B3ABA3.BA5.A$16.A.A3.A.A2.B7.4B
3.BAB2.4A5.A$16.A.A2.A2.2A.2A5.4B6.2A.A8.2A$17.A3.2A2.A.A5.4B8.A.A
.2A$25.A.A4.4B3.A5.A.A.2A$18.A7.A4.4B4.3A4.A$18.3A9.4B8.A12.2A$9.A
11.A7.4B8.2A11.A.3A$8.A.A9.2A6.4B9.5B8.A4.A$7.A2.A9.6B.4B7.A4.3BAB
5.2A.3A$7.4A.2A8.8B6.3A3.3BABAB2.2BA.BA$11.A.A5.10B6.A5.4BA2BA4B2A
$4.2A3.A.A6.10B.B5.2A5.4B2A5B2A.AB$4.A2.4ABA4.BA18B6.6B2.2BA.BAB2A
$5.2A3.2B.A3BABA15B9.5B4.2A.A.2B$7.B6A2B.ABA12B2A2B7.7B4.A.A.ABA$
5.2A2B.3AB4.A12BA2BA2B5.4B.4B3.A.3A2.A$4.A2.2A2.B7.7B2.4B2A3B4.4B
3.4B3.A3.3A$4.2A13.7B4.9B.4B5.4B3.3A$22.3B6.12B7.4B5.A$20.5B7.10B
9.4B3.2A$20.2A10.9B11.4B$21.A9.9B13.4B$18.3A11.7B15.3BA$18.A13.6B
17.3BA$34.2B20.3AB!
