#CSYNTH guntrue_900 costs 2028 cells.
#C period 900 fullperiod 900 bbox 52 by 39
#CLL state-numbering golly
x = 52, y = 39, rule = LifeHistory
11.2A5.2B19.2A4.2A$.ABA4BA6BA2B3A2.2A14.A.A2.A.A$BA.4ABABA2BABABAB
2AB.2A2.2A5.2A5.A2BA$2A2B.2A2.B4AB4.B3A5.A4.A2.A2.BA4BAB$2B.2B2AB
3.2B8.BAB3.A5.3A3.BA4BAB$4.A.A4.2B9.A4.2A2.2A7.A4BA$5.A6.B12.2A3.A
.A.4A4.2A6.2A$11.2AB10.A2.A.2A.ABA2.A5.B6.A$10.A2BAB5.2A2.3A3.2B2A
9.2B2.BA.A$8.3B2A3B4.A6.4ABAB7.2B2AB.B2A$8.8B.BA.A3.2A.A.BA4B2.6BA
BA2B$7.9B.B2A3.A.A.2B2AB.5B2A5BA2B$6.B2A9B4.A2.A.2B2A2.4B2ABA2B3A
2B.2A$5.BA2BA8B3.A3.2A2.B3.5BA2B2A4B.A.A$6.B2A9B2.A11.9B2A5.BA$8.
10B3.3A7.4B3.2BAB7.2B$10.7B7.A5.4B14.BA2B$10.8B5.2A4.4B14.4A$9.5B.
4B4.9B14.BA.2B$9.6B.4B5.6B15.2BAB$8.6B3.4B2.2BA5B7.2A2.2A.2B2AB$4.
B2.3BA3B4.7B2A6B5.A2.A.3AB2A$2.7BABA2B5.5BAB2A5B6.A.A.3BA.2A$2.7BA
BA2B6.6B2A5B7.A2.2AB.A.A$.9BA3B7.10B.B2A6.2A.4BA$.11B.B2A6.7B3.BA.
A7.A3B$2.9B2.BA.A4.5B2A2B5.A5.2AB.6A$2.7B7.A4.8B6.2A3.A2.2A2B.A2.A
$3.6B7.2A5.6B12.A.B2.B.2B2A$4.4B15.5B12.2A.2A4B$5.4B15.3B11.A2.A.A
.3B4A$6.4B13.5B10.2A3.A.3A3.A$7.4B12.2AB2AB14.2A4BA$8.4B7.2A2.BA.
2A2.2A9.2A2.BAB.2A$9.4B6.A2.A.A3.B2.A8.A2.2ABA2B2.A$10.4B7.2A.7A9.
2A.A2.B.A.2A$11.3BA8.A19.A2.B2A.A$12.3BA7.A.4A14.2A2.A2.A$13.3AB7.
2A2.A19.2A!
