#CSYNTH guntrue_967 costs 7381 cells.
#C period 967 fullperiod 967 bbox 121 by 61
#CLL state-numbering golly
x = 121, y = 61, rule = LifeHistory
66.2A$18.2A45.A.A$17.B2AB38.2A4.A24.2A$18.2B6.B30.A2.A2.2A.4A20.A.
A$19.2B4.3B29.2A.A.A.A.A2.A22.A4.2A$18.14B28.A.ABABAB20.4A.2A2.A2.
A$18.14B28.A.AB2AB21.A2.A.A.A.A.2A$9.B5.17B29.AB.2B24.BABABA.A$8.
25B31.3B24.B2ABA.A$6.29B29.4B6.2A16.2B.BA$4.B.30B26.3B2AB6.A16.3B
7.A$3.2A32B25.3B2AB3.BA.A7.2A6.4B7.3A$3.2A33B22.10B.B2A9.A6.B2A3B
8.A$4.28B3.4B20.13B11.A.AB3.B2A3B7.A.A$4.3B4.B.16B7.4B18.14B12.2AB
.10B5.A.AB$15.10B.2B9.4B16.15B14.13B5.A3B$16.9B13.4B14.4B2.8B16.
14B6.4B$13.11B15.4B12.4B5.6B16.15B5.6B$12.12B16.4B10.4B4.9B17.8B2.
4B4.7B$3.2A7.12B17.4B8.4B5.2A4.4B16.6B5.4B2.8B.4B.B$2.A2.A2.2A2.
11B19.4B6.4B7.A5.4B14.9B4.17B.B2A$3.2A2.A.A2.8B.4B18.4B4.4B5.3A7.
4B12.4B4.2A5.18B2A$5.2A.B3.7B4.2A19.4B2.4B6.A10.4B10.4B5.A6.16B.2B
$5.A2.2B2.7B4.A21.8B19.4B8.4B7.3A2.17B$2.2A.A.BA2B.6B6.3A19.6B21.
4B6.4B9.A2.A16B$2.A.2A.A.A8B8.A20.4B23.4B4.4B8.A3.2A.14B$6.A.A.8B
28.6B23.4B2.4B9.2A7.12B$3.2A2.A4.5B28.8B23.8B20.10B3.2A$.3A.2A4.6B
27.4B2.4B23.6B21.2B2A6B3.A$A4.B6.6B25.4B4.4B23.4B21.3B2A6B4.A$.3AB
2AB3.7B24.4B6.4B21.6B21.10B3.2A$3.A.2AB.8B24.4B8.4B19.8B20.8B.B2A$
7.10B23.4B10.4B10.A6.4B2.4B18.7B3.B2AB2A$7.6B2A3B21.4B12.4B7.3A5.
4B4.4B17.6B6.B.A$7.6B2A2B21.4B14.4B5.A7.4B6.4B17.6B4.2A3.A$7.10B
20.4B16.4B4.2A5.4B8.4B16.8B.A2.4A$6.12B7.2A9.4B18.9B4.4B10.4B14.9B
A.A.A$6.14B.2A3.A8.4B20.6B5.4B12.4B4.A8.7B.2BAB.A.2A$5.16BA2.A9.4B
21.8B2.4B14.4B3.3A6.6B3.2B2.A.A$4.17B2.3A7.4B20.15B16.4B5.A4.7B4.B
.2A2.A$.2B.16B6.A5.4B21.14B18.4B3.2A4.7B3.A.A2.A.A$2A18B5.2A4.4B
22.13B20.4B2.4B.8B3.2A2.A.A$2AB.17B4.9B21.2AB.10B22.4B3.11B8.A$.B.
4B.8B2.4B5.6B21.A.AB3.B2A3B25.4B.12B$8.7B4.4B2.8B21.A6.B2A3B26.B3A
12B$9.6B5.15B18.2A6.4B29.A13B10.A$11.4B6.14B27.3B30.A9B11.3A$13.3B
A5.13B28.2B.BA26.12B9.A$14.BA.A5.10B.B2A25.B2ABA.A24.16B6.2A$15.A.
A7.3B2AB3.BA.A23.BABABA.A17.A6.24B$16.A8.3B2AB6.A21.A2.A.A.A.A.2A
14.3A3.23B$17.3A7.4B6.2A20.4A.2A2.A2.A17.A2.24B$19.A7.3B33.A4.2A
18.A.B.24B$24.AB.2B32.A.A24.2A27B$23.A.AB2AB31.2A23.2A2.A22B.4B$
23.A.ABABAB54.A2.3A3B3.2B3.B7.2B3.4B$20.2A.A.A.A.A2.A53.A4.2B3.4B.
3B5.BA2B3.4B$20.A2.A2.2A.4A54.4A5.B2AB.B2AB4.A.A5.3BA$22.2A4.A60.A
7.2A3.2A6.A7.ABA$28.A.A60.A27.2A$29.2A59.2A28.B!
