#CSYNTH guntrue_702 costs 2706 cells.
#C period 702 fullperiod 702 bbox 66 by 41
#CLL state-numbering golly
x = 66, y = 41, rule = LifeHistory
6.A7.2A10.A.2A4.2A.A$6.3A4.B2AB9.2A2.A2.A2.2A$A8.A4.3B7.2A3.A4.A3.
2A$3A5.2A3.B.B7.A3.2A.4A.2A3.A$3.A4.13B3.3A.A.A2.A.A.3A$2.2A6.12B
4.A.B.A2BA.B.A18.A2.2A$2.4B2.14B5.B2AB2AB2AB19.4A.A$4.14BA7B.4B2A
4B24.A$4.13B3A7B3.4B20.7A.2A$5.11B2AB2A6B4.2B20.A2.B3.A.A2.A$6.5B
3A3B3A7B26.2A2.2A.AB2.2A$8.10BA7B.3B26.B2AB2A$5.B.25B25.5B$4.2AB.
24B.2B23.3B$4.2A28B2A21.2A3B$5.2B.24B.B2A20.B2AB2A$8.25B.B13.2A6.
2ABA4B$10.3B.7BA10B17.A5.9B$13.7B3A3B3A5B15.A.AB3.7B$13.6B2AB2A11B
15.2AB.10B$3.2A4.2A2.7B3A13B11.A4.13B$3.A.A2.B2A2B.7BA15B8.3A4.13B
A$5.A3.4B5.14B2.4B6.A7.11BABA$5.3A.5B4.12B5.4B5.2A8.8B2.2A$3.2A2.
7B5.13B4.4B.5B8.6B5.B$2.A2.AB2A.2BA11.B.B3.2A5.7B9.9B$3.2A3.4AB10.
3B4.A7.7B7.4B4.2A$5.2ABA5.A8.B2AB4.3A4.7BAB4.4B5.A$5.A2.A.5A9.2A6.
A2.A.7BABAB2.4B7.3A$6.A.A.A19.A3.2A8B2A7B10.A$7.A4.A17.4A3.15B$11.
2A21.2A15B.2B$30.2A2.A.AB.14B2A$30.2A3.AB3.11B.B2A$41.11B.B$39.5B
4.4B4.2A$39.2A7.5B2.A2.A$40.A8.B2A.A2.2A$37.3A11.A.2A.A$37.A11.A.A
.A2.A$49.2A3.2A!
