#CSYNTH guntrue_982 costs 5767 cells.
#C period 982 fullperiod 982 bbox 73 by 79
#CLL state-numbering golly
x = 73, y = 79, rule = LifeHistory
39.A11.A$39.3A7.3A$42.A5.A$41.2A5.2A15.A$41.5B3.B13.3A$43.4B2.4B9.
A$41.15B6.2A$40.17B2.5B$39.23B$39.22B2A$39.22B2A$37.2AB.19B.B$36.A
.AB2.18B$36.A6.16B$35.2A6.15B$45.12B$45.15B$45.16B$44.4B.12B7.2A$
43.4B3.11B2.2A2.A2.A$42.4B2.4B.8B2.A.A2.2A$33.A7.4B3.2A4.7B3.B.2A$
31.3A6.4B5.A4.7B2.2B2.A$30.A8.4B3.3A6.6B.2BAB.A.2A$29.A.A6.4B4.A8.
8BA.A.2A.A$28.BA.A5.4B14.8B.A.A$27.3BA5.4B16.5B4.A2.2A$25.4B6.4B
17.6B4.2A.3A$23.6B5.4B17.6B6.B4.A$22.7B4.4B18.7B3.B2AB3A$15.B.4B.
8B2.4B20.8B.B2A.A$14.2AB.17B21.10B$14.2A18B21.3B2A6B$15.2B.16B15.
2A5.2B2A6B$18.16B16.A5.10B$19.15B16.A.AB2.11B$20.12B.B2A15.2AB.12B
$20.11B2.BA.A16.15B$16.2A3.10B5.A16.16B$17.A3.6B2A2B5.2A15.16B.2B$
16.A4.6B2A3B21.3A15B2A$16.2A3.10B21.3BA13B.B2A$19.2AB.8B20.3BA2.8B
.4B.B$16.2AB2AB3.7B18.4B4.7B$17.A.B6.6B17.4B5.6B$15.A3.2A4.6B17.4B
6.4B$15.4A2.A.8B16.4B5.A3B$18.A.A.A9B14.4B5.A.AB$15.2A.A.BA2B.7B8.
A4.4B6.A.A$16.A.A2.2B3.6B6.3A3.4B8.A$15.A2.2A.B4.7B4.A5.4B6.3A$15.
A.A2.A.A3.7B4.2A3.4B7.A$16.A.A2.2A3.8B.4B2.4B$17.A8.11B3.4B$26.12B
.4B$26.16B$16.A10.14B$16.3A11.10B$19.A9.12B$18.2A6.16B$12.2A4.24B
6.A$11.B2AB5.23B3.3A$11.4B4.24B2.A$12.2B5.24B.B.A$4.A7.4B2.27B2A$
3.A.A5.5B.4B.22BA2.2A$4.A.14B3.2B7.B3.2B3.3B3A2.A$5.14B3.2BAB5.3B.
4B3.2B4.A$5.14B4.A.A4.B2AB.B2AB5.4A$5.15B4.A6.2A3.2A7.A$4.3B2A12B
22.A$4.3B2A13B21.2A$2.2AB.11B2.4B$.A.AB2.8B5.4B$.A5.10B4.4B$2A5.B.
B5.2A5.4B$8.3B4.A7.3BA$7.B2AB5.3A5.3BA$8.2A8.A6.3AB!
