#CSYNTH guntrue_445 costs 4176 cells.
#C period 445 fullperiod 445 bbox 72 by 58
#CLL state-numbering golly
x = 72, y = 58, rule = LifeHistory
25.2A13.A$24.A.A11.3A$18.2A3.A13.A$18.A.A.A.2A11.2A$20.A.A.A.BA6.
5B$19.BA.2ABA2B4.BA3B$18.2A3BA.A2BA3BABA3B$17.3BABA2BABA.2BA2BA4B$
17.B2ABAB2.BA2.3B2A4B$16.BA2B11.6B$16.A.A12.5B$17.A12.7B$29.4B.4B$
10.BAB5.A9.4B3.4B$2.2A5.ABABA3.A.A7.4B5.4B$2.A.A3.BAB2.2B2.A.A6.4B
7.4B$4.A2.2A.4AB.2A.2A4.4B9.4B$4.2A3BA3.A2.A3.A3.4B11.4B$6.B3.3A.
2B.3A3.4B13.4B$4.2A.3A2.AB2ABA4.4B5.2A8.4B$3.A.A.A2.A2.4A4.4B7.A9.
4B$4.A3.2A3.B2AB3.4B6.A12.4B$13.2B4.4B6.A.4A9.4B18.A$13.3B2.4B7.A.
B3.A9.4B11.2A3.A.A$12.4B.4B4.B.B2AB.2ABA10.4B11.A3.A2.A$11.9B4.A3B
A.2B.A.A.2A8.4B10.A.2A.A.A$12.7B4.A.A2B3AB2A.A2.A9.4B10.A.A.A.2A$
2.A.A5.11B3.AB.BAB3.A.2A12.4B10.2B2A.A2.A$2.2A.A3.15B3.A2.3A17.4B
10.4B2.2A$5.A3.15B4.2A21.4B6.7B$4A.2A3.15B4.A.2A19.4B3.8B$A2.AB.BA
B.16B3.A2.A15.2A3.2B2A.8B$5.2BAB2.3B2A11B3.2A17.A4.BABA8B$2.AB.2BA
B4.B2A5B3.4B7.2A12.A.AB2.A10B.2B$.2BAB.BAB2.6B8.4B6.A14.2AB.14B2A$
2A.A.2A4.2A13.4B6.A15.16B2A$2B.A.A6.A14.4B4.2A15.14B.2B$BABA.A.A.
3A16.4B2.2B17.13B$.BA.B.A.2A11.2A6.8B15.14B.2B$2.ABA.A15.A7.7B13.
18B2A$3.2B.4A12.A.2A5.7B2.B2.2B2.19B.B2A$4.AB3.A13.A2.A4.35B2.B$4.
A.3A15.2AB3.27B.8B$2.3A.A18.14B2A16B2.7B$.A24.13B2A16B2.7B$.2A24.
29B3.7B$27.17B.4B11.6B.BA$28.15B3.2B12.7BA.A$28.15B3.3B11.8BA$29.
13B5.A2B.2A7.6B.B$31.13B2.A.A2B.A7.5B$30.8B4.2A.A.AB2.A8.6B$30.6B
6.2ABA4.A7.2AB.5B$30.5B8.B2.5A.A4.A.AB3.4B$30.B.B5.2A.A.2A.A4.A.A
3.A7.4B$31.3B4.A.2A.A2.A.2A2.A3.2A8.3BA$30.B2AB11.2A.A.2A15.3BA$
31.2A35.3AB!
