#CSYNTH guntrue_8064 costs 2772 cells.
#C period 8064 fullperiod 8064 bbox 66 by 42
#CLL state-numbering golly
x = 66, y = 42, rule = LifeHistory
34.4B$34.A4BA$33.ABA2BA2B$4.2A4.2B4.2A13.3A.2ABABA$3.A2.A.6B.A2.A
11.A3.BA.B2AB$3.3A2.6B2.3A11.4AB.4AB$6.10A15.A2BA.A2BA$5.A2.6A2.A
13.B4A.B4A$5.2A.B4AB.2A13.B2AB.AB3.A$10.2B18.ABAB2A.3A$10.2B18.2BA
2BABA$11.B19.A4BA$10.2AB20.4B$9.A2BAB5.2A16.A3B$7.3B2A3B4.A16.A6B$
7.8B.BA.A15.2BA6B9.2A$6.9B.B2A15.16B2.B2A2B5.2A$5.B2A9B16.4B.12B2.
5B5.A$4.BA2BA8B15.4B2.20B6.A$5.B2A9B3.A10.4B3.17BAB6.2A$7.10B3.3A
7.4B5.2A14BA2B.B.BA$9.7B7.A5.4B6.BA14BA6B3A$9.8B5.2A4.4B8.2A19B.B
2.A$8.5B.4B4.9B10.7BA12B3.2A$8.6B.4B5.6B14.3B3A8B$7.6B3.4B2.8B6.2A
3.5B2ABA7B$3.B2.3BA3B4.15B4.A2.B.4B2A10B$.7BABA2B5.14B5.3A6B2ABA6B
A2B$.7BABA2B6.13B7.AB.B.3B3A6BA2B.B$9BA3B7.10B.B2A3.2A6.3BA11B2A$
11B.B2A7.3B2AB3.BA.A2.A6.11B2A3B2A$.9B2.BA.A6.3B2AB6.A4.A5.5B2.4BA
4B$.7B7.A8.4B6.2A2.2A5.2B2AB2.3B.A4B$2.6B7.2A7.3B20.2A$3.4B14.AB.
2B$4.4B12.A.AB2AB$5.4B11.A.ABABAB$6.4B7.2A.A.A.A.A2.A$7.4B6.A2.A2.
2A.4A$8.3BA7.2A4.A$9.3BA12.A.A$10.3AB12.2A!
