#CSYNTH guntrue_2211 costs 4350 cells.
#C period 2211 fullperiod 2211 bbox 75 by 58
#CLL state-numbering golly
x = 75, y = 58, rule = LifeHistory
7.B4.B11.AB5.A$6.8B9.A.2A2B.A.A.2A$4.13B6.2A.5A.A.2A$3.2BA13BA5B2.
A2.A.A$3.2B2A12BABAB4.A2BA.6A$2.19BA2B4.AB.A3.A2.A$2.18BABAB7.BABA
2.2A$2.6BA11BABA2B7.AB$2.4B2A12BABA2B$4.3B2A7BA4BA3B$4.11BABA7B6.
2A$4.15BA3BAB6.A$2.4B.6BA6BA2B2A2B.BA.A$2.2A3.6BA3BAB3AB3AB.B2A$3.
A2.9B2A3BA8B$3A3.14BABA6B29.B.B$A5.14B3A6B5.2A21.B2A3B$6.14B3A5B6.
A22.A2BA2B10.2A$4.23B.2B.BA.A21.2B2A4B2.2B5.A$3.6BA15B2.B2A.B2A11.
2A9.13B.BA.A$3.5BABA13B4.2A2B9.2A3.A6.16B.B2A$3.5BABA8BA3B4.4B10.A
2.A7.BA12BA4B$3.6BA8BABA6.6B.B4.2A2.3A5.BABA10BABA4B$4.14B2A6.6B.B
2A2.A2.2A3.2B3.BABA11BA4B$5.13B9.7B2A2.A.A2.3A2B3.2BA15B.B2A$5.9B.
2B9.6B.2B4.A.2AB.A23B.BA.A$6.8B12.6B5.A.A3.2A19B2.2B5.A$6.8B12.6B
5.2A.2A21B10.2A$8.7B11.6B8.A.B.19B$8.6B11.7B5.2A2.A5.16B$8.6B12.8B
3.A.2A6.10B3.4B.2A$8.6B12.8B14.8B3.B2A3B.A$5.2B.6B9.2B.9B12.9B4.2A
B2.A$4.2A7B9.13B11.10B8.A$4.2AB.6B6.2A14B9.10B5.5A.A$5.B.6B6.ABA8B
A6B7.7BA3B5.A4.A.A$9.4B4.3BA8BABA5B6.7BABA2B7.A2.A.A$8.2B2A4.13BAB
A5B5.8BABA2B6.2A3.A$6.2AB.2AB2.15BA6B4.10BA3B$5.A.AB.2B.23B4.13B.B
2A$5.A6.5B3A14B5.13B2.BA.A$4.2A5.6B3A14B4.4B.7B7.A$11.6BABA14B3.4B
3.6B7.2A$11.8BA3B2A9B2.4B5.4B$9.2AB.B3AB3ABA3BA6B2.4B7.4B$8.A.AB.
2B2A2BA6BA6B.4B9.4B$8.A6.BA3BA16B11.4B$7.2A6.7BABA11B13.4B$15.3BA
4BA7B2A3B14.4B$15.2BABA12B2A4B13.4B$6.BA7.2BABA11BA6B14.4B$.2A2.AB
AB7.BABA18B15.4B$.A2.A3.A.BA4.2BA19B16.4B$2.6A.A2BA4.BABA12B2A2B
18.4B$7.A.A2.A2.5BA13BA2B19.4B$4.2A.A.5A.2A6.13B21.3BA$4.2A.A.A.2B
2A.A9.8B24.3BA$8.A5.BA11.B4.B26.3AB!
