#CSYNTH guntrue_468 costs 2030 cells.
#C period 468 fullperiod 468 bbox 58 by 35
#CLL state-numbering golly
x = 58, y = 35, rule = LifeHistory
20.A.2A4.2A.A10.2A7.A$20.2A2.A2.A2.2A9.B2AB4.3A$18.2A3.A4.A3.2A7.
3B4.A8.A$17.A3.2A.4A.2A3.A7.B.B3.2A5.3A$18.3A.A.A2.A.A.3A3.13B4.A$
20.A.A.A2BA.A.A4.12B6.2A$21.2BA4BA2B5.14B2.4B$21.3B4A3B.7B2A13B$
24.4B3.8B3A12B$25.2B4.5BABA2B2A10B$31.4BAB2A13B$28.3B.B2AB4AB3A6B$
26.6BA5B3A10B.B$23.2B.15BA8B.B2A$22.2A8BABA2B2A2BABA8B2A$22.2AB.8B
A15B.2B$11.B2A9.B.10B3A5BA6B$11.3AB11.6B3AB4AB2AB.3B$10.A.2AB9.13B
2ABA4B$9.A.A.2B8.10B2A2BABA5B$9.A2.A2.2B5.12B3A8B2.2A4.2A$10.2A3.
3B3.14B2A7B.2B2AB2.A.A$4.2A9.B2A.5B2.14B5.4B3.A$3.A.A8.BA2BA4B5.
12B4.5B.B2A$3.A8.B.2B2A4B4.13B5.5BAB2.2A$2A.AB.B3.BA9B5.2A3.B.B11.
B2A.2ABA2.A$.A.A.2AB.3A9B6.A4.3B10.B2A2B3.2A$.A.A.2A2B2A10B3.3A4.B
2AB8.A5.AB2A$2A.A2.5BA9B3.A7.2A9.5A.A2.A$A2.4A3BA8B.B2A.A22.A.A.A$
.2A2.BAB.BA8B.BA.A.2A18.A4.A$3.2A6.7B5.A2.A18.2A$3.A7.2B.3BA5.2A$
5.A9.3BA$4.2A10.3AB!
