#CSYNTH guntrue_4789 costs 14630 cells.
#C period 4789 fullperiod 4789 bbox 133 by 110
#CLL state-numbering golly
x = 133, y = 110, rule = LifeHistory
39.2A2.A$38.A.4A$38.A$36.2A.7A$34.A2.A.A3.B2.A$34.2A2.BA.2A2.2A$
38.2AB2AB$38.5B$39.3B$38.5B$38.BA4B$36.2BABA3B6.2A$36.2BABA4B5.A$
37.2BA4B3.BA.A$36.10B.B2A$35.13B$34.14B$33.15B$32.4B2.8B$31.4B5.6B
$30.4B4.9B$29.4B5.2A4.4B$28.4B7.A5.4B$13.A13.4B5.3A7.4B$13.3A10.4B
6.A10.4B$16.A8.4B19.4B$15.2A7.4B21.4B$15.5B3.4B23.4B$6.2A9.3B2.4B
25.4B$5.A.A8.9B27.4B$5.A8.B.8B29.4B$2.2A.AB.B3.11B31.2B2A$3.A.A.2A
B.12B32.BABA25.A11.2A$3.A.A.2A14B33.A3B23.A.A9.B2AB$2.2A.A2.5B2A8B
17.2A15.4B10.A3.A3.2A2.A.A9.3B$2.A2.4A3BA2BA5B.B2A15.A.A15.4B7.3A
2.A.A2.A2.2A.2A9.B.B$3.2A2.BAB.2B2A6B.BA.A16.A4.2A10.4B5.A5.A.A3.A
.A2.B8.5B$5.2A6.7B5.A12.4A.2A2.A2.A9.7B.2A5.A.4A2.AB2A6.6B$5.A7.2B
.4B5.2A11.A2.A.A.A.A.2A10.9B7.A3.A.A.2A4.8B$7.A9.4B19.BABABA.A14.
6B8.A2.BA.A2.13B$6.2A10.4B19.B2ABA.A15.5B7.A.2BA.A5.13B$19.4B19.2B
.BA15.7B6.2A.2BA5.15B$20.4B17.3B19.6B10.3B4.15B$21.4B7.2A6.4B19.7B
10.2B.B.17B$22.4B7.A6.B2A3B17.6B4.29B$23.4B6.A.AB3.B2A3B17.7B2.16B
2A13B$24.4B6.2AB.10B15.7B2.16B2A14B$25.4B7.13B13.9B.27B3.B2A$26.4B
6.14B12.36B4.A2.A$27.4B5.15B6.B4.20B2.2B2.B3.6B5.2A.A$28.4B6.8B2.
4B4.2AB.19B14.6B7.A$29.4B5.6B5.4B3.2A19B14.9B6.2A$30.4B3.9B4.4B3.B
.17B15.2A4.4B$31.4B.4B4.2A5.4B5.17B15.A5.4B$32.7B5.A3.A3.4B4.17B
12.3A7.4B$33.5B7.4A4.4B3.4BA10B.B2A10.A10.4B$33.5B16.4B2.A2BA8B4.B
A.A21.4B$32.7B4.4A8.4BA10B9.A22.4B$31.4B.4B3.A2.3A7.2BA2BA9B8.2A
22.4B$30.4B3.4B8.A7.2B2A10B33.4B$29.4B5.4B6.A.A7.12B35.4B$28.4B7.
4B5.A.AB7.10B37.4B$27.4B9.4B5.A3B7.3B3A3B38.4B$26.4B11.4B6.4B5.3B
2A4B39.4B$25.4B13.4B5.6B5.3BA2B41.4B$24.4B15.4B4.7B.2B2.5B42.4B$
23.4B17.4B2.8B.9B43.4B$22.4B19.24B43.4B$21.4B21.24B43.4B$20.4B22.
19B2.4B43.4B10.2A$19.4B23.18B4.4B43.4B9.A$18.4B24.16B7.4B43.4B10.A
$17.4B23.2AB.13B9.4B36.2A5.4B5.5A$16.4B23.A.AB2.11B11.4B36.A5.4B4.
A$3.2A10.4B24.A5.10B13.4B35.A.AB.7B2.B3A$4.A9.4B24.2A5.2B2A6B14.4B
35.2AB.7B3.2B.A$2.A10.4B31.3B2A6B15.4B36.12B4A$2.5A5.4B5.2A26.10B
16.4B35.7B2A3BAB2.2A$7.A4.4B5.A27.8B.B2A.A13.4B34.7B2A2B.B3A2.A$4.
3AB2.7B.BA.A26.7B3.B2AB3A12.4B33.10B3.B.A.2A$3.A.2B3.7B.B2A27.6B6.
B4.A12.4B31.8B8.A$3.4A12B30.6B4.2A.3A14.4B29.9B7.2A$.2A2.BA3B2A7B
30.5B4.A2.2A17.4B27.4B2.3B$A2.3AB.2B2A7B29.8B.A.A21.4B25.4B3.5B$2A
.A.B3.10B20.A8.8BA.A.2A.A18.4B23.4B7.2A$3.A8.8B19.3A6.6B.2BAB.A.2A
19.4B21.4B8.A$3.2A7.9B21.A4.7B2.2B2.A23.4B19.4B10.3A$13.3B2.4B19.
2A4.7B3.B.2A24.4B10.A6.4B13.A$11.5B3.4B18.4B.8B2.A.A2.2A23.4B7.3A
5.4B$11.2A7.4B19.11B2.2A2.A2.A23.4B5.A7.4B$12.A8.4B17.12B7.2A25.4B
4.2A5.4B$9.3A10.2B2A16.12B35.9B4.4B$9.A13.BABA15.11B37.6B5.4B$24.A
3B13.9B12.2A26.8B2.4B$25.4B9.2B.10B11.A25.15B$26.4B7.16B.B4.BA.A
25.14B$27.4B3.23B2.B2A26.13B$28.32B26.2AB.10B$29.32B24.A.AB3.B2A3B
$30.31B24.A6.B2A3B$31.30B23.2A6.4B$33.28B32.3B$34.17B5.B.4B32.2B.B
A$34.14B11.4B30.B2ABA.A$34.14B12.4B28.BABABA.A$38.3B4.2B14.4B25.A
2.A.A.A.A.2A$39.B6.2B14.4B24.4A.2A2.A2.A$45.B2AB14.3BA27.A4.2A$46.
2A16.3BA24.A.A$65.3AB23.2A!
