#CSYNTH guntrue_74 costs 2107 cells.
#C period 74 fullperiod 74 bbox 49 by 43
#CLL state-numbering golly
x = 49, y = 43, rule = LifeHistory
17.A$17.3A$15.2A3.A$14.A3.2A.A$14.4A.A.A2.A$17.A.A2.3A$12.5A.4A$
11.A2.B.AB.B2.A$11.2A2.4B2.2A$16.3B20.A$6.A8.2B2A19.A.A$6.3A6.2B2A
19.A.3A$9.A4.3B2ABA14.2A.A4.A$8.2A4.3B2ABAB13.A.A.ABABA$8.5B.8B15.
A.A.2A4.2A$10.12B6.3B5.ABA4B4.A$9.4B2A2B3AB5.7B.3BA2B4.BA.A$9.5BAB
AB2A2B3.13B4.B.B2A$9.4B2A8B2.14B2.4B$7.7BA2BA4B3.3B3A14B$6.9BA2BA
9BA2BA13B$.B2.12B2ABA8BAB2A14B$2AB.12BA2BA9BA2BA9B.4B$2A15B3A3B3.
4BA2BA7B3.4B$.B.4B2.14B2.8B2A4B6.3BA$4.2B4.13B3.2B2ABABA5B7.ABA$8.
2BA3B.7B5.B3A2B2A4B8.2A$5.4BABA5.3B6.12B10.B$5.2A.A.A15.8B.5B$4.AB
ABA.A.A13.BAB2A3B4.2A$4.A4.A.2A14.AB2A3B4.A$5.3A.A19.2A2B6.3A$7.A.
A19.2A2B8.A$8.A20.3B$25.2A2.4B2.2A$25.A2.B.BA.B2.A$26.4A.5A$23.3A
2.A.A$23.A2.A.A.4A$26.A.2A3.A$27.A3.2A$28.3A$30.A!
