#CSYNTH guntrue_1616 costs 5280 cells.
#C period 1616 fullperiod 1616 bbox 80 by 66
#CLL state-numbering golly
x = 80, y = 66, rule = LifeHistory
47.2A$47.A.A$49.A4.2A$45.4A.2A2.A2.A$45.A2.A.A.A.A.2A$47.BABABA.A$
48.B2ABA.A$49.2B.BA$48.3B$39.2A6.4B$40.A6.B2A3B$40.A.AB3.B2A3B$41.
2AB.10B$43.13B$43.14B13.A$43.15B10.3A$45.8B2.4B8.A$45.6B5.4B7.2A$
44.9B4.4B3.5B$43.4B4.2A5.4B2.3B$42.4B5.A7.9B7.2A$41.4B7.3A5.8B8.A$
40.4B10.A6.10B3.B.A.2A$20.A18.4B18.7B2A2B.B3A2.A$19.A.A3.2A11.2A2B
19.7B2A3BAB2.2A$18.A2.A3.A11.ABAB20.12B4A$18.A.A.2A.A10.3BA19.2AB.
7B3.2B.A$17.2A.A.A.A10.4B19.A.AB.7B2.B3A$15.A2.A.2A2B10.4B20.A5.4B
4.A$15.2A2.4B10.4B20.2A5.4B5.5A$19.7B6.4B27.4B10.A$20.8B3.4B27.4B
9.A$21.8B.4B3.2A22.4B10.2A$21.12B4.A22.4B$18.2B.11B2.BA.A21.4B$17.
2A14B.B2A10.A10.4B$17.2A16B12.3A7.4B$18.2B.14B15.A5.4B$21.13B15.2A
4.4B$18.2B.14B14.9B6.2A$17.2A18B14.6B7.A$17.2AB.19B2.2B2.B3.6B5.2A
.A$18.B2.35B4.A2.A$21.8B.27B3.B2A$21.7B2.16B2A14B$21.7B2.16B2A13B$
21.7B3.29B$11.B2A4.AB.6B11.2B.B.17B$11.3AB2.A.A7B10.3B4.15B$10.A.
2AB3.A8B6.2A.2BA5.15B$9.A.A.2B4.B.6B6.A.2BA.A5.13B$9.A2.A2.2B5.5B
7.A2.BA.A2.13B$10.2A3.3B3.6B8.A3.A.A.2A4.8B$4.2A9.B2A.6B.B2A4.A.4A
2.AB2A6.6B$3.A.A8.BA2BA4B3.BA.A3.2A3.A.A2.B8.5B$3.A8.B.2B2A4B7.A6.
A.A.2A.2A9.B.B$2A.AB.B3.BA9B8.2A2.3A.A3.A.A9.3B$.A.A.2AB.3A9B12.A
2.A4.A.A9.B2AB$.A.A.2A2B2A10B13.2A6.A11.2A$2A.A2.5BA9B$A2.4A3BA8B.
B2A$.2A2.BAB.BA8B.BA.A$3.2A6.7B5.A$3.A7.2B.3BA5.2A$5.A9.3BA$4.2A
10.3AB!
