#CSYNTH guntrue_2346 costs 2160 cells.
#C period 2346 fullperiod 2346 bbox 60 by 36
#CLL state-numbering golly
x = 60, y = 36, rule = LifeHistory
6.B6.B$5.3AB2.B3A$4.A.3A2.4AB3.4B$5.2A.4A.AB.BA.4A.2A$8.4B3.B4A2.
3A.A$16.3AB2.B3A$15.B.B6.B$15.2A$9.2B2.5B$8.5B2AB2AB$7.2B3A10B$7.B
A2B2A2BA7B$7.2B4ABA3B2A3B7.4B$5.2A.7B2A2BA4B5.B4A$5.A2.7BA2BA5B5.A
4BA$3.A.A2.2B2A4B3A5B3.BA.A.2BA$3.2A3.BABA12B2.BABA3.A21.2A$8.B2A
12B3.BAB26.A.A$9.16B.BA2B26.AB$10.15B.BA2BA4.B2AB3.B.9B2.2B$9.17B
2.2A5.4A.6B2A11B$9.16B9.ABABA6BA2B2A8B2A$9.16B9.2AB3A4B6A8B2A$9.
18B8.B.2ABA5B4A7B.B$10.18B9.2ABA15B$.B2AB5.20B4.3B.B.3B$.4AB5.21B
2.3B2ABA15B$ABA2BA8.23B2ABA5B4A7B.B$2AB.A.AB7.5B2.6B2.6BA2BA4B6A8B
2A$.B3.ABAB7.2B4.5B4.6B2A6BA2B2A8B2A$6.B2A3.B2AB7.2B7.5B2A7B2A11B$
5.B3A2.B4A17.4B.B.3B.9B2.2B$4.BABAB2.A2BABA17.4B18.AB$5.2A2.BA.A.B
2A18.3BA16.A.A$9.A.A3.B20.3BA15.2A$10.A26.3AB!
