#CSYNTH guntrue_1558 costs 5046 cells.
#C period 1558 fullperiod 1558 bbox 87 by 58
#CLL state-numbering golly
x = 87, y = 58, rule = LifeHistory
44.2BA12.A22.A$41.5BAB9.3A21.A.A$41.5BAB8.A23.2BAB$40.7B9.2A23.2B$
33.A5.7B11.B21.7B$32.A.A3.9B10.3B19.7B$32.BA13B9.6B16.7B2A$33.16B
3.B2.10B11.9B2A$32.34B3.2B2.5B2A4B.B$31.BA14B2A10B2A14BAB4A2B$31.A
.A3.10BABA9B2A13B2ABA3B2A$32.A.A2.10BAB2A24BA2B2AB2A$33.2A2.7B6A
26B6AB$37.6BA4BA28BA4B$37.6BA2BA5B5.13B.4B$33.A.2A2B.4B2A6B5.7B.B
4.4B$31.3AB2AB3.11B17.4B$30.A4.B6.10B16.4B$31.3A.2A6.8B16.4B$33.A.
A10.4B16.4B$33.A.A9.4B16.4B$34.A9.4B16.4B9.A$43.4B16.4B9.A.A$42.4B
16.4B10.A.A$41.A3B16.8B6.2A.3A$40.B2AB16.10B6.B4.A$39.BABA17.11B3.
B2AB3A$38.4B4.B.7B5.12B.2B2A.A$37.4B.13B5.15B$27.B2.19B4A14B3A5B$
26.22B2AB2A22B2.2A$26.21B2A2BA2BA12BABA5B2.A.A$24.2B2A20BA3B3A13BA
3B2AB3.A.A$13.B10.A2BA21BA2BA2BA14BA8BAB$12.3AB7.BA2B2A10B2.2B3.7B
ABA11B4A4BA4B$12.B3A.2B4.BA3B2A6B11.6B2A2B2.B3.3BA5BA2BA3B$14.B.B
3A3.3B2A6B16.6B9.A6BA2BA2BAB$16.3B5.2B2AB2A2B19.3B10.4BA2B2A3.A.A$
15.4B5.10B20.B11.2A2B2AB5.A$15.5B5.9B20.2A9.4BABA$A12.8B5.8B21.A8.
BABA3B$3A7.13B2.8B19.3A9.2ABAB2A$3.A6.8B2A12B20.A12.3B$2.2A4.9BA2B
A5B.4B$2.14B2AB2A3B4.4B$4.4BA4B.4BA4B6.4B$3.3B2AB2A14B5.4B$2.4BA2B
A9B4.2A6.4B$2.5B2A8B6.A8.4B$4.13B7.3A6.4B$6.8B12.A7.4B$7.5B23.4B$
8.4B24.4B$8.3B26.4B$7.3AB.B25.4B$8.2B.3AB24.3BA$11.B3A25.3BA$13.B
27.3AB!
