#CSYNTH guntrue_2036 costs 5270 cells.
#C period 2036 fullperiod 2036 bbox 85 by 62
#CLL state-numbering golly
x = 85, y = 62, rule = LifeHistory
39.A4.2A8.A$38.A.A2.A.A6.3A$37.A2.4A7.A$37.A.A4.A6.2A$36.2A.2A2.2A
4.4B$34.A4.B3.4B.3B$31.A2.4AB2AB3.6B$31.3A3.A.2AB.7B.B$34.A4.14B$
33.2AB4.12B3.2B$33.5B.20B5.A$35.25B4.3A7.2A$33.28B6.A6.A$33.28B5.
2A3.BA.A$32.28B6.4B.B2A$11.A20.31B5.4B$11.3A5.2A12.31B3.5B$14.A3.B
2AB10.32B2.7B$13.2A4.3B8.20B2.12B.9B$13.5B2.B2.2B2.2B3AB3A11B5.22B
$15.13B4ABA2BA10B5.23B$14.2A11BABA7B.9B6.3B.18B3.B$14.2A3B2A15BA2.
7B13.17B.3B$15.B.2B2A8B3A5B3.5B15.20B$17.13B2A2B2A5.4B14.23B$21.8B
10.4B.B2A12.24B$20.8B11.2A3.BA.A9.2AB.3B.17B$20.7B7.2A4.A6.A8.A.AB
4.17B$21.7B6.A2.3A7.2A7.A6.16B.3B$12.2A7.8B6.2A18.2A5.11B.5B2.2A$
13.A6.9B8.A23.13B7.A$13.A.AB2.9B9.A22.13B9.3A$14.2AB.12B4.BA.2A11.
2A7.4B2.6B.B2A9.A$16.17B.B2A2.A11.A6.4B10.BA.A$16.19B3.2A10.A6.4B
14.A$14.B2.2A16B15.2A4.4B15.2A$13.2AB.2A15B17.2B2.4B$13.2A20B15.8B
6.2A$14.2B.20B13.7B7.A$18.B.20B2.2B2.B2.7B5.2A.A$21.35B4.A2.A$20.
9B.27B3.B2A$21.7B2.16B2A14B$11.B2A7.7B2.16B2A13B$11.3AB6.6B4.29B$
10.A.2AB6.7B10.2B.B.17B$9.A.A.2B6.6B10.3B4.15B$9.A2.A2.2B3.7B6.2A.
2BA5.15B$10.2A3.3B3.5B7.A.2BA.A5.13B$4.2A9.B2A.7B8.A2.BA.A2.13B$3.
A.A8.BA2BA9B7.A3.A.A.2A4.8B$3.A8.B.2B2A7B.2A5.A.4A2.AB2A6.6B$2A.AB
.B3.BA9B5.A5.A.A3.A.A2.B8.5B$.A.A.2AB.3A9B6.3A2.A.A2.A2.2A.2A9.B.B
$.A.A.2A2B2A10B8.A3.A3.2A2.A.A9.3B$2A.A2.5BA9B20.A.A9.B2AB$A2.4A3B
A8B.B2A19.A11.2A$.2A2.BAB.BA8B.BA.A$3.2A6.7B5.A$3.A7.2B.3BA5.2A$5.
A9.3BA$4.2A10.3AB!
