#CSYNTH guntrue_882 costs 2828 cells.
#C period 882 fullperiod 882 bbox 101 by 28
#CLL state-numbering golly
x = 101, y = 28, rule = LifeHistory
18.A63.A$18.3A59.3A$21.A57.A$8.BA10.2A36.A20.2A10.BA$7.A.AB9.4B32.
3A18.4B9.2A.B$7.BA.A11.2B31.A21.2B11.B.2A$8.AB3.3B4.8B15.2A10.2A
16.8B4.3B3.AB$11.7B.11B3.2A9.A7.5B9.2A3.11B.5BAB$9.21B2.B2AB8.A.AB
3.2A2B10.B2AB2.16BA4B$4.9B2A15B3.3B9.2AB2.B2A3B9.3B3.20B2A4B$3.3BA
B2A3B3A14B4.B2.2B7.10B6.2B2.B4.20B3A4B$4.BABABA4B2A25B6.10B3.28B5A
4B$5.AB4A4BABA25B4.9B2.30BA2BA4B$6.A2B2A6BA26B4.27B2A11B3A4B$4.B2A
2BA2B4A29B3.26B3A20B$2A2.3A9B3.27B3.25B2A6B3.12B2.2A$A2.ABABAB2AB
2AB3.16B.B3.B3.4B.B2.7B3.B3.B.4B2AB2A7B3.8B2ABA2.A$.3ABABA11.5B.5B
8.B5.13B5.B8.2BA2B.5B11.ABAB3A$5.A.A9.4B6.B9.A2B5.11B5.B2A9.A6.4B
9.A.A$3.2A.A10.2A9.A7.A.2A2B4.10B3.B2AB.A7.B9.2A10.A.2A$2.A.A.A.A
9.A8.BAB6.AB2AB2A3.9B3.2A4BA6.BAB8.A9.A.A.A.A$3.A3.2A6.3A7.BA.2A4.
2A2.2AB2A2.9B4.2ABAB2.2A4.2A.2A7.3A6.2A3.A$15.A9.2A2B.A4.A.A8.9B8.
A.A4.A.4A9.A$26.B2.A.A3.A.6A4.7B4.6A.A3.A.A2.B$28.A2.A4.A5.A4.8B3.
A5.A4.A2.A$29.2A6.3A7.8BA5.3A6.2A$39.A7.9BA4.A$48.3B3.3AB!
