#CSYNTH guntrue_342 costs 2773 cells.
#C period 342 fullperiod 342 bbox 59 by 47
#CLL state-numbering golly
x = 59, y = 47, rule = LifeHistory
16.A7.A4.ABABA2.2A$9.BA4.BAB4.2BAB2.BAB.A.A2.A$7.B2A.A4.AB2.BA2BA
3.AB2.B2A.A12.A2.2A$6.A.AB.A3.2A.B2A.A5.AB.A3.A13.4A.A$6.2A2.AB2A
2B3A.A6.B2.AB3A19.A$12.3B3.A3BA2.B4A17.7A.2A$6.2A4.BA2B2A.5B.BA3.
3A13.A2.B3.A.A2.A$6.A3.2A.A.A2.B2.2A.AB2.2A2.A5.A7.2A2.2A.AB2.2A$
8.A2.A.A.BAB2AB.2A.AB2.A.A5.A.A9.B2AB2A$7.2A.A2.BA2B.2A.BA2BA3.A.
4A2.A.A10.5B$5.A2.B.3A2.A.4A.2BA5.A3.A2B.A12.3B$5.2A.AB.2AB3A4B2A
8.2A3.2B12.2A3B$6.A.A2.A2.A2.4B12.5A11.B2AB2A$6.A2.4A.A3.2A9.4A5.B
2.2A6.2ABA4B$5.2A6.A4.2B9.A3.6A3.A5.9B$11.A6.5B3.B4.BA5.B3.A.AB3.
7B$11.2A4.ABA9B2.BAB3A.BA3.2AB.10B$17.2A14B2A.4A5.13B$14.B.2A2B3A
10B3.BA7.13BA$13.A3B3A4BA6BAB9.A2.11BABA$12.ABA2B4A11BA7.3A4.8B2.
2A$12.A4B2A4B2A5B3AB5.A7.6B5.B$11.6B2ABAB.3B5.4B4.2A5.9B$9.4B2A2BA
8B6.9B4.4B4.2A$7.8BA2B2A4B8.7B5.4B5.A$.4B2.3B.BAB2A6B10.9B2.4B7.3A
$.7B2A4B2A4BA8.B.15B10.A$2A10B4A2BABA2.A.2A.2A15B$2A6BA4B3A3BA3.2A
.A.2A14B$.B.7B3A2B2A.B9.15B$4.10B2A11.4B4.B2A3B$4.9BABA6.A4.BA2.A
3.B2A3B$6.B3.5B5.5A2.B4A3.4B$13.2B4.A5.A10.3B$4.B8.2A3.BA.3A.5A7.
2B.BA$3.3A6.4B.A.2BA2.A4.A6.B2ABA.A$3.2A.2BAB2A4BA.2B4.A.A8.BABABA
.A$3.BA.ABA2B.4A.2AB5.2A6.A2.A.A.A.A.2A$.A3.A3.BAB.2A.BA2.2A11.4A.
2A2.A2.A$.4A4.2A.B2AB.B2A2.A14.A4.2A$7.AB.2A3.BA4.A13.A.A$.2A4.2BA
2B3AB.4A14.2A$2.A2.3A3.B.2AB2.A$2.A.A3.4A4.A$3.A2.2A.A2.3A.2A$4.2A
.A.A.A2.A2.A$8.2A.2A2.2A!
