#CSYNTH guntrue_7680 costs 2392 cells.
#C period 7680 fullperiod 7680 bbox 52 by 46
#CLL state-numbering golly
x = 52, y = 46, rule = LifeHistory
36.3B2AB4.A$29.B4.4B3A3BA3BA$28.2AB.3BAB2A5BA4B$28.2A5BA2BA4BA5BA$
29.6BAB2A7B.B2A$29.9B3A3B4.B$25.4B2.B4.3B2AB$23.7B$11.2A9.BA7B12.
2A$.2A6.2B2AB2.5B4A7B10.A.A$2.A6.5B2.4BA7B.4B4.2A2.A$.A6.12B2ABA4B
2.4B3.A2.A.2A$.2A6.15BA3B3.4B4.2A.A.A$3.AB.B.4B2A13B5.4B4.B.BAB$.
3A6B2ABA13B6.4B2.5B5.2A$A2.B.5B2A14B8.9B6.A$2A3.5B2ABA11B10.B2A6B
2.BA.A$8.4B2A8B14.2A7B.B2A$9.16B3.2A5.12B$9.16B.B2.A5.12B$7.12BA6B
3A6.12B$5.B.12BA2B.B.BA6.2AB.2B2A5B$4.2A13BAB6.2A3.A.AB2.ABA5B$4.
2A16B6.A3.A5.BA6B$5.9B2.5B7.A.A.A6.7B$5.5B.3B2.B2A2B8.2A.2A6.8B$
17.2A21.9B.2A$24.B2A12.9BA2.A$24.3AB10.4B.B.3B3A$23.A.2AB9.4B.3B2.
B$22.A.A.2B8.4B2.B2AB2.3A$22.A2.A2.2B5.4B4.2A4.A.A$23.2A3.3B3.4B9.
A3.A$17.2A9.B2A.5B9.A.3A$16.A.A8.BA2BA4B10.A.A$16.A8.B.2B2A4B12.A$
13.2A.AB.B3.BA9B$14.A.A.2AB.3A9B$14.A.A.2A2B2A10B$13.2A.A2.5BA9B$
13.A2.4A3BA8B.B2A$14.2A2.BAB.BA8B.BA.A$16.2A6.7B5.A$16.A7.2B.3BA5.
2A$17.A10.3BA$16.2A11.3AB!
