#CSYNTH guntrue_2317 costs 9387 cells.
#C period 2317 fullperiod 2317 bbox 149 by 63
#CLL state-numbering golly
x = 149, y = 63, rule = LifeHistory
117.A11.2A$116.A.A9.B2AB$108.A3.2A2.A.A9.3B$84.2A21.A.A2.A2.2A.2A
9.B.B$82.2B2AB20.A.A3.A.A2.B8.5B$82.4B22.A.4A2.AB2A6.6B$75.3B3.4B
11.A13.A3.A.A.2A4.8B$73.5B4.4B8.3A12.A2.BA.A2.13B$73.14B6.A10.A3.A
.2BA.A5.7BA5B$73.14B5.B2A7.3A3.2A.2BA5.7B3A5B$71.13BA2B3.5B6.A10.
3B4.6BA2B2A4B$71.12BABAB.5B8.2A10.2B.B.7B2A3BA4B$71.11BA2BA7B4.2A
4B3.24B2A3B$70.13B2A8B4.2A2B4.25B3A3B$63.3B4.24B2.7B2.25B2A5B$62.
7B.24B3.7B.20B2A3BAB3.B2A$62.5B2AB.14B2A7B2.29BA2B2AB4.A2.A$61.5BA
2BA15B2A8B.19B2.2B2.B2.2B3A2B5.2A.A$61.6B2A20B2A21B13.2BA4B7.A$62.
26BABA19B15.8B6.2A$63.2B.6B.14B2A20B17.2B2.4B10.2A$63.B.8B2.13BABA
19B15.2A4.4B9.A$62.2AB.6B4.13B2A11B.7B15.A6.4B10.A$61.A.A3.B8.25B
4.3B.B2A15.A5.4B5.5A$61.2A12.25B9.BA.A13.2A5.4B4.A$18.A57.19B2.5B
10.A11.A2.A.AB.7B2.B3A$17.A.A13.2A41.18B6.2A10.2A10.2A2.2AB.7B3.2B
.A$17.A.A13.A17.2A25.B2.13B6.A4.2A23.12B4A$11.2A3.2A.2A9.BA.A17.A
29.14B6.3A2.A23.7B2A3BAB2.2A$4.A.2A4.A6.B6.3B.B2A19.A24.2A.16B7.2A
25.7B2A2B.B3A2.A$4.2A.A4.A.4AB2A3.7B20.2A23.B2A18B33.10B3.B.A.2A$
13.A3.A.2A.9B20.B8.2A12.24B5.2A24.8B8.A$4.3A3.A4.A3.3B.7B19.3B7.A.
A11.15B.10B3.B2AB22.9B7.2A$3.A2.BA.A.A2.3A4.10B16.6B6.BA12.14B5.8B
3.2B22.4B2.3B$3.2A3B.BABA4.B2.13B11.10B2.B3.2B11.11B9.8B3.2B20.4B
3.5B$.2A2.A2B.3B5AB2.16B2.2B3.19B2.B3.2B2.13B9.8B.2BAB18.4B7.2A$2.
A.2A5.2BA2.AB2.28B2A16B.19B9.9BA.A17.4B8.A$.A2.A5.3B3A9B.22B2A21BA
2BA4B2A5B.B8.8B.A17.4B10.3A$A3.A5.3B3A3B2.4B.49BA2BA2BA5B2A.2A5.5B
4.3A13.4B13.A$A.A.2A5.2BA2.AB4.47B2A5BA2BABA3B.B.A.A7.4B6.A12.4B$.
2A2.A2B.3B5AB5.46BA2B2AB2A3BA5BA.A2.A7.4B10.A6.4B$3.2A3B.BABA4.B6.
4B6.4B.30BABA11B.B.2A2.2A8.4B7.3A5.4B$3.A2.BA.A.A2.3A8.4B6.3B5.B.
25B2A12B17.4B5.A7.4B$4.3A3.A4.A10.4B6.4B9.26B2A5B2A18.4B4.2A5.4B$
13.A3.A9.4B7.2A10.25B3ABABABAB18.9B4.4B$4.2A.A5.5A10.4B6.A9.30BA3B
A3BA.2A14.6B5.4B$4.A.2A21.4B6.3A6.2A4.22B.2B3A2B2.2A.A14.8B2.4B$
12.A.2A14.4B7.A7.A2.3B2.9B.7B3.2B3A2B18.15B$12.2A.A15.4B11.3A3.2A
3.7B4.5B4.7B18.14B$32.4B10.A6.A2.8B5.4B6.5B18.13B$33.4B13.3A4.6B6.
4B7.2B.B2A14.2AB.10B$34.4B12.A4.A.B11.B2AB10.BA.A12.A.AB3.B2A3B$
35.4B15.A.A.A11.2A14.A12.A6.B2A3B$36.4B14.A2.2A27.2A10.2A6.4B$37.
4B12.2A52.3B$38.4B66.2B.BA$39.4B64.B2ABA.A$40.4B62.BABABA.A$41.4B
59.A2.A.A.A.A.2A$42.4B58.4A.2A2.A2.A$43.3BA61.A4.2A$44.3BA58.A.A$
45.3AB57.2A!
