#CSYNTH guntrue_3321 costs 3978 cells.
#C period 3321 fullperiod 3321 bbox 78 by 51
#CLL state-numbering golly
x = 78, y = 51, rule = LifeHistory
8.A5.2A$4.2A.A.A.ABAB.A$4.2A.A.ABA2B.2A$7.A.A2.B2.B3AB35.A$2.6A.4A
4.3AB2.2A.2A25.3A$.A2.B3.A.2B4.A2B2A.B.A.2A24.A$.2A2.B3A7.A3BA2B.A
27.2A14.A2.2A$6.AB7.3BABA2B2A10.2A12.5B14.4A.A$15.6B.2B4.A7.A11.4B
21.A$4.A7.2B.2AB2AB5.3A7.A.AB2.B4.6B13.7A.2A$4.3A4.4B.BA3B4.A11.2A
B.3B3.7B11.A2.B3.A.A2.A$7.A.14B2.2A12.16B10.2A2.2A.AB2.2A$6.A2.8B
2A8B12.17B12.B2AB2A$6.4A6B3A6B15.17B12.5B$2.2A5.A5B2A3B2A4B13.18B
13.3B$2.A2.A.A2B.11BA3B11.18B14.2A3B$4.2A.2A4.4BA2BABA3B4.2B2.8B2A
10B14.B2AB2A$13.5BAB2A20B2A9B7.2A6.2ABA4B$11.5BA3BA33B7.A5.9B$10.
5BA3BA6B2A16B2.7B8.A.AB3.7B$9.7B3A7B2A16B2.7B9.2AB.10B$9.34B4.6B
11.13B$7.2AB.8BA11B.B.2B10.7B11.13BA$6.A.AB.8BA7B7.3B10.6B8.A2.11B
ABA$6.A5.7BA5B10.A2B.2A6.7B5.3A4.8B2.2A$5.2A6.5B.5B6.2A2.A.A2B.A7.
5B5.A7.6B5.B$12.5BA7B5.A3.2AB2.A8.6B4.2A5.9B$10.7BA8B.BA.A7.A7.14B
4.4B4.2A$4.B.11BA8B.B2A4.5A.A5.2A.9B5.4B5.A$2.26B6.A4.A.A5.A4.8B2.
4B7.3A$9B2A7B3A7B8.A2.A.A2.3A3.15B10.A$9B2A6BA3BA5B8.2A3.A3.A5.14B
$16BA3BA5B24.13B$.14B2ABA5B24.2AB.10B$.3B.2B4.3BABA2BA4B4.2A.2A14.
A.AB3.4BA2B$.2A8.3BA11B.2BA.A2.A12.A5.4BABA2B$A2BA7.4B2A3B2A5BA5.
2A11.2A6.3BABA2B$.2B9.6B3A6B4A23.4BAB$2B8.8B2A8B2.A24.5B$3AB6.2A2.
14B.A26.3B$.A.2A6.A4.3BAB.4B4.3A22.5B$B2A3B2.3A5.B2AB2A.2B7.A21.B
2AB2A$BA2.BA2.A4.2B.6B29.2A2.2A.AB2.2A$5A.A.A3.2A2BABA3B7.BA20.A2.
B3.A.A2.A$.BA.A.2A4.A.2BA3BA7.3AB2.2A16.7A.2A$3A.A5.A.A.B.2A2BA4.
2B.A3.B2.A23.A$A.A.7A.2A2.B3A4.4A.6A19.4A.A$.2A14.B3AB2.B2.A.A24.A
2.2A$3.2A2.2A11.2A.2BABA.A.2A$3.A.A2.A11.A.BABA.A.A.2A$6.2A13.2A5.
A!
