#CSYNTH guntrue_1991 costs 9576 cells.
#C period 1991 fullperiod 1991 bbox 126 by 76
#CLL state-numbering golly
x = 126, y = 76, rule = LifeHistory
109.B.B$108.B2A3B$108.A2BA2B10.2A$107.2B2A4B2.2B5.A$96.2A9.13B.BA.
A$92.2A3.A6.16B.B2A$92.A2.A7.BA12BA4B$90.2A2.3A5.BABA10BABA4B$89.A
2.2A3.2B3.BABA11BA4B$89.A.A2.3A2B3.2BA15B.B2A$90.A.2AB.A23B.BA.A$
88.A.A3.2A19B2.2B5.A$88.2A.2A21B10.2A$91.A.B.19B$88.2A2.A5.3BA12B$
88.A.2A6.3B2A5B3.4B.2A$99.BABA4B3.B2A3B.A$98.9B4.2AB2.A$30.2A26.2A
11.A25.10B8.A$29.A.A25.B2AB9.A.A23.10B5.5A.A$23.2A4.A28.3B9.A.A2.
2A3.A3.A10.7BA3B5.A4.A.A$21.A2.A2.2A.4A23.B.B9.2A.2A2.A2.A.A2.3A7.
7BABA2B7.A2.A.A$21.2A.A.A.A.A2.A23.5B8.B2.A.A3.A.A5.A5.8BABA2B6.2A
3.A$24.A.ABABAB25.6B6.2ABA2.4A.A5.2A.13BA3B$24.A.AB2AB26.8B4.2A.A.
A3.A7.18B.B2A$25.AB.2B28.13B2.A.AB2.A8.15B2.BA.A$28.3B25.13B5.A.A
2B.A7.5B.7B7.A$28.4B6.2A15.15B5.A2B.2A6.7B.6B7.2A$26.3B2AB6.A16.
15B4.3B10.6B3.4B$26.3B2AB3.BA.A15.7B2A8B.B.2B10.7B4.4B$24.10B.B2A
16.6BABA20B4.6B5.4B$9.A13.13B17.6B2A23B2.7B6.4B$9.3A10.14B16.8BABA
21B2.7B7.4B$12.A8.15B15.2AB3.4B2A21B.9B7.4B$11.2A7.4B2.8B16.A2.A4.
36B8.4B$11.5B3.4B5.6B15.A.2A5.6B3.B2.2B2.20B4.B4.4B$13.3B2.4B4.9B
14.A7.6B14.19B.B2A4.4B$3.2A7.9B5.2A4.4B12.2A6.9B14.19B2A5.4B$3.A8.
8B7.A5.4B18.4B4.2A15.17B.B7.4B$2A.A.B3.10B5.3A7.4B16.4B5.A15.17B
11.4B$A2.3AB.2B2A7B5.A10.4B14.4B7.3A12.17B12.4B$.2A2.BA3B2A7B17.4B
12.4B10.A10.2AB.15B13.4B$3.4A12B18.4B10.4B21.A.AB4.12B14.4B$3.A.2B
3.7B.B2A17.4B8.4B22.A9.11B14.4B$4.3AB2.7B.BA.A17.4B6.4B22.2A8.13B
14.4B$7.A4.4B5.A18.4B4.4B33.12B16.4B$2.5A5.4B5.2A18.4B2.4B35.10B
18.4B$2.A10.4B25.8B37.9B19.4B$4.A9.4B25.2B2A2B32.A5.9B20.4B$3.2A
10.4B25.2A2B33.3A3.9B21.4B$16.4B23.3BA2B13.B21.A3.5B25.4B$17.4B21.
8B11.3B19.2A3.4B27.4B$18.3BA19.4B2.5B8.6B17.9B6.2A20.4B$19.3BA10.A
6.4B4.8B3.7B2.4B13.6B7.A22.4B$20.3AB7.3A5.4B5.26B2.2B2.B3.6B5.2A.A
23.3BA$21.4B5.A7.4B5.43B4.A2.A25.ABA$22.4B4.2A5.4B2.3B.38B3A3B3.B
2A27.2A$23.9B4.4B3.22B2A18BA2BA7B29.B$24.6B5.4B3.2A21B2A22BA5B$24.
8B2.4B4.2AB.39BA2BA5B$22.15B6.B3.23B5.B.8B3A6B$22.14B11.18B2.B10.
15B$22.13B13.17B13.15B$20.2AB.10B14.17B14.13B$19.A.AB3.B2A3B14.19B
12.13B$19.A6.B2A3B14.18B11.A.2A4.8B$18.2A6.4B16.12B2.4B9.3AB2A6.6B
$27.3B17.11B14.A4.B8.5B$28.2B.BA17.8B15.3A.2A9.B.B$27.B2ABA.A14.
10B17.A.A9.3B$26.BABABA.A14.2A2.4B.B2A.A13.A.A9.B2AB$24.A2.A.A.A.A
.2A12.A7.B2AB3A12.A11.2A$24.4A.2A2.A2.A9.3A10.B4.A$28.A4.2A11.A11.
2A.3A$26.A.A28.A2.2A$26.2A29.2A!
