#CSYNTH guntrue_8213 costs 8360 cells.
#C period 8213 fullperiod 8213 bbox 95 by 88
#CLL state-numbering golly
x = 95, y = 88, rule = LifeHistory
23.2A11.A$22.B2AB9.A.A$23.3B9.A.A2.2A3.A$22.B.B9.2A.2A2.A2.A.A6.2A
$22.5B8.B2.A.A3.A.A4.2B2AB$22.6B6.2ABA2.4A.A5.4B$22.8B4.2A.A.A3.A
7.6B$23.13B2.A.AB2.A7.5B$21.13B5.A.A2B.A6.6B$20.15B5.A2B.2A6.7B$
20.15B4.3B10.6B$19.17B.B.2B10.7B$19.29B4.6B$18.13B2A16B2.7B$17.14B
2A16B2.2B2A3B$16.2AB3.27B.3B2A4B$15.A2.A4.36B$14.A.2A5.6B3.B2.2B2.
14BA5B4.B$14.A7.6B14.10B4A5B.B2A$13.2A6.9B14.6B2A4BA6B2A$20.4B4.2A
15.5B2ABA3BA4B.B$19.4B5.A15.5B2AB3ABA2B2A$18.4B7.3A12.5B3AB2A4B2A$
18.4B9.A10.2AB.3B3A9B$17.2BA2B19.A.AB4.12B$14.4BAB2AB18.A9.11B$14.
4BA4B17.2A8.13B$14.4BA3BA27.BA10B$14.5B3ABA27.AB3A5B$13.10BAB27.A
3BA4B15.2A$12.13B8.2A17.4BA4B8.2A4.B2AB$13.11B9.A18.B2ABA4B9.A5.3B
$14.12B4.BA.A19.2BA2B6.2A4.A.AB3.B2.4B$14.9B3A3B.B2A10.A9.4B7.A.A
4.2AB.9B$14.2A4B2AB3A5B12.3A7.4B2.2A5.A6.10B2A$14.2A2BAB3AB2A5B15.
A5.4B3.A.A4.3A4.10B2A$11.B.4BA3BAB2A5B15.2A4.4B6.A2.2A2.BAB2.B2A2B
2A2B.B$10.2A6BA4B2A6B14.9B6.2A.A2.4AB.2B2ABA2BA9.A$10.2AB.5B4A10B
14.6B7.A2.A.A2.B.8B2AB8.A.A$11.B4.5BA14B2.2B2.B3.6B5.2A.A.2A.2AB2A
11B.2B5.A.A$16.36B4.A2.A2.A5.BA.B2A9B2A3.2A.2A$16.4B2A3B.27B3.B2A
3.A.2A.2A3.2A9B2AB.AB5.A$9.A7.3B2A2B2.16B2A14B5.A.A.A5.2B.11B2AB2A
.2A$9.3A5.7B2.16B2A13B4.A.A.A.A8.B2A8B.B2.A.A$12.A4.6B4.29B5.2A3.A
9.A2BAB2A2B.B4A2.A$11.2A4.3B2A2B10.2B.B.17B17.B.2B2A2B2AB2.BAB2.2A
$11.5B.2BA2BA10.3B4.15B10.A6.2A10B4.3A$13.6BABAB6.2A.2BA5.15B10.3A
4.2A10B6.A$3.2A7.6B3AB7.A.2BA.A5.13B14.A4.9B.B2A4.A.A$3.A8.6BAB2A
8.A2.BA.A2.13B15.2A4.4B2.B3.BA.A4.2A$2A.A.B3.9BAB4A7.A3.A.A.2A4.8B
14.6B5.3B5.A$A2.3AB.2B2A7B2A.BA5.A.4A2.AB2A6.6B16.5B4.B2AB4.2A$.2A
2.BA3B2A7B3.A5.A.A3.A.A2.B8.5B15.7B4.2A$3.4A12B4.3A2.A.A2.A2.2A.2A
9.B.B15.8B$3.A.2B3.7B.B2A4.A3.A3.2A2.A.A9.3B16.9B$4.3AB2.7B.BA.A
15.A.A9.B2AB14.11B$7.A4.4B5.A16.A11.2A16.6B.4B$2.5A5.4B5.2A45.5B3.
4B$2.A10.4B31.3A.A12.8B4.4B$4.A9.4B29.A2.A.3A8.10B5.4B$3.2A10.4B
28.2A6.A6.12B5.4B$16.4B22.2A10.2A6.13B5.4B$17.4B22.A10.5B3.12B7.4B
$18.4B21.A.AB9.4B2.13B7.4B$19.4B10.A10.2AB.3B4.20B8.4B$20.4B7.3A
12.7B.23B7.4B$21.4B5.A15.28BA4B6.4B$22.4B4.2A15.26BABA4B6.4B$15.2A
6.9B14.27BABA4B7.4B$16.A7.6B14.30BA4B9.4B$16.A.2A5.6B3.B2.2B2.19B.
B3.B.2B3.5B12.4B$17.A2.A4.18B4A11B6.3B7.B15.4B$18.2AB3.23BA3B.6B6.
B2AB5.3B15.3BA$19.14B2A8BA4BA2B2.B.5B5.2A6.B2AB15.ABA$20.13B2A9B2A
BA3B7.2A14.2A17.2A$21.25BA3B8.A35.B$21.17B.B.2B16.3A$22.15B4.3B17.
A$22.15B5.A2B.2A$23.13B5.A.A2B.A$25.13B2.A.AB2.A$24.8B4.2A.A.A3.A$
24.6B6.2ABA2.4A.A$24.5B8.B2.A.A3.A.A$24.B.B9.2A.2A2.A2.A.A$25.3B9.
A.A2.2A3.A$24.B2AB9.A.A$25.2A11.A!
