#CSYNTH guntrue_1998 costs 2989 cells.
#C period 1998 fullperiod 1998 bbox 49 by 61
#CLL state-numbering golly
x = 49, y = 61, rule = LifeHistory
39.A4.4B$37.3A3.2A3B$36.A6.2BAB2A$36.2A3.AB.A.B2A$32.6B2.BABA3.B$
28.A4B2AB4.2BA$26.BAB2A2B2A3B2.4B$25.B5A8B.2B2AB$25.2A2B3A7B3.2A$
25.2AB3ABA7B$23.3A.3ABA8B$22.A.AB2.11B$22.A7.7B$21.2A6.3BA4B$28.4B
ABA2B$27.5B2A2B$26.10B$7.2A16.7B4.4B$5.2B2AB14.7B5.4AB$5.4B14.7B5.
A4BA$5.3B14.7B6.A2B.A.AB$5.B3A3.B8.7B8.A3.ABAB$6.2A.A.B2A6.7B14.BA
B$8.2A2B2A5.7B14.2BAB$8.2A3B5.7B14.A2BAB$9.4B4.7B16.2A$13.10B$13.
9B$12.9B3.BA$12.8B4.2AB6.A$12.7B4.B2A5.3A$10.11B3.AB4.A$9.15B6.2A$
9.15B3.5B$5.2A3.15B2.3B9.2A$4.BABAB.21B8.A.A$5.B3A2.3B2A15B.B8.A$
6.B2A4.B2A5B3.11B3.B.BA.2A$.B3.ABAB2.6B7.12B.B2A.A.A$2AB.A.AB3.2A
11.14B2A.A.A$ABA2BA6.A11.8B2A5B2.A.2A$.4AB3.3A10.2AB.5BA2BA3B4A2.A
$.B2AB4.A11.A.AB.6B2A2B.BAB2.2A$14.A6.A5.7B6.2A$14.3A3.2A5.4B.2B7.
A$17.A8.4B9.A$16.2A7.4B10.2A$16.5B3.4B$7.2A9.3B2.4B$6.A.A8.9B$6.A
8.B.8B$3.2A.AB.B3.BA9B$4.A.A.2AB.3A9B$4.A.A.2A2B2A10B$3.2A.A2.5BA
9B$3.A2.4A3BA8B.B2A$4.2A2.BAB.BA8B.BA.A$6.2A6.7B5.A$6.A7.2B.3BA5.
2A$8.A9.3BA$7.2A10.3AB!
