#CSYNTH guntrue_200 costs 1287 cells.
#C period 200 fullperiod 200 bbox 39 by 33
#CLL state-numbering golly
x = 39, y = 33, rule = LifeHistory
3.2A2.2A.2A10.B9.A$.3A.A2.A.A.A7.BA2B.2A3.3A$A4.2A.A.B.A2.AB.B3A2B
A.A2.A$A.3A.B.A3BA.A.2A2B.AB.BA3.2A$.AB.2ABA2B2.A.AB.A2BAB4.5B$2.
3B2A3B3A2B.BA2BA4.4B5.2B.2A$4.3BA2B.BA2BA3B6.2BA2B3.B2A2.A$4.A.A2.
B.B.3B2A7.B3A2B2.2AB2A$2.3A.5ABAB.ABAB6.A2B2A3B2A2B$.A3.A6.A.A3.A
5.6B2.B2A2B$.2A2.A.A.2A.A.A.2A5.B2A4B3.2AB2A$6.2A.A.A3.A.A.A3.B2A
3B4.B2A2.A$18.2A3.A2BA2B5.2B.2A$23.2B3AB$11.B2A10.5B2.2A$11.3AB9.
4B4.A2.A$10.A.2AB9.4B4.A.A.A$9.A.A.2B8.6B2.2A.A.A$9.A2.A2.2B5.8BAB
2.2A$10.2A3.3B3.A3B3.4B2A$4.2A9.B2A.2BABA3.4B2.A$3.A.A8.BA2BA2B2A
3.4B3A$3.A8.B.2B2A4B3.B3AB.A$2A.AB.B3.BA9B5.BA.A3.A.2A$.A.A.2AB.3A
9B5.4A.A.2A.A$.A.A.2A2B2A10B4.A4.A.A$2A.A2.5BA9B4.4A.A.A$A2.4A3BA
8B.B2A5.A.2A$.2A2.BAB.BA8B.BA.A3.A$3.2A6.7B5.A2.A$3.A7.2B.3BA5.A.A
$4.A10.3BA5.A$3.2A11.3AB!
