#CSYNTH guntrue_2288 costs 3367 cells.
#C period 2288 fullperiod 2288 bbox 91 by 37
#CLL state-numbering golly
x = 91, y = 37, rule = LifeHistory
71.A2.2A$71.4A.A$76.A$8.A60.7A.2A.A$7.A.A22.A35.A2.B3.A.A.2A$5.3A.
A20.3A35.2A2.2A.AB$4.A4.A.2A16.A41.B2AB2A6.2A$4.ABABA.A.A16.2A24.A
16.5B5.B2A2B$5.2A.A.A15.5B13.2A7.3A17.3B7.2A2B$5.4BABA13.4B16.A6.A
12.2A5.5B6.BA2B$8.2BA3B11.5B15.A.AB3.2A10.A2.A3.4BAB5.BABA$4.2B4.
5B5.10B16.2AB.4B8.BA.A.A3.3BABA2B3.2ABA$.B.4B2.6B4.11B18.4B10.3A.A
3.4BABA2B2.4B$2A16B.11B17.6B4.2A3.3AB5.4BA2B3.4B$2AB.21BA4B11.2A5.
5B3.B2AB3.3B3.11B.2B2AB$.B2.7B5A5BA9B9.B2A2B2.6B3.3B7.3BA11B2.2A$
6.4BAB2A2BA2BA12B9.4B.7B4.B.B6.2BABA10B$7.3BA6B5A10B.20B2.6B.BA3.B
ABA11B$9.2BA2BA2B2AB3AB2A36BA.A4.A7B2.4B$9.7BA45B.2A3.7B5.4B$8.13B
2A11B.11B2A13B7.9B4.4B$4.2A.45BA7B7.4B4.2A5.4B$4.A.A36B2AB3AB2A2BA
2BA2B6.4B5.A7.4B$5.AB.6B2.20B.10B5A6BA3B3.4B7.3A5.4B$9.B.B4.7B.4B
9.12BA2BA2B2ABA4B.4B10.A6.4B$10.3B3.6B2.2B2AB9.9BA5B5A9B6.2B7.A3.
4B$9.B2AB3.5B5.2A11.4BA22B7.3B5.A.A3.3BA$10.2A4.6B17.11B.15B5.2B3A
5.BA2B3.ABA$17.4B18.11B4.6B2.4B5.2B3AB5.2B.2B.B2A$15.4B.B2A16.10B
5.5B4.B.B2A4.B3A.B4.3BA5B$15.2A3.BA.A15.5B11.3BA2B4.BA.A5.B.3AB2.
2BABA3B$16.A6.A16.4B13.ABA4B4.A6.B3A4BA2BA2B$13.3A7.2A13.5B15.A.A.
2A4.2A6.3A2B.2AB2A$13.A24.2A16.A.A.ABABA11.3B2.BA2BAB$39.A15.A.A.A
4.A12.2B2.BA2B$36.3A16.A.A.A.3A17.BA2BA$36.A19.A3.2A21.2A!
