#CSYNTH guntrue_654 costs 4104 cells.
#C period 654 fullperiod 654 bbox 76 by 54
#CLL state-numbering golly
x = 76, y = 54, rule = LifeHistory
39.2A$20.2A.A.2A11.B2AB$15.A3.A2.2A.A2.A.2A.A4.3B$13.3A2.A.A4.A.2A
.A.2A5.B.B$12.A6.A.5A2.B8.5B$12.2A7.A4.AB2A6.6B24.A2.2A$9.5B6.A2.B
A.A.2A4.8B24.4A.A$8.4B7.A.2BA.A2.13B30.A$7.5B7.2A.2BA5.13B21.7A.2A
$6.6B11.3B3.15B19.A2.B3.A.A2.A$4.B.6B12.2B3.15B19.2A2.2A.AB2.2A$3.
2AB.6B10.4B.17B21.B2AB2A$3.2A7B4.16B4A9B22.5B$4.2B.6B2.16BA3BA10B
22.3B$7.6B2.16BA4BA10B20.2A3B$.B3.9B.17B3A7B3.B2A18.B2AB2A$2AB.37B
4.A2.A9.2A6.2ABA4B$2A23B2.2B2.B3.6B5.2A.A9.A5.9B$.21B14.6B7.A9.A.A
B3.7B$.19B14.9B6.2A9.2AB.10B$3.16B15.2A4.4B18.13B$3.17B15.A5.4B17.
13BA$3.17B12.3A7.4B16.11BABA$4.10B.3B.B2A10.A10.4B17.8B2.2A$5.9B5.
BA.A21.4B16.6B5.B$5.8B9.A22.4B14.9B$2.B2.9B8.2A22.4B12.4B4.2A$.2AB
.9B13.A19.4B10.4B5.A$.2A10B14.3A12.B.3B.4B8.4B7.3A$2.B.8B18.A10.
22B10.A$5.8B4.A11.2A3.B5.2B2A18B7.A$5.7B3.3A11.8B3.2B2A18B6.A.A$6.
5B3.A16.8B.24B4.A.A$3.A3.4B3.2A15.35B.2A.2A$.3A3.9B14.15B.2B2.13B
2A2B$A7.6B14.17B8.10BABAB$A.2A5.6B3.B2.2B2.19B11.7B.2BAB$.A2.A4.
35B11.7B2.A3.A$2.2AB3.27B.7B12.7B3.4A$3.41B9.2AB.B.3B$4.41B7.A.AB
11.2A$5.8B2A2BA16B2.8B8.A14.2A$5.10B4A3B.B.2B11.6B7.2A$6.9B2A2BAB
4.3B10.5B$6.13B2A5.A2B.2A7.4B$7.11B2A5.A.A2B.A7.4B$9.10B2AB2.A.AB
2.A9.B.B2A$8.8B4.2A.A.A3.A12.BA.A$8.6B6.2ABA2.4A.A13.A$8.5B8.B2.A.
A3.A.A12.2A$8.B.B9.2A.2A2.A2.A.A$9.3B9.A.A2.2A3.A$8.B2AB9.A.A$9.2A
11.A!
