#CSYNTH guntrue_1395 costs 7056 cells.
#C period 1395 fullperiod 1395 bbox 98 by 72
#CLL state-numbering golly
x = 98, y = 72, rule = LifeHistory
54.2A$53.A.A$47.2A4.A$34.B10.A2.A2.2A.4A$33.3A9.2A.A.A.A.A2.A14.2A
$33.2A13.A.ABABAB16.A.A$31.AB2AB12.A.AB2AB19.A4.2A$27.2A.3B.A14.AB
.2B16.4A.2A2.A2.A$26.A.3A2BA10.A7.3B15.A2.A.A.A.A.2A$26.A4.BA9.3A
7.4B6.2A8.BABABA.A9.A$27.4A10.A8.3B2AB6.A10.B2ABA.A8.BAB$28.B.2A8.
A.A7.3B2AB3.BA.A11.2B.BA10.AB$27.2B.2A7.BA.A5.10B.B2A11.3B12.2BABA
$27.3AB7.3BA5.13B4.2A6.4B13.A.2AB.2A$27.2B7.4B6.14B5.A6.B2A3B12.6A
.A$26.AB6.6B5.15B5.A.AB3.B2A3B13.2B4.A$26.A.AB3.7B4.4B2.8B8.2AB.
10B13.4A$27.2AB3.8B2.4B5.6B10.13B11.BA.B$29.17B4.9B9.14B10.BA.2A$
29.16B5.2A4.4B8.15B10.A3B$29.16B6.A5.4B9.8B2.4B11.BA$29.17B2.3A7.
4B8.6B5.4B11.BA$30.16BA2.A9.4B6.9B4.4B5.B2.BA.A$31.4B2A8B.2A3.A8.
4B4.4B4.2A5.4B3.3B.B2A$31.5BA6B7.2A9.4B2.4B5.A7.3BA.6B$27.2A3.3BA
6B20.8B7.3A5.ABA7B$28.A3.5BA4B21.6B10.A6.2A3B2A2B$27.A4.4B2A5B21.
4B19.3BA2BA$27.2A3.5BA4B21.6B17.4BABAB$7.2A3.2A16.2AB.8B20.8B15.6B
AB$7.A.A.A.A13.2AB2AB3.7B18.4B2.4B13.4B2.3B$9.A.A16.A.B6.6B17.4B4.
4B11.4B3.3B2.AB$8.A2B.A2.2A9.A3.2A4.6B17.4B6.4B9.4B4.B.B.2B2A$8.AB
A.A2.A.A8.4A2.A.8B16.4B8.4B7.4B6.3ABAB$10.A.2A.A2.A10.A.A.A9B14.4B
10.4B5.4B7.2B.BA$9.2ABA2.3A8.2A.A.BA2B.7B8.A4.4B12.4B3.4B7.A2B.2B$
8.B2A2B2A12.A.A2.2B3.6B6.3A3.4B14.4B.4B9.BA.2A$9.2A.A2.A10.A2.2A.B
4.7B4.A5.4B16.7B8.BA.2AB$9.B2A2.2A10.A.A2.A.A3.7B4.2A3.4B18.5B9.B
2AB$10.2B15.A.A2.2A3.8B.4B2.4B19.6B6.2AB.B$10.2B16.A8.11B3.4B15.2A
.3B2A4B4.A.AB$11.B25.12B.4B15.A2BA2BA2BA4B3.A$10.2AB24.16B17.3B2.B
ABA3B3.2A$.2A6.A2BAB5.2A6.A10.14B17.AB5.BA3B$2.A4.3B2A3B4.A7.3A11.
10B13.2A2.BA.A6.5B$2.A.AB.8B.BA.A10.A9.12B11.B4A2BA.A8.2A$3.2AB.8B
.B2A10.2A6.16B11.A.2BAB2.A8.A$5.12B12.24B6.A5.A2B4.2A8.3A$5.12B14.
23B3.3A6.2B16.A$5.12B3.A9.24B2.A9.3A$7.10B3.3A7.24B.B.A9.B$9.7B7.A
5.27B2A$9.8B5.2A4.4B.22BA2.2A$8.5B.4B4.9B3.2B7.B3.2B3.3B3A2.A$8.6B
.4B5.6B3.2BAB5.3B.4B3.2B4.A$7.6B3.4B2.8B4.A.A4.B2AB.B2AB5.4A$3.B2.
3BA3B4.15B3.A6.2A3.2A7.A$.7BABA2B5.14B22.A$.7BABA2B6.13B22.2A$9BA
3B7.10B.B2A$11B.B2A7.3B2AB3.BA.A$.9B2.BA.A6.3B2AB6.A$.7B7.A8.4B6.
2A$2.6B7.2A7.3B$3.4B14.AB.2B$4.4B12.A.AB2AB$5.4B11.A.ABABAB$6.4B7.
2A.A.A.A.A2.A$7.4B6.A2.A2.2A.4A$8.3BA7.2A4.A$9.3BA12.A.A$10.3AB12.
2A!
