#CSYNTH guntrue_4719 costs 7104 cells.
#C period 4719 fullperiod 4719 bbox 96 by 74
#CLL state-numbering golly
x = 96, y = 74, rule = LifeHistory
39.2A$38.A.A$32.2A4.A$30.A2.A2.2A.4A$30.2A.A.A.A.A2.A$33.A.ABABAB$
33.A.AB2AB$34.AB.2B$37.3B$37.4B6.2A$35.3B2AB6.A$35.3B2AB3.BA.A$33.
10B.B2A$32.13B$31.14B$30.15B$29.4B2.8B$28.4B5.6B$27.4B4.9B$26.4B5.
2A4.4B$25.4B7.A5.4B$24.4B5.3A7.4B$9.A13.4B6.A10.4B$9.3A10.4B19.4B$
12.A8.4B21.4B$11.2A7.4B23.4B$11.5B3.4B25.4B$13.3B2.4B26.4B$3.2A7.
9B27.5B$3.A8.8B27.9B$2A.A.B3.10B28.9B$A2.3AB.2B2A7B28.9B$.2A2.BA3B
2A7B27.10B$3.4A12B26.12B$3.A.2B3.7B.B2A2.2A20.13B$4.3AB2.7B.BA.A2.
A21.12B32.A$7.A4.4B5.2A21.14B30.5A$2.5A5.4B5.A18.18B29.A5.A$2.A10.
4B6.A15.18B19.2A9.B3A2.A$4.A9.4B4.2A14.19B20.A10.2B.A.2A$3.2A10.4B
2.2B16.18B.B18.A.2A7.2B2A3.A$8.2A6.8B15.19B2A12.A5.A2B.4B.2BA2.A.A
$9.A7.7B13.19B.B2A12.3A5.2BA5B2AB2A.2A$9.A.2A5.7B2.B2.2B2.22B2.B
16.A4.3BA4BAB$10.A2.A4.39B17.2A4.ABA5B2AB2A.2A$11.2AB3.40B17.6B2.
4B.2BA2.A.A$12.44B20.5B7.2B2A3.A$13.43B19.7B6.2B.A.2A$14.8B2A2BA
26B.4B17.8B4.B3A2.A$14.10B4A3B.4B8.9B3.2A17.9B3.A5.A$15.9B2A2BAB3.
2B10.8B3.A17.6B.4B3.5A$15.13B2A3.3B10.8B3.3A14.7B.4B4.A$16.11B2A5.
A2B.2A7.6B6.A13.8B2.4B$18.10B2AB2.A.A2B.A6.6B12.A8.10B.4B$17.8B4.
2A.A.AB2.A7.7B11.3A5.17B$17.6B6.2ABA4.A7.9B13.A3.19B$17.5B8.B2.5A.
A6.9B11.2A2.15B2.4B$17.B.B5.2A.A.2A.A4.A.A5.10B10.18B4.4B$18.3B4.A
.2A.A2.A.2A2.A4.19B5.17B4.4B$17.B2AB11.2A.A.2A3.B.2B2A16B3.18B5.4B
$18.2A21.2A3B2A16B2.18B7.4B$41.2A21B.17B10.3BA$42.33B2.5B11.ABA$
40.5B2.B2.2B2.21B3.4B12.2A$40.2A4.3B8.19B3.B.B2A11.B$41.A3.B2AB7.
19B6.BA.A$38.3A5.2A8.19B9.A$38.A16.19B10.2A$52.2B.11B2.8B$51.2A3B
2A7B4.7B$51.2AB.B2A5B7.4B.B2A$52.B.8B7.B2A2B.BA.A$57.4B9.2A6.A$59.
2B17.2A!
