#CSYNTH guntrue_7654 costs 5796 cells.
#C period 7654 fullperiod 7654 bbox 92 by 63
#CLL state-numbering golly
x = 92, y = 63, rule = LifeHistory
2A$.A26.A$A25.3A44.2A$2A23.A40.2A4.B2AB$.B23.2A40.A5.3B$3B20.4B2.A
31.2A4.A.AB3.B2.4B$5B9.B3.B.5B4.3A10.2A17.A.A4.2AB.9B$6B2.B.7B2A7B
6.A5.2A2.A20.A6.10B2A$2.14BA2BA7B4.2A5.A.A.A20.3A4.10B2A$.15BABA8B
4.5B3.B.A19.2A2.BAB2.B2A2B2A2B.B$.16BA10B5.3B2.2B20.A2.4AB.2B2ABA
2BA9.A$.28BAB.9B19.A.A2.B.8B2AB8.A.A$2.28B2A11B8.2A6.2A.2AB2A11B.
2B5.A.A$3.23BAB4A11B8.A7.A5.BA.B2A9B2A3.2A.2A$6.20BAB3A5B2A6B4.BA.
A9.2A.2A3.2A9B2AB.AB5.A$6.8BA3BA5BA6B2A3B2A9B.B2A11.A.A5.2B.11B2AB
2A.2A$4.9B2A3B2A11B3AB2A8B2A2B13.A.A8.B2A8B.B2.A.A$4.8B2A5B2A4B2A
15B.2BA.AB14.A9.A2BAB2A2B.B4A2.A$4.9B2A3B2A23B3.2A22.B.2B2A2B2AB2.
BAB2.2A$4.10B5A16B.4B22.A6.2A10B4.3A$4.11B3A15B.5B7.2A14.3A4.2A10B
6.A$2.2AB.10BA16B.4B6.A2.A17.A4.9B.B2A4.A.A$.A.AB.26B2.4B6.2A.A.2A
.A11.2A4.4B2.B3.BA.A4.2A$.A7.23B2.5B6.B.A.A.2A11.6B5.3B5.A$2A6.23B
2.8B2.B2ABA18.5B4.B2AB4.2A$9.21B2.10B.B2A2.A17.6B4.2A$9.14B3.3B2.
13B3.2A16.8B$4.2A3.13B2.3B3.14B15.A.2A2.9B$4.A2.2AB.10B2.21B15.2A.
A12B$5.AB2AB2.8B2.23B6.2A11.12B$2A.A.A.B6.5B2.23B7.A12.13B$A.2A.A.
2A6.4B2.26B.BA.A12.9B.4B$5.A2.A6.4B.16BA10B.B2A13.9B2.4B$5.2A7.5B.
15B3A11B14.11B2.4B$13.4B.16B5A10B14.11B3.4B$5.2A3.23B2A3B2A9B14.
12B3.4B$4.BA.A2B.15B2A4B2A5B2A8B8.B4.14B3.4B$4.2B2A8B2AB3A11B2A3B
2A9B7.3B3.10B.4B3.4B$2.2AB.9B2A3B2A6BA5BA3BA8B7.6B2.15B4.4B$.A.AB
4.6B2A5B3ABA20B.4B2.7B.4B2A3BA3B.B2A3.4B$.A8.11B4ABA38BAB4A4B.BA.A
3.4B$2A8.11B2A41B2AB2ABA4B4.A4.4B$12.9B.BA41B2ABA2B3AB4.2A4.4B$13.
2B2.3B5.10BA17B2A12BA4B2A2B10.4B$11.A.B3.5B4.8BABA16B2A3BA13B2A2B
11.4B$10.A.A.A5.2A4.7BA2BA20BA3B2A5BA4B3AB11.3BA$10.A2.2A5.A6.7B2A
7B.B3.9B2ABABA4B3A6B13.ABA$9.2A10.3A4.5B.B3.B10.4B2.5B3A3BA2BA5B
15.2A$23.A2.4B20.17BABA4B.B.B13.B$26.2A23.17B2A7B2A$27.A24.16B2A7B
2A$24.3A22.B3.2B.5B2.12B.2B$24.A23.2AB.3B.4B3.13B$48.2A3BA11.11B.B
$49.B.BA.A10.12B2A$52.BA.A9.10B.B2A$55.A7.2AB.6B4.B$55.2A5.A.AB.4B
$62.A5.5B$61.2A8.2A$71.A$72.3A$74.A!
