#CSYNTH guntrue_2031 costs 7392 cells.
#C period 2031 fullperiod 2031 bbox 96 by 77
#CLL state-numbering golly
x = 96, y = 77, rule = LifeHistory
38.2A11.A$37.B2AB9.A.A$38.3B9.A.A2.2A3.A$37.B.B9.2A.2A2.A2.A.A$37.
5B8.B2.A.A3.A.A$37.6B6.2ABA2.4A.A$37.8B4.2A.A.A3.A$38.13B2.A.AB2.A
15.2A$36.13B5.A.A2B.A14.A$35.15B5.A2B.2A11.BA.A$35.15B4.3B12.2A.B
2A$34.17B.B.2B12.B2A2B13.A2.2A$34.29B6.4B13.4A.A$33.13B2A16B3.6B
18.A$32.14B2A16B2.6B12.7A.2A$31.2AB3.27B.7B11.A2.B3.A.A2.A$30.A2.A
4.35B10.2A2.2A.AB2.2A$29.A.2A5.6B3.B2.2B2.20B12.B2AB2A$29.A7.6B14.
18B12.5B$28.2A6.9B14.16B13.3B$35.4B4.2A15.14B13.2A3B$34.4B5.A15.
16B4.2A5.B2AB2A$33.4B7.3A12.14B.B2A2.A6.2ABA4B$32.4B10.A10.2AB.3B
3.6B.BA.A.A5.9B$31.4B21.A.AB7.6B4.A.A.AB3.7B$30.4B22.A9.7B4.A2.2AB
.10B$29.4B22.2A4.2A2.8B3.2A4.13B$28.4B28.A.A12B7.13BA$27.4B29.A3.
11B7.11BABA$26.4B15.2A12.2A3.4B2A5B9.8B2.2A$25.4B15.A.A18.3B2A5B9.
6B5.B$24.4B10.2A4.A20.10B8.9B$23.4B9.A2.A2.2A.4A17.9B7.4B4.2A$22.
4B10.2A.A.A.A.A2.A17.9B6.4B5.A$21.4B14.A.ABABAB19.8B6.4B7.3A$20.4B
15.A.AB2AB21.8B4.4B10.A$19.4B17.AB.2B23.6B4.4B$18.4B21.3B22.6B3.4B
$17.4B22.4B6.2A13.6B2.4B$16.4B21.3B2AB6.A13.7B.4B$3.2A10.4B22.3B2A
B3.BA.A13.6B.4B$4.A9.4B21.10B.B2A15.9B$2.A10.4B21.13B17.8B$2.5A5.
4B5.2A14.14B16.8B$7.A4.4B5.A2.A11.15B7.A8.7B$4.3AB2.7B.BA.A.2A10.
4B2.8B9.3A6.6B$3.A.2B3.7B.B2A.A11.4B5.6B12.A4.7B$3.4A12B3.A10.4B4.
9B10.2A4.7B$.2A2.BA3B2A7B3.3A7.4B5.2A4.4B9.4B.8B$A2.3AB.2B2A7B6.A
5.4B7.A5.4B10.11B4.A$2A.A.B3.10B5.2A4.4B5.3A7.4B8.12B3.A.A6.A$3.A
8.8B4.9B6.A10.4B7.12B2.2BAB4.3A$3.2A7.9B5.6B19.4B6.11B4.2B4.A$13.
3B2.4B2.8B20.4B4.9B4.B3.3B2.2A$11.5B3.15B18.18B2.3B.8B$11.2A7.14B
18.24B.5B$12.A8.13B17.31B$9.3A10.10B.B2A15.31B$9.A14.3B2AB3.BA.A
10.2A.32B$24.3B2AB6.A10.A.A32B$26.4B6.2A10.AB.30B$26.3B23.3B3A22B$
23.AB.2B25.2BA2BA11B5.B.4B$22.A.AB2AB23.2B2A2BA10B9.B2AB$22.A.ABAB
AB21.B4A2BA6B2A2B10.2A$19.2A.A.A.A.A2.A19.B2A4BA5B2AB$19.A2.A2.2A.
4A18.BAB3A2BA7BA2B$21.2A4.A22.BABA12B.3B$27.A.A21.8BA2BA4BA3B$28.
2A23.A8B2A3B2A3B$53.2B3A3BABABABA4B$53.2BA6BA3BA5B$54.6B2A8B.B2A$
55.6B.2B.2B.B2.BA.A$55.5B.4B9.A$54.B2AB3.A2BA9.2A$55.2A5.2A!
