#CSYNTH guntrue_1179 costs 4623 cells.
#C period 1179 fullperiod 1179 bbox 69 by 67
#CLL state-numbering golly
x = 69, y = 67, rule = LifeHistory
48.2A$47.A.A$41.2A4.A$39.A2.A2.2A.4A$39.2A.A.A.A.A2.A$42.A.ABABAB$
42.A.AB2AB$43.AB.2B$46.3B$46.4B6.2A$44.3B2AB6.A2.A$44.3B2AB3.BA.A.
2A$34.A7.10B.B2A.A$32.3A6.13B3.A$31.A8.14B3.A.AB$30.A.A6.15B4.3A.B
$29.BA.A5.4B2.8B8.4A$28.3BA5.4B5.6B8.BA.3A$15.2A9.4B6.4B4.9B9.BA.A
B$16.A7.6B5.4B5.2A4.4B7.3B.2A$16.A.AB3.7B4.4B7.A5.4B7.2A.AB$17.2AB
3.8B2.4B5.3A7.4B6.BAB2AB$19.17B6.A10.4B4.B.A.3AB$19.16B19.4B3.3B2.
BA$19.16B20.4B2.3B$19.16B21.6BAB$20.15B22.4BABAB$21.12B.B2A21.3BA
2BA$21.11B2.BA.A19.5B2A2B$17.2A3.10B5.A18.10B$18.A3.6B2A2B5.2A16.
4B.6B$17.A4.6B2A3B21.4B3.3B.B2A$17.2A3.10B21.4B5.B2.BA.A$20.2AB.8B
20.4B11.BA$17.2AB2AB3.7B18.4B3.2A6.2B$18.A.B6.6B17.4B3.A2.A2.AB3A$
16.A3.2A4.6B17.4B5.2A.AB.A.2B$16.4A2.A.8B16.4B8.B2A.A.B$19.A.A.A9B
14.4B9.B.A2.3A$16.2A.A.BA2B.7B8.A4.2A2B9.2A.A5.A$17.A.A2.2B3.6B6.
3A3.ABAB9.A2.A5.2A$16.A2.2A.B4.7B4.A5.3BA11.2A$16.A.A2.A.A3.7B4.2A
3.4B$17.A.A2.2A3.8B.4B2.4B$18.A8.11B3.4B$27.12B.4B$27.16B$17.A10.
14B$17.3A11.10B$11.A8.A9.12B$11.3A5.2A6.16B$14.A4.24B6.A$13.2A6.
23B3.3A$13.5B2.24B2.A$4.2A9.3B2.24B.B.A$3.A.A8.32B2A$3.A8.B.8B.22B
A2.2A$2A.AB.B3.BA9B3.2B7.B3.2B3.3B3A2.A$.A.A.2AB.3A9B2.2BAB5.3B.4B
3.2B4.A$.A.A.2A2B2A10B3.A.A4.B2AB.B2AB5.4A$2A.A2.5BA9B4.A6.2A3.2A
7.A$A2.4A3BA8B.B2A21.A$.2A2.BAB.BA8B.BA.A20.2A$3.2A6.7B5.A$3.A7.2B
.3BA5.2A$5.A9.3BA$4.2A10.3AB!
