#CSYNTH guntrue_285 costs 2886 cells.
#C period 285 fullperiod 285 bbox 78 by 37
#CLL state-numbering golly
x = 78, y = 37, rule = LifeHistory
17.A$17.3A$20.A38.2A$19.2A30.2A5.B2A2B$19.7B19.2A5.A6.4B$21.5B19.A
.A.3A6.BA3B$10.A8.9B19.A.A8.3AB$10.3A6.9B5.2A3.2A5.BABAB8.2A.2B$
13.A4.11B4.A3.B2AB3.2B3A4.B.B2A2B2A.A$12.2A4.10B2.BA.A4.3B3.2B2A4.
2AB3A3B2A.A$12.4B.12B.B2A4.B.B4.2B2A4.2A2BA.ABA3.A$14.17B5.6B3.BA
2B4.5B2A.3A$13.18B3.8B2.2B3A2B.4B.B.A.A7.2B$12.18B3.14B2A4B.B3.A2.
A5.B4AB$6.4B.12B3A4B2.11BA5BA3B6.2A4.2B6A2B$5.17BA2BA4B.12BA7BAB
10.3B8A3B$5.11B2A3BA20BA5BA3BA2B7.3B2A6B2A3B$4.18BA2BA22BA8B6.3B8A
3B$5.5B3A4BA5B3A10B3A5BA4B3A5B8.2B6A2B$5.8BA22BA2BA18B9.B4AB$7.2BA
3BA5BA20BA3B2A12B11.2B$9.BA7BA12B.4BA2BA19B7.3B2.3B$9.3BA5BA11B2.
4B3A12B.8B4.3BAB2ABA3B$6.2B.4B2A14B3.18B7.5B.3B2AB2AB2A3B$4.6B.2B
3A2B2.8B3.18B9.9BAB2ABA3B$4.5B5.BAB3.6B5.17B11.6B.2B4.2B$3.2ABAB2A
4.B2A5.B.B4.2AB.12B.4B10.4B$.3A.ABA.3A4.B4.3B4.A.AB2.10B4.2A11.4B$
A3.5B3.A3.B4.B2AB3.A4.11B4.A13.4B$A.3A.A.4A3.B2A4.2A3.2A5.9B6.3A
11.4B$.A3.3A7.2AB.A14.9B8.A12.4B$3.A.A.A.2A.A3.2B2A16.5B24.4B$2.2A
.ABA.A.2A2.2A3.2A14.7B23.4B$3.A.A2.A6.B4A2.A18.2A24.4B$3.A2.2A9.B.
A.2A18.A26.3BA$2.2A15.A22.3A24.3BA$18.2A24.A25.3AB!
