#CSYNTH guntrue_1225 costs 6016 cells.
#C period 1225 fullperiod 1225 bbox 94 by 64
#CLL state-numbering golly
x = 94, y = 64, rule = LifeHistory
39.2A11.A$38.B2AB9.A.A$39.3B9.A.A2.2A3.A$38.B.B9.2A.2A2.A2.A.A$38.
5B8.B2.A.A3.A.A12.2A$38.6B6.2ABA2.4A.A13.A$38.8B4.2A.A.A3.A12.BA.A
$39.13B2.A.AB2.A9.B.B2A$37.13B5.A.A2B.A7.4B$36.15B5.A2B.2A7.4B$36.
15B4.3B10.5B15.2A$35.17B.B.2B11.6B12.2B2AB$35.29B2.8B12.4B$34.13B
2A26B10.4B$33.14B2A9B2A14B12.5B$32.2AB3.19B2A6B.7B13.7B$31.A2.A4.
20BA3B2A9B12.B2A4B$30.A.2A5.6B3.B2.2B2.7B2AB2A7B11.BA2BA2B2A$30.A
7.6B14.4B2A2BA8B8.6B2AB2A$29.2A6.9B14.2BA3BA8B.2B2.4BA3B2AB.B$36.
4B4.2A15.BAB2A17BA4BAB$8.2A3.2A20.4B5.A16.2BA5B.13B3A4B$8.A.A.A.A
19.4B7.3A7.2A2.8B3.2B2A16B$10.A.A20.4B10.A7.2A2.2A3.B5.2B2A16B$5.
2A2.A.2BA18.4B24.A10.18B$4.A.A2.A.ABA17.4B.3B.B12.7A12.B.3B.4B$3.A
2.A.2A.A12.18B10.A24.4B$4.3A2.AB2A4.2A4.16B2A2B5.B3.2A2.2A7.A10.4B
$7.2A2B2AB4.A4.16B2A2B3.8B2.2A7.3A7.4B$6.A2.A.2A5.A.AB.4B3A13B.5BA
2B16.A5.4B$6.2A2.2AB6.2A3BA4BA17B2ABAB15.2A4.4B$10.2B8.3B2A3BA4B2.
2B.8BA3BA2B14.9B6.2A$10.2B9.B2A6B8.8BA2B2A4B14.6B7.A$11.B10.5B12.
7B2AB2A7B2.2B2.B3.6B5.2A.A$10.2AB11.2B13.9B2A3BA20B4.A2.A$.2A6.A2B
AB5.2A4.2B11.9B.6B2A19B3.B2A$2.A4.3B2A3B4.A4.B2AB8.17B2A9B2A14B$2.
A.AB.8B.BA.A5.2A8.29B2A13B$3.2AB.8B.B2A15.13B2.29B$5.12B16.4B2.7B
10.2B.B.17B$5.12B15.4B3.7B9.3B4.15B$5.12B3.A10.4B4.3BA3B5.2A.2BA5.
15B$7.10B3.3A7.4B6.2BA2B6.A.2BA.A5.13B$9.7B7.A5.4B8.BA2B7.A2.BA.A
2.13B$9.8B5.2A4.4B10.2B9.A3.A.A.2A4.8B$8.5B.4B4.9B10.2B8.A.4A2.AB
2A6.6B$8.6B.4B5.6B10.B2AB6.A.A3.A.A2.B8.5B$7.6B3.4B2.8B11.2A7.A.A
2.A2.2A.2A9.B.B$3.B2.3BA3B4.15B19.A3.2A2.A.A9.3B$.7BABA2B5.14B27.A
.A9.B2AB$.7BABA2B6.13B28.A11.2A$9BA3B7.10B.B2A$11B.B2A7.3B2AB3.BA.
A$.9B2.BA.A6.3B2AB6.A$.7B7.A8.4B6.2A$2.6B7.2A7.3B$3.4B14.AB.2B$4.
4B12.A.AB2AB$5.4B11.A.ABABAB$6.4B9.2A.A.A.A2.A$7.4B9.A2.2A.4A$8.3B
A6.A.A4.A$9.3BA5.2A5.A.A$10.3AB12.2A!
