#CSYNTH guntrue_1981 costs 9720 cells.
#C period 1981 fullperiod 1981 bbox 108 by 90
#CLL state-numbering golly
x = 108, y = 90, rule = LifeHistory
31.A11.2A$30.A.A9.B2AB$22.A3.2A2.A.A9.3B$21.A.A2.A2.2A.2A9.B.B$8.A
12.A.A3.A.A2.B8.5B$8.3A11.A.4A2.AB2A6.6B$11.A12.A3.A.A.2A4.8B$10.
2A11.A2.BA.A2.13B$10.5B7.A.2BA.A5.13B$12.4B6.2A.2BA5.15B$11.5B10.
3B4.15B$9.B.6B10.2B.B.17B$8.9B3.29B$4.B.11B2.16B2A13B$3.2A12B2.16B
2A14B$3.2A13B.27B3.B2A35.2A$4.B.39B4.A2.A28.A.2A.A.A$7.22B2.2B2.B
3.6B5.2A.A27.2A.A.A$6.20B14.6B7.A31.2AB$4.20B14.9B6.A.AB28.2B$4.
19B15.2A4.4B6.A.AB.B25.4B2.B$5.19B15.A5.4B6.A3B2A25.8B$2A.AB2A17B
12.3A7.4B4.3B.B2A25.8B$A.2A.2A15B.B2A10.A10.4B3.2B3.B25.8B2A$6.13B
4.BA.A21.4B.4B27.2B2A3B.B2A$8.12B6.A22.4B.4B8.2A16.BABA4B.B$9.7B.B
2A6.2A22.4B.4B7.A17.ABA4B$7.A.6B3.A32.4B.4B7.A16.BA7B$6.A.A.5B4.3A
30.2B2A.4B5.2A17.8B$7.A3.4B6.A31.BABA.4B3.2B19.7B$12.4B38.A3B.9B
18.8B$13.4B38.4B.8B18.8B$14.4B38.4B.8B.2B14.7B$15.4B38.4B.11B13.7B
$16.4B38.16B12.8B$17.4B38.15B11.10B$18.4B36.13B2A2B11.10B$19.4B36.
5BA6B2A3B9.7B.4B$20.4B35.4BABA4B2ABA2B9.6B3.4B$21.4B33.5BA2BA6B3A
9.6B4.4B$22.4B32.7BA6BA2BAB8.6B5.4B$23.4B27.2A3.14B3AB7.8B5.4B$24.
4B27.A4.17B8.8B5.4B$25.4B26.A.AB2.16B7.9B6.4B$26.4B26.2AB.16B8.9B
7.4B$27.4B27.16B10.10B7.4B$28.4B27.16B9.5B2A3B8.4B$29.BABA10.A13.
11BABA4B9.5B2A4B8.4B$30.B2AB7.3A12.13B2A4B9.11B9.3BA$31.A3B5.A15.
13BA5B9.12BA.2A5.ABA$32.4B4.2A15.17B12.8B2.2A.A6.2A$25.2A6.9B14.
19B4.2A5.7B14.B$26.A7.6B14.17B.4B2.B2AB4.6B$26.A.2A5.6B3.B2.2B2.
20B2.4B.3B5.6B$27.A2.A4.36B3.4B.B5.8B$28.2AB3.27B.10B3.8B.8B$29.
14B2A16B.11B2.9BA7B$30.13B2A16B2.10B.9BABA6B$31.29B4.8B2.9BABA7B$
31.17B.B.2B11.6B5.9BA7B$32.15B4.3B10.6B6.8B.7B$32.15B5.A2B.2A7.4B
8.16B4.2A$33.13B5.A.A2B.A5.5B10.3B.10B5.A$35.13B2.A.AB2.A6.2A13.3B
2.9B2.BA.A$34.8B4.2A.A.A3.A8.A14.B3.9B2.B2A$34.6B6.2ABA2.4A.A3.3A
18.13B4.2A$34.5B8.B2.A.A3.A.A2.A20.13B4.A.A2.2A$34.B.B9.2A.2A2.A2.
A.A22.14B6.A3.A$35.3B9.A.A2.2A3.A22.A13B3.4A.3A$34.B2AB9.A.A28.3A.
12B3.A2.A.A$35.2A11.A28.A5.5B.5B6.ABAB3A$77.2A6.2B2.6B6.2ABA2.A$
89.7B4.4B2.2A$88.16B$87.13BA2B$83.16BABAB$82.17BA2BA$82.18B2AB$82.
21B$84.17B.B2A$86.13B3.BA.A$84.4B3.10B4.A$84.2A6.4B3.2A4.2A$85.A5.
A3.2B2.A$82.3A4.3A2.B2A3.3A$82.A5.A6.A.A5.A$88.2A3.A.A.6A$93.2A$
99.2A$99.2A!
