#CSYNTH guntrue_3780 costs 2622 cells.
#C period 3780 fullperiod 3780 bbox 69 by 38
#CLL state-numbering golly
x = 69, y = 38, rule = LifeHistory
51.A$44.B5.ABA$43.BAB4.3B$18.A24.3A3.5B$18.3A21.ABABA2.B3AB$21.A
20.BABAB.2B3A2B$8.AB10.2A21.4B.3BA3B$7.B.2A9.4B19.3B.9B$7.2A.B11.
2B19.3B.9B$8.BA3.3B4.8B15.4B.3BA3B$11.7B.4BA6B3.2A7.BABAB.2B3A2B$
9.14BA6B2.B2AB6.ABABA2.B3AB9.2A$4.19BA6B3.3B7.3A3.5B8.A2.A$3.27B4.
B2.2B4.BAB4.3B10.A.A$4.15B3A19B.3B5.ABA7.3A.2A.2A$5.40B6.A7.A3.A2.
A.A$6.40B13.3AB3A$4.16B4A3B3A17B15.2B.3A$2A2.12B3.AB3A17B3.4B9.4A.
A2B3.A$A2.AB2A8B3.3B2A11B.B9.4B7.A3.4A.4A$.3ABABA11.5B.6B15.4B6.2A
4.BA.A$5.A.A9.4B3.7B8.A7.4B.6B4.2A.A.2A$3.2A.A10.2A6.4B.B2A6.3A6.
8B7.B.A.BA$2.A.A.A.A9.A7.B3.BA.A8.A6.10B5.B3A$3.A3.2A6.3A7.BAB5.A
7.2A5.B.10B5.A$15.A9.BAB5.2A6.18BAB3.3B$26.A16.15BABA2B3AB$42.2B2A
12BABA.2B2A2B$41.2BA2BA12BA5.A.BA$26.2B13.3B2A4B2.2BA4B4.A.A.2A$
24.6B6.2B.9B4.BABA3B3.A.2A$22.10B.14B6.ABAB5.A3.3A$20.3B8A15B7.BAB
7.3A2.A$19.4BAB4ABA15B8.B10.A$20.3B8A3B.12B$22.10B4.3BA6B$24.6B7.
3BA5B$26.2B10.3A3B!
