#CSYNTH guntrue_2520 costs 2440 cells.
#C period 2520 fullperiod 2520 bbox 61 by 40
#CLL state-numbering golly
x = 61, y = 40, rule = LifeHistory
13.2B31.2B$11.6B27.6B$9.2A6B2A23.10B$7.BA2BA4BA2BAB19.BA2BAB2ABA2B
AB$6.B6A2B6AB17.B2A2BA4BA2B2AB$7.BA2BA4BA2BAB19.BA2BAB2ABA2BAB$9.
2A6B2A23.10B$2A.2B6.6B27.6B6.2B.2A$A2.2AB7.2B31.2B7.B2A2.A$.2AB2A
7.3B29.3B7.BAB2A$2.2B2AB3.2B.BAB29.3B.2B3.BA3B$2.2B2A4BA6B27.4B3A
4BA3B$.2AB2A2.B2A4B2AB25.10B2.BAB2A$A2.2AB2.2BABA3B2A25.3B2A2BA2B
2.B2A2.A$2A.2B3.4B2A3BAB19.A3.4BA2BA3B3.2B.2A$9.5BA2BAB17.3A3.4B3A
3B$10.4BA2BAB16.A6.9B$13.B.3B5.2A10.2A6.3B.B$5.A9.3B6.A7.5B6.3B9.A
$3.3A9.4B5.A.AB3.2A2B7.4B9.3A$2.A3.2A7.5B5.2AB2.B2A3B5.2B3A7.2A3.A
$.A.2A.B.A3.2A7B5.10B4.3BABA3B3.A.B.2A.A$.A.A.3BA3B2A8B5.10B2.3B2A
B5A2B2A2B.A.A$2A.A.ABAB.13B4.9B2.4B2AB3A3B.3AB.A.2A$3.A.2BA2.14B4.
17B3A3B2.ABA.A$3.A.2AB3.14B3.17B2A3B3.ABA.A$2.2A.2A4.10B.4B3.10B.
10B4.2A.2A$12.9B2.4B.B2.7B2.9B$13.8B3.13B3.8B$13.3BA4B4.11B4.8B$
12.3B3A3B5.10B4.9B$2.2A.2A4.10B5.9B5.3BA6B4.2A.2A$3.A.2AB3.4B3A4B
3.9B5.4B2ABA3B3.ABA.A$3.A.2BA2.5BABAB2A2B3.9B3.6B2A5B2.ABA.A$2A.A.
ABAB.6B2ABA3B4.7B4.13B.3AB.A.2A$.A.A.3BA8B2A3B5.8B4.8B2A3B2A2B.A.A
$.A.2A.B.A3.6B.2B6.9B4.2B.4B2A3.A.B.2A.A$2.A3.2A7.3B9.9BA6.3B7.2A
3.A$3.3A10.B11.3B3.3BA6.B10.3A$5.A29.3AB16.A!
