#CSYNTH guntrue_1198 costs 6860 cells.
#C period 1198 fullperiod 1198 bbox 70 by 98
#CLL state-numbering golly
x = 70, y = 98, rule = LifeHistory
19.2A$19.A.A$21.A4.2A$17.4A.2A2.A2.A$17.A2.A.A.A.A.2A$19.BABABA.A$
20.B2ABA.A$21.2B.BA$20.3B$11.2A6.4B$12.A6.B2A3B$12.A.AB3.B2A3B$13.
2AB.10B$15.13B$15.14B$15.15B$17.8B2.4B$17.6B5.4B$16.9B4.4B$3.2A10.
4B4.2A5.4B$4.A9.4B5.A7.4B$2.A10.4B7.3A5.4B$2.5A5.4B5.3A2.A6.4B$7.A
4.4B5.A2.A9.4B$4.3AB2.7B.BA.A2.2A9.4B$3.A.2B3.7B.B2A15.4B$3.4A12B
18.4B$.2A2.BA3B2A7B19.4B$A2.3AB.2B2A7B20.4B7.A$2A.A.B3.10B21.4B6.
3A$3.A8.8B21.4B8.A$3.2A7.9B21.4B6.A.A$13.3B2.4B21.4B5.A.AB$11.5B3.
4B21.4B5.A3B$11.2A7.4B21.4B6.4B$12.A8.4B21.4B5.6B$9.3A10.4B21.4B4.
7B$9.A13.4B21.4B2.8B.4B.B$24.3BA10.2A9.17B.B2A$25.B2AB9.A11.18B2A$
26.ABAB10.A9.16B.2B$20.2A5.4B5.5A9.16B$21.A5.4B4.A14.15B$21.A.AB.
7B2.B3A9.2AB.12B$22.2AB.7B3.2B.A7.A.AB2.11B$24.12B4A7.A5.10B$24.7B
2A3BAB2.2A4.2A5.2B2A6B$24.7B2A2B.B3A2.A9.3B2A6B$24.10B3.B.A.2A10.
10B$23.8B8.A13.8B.B2A.A$22.9B7.2A12.7B3.B2AB3A$21.4B2.3B22.6B6.B4.
A$20.4B3.5B21.6B4.2A.3A$19.4B7.2A21.5B4.A2.2A$5.A12.4B8.A21.8B.A.A
$5.3A9.4B10.3A9.A8.8BA.A.2A.A$8.A7.4B13.A9.3A6.6B.2BAB.A.2A$7.2A6.
4B27.A4.7B2.2B2.A$7.5B2.4B6.2A19.2A4.7B3.B.2A$9.8B7.A16.2A2.4B.8B
2.A.A2.2A$8.8B5.BA.A16.A5.11B2.2A2.A2.A$7.8B2.3B.B2A19.A2.12B7.2A$
6.16B20.2A2.12B$4.18B20.B3.11B$4.17B19.3B4.7B$2.2AB.16B16.6B3.8B$.
A.AB2.17B11.10B2.9B$.A5.20B2.2B3.23B$2A6.31B2A16B.B$9.7B.22B2A17B
2A$9.6B2.41B2A$8.6B3.42B$8.4B6.36B2.5B$8.2B2AB12.4B.13B5.5B6.2A$6.
2AB.2A14.4B4.B.7B3.3B.2B7.A$5.A.AB18.4B15.2A12.3A$5.A22.4B11.A3.A
14.A$4.2A23.4B10.4A$30.4B$31.4B8.2A$32.4B6.B2AB$33.4B5.4B$34.4B5.
2B$35.4B2.4B7.2A$36.4B.5B5.A.A$37.14B.A$38.14B$38.14B$37.15B$36.
12B2A3B$35.13B2A3B$34.4B2.11B.B2A$33.4B5.8B2.BA.A$32.4B4.10B5.A$
31.4B5.2A5.B.B5.2A$30.A3B7.A4.3B$29.A3B5.3A5.B2AB$28.B3A6.A8.2A!
