#CSYNTH guntrue_3700 costs 5928 cells.
#C period 3700 fullperiod 3700 bbox 104 by 57
#CLL state-numbering golly
x = 104, y = 57, rule = LifeHistory
4.2A2.2A.2A10.B9.A58.4B$2.3A.A2.A.A.A7.BA2B.2A3.3A56.4B2A$.A4.2A.A
.B.A2.AB.B3A2BA.A2.A59.3BA2BAB$.A.3A.B.A3BA.A.2A2B.AB.BA3.2A57.3B
2ABA2B$2.AB.2ABA2B2.A.AB.A2BAB4.5B34.2A7.2B10.6B2A4B$3.3B2A3B3A2B.
BA2BA4.4B5.2B.2A25.A.A7.3B9.5BABA3B$5.3BA2B.BA2BA3B6.2BA2B3.B2A2.A
21.2A2.A7.5B6.B2.5B3A3B$2.A2.A.A2.B.B.3B2A7.B3A2B2.2AB2A22.A.A.2A
5.A7B3.8BA3BA2B$2.4A.5ABAB.ABAB6.A2B2A3B2A2B25.A.A.B2.2B2A2BA3B.6B
A5BAB2AB$6.A6.A.A3.A5.6B2.B2A2B24.2A.ABABA4BA2BA8BA2B2A6B2AB2.2A$
4.A.A2.3A.A.A.2A5.B2A4B3.2AB2A21.A2.A.A3B3A5BA8BA5B3A3BA.A2.A$4.2A
4.A.A3.A7.B2A3B4.B2A2.A20.2A2.B2A6B2A2BA8BA2BA4BABABA.2A$8.A8.A.A
4.A2BA2B5.2B.2A26.B2ABA5BA6B.3BA2B2A2B2.B.A.A$8.2A8.2A4.2B3AB36.2B
A3BA8B3.7BA5.2A.A.A$25.5B2.2A32.3B3A5B2.B6.5B7.A2.2A$25.4B4.A2.A
21.A7.3BABA5B9.3B7.A.A$25.4B4.A.A.A20.3A4.4B2A6B10.2B7.2A$9.2BA12.
6B2.2A.A.A23.A4.2BAB2A3B$9.2ABA10.8BAB2.2A23.2A4.BA2BA3B$8.A.3B9.
4B3.2B2ABA25.6B2.2A4B$7.A.A.BA8.4B3.3BA2.A27.5B.4B$7.A2.A2.2B5.4B
3.AB2AB2A27.7B$8.2A3.3B3.4B3.ABABA.A28.8B$13.3B.5B5.2B.A3.A.2A23.
9B$3.2A7.9B6.2B2A.A.2A.A22.11B$3.A8.5BA2B6.A4.A.A27.6B.4B$2A.A.B3.
6B2A2B7.4A.A.A27.5B3.4B$A2.3AB.2B2A4B2AB10.A.2A12.A12.8B4.4B$.2A2.
BA3B2A7B7.3A16.3A8.10B5.4B$3.4A12B7.A21.A6.12B5.4B$3.A.2B3.7B.B2A
2.2A.A8.2A10.2A6.13B5.4B$4.3AB2.7B.BA.A2.A.2A8.A10.5B3.12B7.4B$7.A
4.4B5.2A13.A.AB9.3AB2.13B7.4B$2.5A5.4B5.A15.2AB.3B4.BA2BA15B8.4B$
2.A10.4B6.A15.7B.BA2B2A17B7.4B$4.A9.4B4.2A15.9B2A3B2A12BA4B6.4B$3.
2A10.4B2.2B17.12BA2BA10BABA4B6.4B$8.2A6.8B15.14BABA10BABA4B7.4B$9.
A7.7B13.17BA12BA4B9.4B$9.A.2A5.7B2.B2.2B2.19B.B3.B.2B3.5B12.4B$10.
A2.A4.33B6.3B7.B15.4B$11.2AB3.27B.6B6.B2AB5.3B15.4B$12.6BA3BA21B2.
B.5B5.2A6.B2AB15.4B$13.BA2B2A3BA21B7.2A14.2A17.4B$14.2BA6BA19B8.A
35.4B$14.2BAB2AB2A8B.B.2B16.3A33.4B$15.A8B3A3B4.3B17.A34.4B$15.BAB
2A4B2A4B5.A2B.2A49.4B$16.BA2B3ABA4B5.A.A2B.A50.4B$18.4BA8B2.A.AB2.
A52.4B$17.BABA4B4.2A.A.A3.A54.4B$17.BABA2B6.2ABA2.4A.A53.4B$17.B3A
B8.B2.A.A3.A.A53.4B$17.B.B9.2A.2A2.A2.A.A54.4B$18.3B9.A.A2.2A3.A
56.3BA$17.B2AB9.A.A65.3BA$18.2A11.A67.3AB!
