#CSYNTH guntrue_6806 costs 4624 cells.
#C period 6806 fullperiod 6806 bbox 68 by 68
#CLL state-numbering golly
x = 68, y = 68, rule = LifeHistory
28.2A8.2A$29.A8.A2.2A$28.A10.2A.3A$28.2A2.2A6.B4.A$31.A.A4.B2AB3A$
26.4A.A6.B2A.A$26.A2.A.2A2.4B14.2A$29.10B12.2B2AB$30.2B.7B2.B8.4B$
31.13B5.B.5B$30.16B2.10B$30.9BA6BA4B.6B$30.9B3A4BA12B$31.9BA4B2A
11B$33.11BA13B$35.9B2A12B$35.24B$36.12B2A9B$36.13BA11B$36.11B2A4BA
9B$35.12BA4B3A9B$8.2A26.6B.4BA6BA9B$9.A26.6B.3B2.16B$8.A26.7B2.B5.
13B$8.2A11.A6.A.2A2.8B9.B2.7B.2B$6.2A2.B8.3A6.2A.A12B11.10B$5.A2.
2AB7.A14.11B11.4B2.2A.A2.A$6.A.A.2B6.2A13.4B2A5B7.A.2AB6.A.4A$5.2A
.A.AB.2BA4B3.2A9.3B2A5B5.3AB2AB4.A.A$9.2A3BABAB5.A10.10B4.A4.B6.2A
2.2A$10.3BA2BA2B.BA.A11.9B5.3A.2A10.A$12.2B2A3B.B2A12.9B7.A.A10.A$
A11.9B14.8B8.A.A10.2A$3A9.9B15.8B8.A$3.A4.A2BA9B15.7B$2.2A3.BA2BA
4BA4B15.7B$2.B2A.2AB2AB2AB2A5B.B10.B2.6B$4.AB2A5B4A6B2A8.2AB.6B$3.
2A2BA4BABA6B.B2A8.2A7B$3.2AB3A12B2.B5.A4.2B.6B$3.BAB3A5B2A4B7.3A7.
5B$5.3B2A5BA3B2A5.A9.6B$7.3B2.4B5A5.2A8.6B$13.4B3AB4.3B9.5B$15.5B.
5B11.5B$13.3B4.B3A4B10.3B$13.2A5.5A4B2.3B3.4B$14.A5.2A3BA5B2A3B.4B
$11.3A7.4B2A5B3ABA5B$11.A5.B2.12B3AB2A.4B$16.2AB.6BABA4BA2B2A2.4B$
16.2A6B4A5B2ABA4.4B$17.B.5B2AB2AB2AB2A.2AB3.4B$20.4BA4BA2BAB3.2A4.
4B$20.9BA2BA4.A6.4B$20.9B9.3A4.4B$20.9B11.A5.4B$18.2AB.3B2A2B18.4B
$17.A.AB.2BA2BA3B17.4B$17.A5.BABA3B2A17.4B$16.2A3.4BA2B.BA.A.2A14.
4B$21.2A6.2B.A.A16.4B$22.A7.B2A2.A16.4B$19.3A8.B2.2A18.4B$19.A11.
2A21.4B$32.A22.3BA$31.A24.3BA$31.2A24.3AB!
