#CSYNTH guntrue_1800 costs 2145 cells.
#C period 1800 fullperiod 1800 bbox 55 by 39
#CLL state-numbering golly
x = 55, y = 39, rule = LifeHistory
14.2A5.2B19.2A4.2A$4.ABA4BA6BA2B3A2.2A14.A.A2.A.A$3.BA.4ABABA2BABA
BAB2AB.2A2.2A5.2A5.A2BA$3.2A2B.2A2.B4AB4.B3A5.A4.A2.A2.BA4BAB$3.2B
.2B2AB3.2B8.BAB3.A5.3A3.BA4BAB$7.A.A4.2B9.A4.2A2.2A7.A4BA$8.A6.B
12.2A3.A.A.4A4.2A6.2A$14.2AB10.A2.A.2A.ABA2.A5.B6.A$13.A2BAB5.2A2.
3A3.2B2A9.2B2.BA.A$11.3B2A3B4.A6.4ABAB7.2B2AB.B2A$11.8B.BA.A3.2A.A
.BA4B2.6BABA2B$10.9B.B2A3.A.A.2B2AB.5B2A5BA2B$9.B2A9B4.A2.A.2B2A2.
4B2ABA2B3A2B.2A$8.BA2BA8B3.A3.2A2.B3.5BA2B2A4B.A.A$9.B2A9B2.A11.9B
2A5.BA$11.10B3.3A7.4B3.2BAB7.2B$13.7B7.A5.4B14.BA2B$13.8B5.2A4.4B
14.4A$12.5B.4B4.9B14.BA.2B$12.6B.4B5.6B15.2BAB$11.6B3.4B2.2BA5B7.
2A2.2A.2B2AB$7.B2.3BA3B4.7B2A6B5.A2.A.3AB2A$5.7BABA2B5.5BAB2A5B6.A
.A.3BA.2A$5.7BABA2B6.6B2A5B7.A2.2AB.A.A$4.9BA3B7.10B.B2A6.2A.4BA$
4.11B.B2A6.7B3.BA.A7.A3B$5.9B2.BA.A4.5B2A2B5.A5.2AB.6A$5.7B7.A4.8B
6.2A3.A2.2A2B.A2.A$6.6B7.2A5.6B12.A.B2.B.2B2A$7.4B15.5B12.2A.2A4B$
8.4B15.3B11.A2.A.A.3B4A$8.5B13.5B10.2A3.A.3A3.A$9.5B12.2AB2AB14.2A
4BA$6.3B2.4B7.2A2.BA.2A2.2A9.2A2.BAB.2A$.B2.BA3B3.4B6.A2.A.A3.B2.A
8.A2.2ABA2B2.A$3AB2A2B2A3.4B7.2A.7A9.2A.A2.B.A.2A$4A4B2A4.3BA8.A
19.A2.B2A.A$.3B2A2.B6.3BA7.A.4A14.2A2.A2.A$.3B12.3AB7.2A2.A19.2A!
