#CSYNTH guntrue_1250 costs 3465 cells.
#C period 1250 fullperiod 1250 bbox 55 by 63
#CLL state-numbering golly
x = 55, y = 63, rule = LifeHistory
11.2A4.2A$11.A.A2.A.A$13.A2BA12.2A$11.BA4BAB2.A2.A5.A$11.B6AB2.4A
5.A.2A4.A$12.B4AB7.2A2.2A2.A4.3A$6.2A6.2B4.A.2A.A.A3.A9.A$7.A6.B5.
2A.A2B.2A.A5.3A2.A$7.A.AB2.2B9.A2BA3.3A.A.B.A.3A$5.2A.2AB.3BAB7.5B
2A2.A.A.B.A4.A$6.A3.4BAB2A3B2.5BA.A.A2.ABABA.3A$4.A.A3.6B2A7B.2B3A
.A.A2.A.3A$3.A.A.2A.8BA6B2.BABA.A.3A.2A$3.A.A.A.A.4BAB2A5BA3.B2.2A
4.B2A$2A.A.BABAB5.AB2A3BABAB8.3ABAB$.A.A.BA2B7.4B3.2A2B4.3A2.BAB
10.2A.2A$A2.2A3B16.4B3.A2.A2B.A9.2BA.2A$3A4.AB16.4B5.A.3AB6.3B$3.
5A4.A13.4B5.2A2BA6.8A$2.A8.BAB2.2A9.4B4.3BA6.B2A.A3.A$3.3A4.BA2B.
2B.A9.4B5.B8.2AB2.A$5.A4.B.BA3BA3.A7.4B4.B9.6A$9.5BA.A4.3A6.8B8.A.
B4.A$5.B3.5B10.A6.10B4.B6A.A$4.2AB.2A3BAB8.2A5.12B3.B2ABA.2A$4.2A
2B2A4B2A7.20B3.2B.A$5.B.6B2A2B8.16B2A5B2AB2A$9.2B2.5B6.2B2A9B2A2B
2A.4BAB2.A$9.B4.5B4.2BA2BA7BABA3B4.3BABA$7.5B3.5B3.3B2A4B2.2B2A3B
5.2BA2.A.A$7.5B4.14B4.7B7.2A2.2A$6.7A4.12B6.3B5.A2.A.A$4.3A.3A.3A
3.10B7.5B3.4A.A$3.A3.B3AB3.A3.9B10.2A7.A$3.A.3A.A.4A5.9B9.A6.A$4.A
3.3B10.7B11.3A3.2A$6.A.A.A.2A.A6.6B13.A$5.2A.ABA.A.2A8.4B$6.A.A2.A
13.4B$6.A2.2A15.4B12.A6.2A$5.2A6.B13.4B9.3A6.A$12.2AB2.BA9.4B7.A7.
A.A$11.B2AB.BA.A9.4B6.2A5.A.A.2A$11.B.5BA3.A7.4B.6B5.A.A2.A$10.6B.
B4.3A6.8B8.A.A$6.B3.5B10.A6.10B7.2A2.2A$5.2AB.2A5B8.2A5.B.10B4.BAB
2.A.A$5.2A2B2A6B7.18BAB3.B2AB2A$6.B.10B8.15BABA4BA2B2.A$10.2B2.5B
6.2B2A12BABA.3BA2B3A$10.B4.5B4.2BA2BA12BA4.BA.A$8.B3A4.5B3.3B2A4B
2.7B4.BABAB.2A$4.2A2.3ABA4.14B4.7B4.2A3B2A.A$4.A2.A.A2BA5.12B6.3B
8.B.A4.A$5.A.A2B.B7.10B7.5B7.2B4A$6.A2.3B8.9B10.2A6.2BA2.A$7.5AB8.
9B9.A6.3B.A3.A$10.2AB9.7B11.3A4.2AB5A$7.2A2BAB10.6B13.A4.B2A$6.A2.
ABABA11.4B20.2BA.2A$6.2A2.4BA11.3BA20.2A.2A$11.A2B.A11.3BA$13.2A
13.3AB!
