#CSYNTH guntrue_1090 costs 4968 cells.
#C period 1090 fullperiod 1090 bbox 92 by 54
#CLL state-numbering golly
x = 92, y = 54, rule = LifeHistory
51.2A11.A6.2A$50.B2AB9.A.A4.A2.A$51.3B9.A.A3.A.3A2.A$50.B.B9.2A.2A
.A.A5.3A$50.5B8.B2.A.A3.2A5.A$50.6B6.2ABA2.4A.A4.2A$50.8B4.2A.A.A
3.A6.5B$51.13B2.A.AB2.A7.4B$49.13B5.A.A2B.A6.5B$48.15B5.A2B.2A6.6B
$7.2A5.2A2.2A.2A25.15B4.3B10.6B.B$7.A2.2A.A2.A2.A.2A24.17B.B.2B10.
6B.B2A$8.2A.A.2A.2A.A27.29B4.7B2A$4.2A3.A.A2.A.A2.A.2A23.13B2A16B
2.6B.2B$.A2.A2.A.BAB3A.A.2A.BA22.14B2A16B2.6B$.3A2.2ABA2B.A2B2A.B
2A22.2AB3.20B2A5B.9B3.B$4.2A2.5A2B.2B3A22.A2.A4.19B3A15B.B2A$3.A2.
A.B6AB.2B2A21.A.2A5.6B3.B2.2B2.3BA4B2A13B2A$4.2A4.2B.2A3.B23.A7.6B
14.2B2A2BA14B$10.2B10.A18.2A6.9B14.2B2A15B$11.B9.A.A24.4B4.2A15.BA
14B$10.2AB7.A2.A23.4B5.A15.17B$.2A6.A2BAB5.A3.2A21.4B7.3A12.17B$2.
A4.3B2A3B4.2A3.A20.4B10.A10.2AB.3B.10B$2.A.AB.8B.BA.A2.A10.A10.4B
21.A.AB5.9B$3.2AB.8B.B2A2.3A7.3A9.4B22.A9.8B$5.12B7.A5.A11.4B22.2A
8.9B2.B$5.12B6.2A4.B2A9.4B19.A13.9B.B2A$5.12B6.9B8.4B.3B.B12.3A14.
10B2A$7.10B8.5B3.13BA4B10.A18.8B.B$9.7B8.6B2.13B2A5B5.B3.2A11.A4.
8B$9.8B7.6B2.12B2A6B3.8B11.3A3.7B$8.5B.4B6.7B.13BA6B.8B16.A3.5B$8.
6B.4B4.23BA14B15.2A3.4B3.A$7.6B3.4B2.20B2.2B.BABA11B14.9B3.3A$3.B
2.3BA3B4.4B.17B8.3BABA11B14.6B7.A$.7BABA2B5.19B11.19B2.2B2.B3.6B5.
2A.A$.7BABA2B6.17B12.2BA32B4.A2.A$9BA3B7.17B12.BA5B.27B3.B2A$11B.B
2A6.16B11.4BABA18B2A14B$.9B2.BA.A6.7B3.3B.B2A8.2BA5B2A16B2A13B$.7B
7.A7.6B7.BA.A8.BABA4B2.29B$2.6B7.2A7.4B11.A8.6B11.2B.B.17B$3.4B15.
5B12.2A8.2BA2B10.3B4.15B$4.4B14.2A25.A2BA7.2A.2BA5.15B$5.4B14.A25.
3BA7.A.2BA.A5.13B$6.4B10.3A24.A2B.A9.A2.BA.A2.13B$7.4B9.A25.A.2A
12.A3.A.A.2A4.8B$8.4B34.A13.A.4A2.AB2A6.6B$9.4B32.2A12.A.A3.A.A2.B
8.5B$10.4B45.A.A2.A2.2A.2A9.B.B$11.3BA45.A3.2A2.A.A9.3B$12.3BA52.A
.A9.B2AB$13.3AB52.A11.2A!
