#CSYNTH guntrue_935 costs 3819 cells.
#C period 935 fullperiod 935 bbox 67 by 57
#CLL state-numbering golly
x = 67, y = 57, rule = LifeHistory
47.2A2.A2.A$47.A3.4A$48.3A4.2A$50.B.3A2.A$36.A9.4A.2A.A.A$34.3A9.A
2.4A.A.2A7.2A$33.A16.3B.A10.A$26.A6.2A15.4BA7.BA.A$25.A.A3.4B13.2B
2.BA5.2A.3A$26.A.5B14.BAB8.BAB2A$27.7B12.2A2B9.B2A$27.4B2A4B.B6.2B
2A3B7.3AB$27.4B2A3B.B2A5.8B6.2BAB$27.11B2A5.6BA3B3.A2B.2B.2A$27.9B
.2B5.4B3A5B.BA3B2A2.A$22.2B2.10B8.4B3A7B.5B2A$21.2A13B8.14B.2ABA$
21.2A13B6.2AB.11B3.B.A.2A$22.2B.11B5.A.AB.11B4.2A.2A$25.9B.B2A3.A
5.4B.4B$27.7B.BA.A.2A5.4B2.4B$26.7B5.A.A5.4B5.3B$8.2A8.A6.8B5.A.A
4.4B5.B4AB$7.B2AB5.3A5.4B2.4B5.A4.4B6.6AB$8.3B4.A7.4B4.4B8.4B6.AB
2A2B.A$2A5.B.B5.2A5.4B6.4B6.4B5.3A.3BA.3A$.A5.10B4.4B8.4B4.4B5.A4.
A2B2A3.A$.A.AB2.8B5.4B10.4B2.BA2B6.A.5A.2BAB.A$2.2AB.11B2.4B12.3B.
2A2B8.A3.B2A2.BA.2A$4.3B2A13B10.2B.5B2A10.3A.AB2.BA2.A$4.3B2A12B
10.2A8B13.2A3B2A.2A$5.15B11.2A7B15.B.2A.B.A$5.14B5.A7.B.5B18.3BA.A
$5.14B5.3A7.5B17.A2B.A.2A$4.A.14B7.A5.7B17.2A.A$3.A.A5.5B.4B5.2A4.
4B.4B16.2B2A$4.A7.4B2.4B4.9B3.4B18.A.2A$12.2B5.4B5.7B4.4B15.A.A.A$
11.4B5.4B2.2B2A4B6.4B12.A3BA2.A$11.B2AB6.6BA2BA5B5.4B11.AB3.2A$12.
2A8.5B2AB2A5B5.4B11.B3A$23.5BABA6B6.4B9.A2B.A$24.5BA4B3.B2AB3.4B8.
ABA$25.7B5.4A4.4B8.A$24.9B2.BA.2B.AB3.4B$24.8B3.2AB2.B2A4.4B$26.6B
3.2AB2.B2A5.4B$26.5B4.BA.2B.AB6.4B$27.3B7.4A9.4B$26.5B6.B2AB10.4B$
26.2AB2AB20.4B$22.2A2.BA.2A2.2A18.4B$22.A2.A.A3.B2.A19.4B$24.2A.7A
21.4B$26.A29.3BA$26.A.4A25.3BA$27.2A2.A26.3AB!
