#CSYNTH guntrue_8019 costs 6868 cells.
#C period 8019 fullperiod 8019 bbox 101 by 68
#CLL state-numbering golly
x = 101, y = 68, rule = LifeHistory
61.2A$59.A2.A7.2A3.2A$57.4A9.A.A.A.A$56.A4.4A7.A.A7.2A$55.A2.2A.A
2.A6.2A.2A6.A$55.3A.2AB2.A.AB2.B.B.B.B2.BA.A$58.A.A4.2AB.B2A3B2AB.
B2A7.2A$57.A2.2A5.2B9A2B9.A$56.A.2B2A5.B2A7B2AB6.BA.A$57.2A.B.B5.
2B.5B.2B7.B2A$60.B2A.2A6.3B9.3B9.2A$61.A.2B.A6.B9.4B5.A4.A$57.2A3.
AB.A2B2.3B9.4B5.A.A.A$56.A2.A2.B.BAB2.7B2.3B.4B5.A2.3A$55.A.3A2B4A
2.19B.BA.A6.2A$56.A2.4B2AB2.3BA12B2AB.B2A3.4A.A$57.2A.B6.2B2AB2A8B
2A2BA2B4.A3.A$58.4A5.2B2AB2A8B2AB2A2B5.4A$58.A3.A4.2BA2B2A8B2AB2A
2B6.B.2A$56.A.4A3.2AB.B2A12BA3B2.B2A4B2.A$56.2A6.A.AB.19B2.4A2B3A.
A$59.3A2.A5.4B.3B2.7B2.BAB.B2.A2.A$14.B.B43.A.A.A5.4B9.3B2.2BA.BA
3.2A$12.3B2AB40.A4.A5.4B9.B6.A.2B.A$2A10.2BA2BA40.2A8.A3B9.3B6.2A.
2AB$.A5.2B2.4B2A2B48.A3B6.2B.5B.2B5.B.B.2A$.A.AB.13B9.2A36.B3A6.B
2A7B2AB5.2A2B.A$2.2AB.16B6.A3.2A31.4B7.2B9A2B5.2A2.A$4.4BA12BAB7.A
2.A30.4B6.2AB.B2A3B2AB.B2A4.A.A$3.4BABA10BABAB5.3A2.2A27.4B6.A.AB
2.B.B.B.B2.BA.A2.B2A.3A$4.4BA11BABAB3.2B3.2A2.A25.4B7.A6.2A.2A6.A
2.A.2A2.A$2.2AB.15BA2B3.2B3A2.A.A23.5B7.2A7.A.A7.4A4.A$.A.AB.23BA.
B2A.A22.8B13.A.A.A.A9.4A$.A5.2B2.19B2A3.A.A20.10B10.A.A.A.A.A6.2A$
2A10.21B2A.2A20.10B10.A.A.A.A.A6.A2.A$12.19B.B.A22.11B11.A.A.A.A9.
4A$12.16B5.A2.2A18.12B4.2A7.A.A7.4A4.A$8.2A.4B3.10B6.2A.A17.4B2.5B
7.A6.2A.2A6.A2.A.2A2.A$8.A.3B2AB3.8B27.4B5.B2A2B5.A.AB2.A.A.A.A2.B
A.A2.A2B.3A$9.A2.B2A4.9B25.4B7.ABAB6.2AB.A3BA3BA.B2A4.B.A$10.A8.
10B23.4B8.BA3B7.BA3B3A3BAB5.2B2.A$8.A.5A5.10B21.4B10.5B6.B2AB5AB2A
B5.4A.A$7.A.A4.A5.3BA7B19.4B12.5B6.2B.5B.2B5.A.A.BA$7.A.A2.A7.2BAB
A7B6.A10.4B5.2A8.B3A9.3B6.AB.2AB$8.A3.2A6.2BABA8B5.3A7.4B6.A4.A5.A
3B9.B6.A.2A.A$20.3BA10B7.A5.ABAB9.A.A.A5.A3B9.3B2.B2A.2B3.2A$18.2A
B.13B5.2A4.B2AB9.3A2.A5.4B.BAB2.3BA3B2.2AB.A2.A2.A$17.A.AB2.13B4.
8BA7.2A6.A.AB.5B2ABA3BABA4B2.A2BA2B3A.A$17.A7.7B.4B5.6B8.A.4A3.2AB
.BAB4AB2A3B2A4B2.A2BA2BA2.A$16.2A7.6B3.4B2.8B10.B3.A4.3BA3BA14B6.A
.2A$12.A13.4B5.15B8.2B2A5.3BABA10BABA3B5.2A2B$12.3A10.4B7.14B7.2A.
A6.14BA3BA3B4.A3.B$15.A8.4B9.13B6.A2.A2BA2BA2.4B2A3B2AB4ABAB.B2A3.
4A.A$14.2A7.4B11.10B.B2A3.A.3A2BA2BA2.4BABA3BAB2A5B.BA.A6.2A$14.5B
3.4B13.4B2AB3.BA.A3.A2.A2.A.B2A2.3BA3B2.BAB.4B5.A2.3A$5.2A9.3B2.4B
13.5B2A2B5.A4.2A3.2B.2AB2.3B9.3BA5.A.A.A$4.A.A8.9B14.8B6.2A7.A.2A.
A6.B9.3BA5.A4.A$4.A8.B.8B17.6B14.B2A.BA6.3B9.A2B9.2A$.2A.AB.B3.BA
9B18.5B12.AB.A.A5.2B.5B.2B7.2BA$2.A.A.2AB.3A9B19.3B12.A.4A5.B2AB5A
B2AB6.2A.A$2.A.A.2A2B2A10B18.5B12.A2.2B5.BA3B3A3BAB9.A$.2A.A2.5BA
9B18.2AB2AB12.A.B4.2AB.A3BA3BA.B2A7.2A$.A2.4A3BA8B.B2A12.2A2.BA.2A
2.2A6.3A.2BA2.A.AB2.A.A.A.A2.BA.A$2.2A2.BAB.BA8B.BA.A11.A2.A.A3.B
2.A6.A2.2A.A2.A6.2A.2A6.A$4.2A6.7B5.A13.2A.7A8.A4.4A7.A.A7.2A$4.A
7.2B.3BA5.2A14.A16.4A9.A.A.A.A$6.A9.3BA20.A.4A13.A2.A7.2A3.2A$5.2A
10.3AB20.2A2.A15.2A!
