#CSYNTH guntrue_1127 costs 7695 cells.
#C period 1127 fullperiod 1127 bbox 95 by 81
#CLL state-numbering golly
x = 95, y = 81, rule = LifeHistory
40.2A11.A$39.B2AB9.A.A$40.3B9.A.A2.2A3.A$39.B.B9.2A.2A2.A2.A.A2.A$
39.5B8.B2.A.A3.A.A2.3A5.2A$39.6B6.2ABA2.4A.A6.A3.B2AB$39.8B4.2A.A.
A3.A7.2A4.2B$40.13B2.A.AB2.A6.7B$38.10BA2B5.A.A2B.A7.6B$37.10BA3BA
5.A2B.2A6.8B$37.9BA4BA4.3B10.9B$36.9BA2B3A2B.B.2B10.12B$36.10BA18B
4.12B$35.31B2.12B$34.32B2.12B13.2A$33.2AB3.27B.14B12.A$32.A2.A4.
42B5.B2.BA.A$31.A.2A5.6B3.B2.2B2.21B2.4B3.3B.B2A$31.A7.6B14.17B4.
2BAB.6B$30.2A6.9B14.16B4.2B2A6B$37.4B4.2A15.15B5.2A3B2A2B$37.4B4.A
15.17B5.3BA2BA$36.5B5.3A12.7B.8B5.4BABAB$33.9B6.A10.2AB.3B4.6B5.6B
AB$33.9B16.A.AB9.4B5.4B2.3B$33.9B16.A10.6B4.4B3.3B.B$33.10B14.2A8.
A.2AB.B4.4B6.3B2A$32.12B21.3AB2AB5.4B3.B3.3B2A$31.13B8.2A10.A4.B6.
4B3.3A.A3BAB$32.11B9.A12.3A.2A4.4B4.6A3BAB$33.12B4.BA.A14.A.A4.4B
6.B.A4B2.A$33.15B.B2A10.A4.A.A3.4B11.5A$33.17B12.3A3.A3.4B$33.17B
15.A5.4B13.5A$30.B.17B15.2A4.4B10.B.A4B2.A$29.2A19B14.9B6.2A2.6A3B
AB$29.2AB.19B14.6B7.A3.3A.A3BAB$30.B4.20B2.2B2.B3.6B5.2A.A4.B3.3B
2A$35.22B2A12B4.A2.A9.3B2A$35.9B.11BA2BA12B3.B2A12.B$36.7B2.10B2A
2BA17B$36.7B2.11B2A2BA15B$36.6B4.11B4A14B$36.7B10.2B.B.17B$36.6B
10.3B4.15B$35.7B6.2A.2BA5.15B$36.5B7.A.2BA.A5.13B$31.2B2.6B8.A2.BA
.A2.13B$30.13B7.A3.A.A.2A4.8B$29.11B.2A5.A.4A2.AB2A6.6B$20.2A6.8B
5.A5.A.A3.A.A2.B8.5B$21.A4.4B2A3B.2B4.3A2.A.A2.A2.2A.2A9.B.B$20.A
4.4BA2BA4B2A5.A3.A3.2A2.A.A9.3B$20.2A4.3BA2BA2B.B2A17.A2.A8.B2AB$
21.2B5.2B2A3B2.B17.2A3.A.A6.2A$4.2A5.3B6.5B2.8B24.2A.3A8.A$5.A5.4B
4.15B26.B4.A3.5A$5.A.AB.5B4.10B.B2A2B5.7B.B10.2AB4A2.A$6.2AB.5B3.
13B2A3B4.13B.B4.2A.A6.3A$8.7B3.43B3.B4A2.A$8.8B3.40B5.BA2.A2B$3.2A
4.8B3.40B2.8B$3.A.A3.33B2A27B$5.A3.33B2A16BA9B$5.2A.41B3.2B.5BA7B.
B2A$7.18B3.B2.B3.B2.10B9.3BA7B.BA.A$2.2A3.18B14.6B13.B.7B5.A$2.A2.
B.12B3.5B13.3B19.5B5.2A$3.3A12B7.2A13.B19.8B$5.AB.9B8.A13.2A19.2AB
2.4B$3.2A3.9B3.2A4.3A10.A21.A4.4B$3.A4.9B4.A6.A11.A17.3A6.4B$2A.A
2.2AB.3B2A2B4.A.2A14.2A17.A9.4B$2A.A.A.AB.2BA2BA2B.3A2.A44.4B$3.A.
A5.BABA3BAB2.2A46.4B$3.A.A3.4BA4B4A49.4B$4.A4.2A5.4B.A50.4B$10.A7.
2A.A.A49.4B$7.3A9.A2.2A50.3BA$7.A9.A.A55.3BA$17.2A57.3AB!
