#CSYNTH guntrue_1870 costs 4488 cells.
#C period 1870 fullperiod 1870 bbox 68 by 66
#CLL state-numbering golly
x = 68, y = 66, rule = LifeHistory
49.A$48.A.A$48.A.A$47.2A.2A2.2A$47.A3.A.2B.A$48.3A.2B.A2.A$50.ABAB
.A.2A7.2A$37.A13.3A.A10.A$35.3A13.3B2A7.BA.A$34.A14.2B2.2B5.2A.B2A
$27.A6.2A12.3B8.B2A2B$26.A.A3.4B11.B2AB9.3B$27.A.5B12.BA2BA2B7.BA
2B$28.7B11.2B2A4B6.B3A$28.4B2A4B.B6.10B3.3B.AB.2A$28.4B2A3B.B2A4.
10B2A.4BABA2.A$28.11B2A4.13BA.B6A$28.9B.2B5.9BA2BAB.4B$23.2B2.10B
6.2AB.7B3AB3.A.A.2A$22.2A13B5.A.AB.11B4.2A.2A$22.2A13B5.A5.4B.4B$
23.2B.11B4.2A5.4B2.4B$26.9B.B2A8.A3B5.3B$28.7B.BA.A6.A3B6.4B$27.7B
5.A5.B3A5.8B$26.8B5.2A3.4B6.ABA2BABA$8.2A8.A6.4B2.4B8.4B6.A.A.2A.A
.A2.A$7.B2AB5.3A5.4B4.4B6.4B5.3A.AB2.BA.4A$8.3B4.A7.4B6.4B4.4B5.A
4.2B2A2B$2A5.B.B5.2A5.4B8.4B2.4B6.A.4AB2AB4A$.A5.10B4.4B10.3B.4B6.
2A.A2.2A2.AB2.A$.A.AB2.8B5.4B8.2B.7B6.A4.AB4AB3A$2.2AB.11B2.4B8.2A
8B8.3A.A.A.A3B2.3A$4.3B2A13B9.2A7B11.A2.A.BA.3BA2.A$4.3B2A12B11.B.
5B13.A.A.A.2A2.A.A$5.15B3.A10.5B12.2A.A.A3B3.A$5.14B4.3A7.BA5B14.A
.3BA$5.14B7.A5.2A2B.4B13.A.A2BA$4.A.14B5.2A4.2B2A3.4B13.2A4B$3.A.A
5.5B.4B4.9B5.4B14.B2A2B.2A$4.A7.4B2.2B2A5.7B6.4B14.2A.A2.A$12.2B5.
BABA2.7BA8.4B7.2A2.B3.4A$11.4B5.A10BABAB7.4B6.A2.5A$11.B2AB6.10BAB
A2B7.4B6.2A.2ABA.3A$12.2A8.10BA3B8.4B6.A.3BABA2.A$23.10B3.B2AB5.4B
5.A.A6.2A$24.7B5.A2BA6.4B5.8A$23.9B2.BA.2B.AB5.4B8.A2.A$23.3B2A3B
3.A2B2.2BA6.4B5.A$25.BA2BAB3.A2B2.2BA7.4B4.2A$25.BA2BA4.BA.2B.AB4.
A3.4B$26.A2B7.A2BA5.A.A3.4B$25.5B6.B2AB5.A.A3.5B$25.2A3BA11.2A.A.
2A2.6B$21.2A2.BA.2A2.2A8.A.2A2.2BA2B.4B$21.A2.A.A3.B2.A12.5AB3.4B$
23.2A.7A13.A2.3BA3.4B$25.A21.2ABA2BA3.4B$25.A.4A17.A.A2BAB3.4B$26.
2A2.A12.2A.A3.A.AB5.4B$43.A.2A.A.2A2B6.4B$47.A.A4.A6.4B$47.A.A.4A
7.4B$48.2A.A11.3BA$52.3A9.3BA$54.A10.3A!
