#CSYNTH guntrue_2295 costs 2800 cells.
#C period 2295 fullperiod 2295 bbox 70 by 40
#CLL state-numbering golly
x = 70, y = 40, rule = LifeHistory
24.2B5.2A$24.4B2.A.A$23.4BA3BA$23.3B3AB6.B$24.BA2B2A5.3B$25.2AB2AB
4.3B$24.3A4B3.2BA2B$24.B2ABA2B3.2BA2B$25.2BA3B2.2BABA2B$22.2B.6B2.
3BA3B$21.2A13BA4B$21.2AB.11BA4B$22.B2.2BA4B.3BA3B$24.B2ABA6BABA2B$
24.3A6B.2BA2B$25.2AB2AB3.2BA2B$25.A2B2AB4.3B$24.2B3A2B4.3B$24.3BA
2B6.B$25.6B15.A5.2A$25.5B14.3A6.A$25.5B13.A9.A.AB$11.A13.6B12.2A9.
2AB.2A$11.3A10.10B7.4B11.2B2AB5.A$14.A8.8B2A6B2.2B13.4B5.A.A$13.2A
7.4B4.B2A3B2A8B10.4B5.A.A$13.5B3.4B5.A4B2A10B.B.11B3.2A.2A$4.2A9.
3B2.4B7.BA3BABA22B4.B$3.A.A8.9B6.A2BA4B2A8B.6BA6B3.2AB2A$3.A8.B.8B
5.A.2B3.3B2ABA6B.6BAB2A3B3.2B.A$2A.AB.B3.BA9B4.3AB2A3.6BA6B.8B2A4B
A2BA3.A$A2.A.2AB.3A9B3.A4.B4.22BABA3BAB4.2A$.A.A.2A2B2A10B4.3A.2A
3.11B.B.10B2A4BA$2A.A2.5BA9B6.A.A5.4B10.8B2A3B2AB$A2.4A3BA8B.B2A4.
A.A5.4B13.2B2.6B2AB$.2A2.BAB.BA8B.BA.A4.A5.B2A2B11.4B7.3B$3.2A6.7B
5.A11.2A.B2A9.2A$3.A7.2B.3BA5.2A13.BA.A9.A$5.A9.3BA22.A6.3A$4.2A
10.3AB21.2A5.A!
