#CSYNTH guntrue_1536 costs 2688 cells.
#C period 1536 fullperiod 1536 bbox 56 by 48
#CLL state-numbering golly
x = 56, y = 48, rule = LifeHistory
30.2A.2A$24.2A.A3.A.A$24.A.5A2.A$30.A.A$25.2AB2A2.2A$25.2AB2ABA$
26.2B2A.A$28.2BA$29.B$25.4B$23.7B12.3B$11.2A9.B2A6B10.3AB$.2A6.2BA
BA2.6B2ABA6B9.3A.A$2.A6.4BA2.3B3A3BA2B.4B8.BA.A.A$.A6.5B2A4BA3B2A
3B2.4B5.2B2.A2.A$.2A6.B2A2B2A4B2AB2A3B3.4B3.3B3.2A$3.BA.B.2B3AB2A
11B5.5B.2AB9.2A$.7A2B2A2B2A11B6.4BA2BAB8.A.A$A2.A.3A18B8.4B2A2B.B
8.A$2A3.B2A17B10.11B3.B.BA.2A$8.14B13.12B.B2A.A.A$9.16B3.2A5.14B2A
.A.A$9.B4AB2A8B.B2.A5.8B2A5B2.A.2A$7.2B5ABA3BA6B3A4.2AB.5BA2BA3B4A
2.A$5.B.3BA2BA5BA2B.B.BA5.A.AB.6B2A2B.BAB2.2A$4.2A5B3A5BAB6.2A3.A
5.7B6.2A$4.2A6BA9B6.A2.2A5.4B.2B7.A$5.9B2.5B7.A.A6.4B9.A$5.5B.3B2.
B2A2B8.2A5.4B10.2A$17.2A6.2A8.4B$24.B2AB6.4B$24.4B5.4B$25.2B5.4B$
17.A7.4B2.4B$16.A.A5.5B.4B$17.A.14B$18.14B$18.14B$18.15B$17.3B2A
12B$17.3B2A13B$15.2AB.11B2.4B$14.A.AB2.8B5.4B$14.A5.10B4.4B$13.2A
5.B.B5.2A5.4B$21.3B4.A7.3BA$20.B2AB5.3A5.3BA$21.2A8.A6.3AB!
