#CSYNTH guntrue_3631 costs 11948 cells.
#C period 3631 fullperiod 3631 bbox 116 by 103
#CLL state-numbering golly
x = 116, y = 103, rule = LifeHistory
40.2A$39.A.A$33.2A4.A$31.A2.A2.2A.4A$31.2A.A.A.A.A2.A4.2A$34.A.ABA
BAB7.A$34.A.AB2AB6.A$35.AB.2B7.5A$38.3B10.A$38.4B3.4AB$36.3B2AB3.A
2.AB$36.3B2AB4.4B$34.15B3.2A$33.14B2A.A2.A$32.15B2A.2A$31.15B.B$
30.4B2.9B$14.2A13.4B5.7B$14.A13.4B4.9B$9.2A5.A10.4B5.2A4.4B$9.A5.
2A9.4B7.A5.4B$6.2A.A.3B11.4B5.3A7.4B$6.A2.A.2A2B2A7.4B6.A10.4B$8.
2A.A.2B2AB5.4B19.4B$11.A.4B5.4B21.4B$11.2A.4B3.4B23.4B$4.2A8.3BA6B
25.4B25.A11.2A$3.A.A8.2BABA4B10.2A15.4B23.A.A9.B2AB$3.A8.B.3BA4B
11.A.A15.4B10.A3.A3.2A2.A.A9.3B$2A.AB.B3.11B14.A4.2A10.4B7.3A2.A.A
2.A2.2A.2A9.B.B$.A.A.2AB.12B10.4A.2A2.A2.A9.4B5.A5.A.A3.A.A2.B8.5B
$.A.A.2A14B3.2A5.A2.A.A.A.A.2A10.7B.2A5.A.4A2.AB2A6.6B$2A.A2.5B2A
8B3.A8.BABABA.A14.9B7.A3.A.A.2A4.8B$A2.4A3BA2BA5B.B2A.A9.B2ABA.A
15.6B8.A2.BA.A2.13B$.2A2.BAB.2B2A6B.BA.A11.2B.BA17.5B7.A.2BA.A5.
13B$3.2A6.7B5.A.A8.3B19.7B6.2A.2BA5.15B$3.A7.2B.4B5.2A.A6.4B20.6B
10.3B4.15B$5.A9.4B7.A6.B2A3B18.7B10.2B.B.17B$4.2A10.4B6.A.AB3.B2A
3B18.6B4.29B$17.4B6.2AB.10B16.7B2.16B2A13B$18.4B7.13B15.7B2.16B2A
14B$19.4B6.14B13.9B.27B3.B2A$20.4B5.15B12.36B4.A2.A$21.4B6.8B2.4B
6.B4.20B2.2B2.B2.7B5.2A.A$22.4B5.6B5.4B4.2AB.19B13.7B7.A$23.4B3.9B
4.4B3.2A19B15.8B6.2A$24.4B.4B4.2A5.4B3.B.17B17.2B2.4B$25.7B5.A7.4B
5.17B15.2A4.4B$26.5B7.3A5.4B4.17B15.A6.4B$26.5B9.A6.4B3.15B.B2A15.
A5.4B$25.7B16.4B2.12B4.BA.A13.2A6.4B$24.4B.4B7.A8.15B9.A22.4B$23.
4B3.4B6.3A7.15B8.2A22.4B5.2A3.2A$22.4B5.4B8.A7.14B33.4B4.2A3.A$21.
4B7.4B6.A.A7.12B35.4B10.A$20.4B9.4B5.A.AB7.10B30.2A5.4B5.5A$19.4B
11.4B5.A3B7.9B31.A5.4B4.A$18.4B13.4B6.4B5.9B31.A.AB.7B2.B3A$17.4B
15.4B5.6B5.6B33.2AB.7B3.2B.A$16.4B17.4B4.7B.2B2.5B35.12B4A$5.A9.4B
19.4B2.8B.9B35.7B2A3BAB2.2A$5.3A6.4B21.24B34.7B2A2B.B3A2.A$8.A4.4B
23.24B33.10B3.B.A.2A$7.2A3.4B8.2A14.19B2.4B31.8B8.A$7.8B8.A.A13.
19B4.4B29.9B7.2A$3.2A4.5B5.2A2.A11.2A.A17B7.4B27.4B2.3B$2.A.BAB.5B
6.A.A.2A10.A.2A.15B9.4B25.4B3.5B$2.A.2AB2.5B6.2A.A2.A15.12B11.4B
23.4B7.2A$.2A.B.B3.5B3.3B.B2.2A16.10B13.4B21.4B8.A$.A2.2A2B2.5B3.
4B21.2B2A6B14.4B19.4B10.3A$2.2A2.AB.13B.B18.3B2A6B15.4B10.A6.4B13.
A$4.2ABA13B.B2A18.10B16.4B7.3A5.4B$2.2A2.A5BA10B2A18.8B.B2A.A13.4B
5.A7.4B$.A2.A2.4BABA7B.2B18.7B3.B2AB3A12.4B4.2A5.4B$2.2A3.4BABA7B
21.6B6.B4.A12.9B4.4B$8.4BA7B23.6B4.2A.3A14.6B5.4B$10.9B3.2A19.5B4.
A2.2A16.8B2.4B$7.B.10B.B2.A18.8B.A.A17.15B$6.2A12B3A10.A8.8BA.A.2A
.A13.14B$6.2AB.8B.BA12.3A6.6B.2BAB.A.2A13.13B$7.B3.6B4.2A13.A4.7B
2.2B2.A14.2AB.10B$12.4B6.A12.2A4.7B3.B.2A13.A.AB3.B2A3B$13.4B4.A
13.4B.8B2.A.A2.2A11.A6.B2A3B$14.4B3.2A14.11B2.2A2.A2.A9.2A6.4B$15.
4B17.12B7.2A19.3B$16.4B16.12B29.2B.BA$17.2B2A15.11B29.B2ABA.A$18.B
ABA13.9B12.2A17.BABABA.A$19.A3B9.2B.10B11.A16.A2.A.A.A.A.2A$20.4B
7.16B.B4.BA.A16.4A.2A2.A2.A$21.4B3.23B2.B2A21.A4.2A$22.32B21.A.A$
23.32B20.2A$24.3BABA25B$25.3B2A6BA18B$27.B2A5BA19B$28.17B5.B.4B$
28.5BA8B11.4B$28.4BA2BA6B12.4B$32.ABA4.2B14.4B$33.A6.2B14.3BA$39.B
2AB14.3BA$40.2A16.3AB!
