#CSYNTH guntrue_8700 costs 5358 cells.
#C period 8700 fullperiod 8700 bbox 94 by 57
#CLL state-numbering golly
x = 94, y = 57, rule = LifeHistory
18.2A11.A$17.B2AB9.A.A$18.3B9.A.A2.2A3.A39.A2.2A$17.B.B9.2A.2A2.A
2.A.A38.4A.A$17.5B8.B2.A.A3.A.A43.A$17.6B6.2ABA2.4A.A37.7A.2A$17.
8B4.2A.A.A3.A38.A2.B3.A.A2.A$18.13B2.A.AB2.A37.2A2.2A.AB2.2A$16.
13B5.A.A2B.A39.B2AB2A$15.15B5.A2B.2A40.5B$15.15B4.3B17.A27.3B$14.
17B.B.2B16.3A26.5B$14.7B3A19B8.A28.4BAB$13.8BA22B7.2A14.2A3.2A6.3B
ABA2B$12.9B3A14BA5B2.B.5B5.2A6.B2AB3.A5.4BABA2B$11.2AB3.20B2A5B.6B
6.B2AB5.3B4.A.AB3.4BA2B$10.A2.A4.19BABA2B2A7B6.3B7.B6.2AB.10B$9.A.
2A5.7B2.B2.2B2.8BABA8B.B3.B.2B3.5B6.13B$9.A7.7B13.7BA22BA4B4.14B$
8.2A6.8B15.2BAB2A21BABA4B3.15B$3.2A10.4B2.2B17.B2A23BABA4B5.8B2.4B
$4.A9.4B4.2A15.28BA4B6.6B5.4B$2.A10.4B6.A15.7B.23B7.9B4.3BA$2.5A5.
4B5.A15.2AB.3B4.20B8.4B4.2A5.ABA$7.A4.4B5.2A13.A.AB9.4B2.13B7.4B5.
A7.2A$4.3AB2.7B.BA.A2.A.2A8.A10.5B3.12B7.4B7.3A5.B$3.A.2B3.7B.B2A
2.2A.A8.2A10.2A6.13B5.4B10.A$3.4A12B7.A21.A6.12B5.4B$.2A2.BA3B2A7B
7.3A16.3A8.10B5.4B$A2.3AB.2B2A7B10.A.2A12.A12.8B4.4B$2A.A.B3.10B7.
4A.A.A27.5B3.4B$3.A8.8B6.A4.A.A27.6B.4B$3.2A7.9B6.2B2A.A.2A.A22.
11B$13.3B.5B5.2A.A3.A.2A23.9B$8.2A3.3B3.4B3.4BA.A28.8B$7.A2.A2.2B
5.3BA3.A4B2A27.3B2A2B8.A8.2A$7.A.A.AB8.B2AB3.4B2.A27.2B2AB7.3A5.A
2.A.A.2A$8.A.BAB9.ABAB3.3B3A25.5BA2.B4.A6.3A4.A.A$9.3BA10.6B2A2B2.
2A23.2A4.5B2.2A4.A5.B2A.A$9.ABA12.6B2.2A.A.A23.A4.9B4.2A4.BAB.2A$
25.4B4.A.A.A20.3A4.2A6B3.5B4.2B2A2.A$25.4B4.A2.A21.A6.2A3B3A3.3B4.
B.2B.A.A$25.2BA2B2.2A32.B.2B2A5BA2B2.5B.A.2A$8.2A8.2A4.A2BA2B38.B
2A6BA2B2.5B2A.A2.A$8.A8.A.A4.A2BA2B5.2B.2A28.BA6BABAB.2BA5B.A.2A$
4.2A4.A.A3.A7.B2A3B4.B2A2.A29.5BA8BA3B3.A$4.A.A2.3A.A.A.2A5.7B3.BA
B2A32.B.BABA5BABA2B2.2A$6.A6.A.A3.A5.BA2BAB2.BA3B36.A4B2A5BA$2.4A.
4ABA2B.2ABA6.A2BA4BA3B38.8BABAB$2.A2.A.B2.A.B.2A3B7.B3A2B2.BAB2A
37.3B2.3BABA$5.2BAB2A.B4A2BA6.5B3.B2A2.A36.2B4.3B$3.A5B3A3BA.3BAB
4.4B5.2B.2A35.BA2B2.4B$2.AB.B2A2BA2.A.AB.4AB4.5B43.A.A2.4B$.A.3A.B
.5A.A.A2BA.BA.2A3.2A44.A4.A2BA$.A4.2A.A.A.A2.AB.2BA4B.A2.A51.2A$2.
3A.A2.A.A.A7.A3B.2A3.3A$4.2A2.2A.2A10.A9.A!
