#CSYNTH guntrue_567 costs 2632 cells.
#C period 567 fullperiod 567 bbox 56 by 47
#CLL state-numbering golly
x = 56, y = 47, rule = LifeHistory
25.2A$26.3A$24.A4.A2.2A$22.3A.2A.A3.A$21.A4.A.A.3A$22.3A.B.A.A$24.
ABABABA$25.2A.2A$26.4B$25.3B$2.2A3.ABA14.7B$BA2BA2.A2BA13.8B$BA2B
2.2B.2BA3B10.8B$BA2BA4B4A2B6.B2.B3A5B$B2A3B4A3B2AB.B.5BA3BA4B$.2B
4A4BA2BA9BA3BA3B12.A$.3BA2B.2B2.2BA7B2A5B2AB10.3A$5.A2BA2.A2BAB.4B
A4BA4BAB8.A$6.ABA3.2A2.5BA3BABA3BA2B7.2A$17.4BA4BAB2ABA3B3.5B$18.
4B3A5B2.4B2.3B9.2A$8.A2B3.2A2.10B5.9B8.A.A$7.B2AB2.B2A2B2.10B4.8B.
B8.A$3.6B.2A2.4B4.B.B3.2A5.11B3.B.BA.2A$3.A2B2AB3A2BA3B3.3B4.A6.
12B.B2A.A.A$2.2B3ABA2BAB3A2B3.B2AB4.3A3.9B2A3B2A.A.A$2.3BA2B3AB2A
2BA5.2A7.A3.9B2A4B2.A.2A$2.4B2.2A.6B10.3A.A.2AB.12B4A2.A$2.2B2AB2.
B2AB13.A.A.A.A.AB.10B.BAB2.2A$4.2A3.2BA13.A6.A5.7B6.2A$25.3A3.2A5.
4B.2B7.A$28.A8.4B10.A$27.2A7.4B11.2A$27.5B3.4B$18.2A9.3B2.4B$17.A.
A8.9B$17.A8.B.8B$14.2A.AB.B3.BA9B$15.A.A.2AB.3A9B$15.A.A.2A2B2A10B
$14.2A.A2.5BA9B$14.A2.4A3BA8B.B2A$15.2A2.BAB.BA8B.BA.A$17.2A6.7B5.
A$17.A7.2B.3BA5.2A$19.A9.3BA$18.2A10.3AB!
