#CSYNTH guntrue_1041 costs 5796 cells.
#C period 1041 fullperiod 1041 bbox 92 by 63
#CLL state-numbering golly
x = 92, y = 63, rule = LifeHistory
44.2A$43.A.A$37.2A4.A15.A$35.A2.A2.2A.4A11.3A11.2A$35.2A.A.A.A.A2.
A14.A5.2B2.B2AB$38.A.ABABAB15.2A4.4B.3B$38.A.AB2AB16.3B.6B2.B6.2B$
39.AB.2B19.21B4.B$34.A7.3B17.24B.3B$32.3A7.4B6.2A8.8BA18B2A$31.A8.
3B2AB6.A10.6BABA17B2A$30.A.A7.3B2AB3.BA.A10.5BA3BA15B.B$29.BA.A5.
10B.B2A12.4BA3BA10B.2B$28.3BA5.13B16.B3AB3A6B$26.4B6.14B5.A11.BA3B
A4B$24.6B5.15B5.3A9.BA3BA5B$23.7B4.4B2.8B10.A7.3BABA7B$16.B.4B.8B
2.4B5.6B9.2A5.2A4BA9B$15.2AB.17B4.9B8.23B7.2A$15.2A18B5.2A4.4B9.BA
5BA7B2A4B2.2A2.A2.A$16.2B.16B6.A5.4B7.B2A5BA7B2A4B2.A.A2.2A$19.17B
2.3A7.4B5.2BA20B3.B.2A$20.16BA2.A9.4B4.3B2A3BA2.12B2.2B2.A$21.14B.
2A3.A8.4B.6B3A4.5B.6B.2BAB.A.2A$21.12B7.2A9.12B6.3B2.8BA.A.2A.A$
17.2A3.10B20.10B5.5B2.8B.A.A$18.A3.6B2A2B21.9B5.2A6.5B4.A2.2A$17.A
4.6B2A3B21.9B5.A6.6B4.2A.3A$17.2A3.10B23.7B3.3A6.6B6.B4.A$20.2AB.
8B15.2B7.6B3.A8.7B3.B2AB3A$17.2AB2AB3.7B8.A3.6B7.2B15.8B.B2A.A$18.
A.B6.6B6.3A3.7B23.10B$16.A3.2A4.6B6.A5.9B21.3B2A6B$16.4A2.A.8B6.2A
5.9B21.2B2A6B$19.A.A.A9B2.5B5.10B20.10B$16.2A.A.BA2B.7B2.3B6.12B9.
2A7.12B$17.A.A2.2B3.6B.5B4.3A6B.4B8.A3.2A.14B$16.A2.2A.B4.12B2.A3B
2A3B4.4B9.A2.A16B$16.A.A2.A.A3.20BA2B5.4B7.3A2.17B$17.A.A2.2A3.4B
2A7BA5B2AB7.4B5.A6.16B.2B$18.A8.4B2A7BA5BAB9.4B4.2A5.18B2A$27.23B
8.9B4.17B.B2A$27.9BA4B2A5.2A9.6B5.4B2.8B.4B.B$17.A10.7BABA3B7.A10.
8B2.4B4.7B$17.3A9.5BA3BAB9.3A5.15B5.6B$11.A8.A9.4BA3BAB11.A5.14B6.
4B$11.3A5.2A6.6B3AB3AB16.13B5.A3B$14.A4.15BA3BA4B12.2AB.10B5.A.AB$
13.2A6.13BA3BA5B10.A.AB3.B2A3B7.A.A$13.5B2.15BABA6B10.A6.B2A3B8.A$
4.2A9.3B2.16BA8B8.2A6.4B7.3A$3.A.A8.31B17.3B7.A$3.A8.B.8B.21B19.2B
.BA$2A.AB.B3.BA9B3.2B7.B2.6B.3B16.B2ABA.A$.A.A.2AB.3A9B2.2BAB5.3B.
4B4.2A15.BABABA.A$.A.A.2A2B2A10B3.A.A4.B2AB2.2B5.A14.A2.A.A.A.A.2A
$2A.A2.5BA9B4.A6.2A11.3A11.4A.2A2.A2.A$A2.4A3BA8B.B2A24.A15.A4.2A$
.2A2.BAB.BA8B.BA.A37.A.A$3.2A6.7B5.A37.2A$3.A7.2B.3BA5.2A$5.A9.3BA
$4.2A10.3AB!
