#CSYNTH guntrue_9075 costs 7992 cells.
#C period 9075 fullperiod 9075 bbox 108 by 74
#CLL state-numbering golly
x = 108, y = 74, rule = LifeHistory
39.2A$38.A.A$32.2A4.A$30.A2.A2.2A.4A$30.2A.A.A.A.A2.A$33.A.ABABAB$
33.A.AB2AB$34.AB.2B$37.3B$37.4B6.2A$35.3B2AB6.A$35.3B2AB3.BA.A$33.
10B.B2A$32.13B$31.14B$30.15B$29.4B2.8B$28.4B5.6B$27.4B4.9B$26.4B5.
2A4.4B$25.4B7.A5.4B$24.4B5.3A7.4B$9.A13.4B6.A10.4B$9.3A10.4B19.4B$
12.A8.4B21.4B$11.2A7.4B23.4B$11.5B3.4B25.4B$13.3B2.4B26.4B$3.2A7.
9B27.5B44.2A$3.A8.8B27.9B41.A2.2A$2A.A.B3.10B28.9B42.2A.3A$A2.3AB.
2B2A7B28.9B43.B4.A$.2A2.BA3B2A7B27.10B34.B6.B2AB3A$3.4A12B26.12B
32.2AB.3B.3B.A$3.A.2B3.7B.B2A2.2A20.13B31.2A5BA2BA$4.3AB2.7B.BA.A
2.A21.12B32.B.BA5B$7.A4.4B5.2A21.14B27.B6.7B$2.5A5.4B5.A18.18B25.
5B3.8BA$2.A10.4B6.A15.18B25.B2A4B2A7BA$4.A9.4B4.2A14.19B25.BABA2B
5A2B2AB2.B2A3.A$3.2A10.4B2.2B16.18B.B21.B.2BABA2B2A3B2A5B2AB.A.A$
8.2A6.8B15.19B2A12.A6.2A4BAB4.6B3AB.3B.A$9.A7.7B13.19B.B2A12.3A4.
2A6B5.5B3A5B$9.A.2A5.7B2.B2.2B2.22B2.B16.A4.9B4.4BA2B4AB$10.A2.A4.
16BABA20B17.2A4.5B2.2A4.6BA.3A$11.2AB3.17BABABA18B17.6B2.B4.A6.3B
5.B$12.14B2A11B2A15B20.5B7.3A3.4B$13.13B2A10BA17B19.7B8.A3.B3A$14.
39B.4B17.8B13.B$14.17B.4B8.9B3.2A17.9B$15.15B3.2B10.8B3.A17.6B.4B$
15.15B3.3B10.8B3.3A14.7B.4B$16.13B5.A2B.2A7.6B6.A13.8B2.4B$18.13B
2.A.A2B.A6.6B12.A8.10B.4B$17.8B4.2A.A.AB2.A7.7B11.3A5.17B$17.6B6.
2ABA4.A7.9B13.A3.19B$17.5B8.B2.5A.A6.9B11.2A2.15B2.4B$17.B.B5.2A.A
.2A.A4.A.A5.10B10.18B4.4B$18.3B4.A.2A.A2.A.2A2.A4.19B5.17B4.4B$17.
B2AB11.2A.A.2A3.B.2B2A16B3.18B5.4B$18.2A21.2A3B2A16B2.18B7.4B$41.
2A21B.17B10.4B$42.33B2.5B11.4B$40.5B2.B2.2B2.21B3.4B12.4B$40.2A4.
3B8.19B3.B.B2A11.4B$41.A3.B2AB7.19B6.BA.A11.4B$38.3A5.2A8.19B9.A
12.4B$38.A16.19B10.2A12.4B$52.2B.11B2.8B23.4B$51.2A3B2A7B4.7B24.4B
$51.2AB.B2A5B7.4B.B2A23.4B$52.B.8B7.B2A2B.BA.A23.3BA$57.4B9.2A6.A
24.3BA$59.2B17.2A24.3AB!
