#CSYNTH guntrue_2009 costs 9064 cells.
#C period 2009 fullperiod 2009 bbox 88 by 103
#CLL state-numbering golly
x = 88, y = 103, rule = LifeHistory
24.A$24.3A13.2A2.2A$27.A12.A3.A$26.2A9.2A.A.A.A.A$26.5B6.A.A.A.A.A
.A.2A$28.3BAB5.BA.A.A.B.A.A$27.3BABAB3.2BA3B2AB2A.A$26.4BA2BA2BA2B
ABA2B2A.A.2A$27.4B2A3B.2A.B3A2B2A2.A$28.6B7.A6.2A$29.5B8.6A$28.7B
9.A2.A$27.4B.4B$26.4B3.4B13.2A$25.4B5.4B12.A$24.4B7.4B5.B2.BA.A$
23.4B9.4B3.3B.B2A$22.4B11.4B.6B$21.4B13.10B$8.2A10.4B15.6BA2B$9.A
9.4B17.4B2AB$7.A10.4B17.4B2A2B2.2A$7.5A5.4B5.2A10.8B3.A$12.A4.4B5.
A10.A3B2.3B4.A$9.3AB2.7B.BA.A9.BABA3.3B3.2A$8.A.2B3.7B.B2A9.2B2A6.
B2AB$8.4A12B10.4B6.B6A$6.2A2.BA3B2A7B9.4B7.2AB.B2.A$5.A2.3AB.2B2A
7B8.4B7.A.A2B2A2.A$5.2A.A.B3.10B7.4B6.3A.A.A2.2A$8.A8.8B5.4B6.A4.A
2B2A$8.2A7.9B3.4B8.4A4.A$18.3B2.4B.4B13.4A$16.5B3.7B12.A2.A$16.2A
7.5B13.2A$17.A7.5B$14.3A7.7B$9.A4.A8.4B.4B$9.3A10.4B3.4B$12.A8.4B
5.4B$11.2A7.4B7.4B18.A$11.5B3.4B9.4B11.2A3.A.A$13.3B2.4B11.4B11.A
3.A2.A$3.2A7.9B13.4B10.A.2A.A.A$3.A8.8B15.4B10.A.A.A.2A$2A.A.B3.
10B17.4B10.2B2A.A2.A$A2.3AB.2B2A7B18.4B10.4B2.2A$.2A2.BA3B2A7B19.
4B6.7B$3.4A12B20.4B3.8B$3.A.2B3.7B.B2A2.2A10.2A3.4B.8B$4.3AB2.7B.B
A.A2.A11.A4.9BA2B$7.A4.4B5.2A13.A.AB2.7BABAB.2B$2.5A5.4B5.A15.2AB.
7B2AB2A2B2A$2.A10.4B6.A15.8BA7B2A$4.A9.4B4.2A15.8B3A3B.2B$3.2A10.
4B2.2B17.8BA4B$8.2A6.8B15.14B.2B$9.A7.7B13.13BA4B2A$9.A.2A5.7B2.B
2.2B2.16B2AB.B2A$10.A2.A4.30B3A2B2.B$11.2AB3.27B.B2AB2A2B$12.14B2A
16B2.7B$13.13B2A16B2.3BABAB$14.29B3.BA3BAB$14.17B.4B11.A2B2AB.BA$
15.15B3.2B12.B3A3BA.A$15.15B3.3B11.2BA5BA$16.13B5.A2B.2A7.6B.B$18.
13B2.A.A2B.A7.5B$17.8B4.2A.A.AB2.A8.6B2.2B$17.6B6.2ABA4.A7.2AB.9B$
17.5B8.B2.5A.A4.A.AB3.8B$17.B.B5.2A.A.2A.A4.A.A3.A7.8B6.2A$18.3B4.
A.2A.A2.A.2A2.A3.2A5.2B.9B4.A$17.B2AB11.2A.A.2A10.2A12B4.A$18.2A
29.2AB.9B4.2A$14.2A34.B2.7B5.2B$15.A37.8B2.5B6.3B5.2A$14.A39.B2A
12B4.4B5.A$14.2A6.2BAB13.B.7B5.BA2BA.10B4.5B.BA.A$16.A2B2.2BABAB6.
B.13B4.3B2A13B3.5B.B2A$14.3A5BABA45B3.7B$13.A2.B.4B2A45B3.8B$13.2A
3.50B3.8B4.2A$19.25B2A33B3.A.A$19.25B2A33B3.A$18.4B.B.11B3.41B.2A$
19.4B2.10B5.10B2.B3.B2.B3.18B$19.2B2AB4.2B2.4B7.6B14.18B3.2A$21.2A
10.4B8.3B13.5B3.12B.B2.A$34.4B9.B13.2A7.12B3A$35.4B8.2A13.A8.9B.BA
$36.4B8.A10.3A4.2A3.9B3.2A$37.4B6.A11.A6.A4.9B4.A$38.4B5.2A14.2A.A
4.2B2A3B.B2A2.A.2A$39.4B20.A2.3A.2BA2BA2B.BA.A.A.2A$40.4B20.2A2.BA
3BABAB5.A.A$41.4B21.4A4BA4B3.A.A$42.4B20.A.4B5.2A4.A$43.4B17.A.A.
2A7.A$44.3BA16.2A2.A9.3A$45.3BA19.A.A9.A$46.3AB19.2A!
