#CSYNTH guntrue_1015 costs 5688 cells.
#C period 1015 fullperiod 1015 bbox 79 by 72
#CLL state-numbering golly
x = 79, y = 72, rule = LifeHistory
38.2A$37.B2AB11.2A.A.2A$38.3B4.A.2A.A2.A.2A2.A3.A$37.B.B5.2A.A.2A.
A4.A.A2.3A$37.5B8.B2.5A.A6.A$37.6B6.2ABA4.A7.2A$37.8B4.2A.A.AB2.A
6.5B$38.13B2.A.A2B.A7.4B$36.13B5.A2B.2A7.5B$35.15B3.3B11.6B$35.15B
3.2B12.6B.B$34.17B.4B10.6B.B2A$34.21B2A6B4.7B2A$33.13B2A7BABA6B2.
6B.2B$32.14B2A7BA8B2.6B$31.2AB3.27B.BA7B3.B$30.A2.A4.27B3A7B.B2A$
29.A.2A5.6B3.B2.2B2.7B2ABABABA8B2A$29.A7.6B14.4B2ABA3B2A8B$28.2A6.
9B14.3BA2BAB2A9B$35.4B4.2A15.AB2AB2A9B$34.4B5.A15.B2AB4A9B$33.4B7.
3A12.2B4A11B$32.4B10.A10.2AB.3B.10B$31.4B21.A.AB5.9B$30.4B22.A9.8B
$30.4B21.2A8.9B2.B$29.5B31.9B.B2A$26.9B31.10B2A$7.2A3.2A12.9B32.8B
.B$7.A.A.A.A12.9B31.8B$9.A.A14.10B31.7B$8.A2B.A2.2A8.12B31.5B$8.AB
A.A2.A.A6.13B8.2A21.4B$10.A.2A.A2.A6.11B9.A22.4B$9.2ABA2.3A8.12B4.
BA.A21.4B$8.B2A2B2A11.15B.B2A10.A10.4B$9.2A.A2.A10.11B4A2B12.3A7.
4B$9.B2A2.2A10.9B4AB2AB15.A5.4B$10.2B11.B.10B2AB2ABA15.2A4.4B$10.
2B10.2A9B2ABA2BA3B14.9B6.2A$11.B10.2AB.6B2A3BAB2A4B14.6B7.A$10.2AB
10.B4.5BABABAB2A7B2.2B2.B3.6B5.2A.A$.2A6.A2BAB5.2A7.6B3A27B4.A2.A$
2.A4.3B2A3B4.A8.7BAB.27B3.B2A$2.A.AB.8B.BA.A9.7B2.8BA7B2A14B$3.2AB
.8B.B2A10.7B2.6BABA7B2A13B$5.12B12.6B4.6B2A21B$5.12B12.7B10.2B.B.
17B$5.12B3.A8.6B10.3B4.15B$7.10B3.3A5.7B6.2A.2BA5.15B$9.7B7.A5.5B
7.A.2BA.A5.13B$9.8B5.2A4.6B8.A2.BA.A2.13B$8.5B.4B4.14B7.A3.A.A.2A
4.8B$8.6B.4B5.9B.2A5.A.4A2.AB2A6.6B$7.6B3.4B2.8B4.A5.A.A3.A.A2.B8.
5B$3.B2.3BA3B4.15B3.3A2.A.A2.A2.2A.2A9.B.B$.7BABA2B5.14B5.A3.A3.2A
2.A.A9.3B$.7BABA2B6.13B17.A.A9.B2AB$9BA3B7.10B.B2A16.A11.2A$11B.B
2A7.3B2AB3.BA.A$.9B2.BA.A6.3B2AB6.A$.7B7.A8.4B6.2A$2.6B7.2A7.3B$3.
4B14.AB.2B$4.4B12.A.AB2AB$5.4B11.A.ABABAB$6.4B7.2A.A.A.A.A2.A$7.4B
6.A2.A2.2A.4A$8.3BA7.2A4.A$9.3BA12.A.A$10.3AB12.2A!
