#CSYNTH guntrue_9760 costs 4745 cells.
#C period 9760 fullperiod 9760 bbox 73 by 65
#CLL state-numbering golly
x = 73, y = 65, rule = LifeHistory
7.A.2A$7.2A.A2$5.5A4.2A$4.A4.A5.A$3.A.BAB7.A.2A.2A.A$3.A.2AB8.A.A.
A.2A$2A.A.4BA7.AB$.A.A3.BABA5.4B$A2.2A2.A2BA2.2B.4B5.2A$2A6.2A10B
5.A8.A$10.11B.BA.A7.A.A$10.10B2.B2A8.A.3A$9.14B7.2A.A4.A$9.13B8.A.
A.ABABA$10.12B10.A.A.2A4.2A$10.12B9.ABA4B4.A$10.6BA5B7.3BA2B4.BA.A
$10.5B3A6B4.2B2AB4.B.B2A$10.4B5A8B.B3A2B2.4B$10.3B2A3B2A8B5A7B19.A
$5.B2.4B3A3B3A6B2A3B2A6B18.A.A$4.2AB.5B2A3B2A6B3A3B3A6B17.A.A$4.2A
8B5A8B2A3B2A3B.4B15.2A.3A$5.B.4B2.2B3AB.8B5A4B2.4B9.2A4.B4.A$8.2B
4.B2A2B4.6B3A5B3.4B7.B2A3B2AB3A$12.2BA3B7.5BA6B4.4B7.4B.2A.A$9.4BA
BA9.12B5.4B7.3B$9.2A.A.A10.12B6.4B5.B2AB$8.ABABA.A.A8.13B6.3BA3.BA
2BA$8.A4.A.2A7.14B7.3BA2.BABAB2.A$9.3A.A8.2AB2.10B9.3A4BA2B.A.A$
11.A.A7.A.AB.11B10.6B.2B2.A$12.A8.A5.10B2A9.8B$20.2A5.4B.2B2.A2BA
2.2A5.5B2AB5.A$27.4B5.ABAB3.A6.4B2A4.3A$28.BA7.A4B.A.2A4.4B4.A$23.
2A.A.A.A8.B2A.A.A3.6B4.2A$23.A.2A.2A.A7.BAB.A2.A2.2A.B2.6B$31.A5.A
4.A2.2A3.A3.B2A2B$31.2A4.5A5.3A3.2B2A3B$47.A4.8B$39.A11.9B$38.A.A
9.10B$39.A9.4B.8B$33.B2A12.4B2.8B$33.3AB10.4B3.4B3A2B$32.A.2AB9.4B
3.10B5.AB.2A$31.A.A.2B8.4B5.2BA5BA2B2.B2A2.A$31.A2.A2.2B5.4B5.3BA
5BA2B2.5A$32.2A3.3B3.4B6.2BA6BA8B$37.B2A.5B7.B2A9B.5B$27.2A7.BA2BA
4B7.4BAB3A4B2.5A$27.A8.2B2A4B8.2B2A8B3.B2A2.A$24.2A.A.B3.10B7.2AB.
B2.6B5.AB.2A$24.A2.3AB.2B2A7B6.A.AB6.5B2A$25.2A2.BA3B2A7B6.A9.2B2.
3B$27.4A12B5.2A13.A3BA$27.A.2B3.7B.B2A17.A4BA$28.3AB2.7B.BA.A15.A.
ABAB$31.A4.4B5.A13.BABA.A$26.5A5.4B5.2A11.A4BA$25.A2.A8.3BA17.A3BA
$25.2A11.3BA18.3B$39.3AB17.2A!
