#CSYNTH guntrue_2004 costs 5280 cells.
#C period 2004 fullperiod 2004 bbox 80 by 66
#CLL state-numbering golly
x = 80, y = 66, rule = LifeHistory
12.2A$11.B2AB$11.3B$2.2A8.B.B$3.A6.5B$3.A.AB2.6B$4.2AB2.11B$6.14B
2A$5.15B2A3B5.2A$6.20B4.A$4.2AB.20BA.A$3.A.AB2.19B2A3.2A16.2A$3.A
5.19B6.A17.A12.2A$2.2A5.19B5.A18.A.AB9.2A$7.21B5.2A18.2AB.B.3B$5.
23B6.B20.7B3.4A.2A$4.2B2A20B6.3B18.7B2.A3.A.A2.2A$4.2B2A21B4.6B16.
7B.2BAB3.A3.A$5.25B2.10B11.10BABAB2.A.3A$5.26B.11B3.2B2.13B2A2B2.A
.A$7.29B2A28B.2A.B$7.29B2A26B4.A.AB6.2A$6.56B6.A.2B2A5.A$6.56B7.2A
.2BA.3A$6.57B11.2B.A$6.22B5.14B.4B8.4B10.AB.AB$8.19B7.7B.B4.4B10.
4B10.3AB$8.18B9.4B7.4B12.4B11.2A$8.9B.7B11.4B5.4B14.4B11.AB$9.8B4.
6B10.4B3.4B16.4B5.B2.BA.A$8.9B8.2A11.4B.4B18.4B3.3B.B2A$7.10B8.A
13.7B20.4B.6B$4.B.12B8.3A11.5B22.10B$3.2A13B10.A11.5B23.5B2A2B$3.
2A12B22.5B2A23.3BA2BA$4.B2.9B2A20.4B.2A2B21.4BABAB$6.2B2.5BA2BA2.
2A14.4B3.BA2B19.6BAB$6.2AB3.2B.ABAB3.A2.A10.4B5.4B17.4B2.3B$2.2A.A
.A8.A4B.A.A.A8.4B7.4B15.4B3.3B2.BA$2.A.2A.A.A8.B2A.A2.A8.4B9.4B13.
4B4.B.B.ABAB$8.2A8.BAB.A10.4B11.4B11.4B6.BA3BA$16.A4.A10.4B13.4B9.
4B7.2A.2B$16.5A10.4B15.4B7.4B7.B2A.2A$30.4B17.4B5.4B9.2A.2B$14.7A
8.4B9.A9.4B3.4B8.2A.2BA$14.A4.A2.A5.4B10.3A8.4B.4B9.3BA$9.2A5.A4.
2A4.4B14.A8.7B8.A2B.A$9.A5.2A9.4B14.AB9.5B8.A.2A$6.2A.A.3B11.4B15.
A2BA7.6B7.A$6.A2.A.2A2B2A7.4B18.BA.B2.4B2A4B5.2A$8.2A.A.2B2AB5.4B
18.AB.3AB.2BA2BA4B$11.A.4B5.4B20.AB4A4BABA3B$11.2A.4B3.4B22.B3.B4.
BA3B$4.2A8.3BA6B23.ABA2BA5.5B$3.A.A8.2BABA4B25.BA4B7.2A$3.A8.B.3BA
4B29.3A7.A$2A.AB.B3.BA9B31.B9.3A$.A.A.2AB.3A9B43.A$.A.A.2A2B2A10B$
2A.A2.5BA9B$A2.4A3BA8B.B2A$.2A2.BAB.BA8B.BA.A$3.2A6.7B5.A$3.A7.2B.
3BA5.2A$5.A9.3BA$4.2A10.3AB!
