#CSYNTH guntrue_9960 costs 2310 cells.
#C period 9960 fullperiod 9960 bbox 66 by 35
#CLL state-numbering golly
x = 66, y = 35, rule = LifeHistory
52.2A$17.B4.2BA3B21.2A2.A2.2A$15.4BA4B4A2B4.B12.3A.2A4.A$15.4BA5B
4A3B.B2A6.A3.A4.B5.A.2A3.2A$14.2A9BA2BA5B2A4.3A4.3AB2AB4.A.A4.A$
14.2AB.7B4A6B4.A9.A.2AB6.A.3A$15.B4.4B4A7B4.2A12.4B2.2A.A$22.2BA3B
4.B2.6B12.10B$34.5B10.B2.7B.2B$33.7B2.B5.13B$32.8B.3B2.16B$31.9B.
10B2A9B$30.18BA3BA9B$29.4B.14BA3BA8B$28.4B2.5B2A9B2A7B$27.4B3.5BAB
A6B2A7B$11.B2A12.4B3.6BAB2A4B2ABA6B$11.3AB10.4B4.7B2A6BABA5B$10.A.
2AB9.4B3.7B2A9B2A5B$9.A.A.2B8.4B2.8BA3BA14B$9.A2.A2.2B5.4B2.9BA3BA
15B$10.2A3.3B3.4B3.9B2A10B.6B$4.2A9.B2A.5B4.16B2.10B$3.A.A8.BA2BA
4B6.13B5.B.5B$3.A8.B.2B2A4B6.2B.7B2.B8.4B$2A.AB.B3.BA9B6.10B12.2B
2AB$.A.A.2AB.3A9B6.A.2A2.4B14.2A$.A.A.2A2B2A10B4.3A.A6.B2A.A$2A.A
2.5BA9B3.A4.A.A4.B2AB3A$A2.4A3BA8B.B2A2.A3.2A.A5.B4.A$.2A2.BAB.BA
8B.BA.2A7.A4.2A.3A$3.2A6.7B5.A8.2A4.A.A$3.A7.2B.3BA5.A.A12.A.A$4.A
10.3BA5.2A13.A$3.2A11.3AB!
