#CSYNTH guntrue_332 costs 2058 cells.
#C period 332 fullperiod 332 bbox 49 by 42
#CLL state-numbering golly
x = 49, y = 42, rule = LifeHistory
3.2A$3.A.A$5.A18.2A$5.2AB17.A$7.2B.3B11.A$3.4A7B10.2A$3.A2.AB.5B
11.B$4.A2.8B10.3B9.2A$.3A3.8B9.6B6.B2AB$.A4.11B3.B2.10B4.3B$6.30B
2.B2.2B$6.21B2A16B$2A2.7BA15B2A18B$A.A.2A2.2BABA35B$2.AB2A3.BABA
35BA$.A2.B4.2BA34BABA$.2A.2A2.13B4.13B.B3.B3.2A$2.A.A4.6B3A5B2.7B.
B8.2B4.B$2.A.A5.4BA3BA5B17.3A$3.A6.13B18.3B$11.3BA7B18.ABA.A$11.7B
A3B18.BAB4A$10.13B6.A5.2A2.AB.2B3.A$9.5BA3BA4B5.A.A4.A2.A.5B2A.A$
10.5B3A6B4.A.A5.3AB2ABAB.A.A$7.4B.13B2.2A.3A6.3BA.A2.A$7.14BA2B4.B
4.A2.3A3B.A.2A$6.2A12BABAB3.2AB3A2.A2.B.BABA.A$6.2A12BABA2B2.2A.A
5.A.AB.B.B.A$7.B.12BA7B6.2A.A.AB2A.2A$10.17B9.A.3A.2BA2.A$10.17B9.
A.A2.A4.A$12.B3.11B4.A3.2A.8A$18.8B3.3A5.A$18.8B2.A8.A.A2.2A$19.5B
.BA2.A8.2A2.2A$19.7B4A$20.3B.2B$25.B2A$27.A$27.A.A$28.2A!
