#CSYNTH guntrue_1137 costs 5082 cells.
#C period 1137 fullperiod 1137 bbox 77 by 66
#CLL state-numbering golly
x = 77, y = 66, rule = LifeHistory
45.2A$44.A.A$38.2A4.A$36.A2.A2.2A.4A$36.2A.A.A.A.A2.A$39.A.ABABAB$
39.A.AB2AB$40.AB.2B$43.3B$43.4B6.2A$33.A7.3B2AB6.A$31.3A7.3B2AB3.B
A.A$30.A8.10B.B2A$29.A.A6.13B$28.BA.A5.14B$27.3BA5.15B$25.4B6.4B2.
8B$23.6B5.4B5.6B$22.7B4.4B4.9B$15.B.4B.8B2.4B5.2A4.4B$14.2AB.17B7.
A5.4B$14.2A18B5.3A7.4B$15.2B.16B5.A10.4B$18.16B17.4B$19.15B18.4B$
20.12B.B2A17.4B$20.11B2.BA.A17.4B$21.10B5.A18.4B$21.6B2A2B5.2A18.
4B$21.6B2A3B25.4B$21.10B27.4B10.2A$17.A.2AB.8B28.4B9.A$15.3AB2AB3.
7B28.4B10.A$14.A4.B6.6B22.2A5.4B5.5A$15.3A.2A4.6B24.A5.4B4.A$17.2A
2.A4.5B24.A.AB.7B2.B3A$20.A.A.8B24.2AB.7B3.2B.A$16.A.2A.A.A8B8.A
17.12B4A$16.2A.A.BA2B.6B6.3A17.7B2A3BAB2.2A$19.A2.2B2.7B4.A20.7B2A
2B.B3A2.A$19.2A.B3.7B4.2A19.2A8B3.B.A.2A$17.2A2.A.A2.8B.4B18.ABA5B
8.A$16.A2.A2.2A2.11B19.3BA5B7.2A$17.2A7.12B17.4B2.3B$26.12B16.4B3.
5B$27.11B15.4B7.2A$16.2A12.9B13.4B8.A$17.A11.10B.2B9.4B10.3A$11.A
5.A.AB4.B.16B7.4B13.A$11.3A4.2AB2.23B3.4B$14.A5.32B$13.2A4.32B$13.
5B.31B$4.2A9.3B.30B$3.A.A8.33B$3.A8.B.8B.B5.17B$2A.AB.B3.BA9B11.
14B$.A.A.2AB.3A9B11.14B$.A.A.2A2B2A10B12.2B4.3B$2A.A2.5BA9B11.2B6.
B$A2.4A3BA8B.B2A8.B2AB$.2A2.BAB.BA8B.BA.A8.2A$3.2A6.7B5.A$3.A7.2B.
3BA5.2A$5.A9.3BA$4.2A10.3AB!
