#CSYNTH guntrue_6825 costs 7040 cells.
#C period 6825 fullperiod 6825 bbox 88 by 80
#CLL state-numbering golly
x = 88, y = 80, rule = LifeHistory
10.A3.2A30.B$9.A.A.A.3A27.3B$9.A.A.A4.A26.3A$.2A7.A.A.ABABA25.A3BA
$2.A9.A.A.2A4.2A20.A3BA$2.A.AB5.ABA4B4.A20.2B3A2B$3.2AB3.3BA2B4.BA
.A20.7B$4.2BA2BA3B4.B.B2A20.9B$5.BA2BA4B2.4B22.9B$.2B2.BA13B23.7B
8.B$2A7BABA7BA23.2B3A2B7.3AB.2A$2A6BA3BA7BA23.A3BA9.3BA.A$.2B.4BA
2BA5B.3AB22.A3BA11.2BA$4.3B2ABA5B3.4B22.3A11.B2A$4.4BA5B6.4B21.3B
8.2A.2A$2.2AB.8B7.4B13.2A6.B8.A.3BAB$.A.AB.8B8.4B11.B2AB4.3B7.BA3B
.AB$.A5.8B3.2A3.4B11.3B3.9B3.A2B.2A$2A3.9B4.A.A3.4B11.B3.11B2.BA4B
$5.2A2.2B.2B.B5.A3.4B9.19B2A2B$6.A3.A3B3A2.2A.A3.2BAB8.17B6.A$3.3A
3.2B2A.2B.BA.A.A4.2B2AB5.18B5.A.A$2.A5.2A2.B.BA.2A2B.2A4.2A2B.21B
7.A$3.A4.B.2ABABA.A2.B.A2.A3.26B$4.A.BA.A.A3.B2.4A2.2A4.21B.4B$.3A
2.4A.A3.B2A8.2A.21B3.4B$.A2.3A2.2A4.2A2.A6.A.4B2A15B5.4B$2.2A2.2B
6.A.A.2A7.A.B2ABA15B6.4B12.A$3.A.BA6.A.2B.A5.3A3.19B7.4B9.3A$3.A.
2AB5.A.A.A2.A3.A5.20B7.4B7.A10.B$4.A.A5.2A.A.A.2A9.2A17B9.4B6.2A8.
3A$2.A.A.A.A2.A2.2A.A13.BA14B4.A7.3BA.6B8.3A$2.2A3.2A2.2A5.3A14.
11B5.3A6.ABA5B9.2BA2B$20.A15.4B3A3B8.A6.2A8B6.2BA2B$38.7B8.2A5.B.
10B4.3BA3B$40.4B9.20B3.2BABA2B$35.2B4.B13.11B2A3B2A11B$33.6B.B4.2B
7.2B2A7BA2BA2B2A.10B$31.BA6BAB.6B5.2BA2BA6BA2BA3B4.2BABA2B$29.2B2A
6B2A8B4.3B2A4B2.2B2A3B5.3BA3B$28.2B3A6B3A8B.9B4.7B6.2BA2B$29.2B2A
6B2A2B.15B6.3B9.2BA2B$31.BA6BAB4.13B7.5B8.3A$33.6B7.12B10.2A8.3A$
35.2B10.12B9.A10.B$48.10B11.3A$49.9B13.A$50.8B$51.8B$52.8B8.2A$50.
2B.9B5.A.A$49.2A12B4.A$49.2AB.9B4.2A$14.2A34.B2.7B5.2B$15.A37.8B2.
5B6.3B5.2A$14.A39.B2A12B4.4B5.A$14.2A6.2BAB13.B.7B5.BA2BA.10B4.5B.
BA.A$16.A2B2.2BABAB6.B.13B4.3B2A13B3.5B.B2A$14.3A5BABA45B3.7B$13.A
2.B.4B2A45B3.8B$13.2A3.50B3.8B4.2A$19.25B2A33B3.A.A$19.25B2A33B3.A
$18.4B.B.11B3.41B.2A$19.4B2.10B5.10B2.B3.B2.B3.18B$19.2B2AB4.2B2.
4B7.6B14.18B3.2A$21.2A10.4B8.3B13.5B3.12B.B2.A$34.4B9.B13.2A7.12B
3A$35.4B8.2A13.A8.9B.BA$36.4B8.A10.3A4.2A3.9B3.2A$37.4B6.A11.A6.A
4.9B4.A$38.4B5.2A14.2A.A4.2B2A3B.B2A2.A.2A$39.4B20.A2.3A.2BA2BA2B.
BA.A.A.2A$40.4B20.2A2.BA3BABAB5.A.A$41.4B21.4A4BA4B3.A.A$42.4B20.A
.4B5.2A4.A$43.4B17.A.A.2A7.A$44.3BA16.2A2.A9.3A$45.3BA19.A.A9.A$
46.3AB19.2A!
