#CSYNTH guntrue_6160 costs 3243 cells.
#C period 6160 fullperiod 6160 bbox 69 by 47
#CLL state-numbering golly
x = 69, y = 47, rule = LifeHistory
14.B.B$12.3B2AB42.A$2A10.2BA2BA40.3A$.A5.2B2.4B2A2B27.2A9.A$.A.AB.
13B9.2A17.A9.2A$2.2AB.16B6.A3.2A3.2A8.A.AB2.6B$4.4BA12BAB7.A2.A3.A
10.2AB.5B$3.4BABA10BABAB5.3A2.2A.A.A.2A7.3B3A2B$4.4BA11BABAB3.2B3.
2A2.A.2A.A8.2BA3BA2B.2B$2.2AB.15BA2B3.2B3A2.A.A5.3A5.2BA3BA6B$.A.A
B.23BA.B2A.A.A.3A3.A5.BA4B2A4B$.A5.2B2.19B2A3.A.A.A2.ABA.A3.4BA4BA
4B$2A10.21B2A.A3.B2A.A.A3.3BABA3BA5B$12.9B3A7B.B.A6.2A.A.2A2.4BA4B
A5B$12.9BA6B5.A2.A4.3B2A.BAB2.BA3B2A6B$8.2A.4B3.4BA5B6.2A.A5.2B.B
3A2.BA2BA8B$8.A.3B2AB3.8B10.A8.B3A3.3BA7B$9.A2.B2A4.9B9.2A5.2A.BAB
3.3A7B$10.A8.10B13.3A.2A4.5B.4B2.2A$8.A.5A5.10B11.A4.A4.4B6.BA4BA$
7.A.A4.A5.3BA7B11.3A.A3.4B7.BA4BAB$7.A.A2.A7.2BABA7B6.A5.2A3.4B8.B
A4BAB$8.A3.2A6.2BABA8B5.3A7.4B11.A2BA$20.3BA10B7.A5.4B10.A.A2.A.A$
18.2AB.13B5.2A4.4B11.2A4.2A$17.A.AB2.13B4.9B$17.A7.7B.4B5.7B5.2B$
16.2A7.6B3.4B2.8B6.3A$11.B2A12.4B5.15B.B.5B$11.3AB10.4B7.16BA5BA$
10.A.2AB9.4B9.15BA5BAB$9.A.A.2B8.4B11.10B4.A5BA$9.A2.A2.2B5.4B14.
3B2AB7.5B$10.2A3.3B3.4B15.3B2AB8.3B$4.2A9.B2A.5B18.4B8.5B$3.A.A8.B
A2BA4B19.3B11.B2A$3.A8.B.2B2A4B17.AB.2B13.A$2A.AB.B3.BA9B17.A.AB2A
B13.3A$.A.A.2AB.3A9B17.A.ABABAB14.A$.A.A.2A2B2A10B14.2A.A.A.A.A2.A
$2A.A2.5BA9B14.A2.A2.2A.4A$A2.4A3BA8B.B2A14.2A4.A$.2A2.BAB.BA8B.BA
.A19.A.A$3.2A6.7B5.A20.2A$3.A7.2B.3BA5.2A$4.A10.3BA$3.2A11.3AB!
