#CSYNTH guntrue_7200 costs 2958 cells.
#C period 7200 fullperiod 7200 bbox 58 by 51
#CLL state-numbering golly
x = 58, y = 51, rule = LifeHistory
2.A9.A$2.3A5.3A$5.A3.A$4.2A.B.2A$4.7B$6.3B$4.7B$3.4BA4B8.2A$3.3BAB
A3B3.2A2.A2.A$4.3BA3B4.A.A2.A.A$4.7B5.B.2A.A$3.9B3.2B2.A11.2B12.2A
4.2A$.17B.A9.6B10.A.A2.A.A$.15B2A.2A6.10B10.A2BA$2BA13B2A.A5.BA2BA
4BA2BAB6.BA4BAB$.ABA8BA2B.B4.A2.3A2B6A2B3A5.B2A2B2AB$BABA7BABAB5.
2A3.BA2BA4BA2BAB7.2B2A2B$.BA8B2A3B4.A6.10B11.2B6.2A$3.13B.BA.A8.6B
14.B6.A$5.11B.B2A11.2B16.2B2.BA.A$5.2B2A9B10.B2A2.2AB11.BA3B.B2A$
5.BA2BA8B8.4BA2BA4B5.4BABA4B$6.B2A9B7.2B2ABA2BAB2A2B.6B2ABA4B$7.
11B8.BA2BA2BA2BA17B.2A$10.8B10.2A4.2A.2BABA3B4A4B.A.A$10.9B19.B2A
5BABA5.AB$9.5B2.4B6.A10.3BA3.4B7.2B$9.6B2.4B5.3A7.4B14.A2BA$8.6B4.
4B7.A5.4B14.4B$4.B2.3BA3B5.4B5.2A4.4B14.BA.2A$2.7BABA2B6.4B4.9B15.
3AB$2.7BABA2B7.4B5.7B7.2A2.2A.ABA2B$.9BA3B8.4B2.8B8.A2.A.4BAB$.11B
.B2A7.15B7.A.A.A3B.AB$2.9B2.BA.A7.15B7.A2.ABA.B.A$2.7B7.A3.2A2.15B
8.2A.5A$3.6B7.2A.B2A2B.11B3.3B7.B2AB$4.4B12.4B3.7B5.B3A4.2AB.AB4A$
5.4B11.4B2.9B3.A.3A3.A2.A3B.A2.A$6.4B9.AB2A3.4B2A2B3.A.A.AB4.A.B2.
A.4A$7.4B8.ABAB5.2B2A2B3.A2.A5.2A.6A$8.4B6.2BAB6.5B5.2A4.A2.A.A.2A
B4A$9.4B5.2B2A7.3B12.2A3.A.3B3.A$10.4B4.2B2AB5.5B16.ABABABA$11.4B
5.2A6.2AB2AB13.2A2.2BA.2A$12.4B8.2A2.BA.2A2.2A9.A2.2A3BA2.A$13.4B
7.A2.A.A3.B2.A9.2A.A2.B.A.2A$14.4B8.2A.7A13.A2.ABA.A$15.3BA9.A20.
2A2.A2.A$16.3BA8.A.4A20.2A$17.3AB8.2A2.A!
