#CSYNTH guntrue_979 costs 7080 cells.
#C period 979 fullperiod 979 bbox 118 by 60
#CLL state-numbering golly
x = 118, y = 60, rule = LifeHistory
21.A11.A31.2A20.2A$21.3A7.3A30.A.A20.A.A$24.A5.A27.2A4.A24.A4.2A$
7.A15.2A5.2A24.A2.A2.2A.4A16.4A.2A2.A2.A$7.3A13.B3.5B24.2A.A.A.A.A
2.A16.A2.A.A.A.A.2A$10.A9.4B2.4B29.A.ABABAB20.BABABA.A$9.2A6.15B
27.A.AB2AB22.B2ABA.A$9.5B2.17B27.AB.2B24.2B.BA$11.23B29.3B22.3B7.A
$10.2A22B29.4B6.2A4.2A6.4B7.3A$10.2A22B27.3B2AB6.A6.A6.B2A3B8.A$
11.B.19B.B2A25.3B2AB3.BA.A6.A.AB3.B2A3B7.A.A$13.18B2.BA.A22.10B.B
2A8.2AB.10B5.A.AB$14.16B6.A21.13B12.13B5.A3B$15.15B6.2A19.14B12.
14B6.4B$16.12B28.15B12.15B5.6B$13.15B27.4B2.8B16.8B2.4B4.7B$12.16B
26.4B5.6B16.6B5.4B2.8B.4B.B$3.2A7.12B.4B24.4B4.9B14.9B4.17B.B2A$2.
A2.A2.2A2.11B3.4B22.4B5.2A4.4B12.4B4.2A5.18B2A$3.2A2.A.A2.8B.4B2.
4B20.4B7.A5.4B10.4B5.A6.16B.2B$5.2A.B3.7B4.2A3.4B18.4B5.3A7.4B8.4B
7.3A2.17B$5.A2.2B2.7B4.A5.4B16.4B6.A10.4B6.4B9.A2.A16B$2.2A.A.BA2B
.6B6.3A3.4B14.4B19.4B4.4B8.A3.2A.14B$2.A.2A.A.A8B8.A4.4B12.4B21.4B
2.4B9.2A7.12B$6.A.A.8B14.4B10.4B23.8B20.10B3.2A$3.2A2.A4.5B16.4B8.
4B25.6B21.2B2A6B3.A$.3A.2A4.6B17.4B6.4B27.4B21.3B2A6B4.A$A4.B6.6B
17.4B4.4B27.6B21.10B3.2A$.3AB2AB3.7B18.4B2.4B27.8B20.8B.B2A$3.A.2A
B.8B20.8B27.4B2.4B18.7B3.B2AB2A$7.10B21.6B27.4B4.4B17.6B6.B.A$7.6B
2A3B21.4B27.4B6.4B17.6B4.2A3.A$7.6B2A2B21.6B25.4B8.4B16.8B.A2.4A$
7.10B20.8B23.4B10.4B14.9BA.A.A$6.12B7.2A9.4B2.4B21.4B12.4B4.A8.7B.
2BAB.A.2A$6.14B.2A3.A8.4B4.4B19.4B14.4B3.3A6.6B3.2B2.A.A$5.16BA2.A
9.4B6.4B10.A6.4B16.4B5.A4.7B4.B.2A2.A$4.17B2.3A7.4B8.4B7.3A5.4B18.
4B3.2A4.7B3.A.A2.A.A$.2B.16B6.A5.4B10.4B5.A7.4B20.4B2.4B.8B3.2A2.A
.A$2A18B5.2A4.4B12.4B4.2A5.4B22.4B3.11B8.A$2AB.17B4.9B14.9B4.4B24.
4B.12B$.B.4B.8B2.4B5.6B16.6B5.4B26.B3A12B$8.7B4.4B2.8B16.8B2.4B28.
A13B10.A$9.6B5.15B12.15B30.A9B11.3A$11.4B6.14B12.14B30.12B9.A$13.
3BA5.13B12.13B30.16B6.2A$14.BA.A5.10B.B2A8.2AB.10B24.A6.24B$15.A.A
7.3B2AB3.BA.A6.A.AB3.B2A3B26.3A3.23B$16.A8.3B2AB6.A6.A6.B2A3B29.A
2.24B$17.3A7.4B6.2A4.2A6.4B30.A.B.24B$19.A7.3B22.3B30.2A27B$24.AB.
2B24.2B.BA25.2A2.A22B.4B$23.A.AB2AB22.B2ABA.A23.A2.3A3B3.2B3.B7.2B
3.4B$23.A.ABABAB20.BABABA.A24.A4.2B3.4B.3B5.BA2B3.4B$20.2A.A.A.A.A
2.A16.A2.A.A.A.A.2A22.4A5.B2AB.B2AB4.A.A5.3BA$20.A2.A2.2A.4A16.4A.
2A2.A2.A24.A7.2A3.2A6.A7.ABA$22.2A4.A24.A4.2A28.A27.2A$28.A.A20.A.
A33.2A28.B$29.2A20.2A!
