#CSYNTH guntrue_5647 costs 12932 cells.
#C period 5647 fullperiod 5647 bbox 122 by 106
#CLL state-numbering golly
x = 122, y = 106, rule = LifeHistory
37.2A2.A$36.A.4A$36.A$34.2A.7A$32.A2.A.A3.B2.A$32.2A2.BA.2A2.2A$
36.2AB2AB6.2A$36.5B8.A$37.3B7.A$36.5B6.5A$36.BA4B9.A$34.2BABA3B3.
4AB$34.2BABA4B2.A2.AB$35.2BA4B4.4B$34.15B3.2A$33.14B2A.A2.A$32.10B
A4B2A.2A$31.10BABA2B.B$30.4B2.5BABAB$29.4B5.7B$28.4B4.9B$27.4B5.2A
4.4B$26.4B7.A5.4B$11.A13.4B5.3A7.4B$11.3A10.4B6.A10.4B$14.A8.4B19.
4B$13.2A7.4B21.4B$13.5B3.4B23.4B$4.2A9.3B2.4B25.4B$3.A.A8.9B27.4B$
3.A8.B.8B29.4B25.A11.2A$2A.AB.B3.11B31.4B23.A.A9.B2AB$.A.A.2AB.12B
15.2A15.4B10.A3.A3.2A2.A.A9.3B$.A.A.2A14B15.A.A15.4B7.3A2.A.A2.A2.
2A.2A9.B.B$2A.A2.5B2A8B17.A4.2A10.4B5.A5.A.A3.A.A2.B8.5B$A2.4A3BA
2BA5B.B2A11.4A.2A2.A2.A9.7B.2A5.A.4A2.AB2A6.6B$.2A2.BAB.2B2A6B.BA.
A10.A2.A.A.A.A.2A10.9B7.A3.A.A.2A4.8B$3.2A6.7B5.A12.BABABA.A14.6B
8.A2.BA.A2.13B$3.A7.2B.4B5.2A12.B2ABA.A15.5B7.A.2BA.A5.13B$5.A9.4B
19.2B.BA15.7B6.2A.2BA5.15B$4.2A10.4B17.3B19.6B10.3B4.15B$17.4B7.2A
6.4B19.7B10.2B.B.17B$18.4B7.A6.B2A3B17.6B4.29B$19.4B6.A.AB3.B2A3B
17.7B2.16B2A13B$20.4B6.2AB.10B15.7B2.16B2A14B$21.4B7.13B13.9B.27B
3.B2A$22.4B6.14B12.36B4.A2.A$23.4B5.15B6.B4.20B2.2B2.B3.6B5.2A.A$
24.4B6.8B2.4B4.2AB.19B14.6B7.A$25.4B5.6B5.4B3.2A19B14.9B6.2A$26.4B
3.9B4.4B3.B.17B15.2A4.4B$27.4B.4B4.2A5.4B5.17B15.A5.4B$28.7B5.A3.A
3.4B4.17B12.3A7.4B$29.5B7.4A4.4B3.15B.B2A10.A10.4B$29.5B16.4B2.12B
4.BA.A21.4B$28.7B4.4A8.15B9.A22.4B$27.4B.4B3.A2.3A7.15B8.2A22.4B$
26.4B3.4B8.A7.14B33.4B$25.4B5.4B6.A.A7.12B35.4B$24.4B7.4B5.A.AB7.
10B37.4B$23.4B9.4B5.A3B7.9B38.4B10.2A$22.4B11.4B6.4B5.9B39.4B9.A$
21.4B13.4B5.6B5.6B41.4B10.A$20.4B15.4B4.7B.2B2.5B35.2A5.4B5.5A$7.
2A10.4B17.4B2.8B.9B36.A5.4B4.A$8.A9.4B19.24B35.A.AB.7B2.B3A$6.A10.
4B21.24B35.2AB.7B3.2B.A$6.5A5.4B5.2A15.19B2.4B36.12B4A$11.A4.4B5.A
16.18B4.4B35.7B2A3BAB2.2A$8.3AB2.7B.BA.A16.16B7.4B34.7B2A2B.B3A2.A
$7.A.2B3.7B.B2A15.2AB.13B9.4B33.10B3.B.A.2A$7.4A12B16.A.AB2.11B11.
4B31.8B8.A$5.2A2.BA3B2A7B16.A5.10B3.2A8.4B29.9B7.2A$4.A2.3AB.2B2A
7B15.2A5.2B2A6B3.A10.4B27.4B2.3B$4.2A.A.B3.10B21.3B2A6B4.A10.4B25.
4B3.5B$7.A8.8B21.10B3.2A11.4B23.4B7.2A$7.2A7.9B20.8B.B2A15.4B21.4B
8.A$17.3B2.4B18.7B3.B2AB2A13.4B19.4B10.3A$15.5B3.4B17.6B6.B.A15.4B
10.A6.4B13.A$15.2A7.4B17.6B4.2A3.A14.4B7.3A5.4B$16.A8.4B16.8B.A2.
4A15.4B5.A7.4B$13.3A10.4B14.9BA.A.A19.4B4.2A5.4B$13.A13.4B4.A8.7B.
2BAB.A.2A17.9B4.4B$28.4B3.3A6.6B3.2B2.A.A19.6B5.4B$29.4B5.A4.7B4.B
.2A2.A18.8B2.4B$30.4B3.2A4.7B3.A.A2.A.A16.15B$31.4B2.4B.8B3.2A2.A.
A17.14B$32.2B2A3.11B8.A18.13B$33.BABA.12B25.2AB.10B$34.A15B24.A.AB
3.B2A3B$35.14B10.A14.A6.B2A3B$36.10B11.3A13.2A6.4B$35.12B9.A25.3B$
34.16B6.2A25.2B.BA$27.A6.24B24.B2ABA.A$27.3A3.23B25.BABABA.A$30.A
2.24B22.A2.A.A.A.A.2A$29.A.B.24B22.4A.2A2.A2.A$29.2A27B25.A4.2A$
27.2A2.A22B.4B22.A.A$26.A2.3A3B3.2B3.B7.2B3.4B21.2A$27.A4.2B3.4B.
3B5.BA2B3.4B$28.4A5.B2AB.B2AB4.A.A5.4B$30.A7.2A3.2A6.A7.3BA$32.A
27.3BA$31.2A28.3AB!
