#CSYNTH guntrue_3500 costs 3264 cells.
#C period 3500 fullperiod 3500 bbox 51 by 64
#CLL state-numbering golly
x = 51, y = 64, rule = LifeHistory
39.2B$23.A13.6B$23.3A11.7B$14.A11.A9.9B$13.A.A9.2A10.9B$12.A2.A9.
5B7.10B$12.4A.2A8.3B6.12B$16.A.A5.7B4.9B.4B$9.2A3.A.A7.7B2.4B2A3B
4.4B$9.A2.6A5.A12BA2BA2B5.3BA$10.2A3.2B.A2B.ABA12B2A2B7.ABA$12.ABA
3BA3BABA15B9.2A$10.2A2B.3BA3.BA18B8.B$9.A2.AB2.A6.10B.B5.2A$9.2A
13.10B6.A$27.8B6.3A$25.6B.4B7.A$20.2A3.2A6.4B$20.A.A3.A7.4B$22.4A
9.4B$21.A14.4B$22.A.4A9.4B$21.2A.A2.3A8.4B$25.A4.A8.4B$21.4A.2A2.A
2.A6.4B$21.A2.A.A.A.A.A.A6.4B$23.BABABA.A2.A8.4B$24.B2ABA.A12.4B$
17.2A6.2B.BA14.4B$16.A2.A4.3B7.2A7.6B$14.BA.A.A3.4B8.A7.7B$14.3A.A
4.B2A3B6.A.AB2.9B$14.3AB5.B2A3B7.2AB.11B$15.3B3.10B7.3BA9B$18.14B
6.2BABA7B$18.15B5.2BABA7B$19.4B2A9B4.3BA3B2.B$21.BABA4B2.4B3.6B$
20.4BA2B5.4B.6B$20.9B4.4B.5B$2A4.2A11.4B4.2A5.8B$A.A2.A.A10.4B5.A
7.7B$2.A2BA11.4B7.3A3.10B$B2A2B2AB8.4B3.2A5.A3.6B2A4B$3A2B3A7.4B3.
A.3A7.5BA2BA3B$.BA2BA2B6.4B4.A4.A6.5BA2BA3B$3.2B2.4B.5B4.2A.3A5.2A
B.4B2A2B.B2A$6.10B3.A2B.2A6.A.AB.8B.BA.A$5.11B3.3BA8.A4.8B4.A$4.9B
2A2B2.3BA.2B4.2A5.2B2AB6.2A$4.4B2ABAB2A2B2.A2B.3A2B10.B2A$4.4BA3B
2A5B2.2A.A.2A11.B$4.3BA4BA6B3.A.A.2BA10.2B$5.2B3A9B3.A.ABA2.A9.2B$
6.B2A5BA3B5.A3.3A5.2A2.3A$6.6BABA4B5.3A8.A2.A.2B$7.2B.2BA6B8.A8.3A
3BA$11.8B7.2A5.3A2.A3B$12.5B.B2A11.A2.A.2A.A$10.6B2.BA.A11.A.A2.A.
3B$10.2A9.A12.2A2.A.ABA$11.A9.2A16.A.A$8.3A26.A.A.A.A$8.A28.2A3.2A!
