#CSYNTH guntrue_3634 costs 9956 cells.
#C period 3634 fullperiod 3634 bbox 131 by 76
#CLL state-numbering golly
x = 131, y = 76, rule = LifeHistory
30.2A$30.A.A$32.A4.2A$28.4A.2A2.A2.A$28.A2.A.A.A.A.2A$30.BABABA.A$
31.B2ABA.A$32.2B.BA$31.3B$22.2A6.4B$23.A6.B2A3B$23.A.AB3.B2A3B$24.
2AB.10B7.A$26.13B6.3A25.2A$26.14B8.A25.A5.B$26.15B6.A.A24.A.AB.3B
2.2B$28.8B2.4B5.A.AB24.2AB.3B2.2AB$28.3A3B5.4B5.A3B25.6BA2BA$27.3B
A5B4.4B6.4B22.B.7BABAB$26.3BA4.2A5.4B5.6B20.4B3A3B3AB$25.4B5.A7.4B
4.7B16.B.4BA2B2A3BA2B36.2A$24.4B7.3A5.4B2.8B.4B.B8.2A10BA5B36.A.A$
23.4B10.A6.17B.B2A7.2AB.4B2A5BA2B37.AB$22.4B19.2BA15B2A8.B4.3BABAB
2A2B17.4B3.B.2A7B2.2B$21.4B20.3B2A11B.2B16.2BABA4B17.4B.2B5A12B$
20.4B21.2B2A12B18.9B17.2A5BA4BA11B2A$19.4B22.15B19.3B3A3B17.2A5BA
2B3A11B2A$18.4B21.2AB.12B20.5BA7B.B12.B.4B2A2BA11B.B$17.4B21.A.AB
2.11B20.B2A3BA13B9.6B2A11B$16.4B22.A5.10B20.BA2B4A15B4.3B.B.3B$3.
2A10.4B22.2A5.10B19.2BABA3BA17B2.9B2A11B$4.A9.4B29.11B18.2ABAB3A
28B2A2BA11B.B$2.A10.4B31.2B3A5B17.B2ABA4BAB2A11B2.11BA2B3A11B2A$2.
5A5.4B5.2A25.B2AB2A2B.B2A.A14.2A3B2A10B2.2B5.10BA4BA11B2A$7.A4.4B
5.A25.BABAB2A3.B2AB3A13.BA2BABABA4B13.10B5A12B$4.3AB2.7B.BA.A25.BA
3BA6.B4.A12.B2A2B2A2B18.4B.B.3B.2A7B2.2B$3.A.2B3.5BAB.B2A27.BA2BAB
4.2A.3A15.7B19.4B18.AB$3.4A6BA2BA2B29.B3AB4.A2.2A17.8B19.4B16.A.A$
.2A2.BA6BA2BA2B28.8B.A.A19.8B21.4B15.2A$A2.3AB.5BABA3B19.A8.8BA.A.
2A.A15.8B22.4B$2A.A.B3.10B19.3A6.6B.2BAB.A.2A15.7B24.4B$3.A8.8B21.
A4.7B2.2B2.A18.7B25.4B$3.2A7.9B19.2A4.7B3.B.2A19.6B7.A18.4B$13.3B
2.4B18.4B.8B2.A.A2.2A17.6B6.A.A18.4B$11.5B3.4B19.11B2.2A2.A2.A17.
5B6.A.A19.4B$11.2A7.4B17.12B7.2A18.6B4.2A.3A18.4B$12.A8.4B16.12B
26.6B6.B4.A18.4B$9.3A10.4B15.11B27.7B3.B2AB3A20.4B$9.A13.4B13.9B
12.2A17.8B.B2A.A23.4B$24.4B9.2A.5A5B11.A18.10B28.4B$25.4B7.8B2A6B.
B4.2A.A17.3B2A6B29.4B$26.4B3.2B2A9BA9B2.ABA12.2A5.2B2A6B30.4B$27.
7BA6BAB2ABA2B2A2B3A3B15.A5.10B31.4B$28.5B3A3BA3BA2BA2B2A2B2ABAB2A
14.A.AB2.11B31.4B$29.4BAB2A7B2A9B2A2BA9.A5.2AB.12B32.4B$30.3B2A3BA
4B3A11B2AB7.3A7.15B32.4B$32.28B6.A10.16B32.4B$33.17B5.B.4B5.2A9.
16B.2B30.4B$33.9B2A3B11.4B.5B9.18B2A30.3BA$33.9B2A3B12.2B2A3B10.
17B.B2A31.ABA$37.3B4.2B9.2A3.B2A4B8.2A2B2.8B.4B.B33.2A$38.B6.2B8.A
4.7BAB5.ABAB4.7B41.B$44.B2AB9.A.7BABAB3.3BA5.6B$45.2A9.2A8B2A3B.4B
6.4B$55.A3.16B5.A3B$54.A.2A16B5.A.AB$53.A2.A.AB.12B6.A.A$53.2A2.AB
3.10B8.A$63.9B2.2A.3A$61.5B5.BA2.A.A$61.2A8.B3A$62.A6.A$59.3A7.4A$
59.A12.A$71.A$71.2A!
