#CSYNTH guntrue_4316 costs 2368 cells.
#C period 4316 fullperiod 4316 bbox 64 by 37
#CLL state-numbering golly
x = 64, y = 37, rule = LifeHistory
22.A$20.5A$19.A5.A22.A$19.A2.3AB9.2A10.A.A$18.2A.A.2B10.A11.A.A4.
2A$17.A3.2A2B7.BA.A9.3A.2A4.A$18.A.A2.A2B.4B.3A5.A3.A4.B5.A.2A3.2A
$17.2A.4A6B3A5.3A4.3AB2AB4.A.A4.A$23.A6B3A4.A9.A.2AB6.A.3A$17.2A.
4A6B2AB4.2A12.4B2.2A.A$18.A.A2.A2B.4B2.6B12.10B$17.A3.2A2B7.5B10.B
2.7B.2B$18.2A.A.2B6.7B2.B5.13B$19.A2.3AB4.8B.3B2.16B$19.A5.A3.9B.
21B$20.5A3.15BA4B2A10B$22.A4.4B.11B2A2BABA9B$12.2A12.4B2.6BA5BA2BA
BA7B$11.A2.A10.4B3.4B3A4BA3B2A6B$9.BA.A.A9.4B3.4BA14BA4B$9.3A.A9.
4B4.6B2A3BA4B3A4B$9.3AB9.4B3.7BABA2BA5BA6B$10.3B8.4B2.9BABA2B2A11B
$13.2B5.4B2.10B2A4BA12B$13.3B3.4B3.21B.6B$13.B2A.5B4.16B2.10B$2A.
2A7.BA2BA4B6.13B5.B.5B$2A.A8.2B2A4B6.2B.7B2.B8.4B$3.A.B3.2A8B6.10B
12.2B2AB$3.2A2B.3BA7B6.A.2A2.4B14.2A$.2A2.A2BAB2A7B4.3A.A6.B2A.A$A
2.AB2A12B3.A4.A.A4.B2AB3A$2A.A.AB3.7B.B2A2.A3.2A.A5.B4.A$.A2.3AB2.
7B.BA.2A7.A4.2A.3A$.A5.A4.2BAB5.A8.2A2.A2.2A$2.5A5.3BA5.A.A10.2A$
4.A8.3AB5.2A!
