#CSYNTH guntrue_1116 costs 4012 cells.
#C period 1116 fullperiod 1116 bbox 68 by 59
#CLL state-numbering golly
x = 68, y = 59, rule = LifeHistory
37.A$36.BAB5.A$24.2B11.A4.3A$20.2B.5B13.A$14.2A3.10B2.9B.2A$14.A.B
.25B$11.2A.A.25B$12.A.2A.23B2A$11.A2.B.24BA.A15.A2.2A$11.5A17B3A3B
.2BA15.4A.A$15.BA.15BA2BAB3.A21.A$11.2A.2A5.10B2A2B2A2B3.3A11.7A.
2A$11.2A.A6.9BA5BAB6.A10.A2.B3.A.A2.A$16.A5.11B3AB18.2A2.2A.AB2.2A
$15.2A5.8B2A8B18.B2AB2A$23.7BA2B3A5B18.5B$23.8BA2BA6B7.2A2.2A6.3B$
22.9B2A8B2.2A2.A2.A2.A5.2A3B$21.4B3.4B.8B2.A.A2.A.A.A5.B2AB2A$20.
4B10.7B3.B.2A.2A.2A4.2ABA4B$19.4B11.4BA2B2.2B2.A4.B4.9B$18.4B13.4B
2A.2BAB.A.2AB2AB3.7B$17.4B14.3B2A3BA.A.2A.A.2AB.10B$16.4B15.8B.A.A
7.13B$15.4B17.5B4.A2.2A4.13BA$14.4B18.6B4.2A.3A2.11BABA$2A5.2A4.4B
18.6B6.B4.A3.8B2.2A$.A5.2A2B.4B19.7B3.B2AB3A4.6B5.B$.A.AB3.7B21.8B
.B2A.A5.9B$2.2AB.8B22.10B8.4B4.2A$4.2B2A5B22.3B2A6B7.4B5.A$4.BABA
5B16.2A5.2B2A6B6.4B7.3A$5.BA7B16.A5.10B5.4B10.A$7.8B15.A.AB2.11B3.
4B$5.2B.B3.4B15.2AB.12B2.4B$4.3B6.4B16.19B$4.3B7.4B10.A4.18B$3.5A
7.4B7.3A4.17B$.3A.A.3A6.4B5.A7.16B$A3.BAB3.A6.4B4.2A5.16B$A.2A2.AB
2A.A6.9B4.4B2.8B.2B$.A2.2A3BA.A7.6B5.4B4.7B2.A$2.2A2.A2BA.A.2A4.8B
2.4B5.6B2.BAB$4.A2.B.A.A.2A2.15B6.4B4.3B$4.4A.2A6.14B5.A3B5.A3BA$
8.A8.13B5.A.AB4.3A.A.3A$6.A.A6.2AB.10B6.A.A4.A3.B2A3.A$6.2A6.A.AB
3.B2A3B9.A4.A.AB2A2.2A.A$14.A6.B2A3B6.3A5.A.2A2B2A2.A$13.2A6.4B8.A
4.2A.A.AB2A2.2A$22.3B13.2A.A.A.A2.A$23.2B.BA14.2A.4A$22.B2ABA.A15.
A$21.BABABA.A15.A.A$19.A2.A.A.A.A.2A13.2A$19.4A.2A2.A2.A$23.A4.2A$
21.A.A$21.2A!
