#CSYNTH guntrue_2464 costs 3410 cells.
#C period 2464 fullperiod 2464 bbox 55 by 62
#CLL state-numbering golly
x = 55, y = 62, rule = LifeHistory
18.2A$6.A10.B2AB$6.3A9.3B9.2A$9.A7.B.B9.2B.A$8.2A7.5B5.2ABA.A$8.5B
4.5B4.A4B.2A$10.3A3.6B4.3BA.A$9.B.A4.6B5.A.A.A$8.2AB2A2.7B4.BA.2A$
8.2B3AB.4BA2B5.2A$7.A.2B2A4B2ABA2B2.2A2.B3A$4.A2.3ABA.3BAB.BA3B.AB
3A2.A$4.3AB2.2A2.2BAB2A4B2A2B.A$8.2A5.2BA4B.B3A2B$6.2A.AB4.7B2.2AB
2A$5.A.A.A5.6B4.A.B$5.A.A3B4.6B3.3A$3.2A.4BA5.5B3.5B$4.A.AB2A4.3B.
3BA5.2A5.2A$4.A.2B6.2A3.ABAB4.A5.B2A2B$5.2A8.A4.2A2B4.3A3.2A2B$12.
3A6.4B5.A3.BA2B$12.A5.A3.4B7.BABA$9.B7.A.A3.4B6.2ABA$8.4B5.BA2B2.
5B4.4B3.2A.2A$8.2A4B4.2B.B2.4BA3.4B4.A.A2.2A$7.2BAB2A2B3.2B3AB2.AB
A2B.2B2AB2.A3.2A2.A$8.BA2BAB2A2.B5A3.2A3B2.2A3.A.2A2.A.A$8.B2ABA3B
A2BA2B2A4.4B8.A.A.A.A.2A$8.A4BABAB.5B6.4B8.2B.A.A2.A$8.7BA.6B5.6B
8.BABA.A$7.A2BA4B2.4B6.8B6.2BA.A.2A$8.ABA3B3.2B2AB4.9BA5.3B2A.A2.A
$8.BA2B7.2A4.8BABAB4.6B2.2A$9.B14.10B2A2B.8B$23.22B$12.2A8.4B.18B$
11.B2AB6.4B4.3B2A11B$11.4B5.4B5.2BA2BA13B$12.2B5.4B7.2B2A15B$4.A7.
4B2.4B9.19B$3.A.A5.5B.4B8.21B$4.A.14B9.2A5.14B$5.14B11.A8.13B$5.
14B8.3A10.12BAB$5.15B7.A12.11BABAB$4.3B2A12B17.B.11BABA$4.3B2A13B
12.2A.2A13BA2B$2.2AB.11B2.4B9.A2.A.2A15B$.A.AB2.8B5.4B8.2A.A.17B$.
A5.10B4.4B10.A2.2B3.9B$2A5.B.B5.2A5.4B9.2A.B5.7B$8.3B4.A7.4B6.2A2.
A.A4.3BA3B$7.B2AB5.3A5.4B4.A2.A2.2A3.3BABA3B$8.2A8.A6.4B4.2A8.4BA
4B$26.4B14.7B$27.4B15.3B$28.4B12.7B$29.4B11.2A.B.2A$30.3BA11.A3.A$
31.3BA7.3A5.3A$32.3AB6.A9.A!
