#CSYNTH guntrue_1827 costs 5852 cells.
#C period 1827 fullperiod 1827 bbox 77 by 76
#CLL state-numbering golly
x = 77, y = 76, rule = LifeHistory
44.A$43.A.A$43.A2.A21.2A$39.2A.2A.2A21.2A$24.2A13.2A.A2.A16.2A$25.
A9.2A4.B.BA2.A9.2A3.A.A.6A$13.A11.A.AB4.2B2AB2.3B2.3A3.A5.A6.A.A5.
A$12.A.A11.2AB4.4B3.2B3A6.3A4.3A2.B2A3.3A$12.BA2B12.3B2.6B.BAB2.A
8.A5.A3.2B2.A$13.2B13.11B.BAB2A.A6.2A6.4B3.2A4.2A$13.3B10.15B.AB2.
A6.4B3.10B4.A$13.3B5.2B.4B2A12B.B2A.2A6.13B3.BA.A$11.6B3.3B.3BA2B
2A9B4.A.A5.17B.B2A$10.9B.6BA7BA7B3.A.A3.21B$9.17BA4B5A6B4.A4.18B2A
B$9.5BA11BA8BA6B9.17BA2BA$8.5BABA4BA6BABA5B2A5B10.16BABAB$7.5B2A5B
ABA6BA4BABA5B15.13BA2B$7.6BA8BA11BA5B17.16B$2.A4.6B5A4BA17B18.7B4.
4B2.2A$.A.A3.7BA7BA6B.9B15.2B2.6B6.2ABA2.A$.A.A4.9B2A2BA3B.3B3.6B
14.5B.5B6.ABAB3A$2A.2AB.12B2A4B.2B5.3B10.A.2A.12B3.A2.A.A$2.A2.BA.
15B10.3B10.2A.A13B3.4A.3A$2.A.2ABAB.11B13.2B14.14B6.A3.A$3.A2.BAB.
6B2.4B11.2BAB14.13B4.A.A2.2A$4.3A2B3.4B3.4B11.A.A14.13B4.2A$.3A2.
3B2.B2A2B4.4B11.A12.B3.9B2.B2A$.A2.AB.B4.2A7.4B22.3B2.9B2.BA.A$3.A
2.A.2A12.4B21.3B.10B5.A$2.2A.2A.2A13.4B19.16B4.2A$2.A2.A18.4B17.8B
.7B$3.A.A19.4B15.9BA7B$4.A21.4B10.A2.9BABA7B$27.4B7.3A2.9BABA6B$
28.4B5.A6.9BA7B$29.4B4.2A5.8B.8B$30.9B4.4B.B5.8B$31.2BA3B5.4B.3B5.
6B$31.3B2A3B2.4B2.B2AB4.6B$29.4B2A9B4.2A5.7B$29.14B12.8B2.2A.A$29.
13B11.12BA.2A$27.2AB.10B12.11B$26.A.AB3.B2A4B13.5B2A4B$26.A5.2B2A
5B12.5B2A3B$25.2A6.8B12.10B$33.6B14.9B$34.5B14.9B$35.3B16.8B$34.5B
14.8B$33.B2AB2A15.6B$30.2A2.2A.AB2.2A11.6B$30.A2.B3.A.A2.A11.6B$
31.7A.2A13.7B$38.A16.6B$33.4A.A15.6B$33.A2.2A17.6B$55.6B$55.7B$55.
8B4.2A$51.A.2AB.5B5.A$49.3AB2AB2.B3AB.BA.A$48.A4.B4.5B.B2A$49.3A.
2A2.9B$51.A.A3.8B$53.A.10B$52.2A.2A9B$55.A.10B$55.A.5B2.4B$52.2A.
2A3B5.4B$52.A.A.6B4.4B$54.A.B.B.2A5.4B$54.2A4.A7.3BA$61.3A5.3BA$
63.A6.3AB!
