#CSYNTH guntrue_5418 costs 3080 cells.
#C period 5418 fullperiod 5418 bbox 77 by 40
#CLL state-numbering golly
x = 77, y = 40, rule = LifeHistory
71.A$69.3A$37.A30.A$37.3A21.2A5.2A$40.A20.A4.4B$39.2A22.A.2AB$39.
4B19.2A.A.AB$41.5B.B3.B10.A3.2AB$32.3B4.11B2A4B3.BA.A3.3B$32.3B3.
5B3A3BA2B2A4B.B2A5.3B$31.14BA2BA5BA5B7.3AB$29.14BAB2A2B3A2BA5B6.B
3A3B$29.14BAB2ABA3B3A5B4.B3A2BA2B$29.16BAB2A15BA3B3A2B$17.A2BA4.
25BA12BA3BAB2A4B$16.A4BA2.21B3A2BA2.11BA2BA3B2A3B$5.3B6.2BA4BA9B.
9BA4BA2B6.10B2A3BA2BA3B$4.6B2.A2B3A21B2.A4BA8.4B4.4B2ABA3BA2B$3.9B
A25B4.A2BA8.4B7.2B3A3BA2B$4.10B2ABA16B19.4B8.2BA2B3AB$3.5B3A3BAB2A
BA14B18.4B9.3B3AB$3.5BA2B3A2B2ABA14B17.4B12.B3A$3.5BA5BA2BA14B4.A
13.4B14.3B$.2AB.4B2A2BA3B3A5B3.3B5.3A10.4B16.3B$A.AB3.4B2A11B4.3B
8.A8.4B17.B2A$AB9.B3.B.5B16.2A7.4B18.BA.A$.AB17.4B14.5B3.4B20.B2A$
.3BA17.2A5.2A9.3B2.4B19.4B$.2A.AB16.A5.A.A8.9B20.2A$2.B.AB17.3A2.A
8.B.8B22.A$.4A21.A.AB.B3.BA9B20.3A$A4.2B18.2A.A.2AB.3A9B20.A$A.6A
20.A.2A2B2A10B$.2A.B2A.A16.2A.A2.5BA9B$5.ABA2B15.A2.4A3BA8B.B2A$7.
BA17.2A2.BAB.BA8B.BA.A$7.BAB18.2A6.7B5.A$8.A19.A7.2B.3BA5.2A$30.A
9.3BA$29.2A10.3AB!
