#CSYNTH guntrue_2304 costs 2332 cells.
#C period 2304 fullperiod 2304 bbox 53 by 44
#CLL state-numbering golly
x = 53, y = 44, rule = LifeHistory
2.A9.A$2.3A5.3A$5.A3.A$4.2A.B.2A$4.7B$6.3B$4.7B$3.4BA4B8.2A$3.3BAB
A3B3.2A2.A2.A$4.3BA3B4.A.A2.A.A$4.7B5.B.2A.A$3.9B3.2B2.A$.17B.A$.
15B2A.2A$2BA13B2A.A14.2A$.ABA8BA2B.B4.A2.2A6.2B2AB2.3B.5B$BABA7BAB
AB5.2A3.A6.5B2.4B2A3B$.BA8B2A3B4.A3.A6.11B2A3B2A$3.13B.BA.A3.2A6.
10B2A3B2A$5.11B.B2A6.AB.B.4B2A5B3AB.B$5.2B2A9B6.3A6B2ABA7BAB$5.BA
2BA8B5.A2.B.5B2A9B$6.B2A9B5.2A3.5B2ABA7B$7.11B13.4B2A8B$10.8B10.
20B3.2A$10.9B8.21B.B2.A$9.5B2.4B6.16BA6B3A$9.6B2.4B5.16BA2B.B.BA$
8.6B4.4B3.3BA13BAB6.2A$4.B2.3BA3B5.4B2.2BABA15B6.A$2.7BABA2B6.4B.
3BA8B2.5B6.A$2.7BABA2B7.16B2.B2A2B6.2A$.9BA3B8.9B9.2A$.11B.B2A7.7B
$2.9B2.BA.A7.4B$2.7B7.A6.B$3.6B7.2A4.A2B$4.4B13.A.A3B$5.4B12.2A2BA
BA$6.4B9.2A2.A2B2A$7.4B9.A.A$8.3BA7.A2.5A.A$9.3BA6.A.A3.A.2A$10.3A
B4.2A.2A!
