#CSYNTH guntrue_1143 costs 4440 cells.
#C period 1143 fullperiod 1143 bbox 60 by 74
#CLL state-numbering golly
x = 60, y = 74, rule = LifeHistory
30.2A$30.A.A$32.A4.2A$28.4A.2A2.A2.A$28.A2.A.A.A.A.2A$30.BABABA.A
8.2A2.2A$31.B2ABA.A8.A2.A.A$32.2B.BA10.2A.A$31.3B7.A6.A.2B6.2A$22.
2A6.4B7.3A4.A.2ABA5.A$23.A6.B2A3B8.A4.AB.BAB.3A$23.A.AB3.B2A3B7.A.
A8.BA.B$24.2AB.10B5.A.AB7.BA.2A$26.13B5.A3B7.A3B$26.14B6.4B7.BA$
26.15B5.6B6.BA$18.2A8.8B2.4B4.7B3.BA.A$18.A9.6B5.4B2.8B3.B2A$15.BA
.A8.9B4.17B$13.B.3A8.4B4.2A5.16B$12.4A9.4B5.A6.16B$10.3A.AB8.4B7.
3A3.16B$9.BA.AB9.4B10.A3.15B$9.2A.3B7.4B11.A.2AB.12B$9.BA.2A7.4B
10.2A.A.AB2.11B$8.B2ABAB6.4B11.A2.A5.10B$7.B3A.A.B4.2A2B14.2A5.2B
2A6B$8.AB2.3B3.2B2A21.3B2A6B4.2A$12.3B2.2BAB23.10B5.A$12.8B24.8B.B
2A.A$11.B3A4B24.7B3.B2AB2A$11.BABA3B25.6B6.B$10.2B2A5B25.6B4.2A.2A
$10.10B24.5B4.A2.2A$10.6B.4B22.8B.A.A4.A$8.2AB.3B3.4B2.B9.A8.8BA.A
.2A.2A$7.A.AB2.B5.8B7.3A6.6B.2BAB.A$7.A12.9B8.A4.7B2.2B2.A$6.2A13.
8B7.2A4.7B3.B.2A.A$22.8B6.4B.8B2.A.A2.A.A$21.10B7.11B2.2A2.A2.A$
22.9B6.12B7.2A$13.2A8.7B7.12B$12.B2AB7.9B5.11B$13.2B7.13B3.7B$12.
2B7.15B.9B$11.B2A2B6.28B$11.A.BAB.2B2.31B$12.A.A.37B$10.A.A.A.A36B
$9.A.A.A.ABA35B$10.A2.A2.AB2.31B.B2A$11.2A.2AB4.28B3.BA.A$7.2A3.A.
A5.30B5.A$7.A2.A.A.A6.13B.14B6.2A$8.3A.2A9.9B4.12B$23.7B6.B2A4B.4B
$10.4A8.9B6.2A3B3.2B$10.A3.A6.10B7.B.2B2.B2AB$13.2A7.8B7.2A6.2A$
13.5B3.8B8.A$4.2A9.3B2.9B9.A$3.A.A8.13B10.2A$3.A8.B.8B2.B$2A.AB.B
3.BA9B$.A.A.2AB.3A9B$.A.A.2A2B2A10B$2A.A2.5BA9B$A2.4A3BA8B.B2A$.2A
2.BAB.BA8B.BA.A$3.2A6.7B5.A$3.A7.2B.3BA5.2A$5.A9.3BA$4.2A10.3AB!
