#CSYNTH guntrue_3960 costs 2646 cells.
#C period 3960 fullperiod 3960 bbox 63 by 42
#CLL state-numbering golly
x = 63, y = 42, rule = LifeHistory
45.2A$35.A4.B3.A.A$28.2A4.A.A.B3A.ABA$28.A.A4.A.2BA.AB2A2B$30.A6.
2B.B3A.2B$29.A.2A4.2A3B3.3A$29.A2.AB3.3ABAB3.B$26.2A.2A2B4.B3A.A$
27.A.9B2.2A$25.A.A3.7B$23.3A.2AB.2B5AB11.A$22.A4.B.4B5ABA8.3A$23.
3AB2AB.2BA2BA2BA7.A$25.A.2AB.6BA9.2A7.A$32.4BA7.5B6.A.A$32.2BAB8.
3B8.A.3A$19.2A12.BAB6.7B5.2A4.A$17.BABAB10.4B6.8B5.B.3A$17.3AB10.
7B.11B4.2ABA$17.2A2B9.4B.2BA2BA9B3.2BAB$18.2B2A7.4B.2B3A2B2A7B3.BA
3B$18.B3A6.4B2.2BA2B2A2BA6B3.BA.3A$19.4B4.4B4.BAB2AB3A6B3.2B2A.3A$
19.4B3.4B6.BA6B4A3B3.A.B4.A$11.A6.B2A2B.5B7.2B4AB5A4B.BA2B3A.A$11.
3A5.2A2.6B8.3B4A7B.2BA2B2.A.2A$14.A8.5B7.A3.12B2.B2AB2A3.A$13.2A7.
7B5.BAB5.6B.B3.BAB2.A.2A$13.5B3.4B.B3A4.3B5.5B8.2A.A.A$4.2A9.3B2.
4B3.3B3.2BA2B5.3BA2B7.A.A.A$3.A.A8.9B3.A3BA2.BABAB7.ABA4B4.A2.A$3.
A8.B.8B4.B3AB.7B7.A.A.2A3.2A$2A.AB.B3.BA9B6.4B.2B3A2B5.A.A.ABABA$.
A.A.2AB.3A9B6.3B.9B4.2A.A4.A$.A.A.2A2B2A10B6.3B.9B7.A.3A$2A.A2.5BA
9B6.4B.2B3A2B8.A.A$A2.4A3BA8B.B2A3.B3AB.7B9.A$.2A2.BAB.BA8B.BA.A2.
A3BA2.BABAB$3.2A6.7B5.A3.3B3.2BA2B$3.A7.2B.3BA5.2A2.3A4.3B$5.A9.3B
A9.B5.BAB$4.2A10.3AB15.A!
