#CSYNTH guntrue_1300 costs 5538 cells.
#C period 1300 fullperiod 1300 bbox 78 by 71
#CLL state-numbering golly
x = 78, y = 71, rule = LifeHistory
37.2A11.A6.2A$36.B2AB9.A.A4.A2.A$37.3B9.A.A3.A.3A2.A$36.B.B9.2A.2A
.A.A5.3A$36.5B8.B2.A.A3.2A5.A$36.6B6.2ABA2.4A.A4.2A$36.8B4.2A.A.A
3.A6.5B$37.13B2.A.AB2.A7.4B$35.13B5.A.A2B.A6.5B$34.15B5.A2B.2A6.6B
$34.15B4.3B10.6B.B$33.17B.B.2B10.6B.B2A$33.29B4.7B2A$32.13B2A16B2.
2B3AB.2B$31.9B3A2B2A16B2.2BA2BA$30.2AB3.6BA20B.3BA5B3.B$29.A2.A4.
4BA29BA2B.B2A$28.A.2A5.6B3.B2.2B2.15BA2BA4B2A$28.A7.6B14.13B3A5B$
27.2A6.9B14.5B2A6B2A4B$34.4B4.2A15.3B3A3BAB2A3B$33.4B5.A15.10B3A4B
$32.4B7.3A12.11BA5B$31.4B10.A10.2AB.3B.10B$31.4B20.A.AB5.9B$30.5B
20.A9.8B$27.9B18.2A8.9B2.B$27.9B28.9B.B2A$27.9B29.10B2A$27.10B29.
8B.B$7.2A5.2A2.2A.2A3.12B27.8B$7.A2.2A.A2.A2.A.2A2.13B8.2A18.7B$8.
2A.A.2A.2A.A6.11B9.A20.5B$4.2A3.A.A2.B.A2.A.2A4.12B4.BA.A20.4B$.A
2.A2.A.AB2ABA.A.2A.2A4.15B.B2A10.A10.4B$.3A2.6A.3BAB.BAB5.17B12.3A
7.4B$4.2A2.4BA2B.4BA6.17B15.A5.4B$3.A2.A.5BABA.2BAB3.B.17B15.2A4.
4B$4.2A4.2B.BA3.A4.2A19B14.9B6.2A$10.2B11.2AB.19B14.6B7.A$11.B12.B
4.20B2.2B2.B3.6B5.2A.A$10.2AB16.25B3A8B4.A2.A$.2A6.A2BAB5.2A8.9B.
14B4A9B3.B2A$2.A4.3B2A3B4.A10.7B2.13B2A2B2A13B$2.A.AB.8B.BA.A10.7B
2.14BABAB2A11B$3.2AB.8B.B2A11.6B4.14B3A2BA9B$5.12B13.7B10.2B.B.3B
2A12B$5.12B13.6B10.3B4.5B2A8B$5.12B3.A8.7B6.2A.2BA5.15B$7.10B3.3A
7.5B7.A.2BA.A5.13B$9.7B7.A5.6B8.A2.BA.A2.13B$9.8B5.2A4.9B7.A3.A.A.
2A4.8B$8.5B.4B4.12B.2A5.A.4A2.AB2A6.6B$8.6B.4B5.7B4.A5.A.A3.A.A2.B
8.5B$7.6B3.4B2.8B6.3A2.A.A2.A2.2A.2A9.B.B$3.B2.3BA3B4.15B6.A3.A3.
2A2.A.A9.3B$.7BABA2B5.15B17.A.A9.B2AB$.7BABA2B6.14B18.A11.2A$9BA3B
7.10B3.B2A$11B.B2A7.3B2AB5.3AB$.9B2.BA.A6.3B2AB4.A.2AB$.7B7.A8.4B
3.A.A.2B$2.6B7.2A7.3B4.A2.A$3.4B14.AB.2B6.2A$4.4B12.A.AB2AB$5.4B
11.A.ABABAB$6.4B7.2A.A.A.A.A2.A$7.4B6.A2.A2.2A.4A$8.3BA7.2A4.A$9.
3BA12.A.A$10.3AB12.2A!
