#CSYNTH guntrue_639 costs 4028 cells.
#C period 639 fullperiod 639 bbox 76 by 53
#CLL state-numbering golly
x = 76, y = 53, rule = LifeHistory
14.2A5.BA15.2A.A.2A$13.A2.A.2B2A.A7.A.2A.A2.A.2A2.A$13.2A.5A.2A7.
2A.A.2A.A4.A.A$14.A.A2.A2.6B8.B2.5A.A$13.AB.A2BA4.5B6.2ABA4.A$12.
3BA.BA5.7B4.2A.A.AB2.A$12.2A2B8.13B2.A.A2B.A15.2A$10.A2B.A7.13B5.A
2B.2A15.A$9.A3BA7.15B3.3B16.BA.A$10.A.A8.15B3.2B14.2A.B2A$20.17B.
4B12.B2A2B$20.29B6.4B$19.13B2A16B3.6B$18.9BA4B2A16B2.6B$5.2A10.2AB
3.4B2A21B.7B9.2A$4.A.A9.A2.A4.2BABA30B6.2B2AB$4.A10.A.2A5.7B2.B2.
2B2.20B5.4B3.B$.2A.2A9.A7.7B13.21B.6B2A2B$.2A.A.A7.2A6.8B15.26B2A
2B$4.A.2B13.4B2.2B17.30B$.4A.2A12.4B4.2A15.31B$A4.AB3.2A7.4B6.A15.
30B$.4A4.B2AB5.4B6.A14.2AB.3B2.22B$2.A.2B3.3B5.4B7.2A12.A.AB6.22B$
.BA.BA4.B.B3.4B22.A8.12B3.9B$.B3A3.6B.4B22.2A7.12B5.8BA$.2A5.10B
31.10B6.5B3.ABA$BA6.9B7.2A22.4B.6B6.2A7.2A$A.AB2.10B8.A22.4B3.B.B
9.A8.B$.2AB.10B6.BA.A12.2A7.4B5.3B5.3A$3.12B2.3B.B2A14.A6.4B5.B2AB
5.A$3.19B15.A6.4B7.2A$3.19B15.2A4.4B$3.18B17.2B2.4B$4.18B15.8B6.2A
$5.19B13.7B7.A$6.21B2.2B2.B2.7B5.2A.A$8.30BABA2B4.A2.A$9.7B.21B2A
4B3.B2A$9.6B2.16B2A4BA9B$8.6B3.16B2A13B$8.4B6.29B$8.2B2AB12.4B.17B
$6.2AB.2A14.2B3.15B8.A.A$5.A.AB16.3B3.15B7.A3BA$5.A15.2A.2BA5.13B
7.A.2BA$4.2A15.A.2BA.A2.13B8.2B2A$22.A2.BA.A.2A4.7B5.AB.A3B$23.A4.
AB2A6.5B4.A2BA.BA$21.A.5A2.B8.6B2.A2.A.A$20.A.A4.A.2A.A.2A7.2A.5A.
2A$21.A2.2A.A2.A.2A.A7.A.2A2B.A2.A$22.2A.A.2A15.AB5.2A!
