#CSYNTH guntrue_9999 costs 7400 cells.
#C period 9999 fullperiod 9999 bbox 100 by 74
#CLL state-numbering golly
x = 100, y = 74, rule = LifeHistory
59.A2.2A$59.4A.A$64.A$57.7A.2A$56.A2.B3.A.A2.A$56.2A2.2A.AB2.2A$
59.B2AB2A$60.5B$61.3B$60.5B$59.6B$51.2A6.8B$52.A5.2B2A5B$52.A.AB3.
B2A4B$53.2AB.10B$24.2A29.13B$23.B2AB11.2A.A.2A10.14B$24.3B4.A.2A.A
2.A.2A2.A3.2A4.15B$23.B.B5.2A.A.2A.A4.A.A3.A6.8B2.4B$23.5B8.B2.5A.
A4.A.AB3.6B5.4B$23.6B6.2ABA4.A7.3A.A9B4.4B$23.8B4.2A.A.AB2.A8.2ABA
2B4.2A5.4B$24.10B2AB2.A.A2B.A7.2AB2A5.A7.4B13.A$22.11B2A5.A2B.2A7.
BA2BAB.B3.3A5.4B10.3A$21.13B2A3.3B11.BA3BA2BA4.A6.4B8.A$21.9B2A2BA
B3.2B12.2BABA2BA.A11.4B7.2A$20.10B4A3B.4B11.B3A2B.BA13.4B3.5B$20.
8B2A2BA16B3.B2A4B17.4B2.3B9.2A$19.31B2.4B2AB18.9B8.A.A$18.32B2.ABA
B2AB19.8B.B8.A$17.2AB3.27B.A3BA3B20.11B3.B.BA.2A$16.A2.A4.28BABA4B
2.B12.A4.12B.B2A.A.A$15.A.2A5.7B2.B2.2B2.12B3A4B.B2A10.A.A3.14B2A.
A.A$15.A7.7B13.18B2A7.A.A2.A3.8B2A5B2.A.2A$14.2A6.8B15.11B2AB.2B6.
3A.A.2A.2AB.5BA2BA3B4A2.A$21.4B2.2B17.10B3A8.A4.A3.A.AB.6B2A2B.BAB
2.2A$20.4B4.2A15.14B.2B5.A2.2A.2A.A5.7B6.2A$19.4B6.A15.16B2A.2A.A.
A.A.A.2A5.4B.2B7.A$18.4B5.A15.2AB.7BA7BA.A2.A.A.2B8.4B9.A$17.4B6.
2A13.A.AB2.4B2AB3AB.BA4.A.ABAB8.6B8.2A$16.4B22.A4.6BA3BAB6.2A.A.A
2B6.8B$3.2A10.4B22.2A3.4B.2BA5B4.A2.A.2A3B5.10B$4.A9.4B27.4B3.2B3A
3B3.2A2.6B4.12B$2.A10.2A2B27.4B6.7B6.8B.14B$2.5A5.2B2A5.2A20.4B10.
4B2.2A4.22B$7.A4.BA2B5.A20.4B10.2B2A.A2.A4.18B.4B$4.ABAB2.7B.BA.A
19.4B10.A.A.A.3A5.11B2A3B4.4B$3.A.AB3.7B.B2A19.4B10.A.2A.A6.13BA2B
A2B5.4B$3.2A14B20.4B11.A3.A.2A3.B2A12B2A2B7.4B$.2A2.AB2AB2A7B19.4B
11.2A3.A2.A2.BA2BA14B9.4B$A2.2A2B.B2A8B18.4B18.2A3.2B2A17B8.4B$2A.
A.B3.A9B6.A10.4B24.14B5.2A9.4B$3.A8.8B5.3A7.4B23.13B8.A11.4B$3.2A
7.9B7.A5.4B22.BA12B10.3A9.3BA$13.3B2.4B5.2A4.4B22.BABA11B12.A10.AB
A$11.5B3.4B4.5BA3B24.ABA11B.B22.2A$11.2A7.4B5.3BABA24.2BA13B2A.2A
19.B$12.A8.4B2.5B2AB25.15B2A.A2.A$9.3A10.15B23.17B.A.2A$9.A13.14B
25.9B3.2B2.A$24.13B26.7B5.B.2A$25.10B.B2A24.3BA3B4.A.A2.2A$27.3B2A
B3.BA.A22.3BABA3B3.2A2.A2.A$27.3B2AB6.A22.4BA4B8.2A$29.4B6.2A22.7B
$29.3B33.3B$26.AB.2B32.7B$25.A.AB2AB31.2A.B.2A$25.A.ABABAB31.A3.A$
22.2A.A.A.A.A2.A26.3A5.3A$22.A2.A2.2A.4A26.A9.A$24.2A4.A$30.A.A$
31.2A!
