#CSYNTH guntrue_748 costs 3968 cells.
#C period 748 fullperiod 748 bbox 64 by 62
#CLL state-numbering golly
x = 64, y = 62, rule = LifeHistory
23.2A$22.B2AB11.2A.A.2A$23.3B4.A.2A.A2.A.2A2.A3.A$22.B.B5.2A.A.2A.
A4.A.A2.3A$22.5B8.B2.5A.A6.A$22.6B6.2ABA4.A7.2A$22.8B4.2A.A.AB2.A
6.5B$23.10B2AB2.A.A2B.A7.4B$21.11B2A5.A2B.2A7.5B$20.13B2A3.3B11.6B
$20.9B2A2BAB3.2B12.6B.B$19.10B4A3B.4B10.6B.B2A$19.8B2A2BA16B4.7B2A
$18.31B2.6B.2B$17.32B2.6B$16.2AB3.27B.9B3.B$15.A2.A4.37B.B2A$14.A.
2A5.6B3.B2.2B2.23B2A$14.A7.6B14.21B$13.2A6.9B14.19B$20.4B4.2A15.
16B$19.4B5.A15.17B$19.4B6.3A12.17B$18.5B8.A10.2AB.3B.10B$15.9B17.A
.AB5.9B$15.9B17.A9.8B$15.9B16.2A8.9B2.B$15.10B25.9B.B2A$14.12B25.
10B2A$13.13B8.2A16.8B.B$14.11B9.A16.8B$15.12B4.BA.A17.7B$15.15B.B
2A10.A8.5B$15.17B12.3A6.4B$15.17B15.A5.4B$12.B.17B15.2A4.4B$11.2A
19B14.9B6.2A$11.2AB.19B14.6B7.A$12.B4.20B2.2B2.B3.6B5.2A.A$17.36B
4.A2.A$17.9B.27B3.B2A$18.7B2.16B2A14B$18.7B2.16B2A13B$12.2A4.6B4.
29B$11.B2AB3.7B10.2B.B.17B$11.4B3.6B10.3B4.15B$12.2B3.7B6.2A.2BA5.
15B$4.A7.4B2.5B7.A.2BA.A5.13B$3.A.A5.5B.6B8.A2.BA.A2.13B$4.A.19B7.
A3.A.A.2A4.8B$5.17B.2A5.A.4A2.AB2A6.6B$5.14B4.A5.A.A3.A.A2.B8.5B$
5.15B4.3A2.A.A2.A2.2A.2A9.B.B$4.3B2A12B5.A3.A3.2A2.A.A9.3B$4.3B2A
13B16.A.A9.B2AB$2.2AB.11B2.4B16.A11.2A$.A.AB2.8B5.4B$.A5.10B4.4B$
2A5.B.B5.2A5.4B$8.3B4.A7.3BA$7.B2AB5.3A5.3BA$8.2A8.A6.3AB!
