#CSYNTH guntrue_2000 costs 2535 cells.
#C period 2000 fullperiod 2000 bbox 65 by 39
#CLL state-numbering golly
x = 65, y = 39, rule = LifeHistory
24.2A5.2B19.2A4.2A$14.ABA4BA6BA2B3A2.2A14.A.A2.A.A$13.BA.4ABABA2BA
BABAB2AB.2A2.2A5.2A5.A2BA$13.2A2B.2A2.B4AB4.B3A5.A4.A2.A2.BA4BAB$
13.2B.2B2AB3.2B8.BAB3.A5.3A3.BA4BAB$17.A.A4.2B9.A4.2A2.2A7.A4BA$
18.A6.B12.2A3.A.A.4A4.2A6.2A$24.2AB10.A2.A.2A.ABA2.A5.B6.A$15.2A6.
A2BAB5.2A2.3A3.2B2A9.2B2.BA.A$16.A4.3B2A3B4.A6.4ABAB7.2B2AB.B2A$
16.A.AB.8B.BA.A3.2A.A.BA4B2.6BABA2B$17.2AB.8B.B2A3.A.A.2B2AB.5B2A
5BA2B$19.12B4.A2.A.2B2A2.4B2ABA2B3A2B.2A$19.12B3.A3.2A2.B3.5BA2B2A
4B.A.A$19.12B2.A11.9B2A5.BA$21.10B3.3A7.4B3.2BAB7.2B$23.7B7.A5.4B
14.BA2B$23.8B5.2A4.4B14.4A$22.5B.4B4.9B14.BA.2B$22.6B.4B5.7B14.2BA
B$21.6B3.4B2.8B7.2A2.2A.2B2AB$17.B2.3BA3B4.15B5.A2.A.3AB2A$15.7BAB
A2B5.5BA9B5.A.A.3BA.2A$15.7BABA2B6.4BABA7B6.A2.2AB.A.A$14.9BA3B7.
3B2A5B3.B2A4.2A.4BA$14.11B.B2A6.7B5.3AB5.A3B$15.9B2.BA.A4.9B3.A.2A
B3.2AB.6A$2.2B7.A3.7B7.A4.4B2A2B3.A.A.2B2.A2.2A2B.A2.A$2.BAB5.A.A
3.6B7.2A5.2B2A2B3.A2.A5.A.B2.B.2B2A$2BABA5.BA2B2.5B15.5B5.2A5.2A.
2A4B$BA3BA5.2B.B2.5B15.3B11.A2.A.A.3B4A$.BA2B.A4.3BA2B2.4B13.5B10.
2A3.A.3A3.A$3.A.2BAB2.2BABAB3.4B12.2AB2AB14.2A4BA$4.A3BA2B2A2B2A4.
4B7.2A2.BA.2A2.2A9.2A2.BAB.2A$5.ABA2B.2AB2A6.4B6.A2.A.A3.B2.A8.A2.
2ABA2B2.A$5.BAB2.2AB3A7.4B7.2A.7A9.2A.A2.B.A.2A$6.2B2.3AB10.3BA8.A
19.A2.B2A.A$10.BABAB10.3BA7.A.4A14.2A2.A2.A$12.2A12.3AB7.2A2.A19.
2A!
