#CSYNTH guntrue_1324 costs 6764 cells.
#C period 1324 fullperiod 1324 bbox 76 by 89
#CLL state-numbering golly
x = 76, y = 89, rule = LifeHistory
71.A$69.3A$68.A6.A$48.A19.2A3.3A$48.3A10.9B2.A$51.A9.7B4.2A$50.2A
9.8B.4B$50.4B3.B2.12B$52.2B.17B$50.21B$50.20B$49.2A18B$49.2A15B$
50.B.13B$53.12B$54.9B.B2A$53.9B2.BA.A$52.9B6.A$51.9B7.2A$50.13B$
49.15B$48.16B7.2A$47.17B2.2A2.A2.A$46.18B2.A.A2.2A$37.A7.19B3.B.2A
$35.3A6.4B.2B2A11B2.2B2.A$34.A8.4B3.B2A4B.6B.2BAB.A.2A$33.A.A6.4B
4.5B3.8BA.A.2A.A$32.BA.A5.4B5.B.B5.8B.A.A$31.3BA5.4B7.3B5.5B4.A2.
2A$29.4B6.4B7.B2AB5.6B4.2A.3A$27.6B5.4B9.2A5.6B6.B4.A$26.7B4.4B17.
7B3.B2AB3A$19.B.4B.8B2.4B19.8B.B2A.A$18.2AB.17B20.10B$18.2A18B20.
3B2A6B$19.2B.16B14.2A5.2B2A6B$22.16B15.A5.10B$23.15B15.A.AB2.11B$
24.12B.B2A14.2AB.12B$24.11B2.BA.A15.15B$25.10B5.A15.16B$25.6B2A2B
5.2A14.16B.2B$25.6B2A3B20.18B2A$25.10B20.17B.B2A$21.A.2AB.8B19.2A
2B2.8B.4B.B$19.3AB2AB3.7B17.ABAB4.7B$18.A4.B6.6B5.2A9.3BA5.6B$19.
3A.2A4.6B5.B2AB7.4B6.4B$21.2A2.A4.5B5.3B7.4B5.A3B$24.A.A.8B5.B.B5.
4B5.A.AB$20.A.2A.A.A8B3.5B4.4B6.A.A$20.2A.A.BA2B.6B.4B2AB3.4B8.A$
23.A2.2B2.11B2A2B.4B6.3A$23.2A.B3.19B7.A$21.2A2.A.A2.18B$20.A2.A2.
2A2.17B$21.2A7.16B$30.15B$31.13B$25.2A7.9B$26.A6.9B$26.A.AB2.9B$
27.2AB.9B$29.12B$29.13B.B$28.15B2A$25.18B2A$24.20B$23.21B$12.2A8.
17B.2B$11.B2AB6.13B2.B3.4B$11.4B5.4B.8B9.2A$12.2B5.4B3.7B9.A$4.A7.
4B2.4B2.9B10.3A$3.A.A5.5B.4B3.2A19.A$4.A.14B5.A$5.14B3.3A$5.14B3.A
$5.15B$4.3B2A12B$4.3B2A13B$2.2AB.11B2.4B$.A.AB2.8B5.4B$.A5.10B4.4B
$2A5.B.B5.2A5.4B$8.3B4.A7.3BA$7.B2AB5.3A5.3BA$8.2A8.A6.3AB!
