#CSYNTH guntrue_1840 costs 1425 cells.
#C period 1840 fullperiod 1840 bbox 57 by 25
#CLL state-numbering golly
x = 57, y = 25, rule = LifeHistory
10.2A4.2A36.2A$10.A.A2.A.A35.B2A$12.A2BA15.4B3.B.9B.B2.B$10.BA4BAB
13.4B.11B2A7B$10.B6AB12.2A14B2AB2A4B2A$6.AB3.B4AB13.2A15BA2BA4B2A$
5.B2A5.2B16.B.14BA2BA3B.B$5.2ABAB4.B6.A11.15B2A4B$4.A2B3A2.5B4.3A
6.3B.B.3B$3.A.ABA2B.6B7.A5.B3AB3A10B2A4B$.BABA.A2.6BA3B4.2A3.2BAB
2AB2ABA8BA2BA3B.B$3A2BA3.6BA5B2.6B2A7B2A7BA2BA4B2A$BAB2A3.5BA7B4.
5BAB2AB2ABA7B2AB2A4B2A$2.2AB3.4B2A3BA13B3AB3A9B2A7B$2.BA6.A2B2A2BA
15B.B.3B.9B.B2.B$10.21B22.B2A$11.15B2.4B22.2A$11.15B3.4B$10.16B4.
4B$11.5B.B3.2B.2A5.4B$9.4B11.A7.4B$9.2A14.3A5.4B$10.A16.A6.3BA$7.
3A25.3BA$7.A28.3AB!
