#CSYNTH guntrue_850 costs 3645 cells.
#C period 850 fullperiod 850 bbox 81 by 45
#CLL state-numbering golly
x = 81, y = 45, rule = LifeHistory
28.A25.2A4.2A$23.2A.2BAB24.A.A2.A.A$8.2A3.2A8.A.A2BA27.A2BA$8.A.A.
A.A9.ABA27.BA4BAB$10.A.A12.3A26.BA4BAB$5.2A2.A.2BA12.BA.BA15.4B5.A
4BA$4.A.A2.A.ABA11.3ABA.A2.2A9.6B6.2A$3.A2.A.2A.A12.BA.3B2A.B2AB6.
8B6.2B18.A$4.3A2.AB2A12.2A.B2A3.3B4.10B5.6B13.3A$7.2A2B2AB11.3B3A
2.B.B5.11B3.7B12.A$6.A2.A.2A13.2B2AB.15B2A4B.10B10.2A$6.2A2.2AB12.
A6.14BA2BA3B.10B8.4B$10.2B12.A.A4.15B2AB2A13B.B3.B.3B3.B$10.2B13.A
5.17BA30B$11.B19.49B$10.2AB17.31BA19B$.2A6.A2BAB5.2A8.12B3.B.13B2A
B2A17B$2.A4.3B2A3B4.A9.9B8.10B.3BA2BA16B$2.A.AB.8B.BA.A9.8B9.10B.
4B2A16B$3.2AB.8B.B2A8.2AB.7B10.7B3.11B5.B.2B$5.12B9.A.AB.7B10.6B5.
10B4.3B$5.12B9.A4.7B13.2B6.8B6.B2AB$5.12B3.A4.2A4.6B14.2A6.6B9.2A$
7.10B3.3A7.A5B13.A4BA5.4B$9.7B7.A5.BABA.4B10.BA4BAB$9.8B5.2A4.2B2A
4.2A10.BA4BAB$8.5B.4B4.9B5.A13.A2BA$8.6B.4B5.7B6.3A8.A.A2.A.A$7.6B
3.4B2.9B8.A8.2A4.2A$3.B2.3BA3B4.15B.B$.7BABA2B5.15B2A.2A$.7BABA2B
6.14B2A.A2.A$9BA3B7.15B3.2A$11B.B2A7.3B2AB4.4B$.9B2.BA.A6.3B2AB3.A
2.AB$.7B7.A8.4B3.4AB$2.6B7.2A7.3B10.A$3.4B14.AB.2B7.5A$4.4B12.A.AB
2AB6.A$5.4B11.A.ABABAB7.A$6.4B7.2A.A.A.A.A2.A4.2A$7.4B6.A2.A2.2A.
4A$8.3BA7.2A4.A$9.3BA12.A.A$10.3AB12.2A!
