#CSYNTH guntrue_906 costs 5640 cells.
#C period 906 fullperiod 906 bbox 94 by 60
#CLL state-numbering golly
x = 94, y = 60, rule = LifeHistory
12.2A5.BA15.2A.A.2A$11.A2.A.2B2A.A7.A.2A.A2.A.2A2.A$11.2A.5A.2A7.
2A.A.2A.A4.A.A$12.A.A2.A2.6B8.B2.5A.A32.A11.A$11.AB.A2BA4.5B6.2ABA
4.A34.3A7.3A$10.3BA.BA5.7B4.2A.A.AB2.A20.A15.A5.A6.A$10.2A2B8.13B
2.A.A2B.A19.3A12.2A5.2A3.3A$8.A2B.A7.13B5.A2B.2A4.A17.A11.9B2.A$7.
A3BA7.10B3ABA3.3B8.3A14.2A3.2B.12B3.B2A$8.A.A8.9BAB4A3.2B12.A6.A6.
4B.16B.4B$18.9BA7B.4B10.2A6.3A6.23B$18.10B2A17B3.4B2A5.A4.24B$17.
31B4.2B2A4.2A4.24B.2B$16.32B2.7B3.32B2A$15.2AB3.27B.7B4.30B.B2A$
14.A2.A4.35B2.31B2.B$13.A.2A5.6B3.B2.2B2.19B.26B.3B$13.A7.6B14.41B
5.2B$12.2A6.9B14.32B.6B4.B2AB$19.4B4.2A15.31B2.B.5B3.2A$19.4B4.A
15.32B7.2A$18.5B5.3A12.7B.23B8.A$15.9B6.A10.2AB.3B4.20B11.3A$15.9B
16.A.AB9.15B17.A$15.9B16.A10.18B$15.10B14.2A10.2A3.12B$14.12B26.A
4.10B2.B$13.13B8.2A13.3A6.9B.B2A$14.11B9.A14.A7.12B2A$15.12B4.BA.A
21.12B.B$15.15B.B2A10.A10.4B4.4B$15.17B12.3A7.4B5.3B$15.17B15.A5.
4B$12.B.17B15.2A4.4B$11.2A19B14.9B6.2A$11.2AB.19B14.6B7.A$12.B4.
20B2.2B2.B3.6B5.2A.A$17.36B4.A2.A$17.9B.27B3.B2A$18.7B2.16B2A14B$
18.7B2.16B2A13B$12.2A4.6B4.29B$11.B2AB3.7B10.2B.B.17B$11.4B3.6B10.
3B4.15B$12.2B3.7B6.2A.2BA5.15B$3.2A7.4B2.5B7.A.2BA.A5.13B$3.A.A5.
5B.6B8.A2.BA.A2.13B$4.A.19B7.A3.A.A.2A4.8B$5.17B.2A5.A.4A2.AB2A6.
6B$5.14B4.A5.A.A3.A.A2.B8.5B$5.15B4.3A2.A.A2.A2.2A.2A9.B.B$4.3B2A
12B5.A3.A3.2A2.A.A9.3B$4.3B2A13B16.A.A9.B2AB$2.2AB.11B2.4B16.A11.
2A$.A.AB2.8B5.4B$.A5.10B4.4B$2A5.B.B5.2A5.4B$8.3B4.A7.3BA$7.B2AB5.
3A5.3BA$8.2A8.A6.3AB!
