#CSYNTH guntrue_2011 costs 12064 cells.
#C period 2011 fullperiod 2011 bbox 116 by 104
#CLL state-numbering golly
x = 116, y = 104, rule = LifeHistory
38.2A$37.A.A$31.2A4.A$29.A2.A2.2A.4A$29.2A.A.A.A.A2.A4.2A$32.A.ABA
BAB7.A$32.A.AB2AB6.A$33.AB.2B7.5A$36.3B10.A$36.4B3.4AB$34.3B2AB3.A
2.AB$34.3B2AB4.4B$32.15B$31.14B2A.A.2A$30.15B2A.2A.A$29.15B.B$28.
4B2.9B$12.2A13.4B5.7B$12.A13.4B4.9B$7.2A5.A10.4B5.2A4.4B$7.A5.2A9.
4B7.A5.4B$4.2A.A.3B11.4B5.3A7.4B$4.A2.A.2A2B2A7.4B6.A10.4B$6.2A.A.
2B2AB5.4B19.4B$9.A.4B5.4B21.4B$9.2A.4B3.4B23.4B$12.3BA6B25.4B$3.2A
7.2BABA4B27.4B25.A11.2A$3.A8.3BA4B29.4B23.A.A9.B2AB$2A.A.B3.10B14.
2A15.4B10.A3.A3.2A2.A.A9.3B$A2.3AB.2B2A7B14.A.A15.4B7.3A2.A.A2.A2.
2A.2A9.B.B$.2A2.BA3B2A7B16.A4.2A10.4B5.A5.A.A3.A.A2.B8.5B$3.4A12B
12.4A.2A2.A2.A9.7B.2A5.A.4A2.AB2A6.6B$3.A.2B3.7B.B2A10.A2.A.A.A.A.
2A10.9B7.A3.A.A.2A4.8B$4.3AB2.7B.BA.A11.BABABA.A14.6B8.A2.BA.A2.
13B$7.A4.4B5.A12.B2ABA.A15.5B7.A.2BA.A5.13B$2.5A5.4B5.2A12.2B.BA
15.7B6.2A.2BA5.15B$2.A10.4B17.3B19.6B10.3B4.15B$4.A9.4B7.2A6.4B19.
7B10.2B.B.17B$3.2A10.4B7.A6.B2A3B17.6B4.29B$16.4B6.A.AB3.B2A3B17.
7B2.16B2A13B$17.4B6.2AB.10B15.7B2.16B2A14B$18.4B7.13B13.9B.27B3.B
2A$19.4B6.14B12.36B4.A2.A$20.4B5.15B6.B4.20B2.2B2.B2.7B5.2A.A$21.
4B6.8B2.4B4.2AB.19B13.7B7.A$22.4B5.6B5.4B3.2A19B15.8B6.2A$23.4B3.
9B4.4B3.B.17B17.2B2.4B$24.4B.4B4.2A5.4B5.17B15.2A4.4B$25.7B5.A3.A
3.4B4.17B15.A6.4B$26.5B7.4A4.4B3.15B.B2A14.A6.4B$26.5B16.4B2.12B4.
BA.A12.2A7.4B$25.7B4.4A8.15B9.A22.4B$24.4B.4B3.A2.3A7.15B8.2A22.4B
$23.4B3.4B8.A7.14B33.4B10.2A$22.4B5.4B6.A.A7.12B35.4B9.A$21.4B7.4B
5.A.AB7.10B37.4B10.A$20.4B9.4B5.A3B7.9B31.2A5.4B5.5A$19.4B11.4B6.
4B5.9B32.A5.4B4.A$18.4B13.4B5.6B5.6B33.A.AB.7B2.B3A$17.4B15.4B4.7B
.2B2.5B34.2AB.7B3.2B.A$16.4B17.4B2.8B.9B36.12B4A$5.A9.4B19.24B35.
7B2A3BAB2.2A$5.3A6.4B21.24B34.7B2A2B.B3A2.A$8.A4.4B22.19B2.4B33.
10B3.B.A.2A$7.2A3.4B8.2A12.19B4.4B31.8B8.A$7.8B8.A.A8.2A.A17B7.4B
29.9B7.2A$3.2A4.5B5.2A2.A10.A.2A.15B9.4B27.4B2.3B$2.A.BAB.5B6.A.A.
2A16.12B11.4B25.4B3.5B$2.A.2AB2.5B6.2A.A2.A15.10B13.4B23.4B7.2A$.
2A.B.B3.5B3.3B.B2.2A15.2B2A6B14.4B21.4B8.A$A3.2A2B2.5B3.4B19.3B2A
6B15.4B19.4B10.3A$.3A2.AB.13B.B18.10B16.4B10.A6.4B13.A$4.2ABA13B.B
2A17.8B.B2A.A13.4B7.3A5.4B$3.A2.A5BA10B2A16.7B3.B2AB3A12.4B5.A7.4B
$3.2A2.4BABA7B.2B17.6B6.B4.A12.4B4.2A5.4B$7.4BABA7B21.6B4.2A.3A14.
9B4.4B$8.4BA7B22.5B4.A2.2A17.6B5.4B$10.9B3.2A17.8B.A.A20.8B2.4B$7.
B.10B.B2.A8.A8.8BA.A.2A.A14.15B$6.2A12B3A9.3A6.6B.2BAB.A.2A14.14B$
6.2AB.8B.BA14.A4.7B2.2B2.A17.13B$7.B3.6B4.2A11.2A4.7B3.B.2A15.2AB.
10B$12.4B6.A11.4B.8B2.A.A2.2A12.A.AB3.B2A3B$13.4B4.A14.11B2.2A2.A
2.A11.A6.B2A3B$14.4B3.2A12.12B7.2A11.2A6.4B$15.4B16.12B29.3B$16.2B
2A15.11B31.2B.BA$17.BABA13.9B12.2A19.B2ABA.A$18.A3B9.2B.10B11.A19.
BABABA.A$19.4B7.16B.B4.BA.A17.A2.A.A.A.A.2A$20.4B3.23B2.B2A18.4A.
2A2.A2.A$21.32B24.A4.2A$22.32B21.A.A$23.3BABA25B21.2A$24.3B2A6BA
18B$26.B2A5BA19B$27.17B5.B.4B$27.5BA8B11.4B$27.4BA2BA6B12.4B$31.AB
A4.2B14.4B$32.A6.2B14.3BA$38.B2AB14.3BA$39.2A16.3AB!
