#CSYNTH guntrue_2016 costs 1932 cells.
#C period 2016 fullperiod 2016 bbox 46 by 42
#CLL state-numbering golly
x = 46, y = 42, rule = LifeHistory
28.2B$27.4B$27.5B$26.2BA3B$19.2A5.B3A5B$18.BA.AB2.BA3BA4B9.2A$18.
2B2A3BA2B2A6B8.A$16.2AB.5BAB2A3B3A2B4.BA.A$15.A.AB4.2B3A3B2ABA5B.B
2A$15.A8.6B2A2BA3B2A2B$14.2A9.4BA3BAB2.BA.AB$25.5B3AB5.2A$28.3BA2B
$28.5B9.2A$29.4B9.A.A$29.4B6.2A.A.A$29.4B6.A.A.A$29.4B8.A$28.5B6.B
A2BA$27.7B2A2.2BA3B$11.B2A12.8B2A4BA3BA$11.3AB10.13B.BA3B$10.A.2AB
9.14B.BA2BA$9.A.A.2B8.8B2A4B4.A$9.A2.A2.2B5.4B.3BAB2A3B2.A.A.A$10.
2A3.3B3.4B2.2B2A5B3.2A.A.A$4.2A9.B2A.5B3.2B2A4B7.A.A$3.A.A8.BA2BA
4B4.8B7.2A$3.A8.B.2B2A4B5.9B$2A.AB.B3.11B6.5BA4B$.A.A.2AB.12B5.5BA
BA3B$.A.A.2A14B4.5BA2BA2B2A$2A.A2.5B2A8B4.4B2A5B2A2.2A$A2.4A3BA2BA
5B.B2A3.3B2AB5A3B2AB$.2A2.BAB.2B2A6B.BA.A3.2B.B2ABAB2.4B$3.2A6.7B
5.A6.3B5.4B$3.A7.2B.4B5.2A6.B7.2A2B$5.A9.4B20.2ABA$4.2A10.4B20.2BA
B$17.3BA19.2BAB$18.3BA17.A2BAB$19.3AB17.2A!
