#CSYNTH guntrue_957 costs 4941 cells.
#C period 957 fullperiod 957 bbox 81 by 61
#CLL state-numbering golly
x = 81, y = 61, rule = LifeHistory
79.A$78.A.A$70.2B5.2BAB$69.3A3B3.2B$68.B3A4B.2B$68.BA3BA5BA$68.2AB
ABA4BABA$67.B3A2B2A2B.B2A$66.2B2A8B.B$64.4BA8B$64.10B$61.5B3A5B$
61.3BABABAB3AB$44.A17.2BA5B3AB$43.A.A16.2BA5B2A3B$43.A2.A16.3B2A5B
A2B$39.2A.2A.2A17.B3A5BA2B$24.2A13.2A.A2.A9.2A7.B3ABABABA3B$25.A9.
2A4.B.BA2.A8.A7.5B3A5B$13.A11.A.AB4.2B2AB2.3B2.3A8.A.AB4.10B$12.A.
A11.2AB4.4B3.2B3A12.2AB.8BA4B$12.BA2B12.3B2.6B.BAB2.A13.9B2A2B$13.
2B13.BA5B2A2B.BAB2A.A12.4B2A2B3AB$13.3B10.9BABA3B.AB2.A13.4BABAB2A
3.2A3.BA$13.3B5.2B.13BA4B.B2A.2A10.5BA3BAB2.BABA.BA.A$11.6B3.3B.
11BABA3B4.A.A10.8B3AB3.BA4BA$10.9B.15B2A5B3.A.A9.A5B2.B3A3.B.3B.B$
9.33B4.A9.A3B2.2B2.2B3.5B$9.33B13.B3A3.4B5.6B$8.34B12.4B4.5B4.7B$
7.34B12.4B3.3B3A2BABAB2A4B$7.33B12.4B4.8B5AB2A2B$2.A4.33B11.4B4.9B
2AB2ABABA2B$.A.A3.5B2A15B.9B11.4B4.BAB2A5B2AB2A3BA2B$.A.A4.3BABA
11B.3B3.6B11.4B2.B2A4B2A4B5A3BAB$2A.2AB.4BA13B.2B5.3B12.ABAB2.BA3B
5A4B2A4B2AB$2.A2.BA.3BABA9B10.3B11.B2AB2.2BA3B2AB2A5B2ABAB$2.A.2AB
AB.2B2A4BABA13.2B10.3BA3.2BABAB2AB2A9B$3.A2.BAB.6B2.B2AB4.A6.2BAB
8.4B5.2B2AB5A8B$4.3A2B3.4B3.A3B3.3A5.A.A7.4B6.4B2ABABA2B3A3B$.3A2.
3B2.B2A2B4.4B5.A5.A7.4B5.2A7B4.5B$.A2.AB.B4.2A7.4B3.2A11.5B4.BA9B
5.4B$3.A2.A.2A12.4B2.3B8.6B3.B2A.2B.B.4B7.2B$2.2A.2A.2A13.4B3.3B2.
2B.2BA3B3.B5A4.3B$2.A2.A18.4B.11BABA5.A.3A2B3.4B$3.A.A19.15B2A2B7.
3BA5.2A$4.A21.18B9.A.A4.A$22.22B5.2ABA.BA5.3A$18.B2.20B2.B2A4.A.B
2.2A2B4.A$17.2AB.20B2.BA.A.A3.3A.AB2A$17.2A21B6.A.4A.2AB.B.BA$18.
2B.12BA6B6.A5.AB3.B2A.A.2A$21.10B2A7B7.A.4A.3AB2A.2A.A$27.5B2A5B7.
2A.A2.A.A4.2B$28.10B12.A.A.A.3A.B$24.2A2.11B12.A2.A.A2.BAB$21.A2.A
3.6B2.4B14.A.A3.A.A$20.A.A.A.4B.B5.4B14.A5.2A$21.A2.A.2A10.3BA$24.
A2.A11.3BA$25.2A13.3AB!
