#CSYNTH guntrue_1001 costs 6160 cells.
#C period 1001 fullperiod 1001 bbox 112 by 55
#CLL state-numbering golly
x = 112, y = 55, rule = LifeHistory
36.A19.A3.2A$36.3A16.A.A.A.3A$39.A15.A.A.A4.A$13.A24.2A16.A.A.ABAB
A$13.3A7.2A13.5B15.A.A.2A4.2A$16.A6.A16.4B13.ABA4B4.A$15.2A3.BA.A
15.5B11.3BA2B4.BA.A$15.4B.B2A16.10B5.5B4.B.B2A$17.4B18.11B4.6B2.4B
$10.2A4.B3A2B17.11B.15B$9.B2AB3.BA2BA5.2A11.27B$10.3B3.BA2BAB2.2B
2AB9.19BA9B$9.B.B4.3BA3B.4B9.19BABA4B.4B$5.AB.6B2.4BA15B.18BA2BA3B
3.4B$4.A.A13BABA24BA8B2A2B6.3BA$4.2A.8B2A4BA38B7.3BA$8.7B2A4BA12B.
12BA4B2A7B7.3AB$9.38BA4B2A8B.2A4.4B$9.2B2A8BA24BABA13BA.A5.4B$7.3B
A2BA18B.15BA4B2.6B.BA7.4B$6.4BABA19B9.4B.3BA3B4.B.B12.4B$.B2.7BA
19B9.B2A2B2.BA2BAB3.3B14.4B2.2B$2AB.26B11.2A5.A2BAB3.B2AB14.8B$2A
16B.11B17.2B3AB4.2A16.8B$.B.4B2.6B4.11B18.4B24.8B8.2A$4.2B4.5B5.
10B16.2AB.4B20.2B.3B2A4B5.A.A$8.2BA3B11.5B15.A.AB3.2A19.2A4BA2BA4B
4.A$5.4BABA13.4B16.A6.A20.2AB.2BA2BA3B4.2A$5.2A.A.A15.5B7.2A4.2A7.
3A18.B2.3B2A2B5.2B$4.ABABA.A.A16.2A8.A15.A21.8B2.5B6.3B5.2A$4.A4.A
.2A16.A8.A39.15B4.4B5.A$5.3A.A20.3A5.2A6.2BAB13.B.7B5.2B2AB.10B4.
5B.BA.A$7.A.A22.A7.A2B2.2BABAB6.B.13B4.3B2A13B3.5B.B2A$8.A29.3A5BA
BA45B3.7B$37.A2.B.4B2A45B3.8B$37.2A3.50B3.8B4.2A$43.25B2A33B3.A.A$
43.25B2A33B3.A$42.4B.B.11B3.41B.2A$43.4B2.10B5.10B2.B3.B2.B3.18B$
43.2B2AB4.2B2.4B7.6B14.18B3.2A$45.2A10.4B8.3B13.5B3.12B.B2.A$58.4B
9.B13.2A7.12B3A$59.4B8.2A13.A8.9B.BA$60.4B8.A10.3A4.2A3.9B3.2A$61.
4B6.A11.A6.A4.9B4.A$62.4B5.2A14.2A.A4.2B2A3B.B2A2.A.2A$63.4B20.A2.
3A.2BA2BA2B.BA.A.A.2A$64.4B20.2A2.BA3BABAB5.A.A$65.4B21.4A4BA4B3.A
.A$66.4B20.A.4B5.2A4.A$67.4B17.A.A.2A7.A$68.3BA16.2A2.A9.3A$69.3BA
19.A.A9.A$70.3AB19.2A!
