#CSYNTH guntrue_4094 costs 5985 cells.
#C period 4094 fullperiod 4094 bbox 95 by 63
#CLL state-numbering golly
x = 95, y = 63, rule = LifeHistory
2A$.A26.A$A25.3A$2A23.A$.B23.2A$3B20.4B2.A$5B9.B3.B.5B4.3A10.2A$6B
2.B.7B2A7B6.A5.2A2.A47.2A$2.14BA2BA7B4.2A5.A.A.A47.A.A$.15BABA8B4.
5B3.B.A49.AB$.16BA10B5.3B2.2B30.4B3.B.9B2.2B$.30B.B3A5B29.4B.11B2A
6B$2.30BA3BA6B8.2A16.2A15BABA4B2A$3.28BA5BA5B8.A17.2A15BAB2A3B2A$
6.4B5A3B5A7BA3BA3BA5B4.BA.A18.B.15B2A3B.B$6.3B2A11B2A6BA7BA8B.B2A
21.15BA3B$4.8BAB2AB2ABA9BABA3BABA6B2A2B$4.3BABA2BABABABABA2BABA5B
2A3B2A4B.2BA.AB23.15BA3B$4.3BABA4BABABA4BABA17B3.2A22.B.15B2A3B.B$
4.4B2ABA2BABABA2BAB2A10B.4B22.A6.2A15BAB2A3B2A$4.8B9A12B.5B7.2A14.
3A4.2A15BABA4B2A$2.2AB.27B.4B6.A2.A17.A4.4B.11B2A6B$.A.AB.9B3A14B
2.4B6.2A.A.2A.A11.2A4.4B3.B.9B2.2B$.A7.6B3A14B2.5B6.B.A.A.2A11.6B
21.AB$2A6.8BA14B2.8B2.B2ABA18.5B19.A.A$9.21B2.10B.B2A2.A17.6B18.2A
$9.14B3.3B2.13B3.2A16.8B$4.2A3.13B2.3B3.14B15.A.2A2.9B$4.A2.2AB.
10B2.21B15.2A.A12B$5.AB2AB2.8B2.14BA8B6.2A11.12B$2A.A.A.B6.5B2.14B
3A6B7.A12.13B$A.2A.A.2A6.4B2.14B3A9B.BA.A12.9B.4B$5.A2.A6.4B.27B.B
2A13.9B2.4B$5.2A7.5B.12B9A8B14.11B2.4B$13.4B.10B2ABA2BABABA2BAB2A
4B14.11B3.4B$5.2A3.17BABA4BABABA4BABA3B14.12B3.4B$4.BA.A2B.4B2A3B
2A5BABA2BABABABABA2BABA3B8.B4.14B3.4B$4.2B2A6BABA3BABA9BAB2AB2ABA
8B7.3B3.10B.4B3.4B$2.2AB.8BA7BA6B2A11B2A3B7.6B2.15B4.4B$.A.AB4.5BA
3BA3BA7B5A3B5A4B.4B2.7B.13B.B2A3.4B$.A8.5BA5BA42BA4B2A4B.BA.A3.4B$
2A8.6BA3BA42B4A8B4.A4.4B$12.5B3AB.39B4AB2A7B4.2A4.4B$13.2B2.3B5.
10BA17B2A5BABA3BA2B2A5B10.4B$11.A.B3.5B4.8BABA16B2A12B2A7B11.4B$
10.A.A.A5.2A4.7BA2BA21BA3BA14B11.4B$10.A2.2A5.A6.7B2A7B.B3.9BA3B2A
BA11B13.4B$9.2A10.3A4.5B.B3.B10.4B2.2BABABA2BA10B15.4B$23.A2.4B20.
8BA3BA4B3A4B.B.B13.3BA$26.2A23.15BAB2A7B2A13.ABA$27.A24.14BA3BA6B
2A14.2A$24.3A22.B3.2B.5B2.4B2ABA4B.2B16.B$24.A23.2AB.3B.4B3.4B3A6B
$48.2A3BA11.11B.B$49.B.BA.A10.12B2A$52.BA.A9.10B.B2A$55.A7.2AB.6B
4.B$55.2A5.A.AB.4B$62.A5.5B$61.2A8.2A$71.A$72.3A$74.A!
