#CSYNTH guntrue_6491 costs 12084 cells.
#C period 6491 fullperiod 6491 bbox 114 by 106
#CLL state-numbering golly
x = 114, y = 106, rule = LifeHistory
37.2A2.A$36.A.4A$36.A$34.2A.7A$32.A2.A.A3.B2.A$32.2A2.BA.2A2.2A$
36.2AB2AB6.2A$36.5B8.A$37.3B7.A$36.5B6.5A$36.BA4B9.A$34.2BABA3B3.
4AB$34.2BABA4B2.A2.AB$35.2BA4B4.4B$34.15B$33.14B2A.A.2A$32.15B2A.
2A.A$31.15B.B$30.4B2.9B$15.2A12.4B5.7B$15.A12.4B4.9B$9.2A5.A10.4B
5.2A4.4B$9.A5.2A9.4B7.A5.4B$6.2A.A.3B11.4B5.3A7.4B$6.A2.A.2A2B2A7.
4B6.A10.4B$8.2A.A.2B2AB5.4B19.4B$11.A.4B5.4B21.4B$11.2A.4B3.4B23.
4B$4.2A8.3BA6B8.2A15.4B$3.A.A8.2BABA4B9.A.A15.4B$3.A8.B.3BA4B12.A
4.2A10.4B25.A11.2A$2A.AB.B3.11B9.4A.2A2.A2.A9.4B23.A.A9.B2AB$.A.A.
2AB.12B9.A2.A.A.A.A.2A10.4B10.A3.A3.2A2.A.A9.3B$.A.A.2A14B11.BABAB
A.A14.4B7.3A2.A.A2.A2.2A.2A9.B.B$2A.A2.5B2A8B12.B2ABA.A15.4B5.A5.A
.A3.A.A2.B8.5B$A2.4A3BA2BA5B.B2A11.2B.BA17.7B.2A5.A.4A2.AB2A6.6B$.
2A2.BAB.2B2A6B.BA.A.2A6.3B21.9B7.A3.A.A.2A4.8B$3.2A6.7B5.A.A6.4B
22.6B8.A2.BA.A2.13B$3.A7.2B.4B5.A.A6.B2A3B21.5B7.A.2BA.A5.13B$5.A
9.4B3.2A.A.AB3.B2A3B20.7B6.2A.2BA5.15B$4.2A10.4B6.2AB.10B19.6B10.
3B4.15B$17.4B7.13B18.7B10.2B.B.17B$18.4B6.14B17.6B4.29B$19.4B5.15B
16.7B2.16B2A13B$20.4B6.8B2.4B15.7B2.16B2A14B$21.4B5.6B5.4B13.9B.
27B3.B2A$22.4B3.9B4.4B12.36B4.A2.A$23.4B.4B4.2A5.4B6.B4.20B2.2B2.B
3.6B5.2A.A$24.7B5.A7.4B4.2AB.19B14.6B7.A$25.5B7.3A5.4B3.2A19B14.9B
6.2A$25.5B9.A6.4B3.B.17B15.2A4.4B$24.7B16.4B5.17B15.A5.4B$23.4B.4B
16.4B4.17B12.3A7.4B10.2A$22.4B3.4B16.4B3.15B.B2A10.A10.4B9.A$21.4B
5.4B16.4B2.12B4.BA.A21.4B10.A$20.4B7.4B7.A8.15B9.A15.2A5.4B5.5A$
19.4B9.4B6.3A7.15B8.2A15.A5.4B4.A$18.4B11.4B8.A7.14B25.A.AB.7B2.B
3A$17.4B13.4B6.A.A7.12B27.2AB.7B3.2B.A$16.4B15.4B5.A.AB7.10B30.12B
4A$3.2A10.4B17.4B5.A3B7.9B30.7B2A3BAB2.2A$4.A9.4B19.4B6.4B5.9B30.
7B2A2B.B3A2.A$2.A10.4B21.4B5.6B5.6B31.10B3.B.A.2A$2.5A5.4B5.2A16.
4B4.7B.2B2.5B30.8B8.A$7.A4.4B5.A18.4B2.8B.9B29.9B7.2A$4.3AB2.7B.BA
.A19.24B27.4B2.3B$3.A.2B3.7B.B2A21.24B25.4B3.5B$3.4A12B23.19B2.4B
23.4B7.2A$.2A2.BA3B2A7B18.2A2.19B4.4B21.4B8.A$A2.3AB.2B2A7B18.A2.A
17B7.4B19.4B10.3A$2A.A.B3.10B20.2A.15B9.4B10.A6.4B13.A$3.A8.8B24.
12B11.4B7.3A5.4B$3.2A7.9B24.10B13.4B5.A7.4B$13.3B2.4B23.2B2A6B14.
4B4.2A5.4B$11.5B3.4B21.3B2A6B15.9B4.4B$11.2A7.4B21.10B3.2A.2A8.6B
5.4B$12.A8.4B20.8B.B2A2.A.A9.8B2.4B$9.3A10.4B18.7B3.B2ABA2.A7.15B$
9.A13.4B17.6B6.B.A.A8.14B$24.4B17.6B4.2A2.A9.13B$25.4B16.8B.A2.2A
8.2AB.10B$26.4B14.9BA.A.A8.A.AB3.B2A3B$27.4B4.A8.7B.2BAB.A8.A6.B2A
3B$28.4B3.3A6.6B3.2B2.A.2A4.2A6.4B$29.4B5.A4.7B4.B.2A2.A13.3B$30.
4B3.2A4.7B3.A.A2.A16.2B.BA$31.4B2.4B.8B3.2A2.A16.B2ABA.A$32.2B2A3.
11B8.3A12.BABABA.A$33.BABA.12B10.A10.A2.A.A.A.A.2A$34.A15B21.4A.2A
2.A2.A$35.14B10.A15.A4.2A$36.10B11.3A13.A.A$35.12B9.A16.2A$34.16B
6.2A$27.A6.24B$27.3A3.23B$30.A2.24B$29.A.B.24B$29.2A27B$27.2A2.A
22B.4B$26.A2.3A3B3.2B3.B7.2B3.4B$27.A4.2B3.4B.3B5.BA2B3.4B$28.4A5.
B2AB.B2AB4.A.A5.4B$30.A7.2A3.2A6.A7.3BA$32.A27.3BA$31.2A28.3AB!
