#CSYNTH guntrue_7700 costs 5760 cells.
#C period 7700 fullperiod 7700 bbox 80 by 72
#CLL state-numbering golly
x = 80, y = 72, rule = LifeHistory
7.2A3.2A28.A$7.A.A.A.A26.3A$9.A.A16.2A9.A$8.B2A.A2.2A12.A9.2A$8.BA
B.A2.A.A11.A.AB2.6B$10.B.2A.A2.A11.2AB.B3AB$9.4B2.3A5.2A7.8B$8.3B
2ABA8.A8.BA4BA2B.2B$9.2A.A2.A8.3A5.BA2B3A6B$9.B2A2.2A5.3A3.A5.6B2A
4B$10.AB9.A2.B2A.A3.2B2A3BA2BA3B$10.2B10.ABA.A.A3.2BA2BA2BABA4B$
11.B11.2A.B.2A2.2BA2BABA2BA4B$10.2AB10.B3AB.A2B2.B3AB2A6B$.2A6.B2A
2B5.2A4.BA.A3B2.B4A8B$2.A4.8B4.A8.A3B3.BABA7B$2.A.AB.8B.BA.A6.AB.A
2B3.3A7B$3.2AB.8B.B2A5.3A.2A4.2B2AB.4B2.2B$5.12B6.A4.A4.4B6.2BA2BA
B$5.12B7.3A.A3.4B7.A2B2A2BA$5.12B3.A5.2A3.4B8.A2B2A2BA21.B$7.10B3.
3A7.4B11.4A13.A7.4B$9.7B7.A5.4B10.A.A2.A.A2.2A6.ABA3.9B$9.8B5.2A4.
4B11.2A4.2A3.A6.A2B.2A9B$8.5B.4B4.9B23.A.AB2.3B3A5B2A2B$8.6B.4B5.
7B24.2AB.3BA7BA2BA2B$7.6B3.4B2.8B27.3B2A9B2A3B$3.B2.3BA3B4.15B25.
3B2A9B2A3B$.7BABA2B5.15B16.A7.2BA2BA7BA3B.B2A$.7BABA2B6.14B16.3A6.
2B2A5B3A3B2.BA.A$9BA3B7.10B3.3B16.A4.9B2A.2BA6.A$11B.B2A7.3B2AB5.B
3A14.2A3.10B3.ABA6.2A$.9B2.BA.A6.3B2AB4.A.3A14.12B7.A$.7B7.A8.4B3.
A.A.AB16.5B2.B$2.6B7.2A7.3B4.A2.A18.6B$3.4B14.AB.2B6.2A18.8B$4.4B
12.A.AB2AB19.A.2A2.9B$5.4B11.A.ABABAB18.2A.A12B$6.4B9.2A.A.A.A2.A
21.12B$7.4B9.A2.2A.4A21.13B$8.4B8.A4.A25.9B.4B$9.4B8.3A.A2.2A21.9B
2.4B$10.4B9.2A3.2A20.11B2.4B$11.4B35.11B3.4B$12.4B7.4A23.12B3.4B$
13.4B5.A3.A17.B4.14B3.4B$14.4B4.2A19.3B3.10B.4B3.4B$7.2A6.9B17.6B
2.15B4.4B$8.A7.6B13.4B2.7B.13B.B2A3.4B$8.A.2A5.6B3.B2.2B2.29B.BA.A
3.4B$9.A2.A4.45B4.A4.4B$10.2AB3.46B4.2A4.4B$11.14B2A13B2A21B10.4B$
12.13B2A13B2A21B11.4B$13.51B11.4B$13.17B.B5.26B13.3BA$14.15B10.B2.
20B15.ABA$14.15B12.20B.B.B13.2A$15.13B12.24B2A13.B$17.13B10.24B2A$
16.8B4.2A.A6.2AB2.5B2.12B.2B$16.6B6.2AB3A3.A.AB2.4B3.13B$16.5B8.B
4.A2.A14.11B.B$16.B.B9.2A.3A2.2A14.12B2A$17.3B9.A.A20.10B.B2A$16.B
2AB9.A.A18.2AB.6B4.B$17.2A11.A18.A.AB.4B$49.A5.5B$48.2A8.2A$58.A$
59.3A$61.A!
