#CSYNTH guntrue_9296 costs 2745 cells.
#C period 9296 fullperiod 9296 bbox 61 by 45
#CLL state-numbering golly
x = 61, y = 45, rule = LifeHistory
41.2A$41.2A2$39.4A$38.A4.A$38.2A2.2A$35.5B2.5B$31.7B6.7B$31.4BA15B
$30.2A2B3A13B2A$30.2A18B2A$15.A15.3B2A15B$14.A.A16.2BABA6B2A3B$8.
2A4.A.A16.3B2A6BABA2B$8.A4.2A.3A12.15B2A3B$2A3.2A.A5.B4.A3.A6.2A
18B2A$A4.A.A4.B2AB3A4.3A4.2A13B3A2B2A$.3A.A6.B2A.A9.A4.15BA4B$3.A.
2A2.4B12.2A4.7B6.7B$3.10B12.6B4.5B2.5B$4.2B.7B2.B10.5B6.2A2.2A$5.
13B5.B2.7B5.A4.A$4.16B2.3B.8B5.4A$4.21B.9B12.2A$4.12BA9BA9B5.2A3.B
2A2B$5.10BAB2A6B2A5B.4B4.2A4.4B2.2B$7.9BAB2A4B3A5B2.4B7.6B2.3A$9.
3BA4BAB2A2BA5B2AB3.4B6.2B2AB.BA3B$9.3BA5B2A2B2A5BA3B3.4B4.2BABA3BA
3BA$10.B2A5BA2B2ABA4BA3B4.4B3.B2A3B2.A2BA.A$10.5B3A4B2ABA9B3.5B.6B
4.A.A2BA$10.5B2A6B2ABA10B2.5B2.B.2B5.A3BAB$9.6BA9BA12B2.4B3.2BAB5.
3BAB$10.6B.21B3.4B3.A.A5.3A$10.10B2.16B4.4B3.A7.2B$12.5B.B5.13B6.
4B$13.4B8.B2.7B.2B6.4B$12.B2A2B12.10B6.4B$13.2A14.4B2.2A.A7.4B$25.
A.2AB6.A.3A6.4B$23.3AB2AB4.A.A4.A6.4B$22.A4.B5.A.2A3.2A7.4B$23.3A.
2A4.A16.3BA$25.2A2.A2.2A17.3BA$28.2A22.3AB!
