#CSYNTH guntrue_4050 costs 3381 cells.
#C period 4050 fullperiod 4050 bbox 49 by 69
#CLL state-numbering golly
x = 49, y = 69, rule = LifeHistory
27.A$25.5A.A$19.A4.A5.2A$18.A.A4.A.2A$18.A.A3.2A.A.5A$17.2A.2A.BA
2.A.A4.A$16.A4.A4B2ABA.3A$17.5ABA.A.5A$19.A.5BA4B$22.2A2B.4B$28.2B
$26.6B$26.8B7.A$26.3B3A3B5.BAB$27.2BABA4B4.3B$10.2A14.3BAB3A3B2.2B
A2B$8.A4BA13.7A2B3.BABAB$6.BA6BAB10.ABA2B2ABAB2.7B$4.2BA8BA2B8.A5B
A4B.2B3A2B$3.3BA8BA3B6.6BA14B$4.2BA8BA2B7.B2ABABA14B$6.BA6BAB8.2B
2ABABA5B.2B3A2B$8.A4BA10.5BAB2A3B2.7B$2A8.2A.2B8.5B2A2BA2B4.BABAB$
A.A7.5B8.6B3A2B5.2BA2B$.AB2.13B.B2.12B6.3B$2.4BA7BA19B6.BAB$2.5B2A
3B2A4B2A5B2.5B9.A$.BA3BA7BA4B2A4B12.A$.AB2A11B2ABA5B10.3A$2B2A13B
2A7B8.A$5B.2B2.B2.2B2.2B4.4B7.2A$2.2B5.3B12.4B3.5B$8.B2AB13.4B2.3B
9.2A$9.2A15.9B8.A.A$27.8B.B8.A$28.11B3.B.BA.2A$28.12B.B2A.A.A$28.
14B2A.A.A$28.8B2A5B2.A.2A$26.2AB.5BA2BA3B4A2.A$25.A.AB.6B2A2B.BAB
2.2A$18.A6.A5.7B6.2A$18.3A3.2A5.4B.2B7.A$21.A8.4B9.A$20.2A7.4B10.
2A$20.5B3.4B$11.2A9.3B2.4B$10.A.A8.9B$10.A8.B.8B$7.2A.AB.B3.11B$8.
A.A.2AB.12B$8.A.A.2A14B$7.2A.A2.5B2A8B$7.A2.4A3BA2BA5B.B2A$8.2A2.B
AB.2B2A6B.BA.A$10.2A6.7B5.A$10.A7.2B.4B5.2A$12.A9.4B$11.2A10.4B$
24.4B$24.5B$7.B4.B2A3B4.B2.5B$5.B3A4B2A10B2.4B$5.5A6B2A7B3.4B$4.AB
A3BA5B3A5B2A3.4B$4.2AB.BA6B2A4B.B2A4.3BA$5.B4.3B2A5B4.B6.3BA$12.B
2A3B14.3AB!
