#CSYNTH guntrue_2347 costs 14170 cells.
#C period 2347 fullperiod 2347 bbox 130 by 109
#CLL state-numbering golly
x = 130, y = 109, rule = LifeHistory
35.2A3.2A$33.3A.A2.2A$32.A4.A$32.A2.2A.4A$31.2A.A.A.A2.A4.2A$32.A.
ABABAB7.A$32.A.AB2AB6.A$33.AB.2B7.5A$36.3B10.A$36.4B3.4AB$34.3B2AB
3.A2.AB$34.3B2AB4.4B$32.15B3.2A$31.14B2A.A2.A$30.11BA3B2A.2A$29.
11BABAB.B$28.4B2.7BAB$12.2A13.4B5.7B$12.A13.4B4.9B$7.2A5.A10.4B5.
2A4.4B$7.A5.2A9.4B7.A5.4B$4.2A.A.3B11.4B5.3A7.4B$4.A2.A.2A2B2A7.4B
6.A10.4B$6.2A.A.2B2AB5.4B19.4B$9.A.4B5.4B21.4B$9.2A.4B3.4B23.4B$
12.3BA6B25.4B$2A.2A7.2BABA4B27.4B25.A11.2A$2A.A8.3BA4B29.4B23.A.A
9.B2AB$3.A.B3.10B14.2A15.4B10.A3.A3.2A2.A.A9.3B$3.3AB.2B2A7B14.A.A
15.4B7.3A2.A.A2.A2.2A.2A9.B.B$.2A2.BA3B2A7B16.A4.2A10.4B5.A5.A.A3.
A.A2.B8.5B$A2.4A12B12.4A.2A2.A2.A9.7B.2A5.A.4A2.AB2A6.6B$2A.A.2B3.
7B.B2A10.A2.A.A.A.A.2A10.5B3AB7.A3.A.A.2A4.8B$.A2.3AB2.7B.BA.A11.B
ABABA.A14.3B3A8.A2.BA.A2.13B$.A5.A4.4B5.A12.B2ABA.A15.BA2BA7.A.2BA
.A5.13B$2.5A5.4B5.2A12.2B.BA15.2B2A3B6.2A.2BA5.15B$4.A8.4B17.3B19.
2BA3B10.3B4.15B$14.4B7.2A6.4B19.7B10.2B.B.17B$15.4B7.A6.B2A3B17.3B
3A4.29B$16.4B6.A.AB3.B2A3B17.B2AB2AB2.16B2A13B$17.4B6.2AB.10B15.B
2ABA2B2.16B2A14B$18.4B7.13B13.2B2A5B.27B3.B2A$19.4B6.14B12.6BA29B
4.A2.A$20.4B5.15B6.B4.3BA2BA13B2.2B2.B3.6B5.2A.A$21.4B6.8B2.4B4.2A
B.6BA12B14.6B7.A$22.4B5.6B5.4B3.2A7BA11B14.9B6.2A$23.4B3.9B4.4B3.B
.2B2A3BA9B15.2A4.4B$24.4B.4B4.2A5.4B5.BA4BA10B15.A5.4B$25.7B5.A3.A
3.4B4.2A3BA11B12.3A7.4B$26.5B7.4A4.4B3.2BA12B.B2A10.A10.4B$26.5B
16.4B2.2BAB2A6B4.BA.A21.4B$25.7B4.4A8.9BAB2A2B9.A22.4B$24.4B.4B3.A
2.3A7.8BA2BA3B8.2A22.4B$23.4B3.4B8.A7.7BABA4B33.4B$22.4B5.4B6.A.A
7.6B3A3B35.4B$21.4B7.4B5.A.AB7.10B37.4B$20.4B9.4B5.A3B7.9B38.4B$
19.4B11.4B6.4B5.9B39.4B$18.4B13.4B5.6B5.6B41.4B$17.4B15.4B4.7B.2B
2.5B42.4B$16.4B17.4B2.8B.9B43.4B$5.A9.4B19.18B2A4B43.4B$5.3A6.4B
21.16BA2BA4B43.4B$8.A4.4B22.17B2A2.4B43.4B$7.2A3.4B8.2A13.18B4.4B
43.4B$7.8B8.A.A13.16B7.4B43.4B$3.2A4.5B5.2A2.A13.2AB.13B9.4B43.4B$
2.A.BAB.5B6.A.A.2A11.A.AB2.11B11.4B43.4B10.2A$2.A.2AB2.5B6.2A.A2.A
9.A5.10B13.4B43.4B9.A$.2A.B.B3.5B3.3B.B2.2A8.2A5.2B2A6B14.4B43.4B
10.A$.A2.2A2B2.5B3.4B19.3B2A6B15.4B36.2A5.4B5.5A$2.2A2.AB.13B.B18.
10B16.4B36.A5.4B4.A$4.2ABA13B.B2A17.8B.B2A.A13.4B35.A.AB.7B2.B3A$
2.2A2.A5BA10B2A16.7B3.B2AB3A12.4B35.2AB.7B3.2B.A$.A2.A2.4BABA7B.2B
17.6B6.B4.A12.4B36.12B4A$2.2A3.4BABA7B21.6B4.2A.3A14.4B35.7B2A3BAB
2.2A$8.4BA7B22.5B4.A2.2A17.4B34.7B2A2B.B3A2.A$10.9B3.2A17.8B.A.A
21.4B33.10B3.B.A.2A$7.B.10B.B2.A8.A8.8BA.A.2A.A18.4B31.8B8.A$6.2A
12B3A9.3A6.6B.2BAB.A.2A19.4B29.9B7.2A$6.2AB.8B.BA14.A4.7B2.2B2.A
23.4B27.4B2.3B$7.B3.2B2A2B4.2A11.2A4.7B3.B.2A24.4B25.4B3.5B$12.BAB
A6.A11.4B.8B2.A.A2.2A23.4B23.4B7.2A$13.A3B4.A14.11B2.2A2.A2.A23.4B
21.4B8.A$14.4B3.2A12.12B7.2A25.4B19.4B10.3A$15.4B16.12B35.4B10.A6.
4B13.A$16.4B15.11B37.4B7.3A5.4B$17.4B13.9B12.2A27.4B5.A7.4B$18.4B
9.2B.10B11.A29.4B4.2A5.4B$19.4B7.16B.B4.BA.A30.9B4.4B$20.4B3.23B2.
B2A32.6B5.4B$21.32B34.8B2.4B$22.32B31.15B$23.31B31.14B$24.30B31.
13B$26.28B29.2AB.10B$27.17B5.B.4B27.A.AB3.B2A3B$27.14B11.4B26.A6.B
2A3B$27.14B12.4B24.2A6.4B$31.3B4.2B14.4B32.3B$32.B6.2B14.4B32.2B.B
A$38.B2AB14.4B30.B2ABA.A$39.2A16.4B28.BABABA.A$58.4B25.A2.A.A.A.A.
2A$59.4B24.4A.2A2.A2.A$60.3BA27.A4.2A$61.3BA24.A.A$62.3AB23.2A!
