#CSYNTH guntrue_1720 costs 2623 cells.
#C period 1720 fullperiod 1720 bbox 61 by 43
#CLL state-numbering golly
x = 61, y = 43, rule = LifeHistory
11.2A5.2A2.2A.2A22.2A$11.A2.2A.A2.A2.A.2A18.2A.A.A6.2A$12.2A.A.2A.
2A.A12.A7.A.A.A8.A$8.2A3.A.A2.B.A2.A.2A8.A.A5.A2.A.BA4.BA.A$5.A2.A
2.A.4ABA.A.2A.BA8.BA2B5.2A.B2AB3.B2A$5.3A2.2A4B.B3AB.2BA10.2B8.4B
2.3B$8.2A2.6BA.B2A2B11.3B7.4B.4B$7.A2.A.A5BAB.BABA11.4B5.9B5.2A$8.
2A4.2A.BA3.B11.2BABAB3.2BA8B5.A$14.2B18.6B2A5BA7B.BA.A$15.B18.2BA
11BA6B.B2A$14.2AB16.10BA7BA5B$5.2A6.A2BAB5.2A8.4B3A10B3A4B$6.A4.3B
2A3B4.A9.5BA7BA10B$6.A.AB.8B.BA.A7.2AB.6BA11BA2B$7.2AB.8B.B2A7.A.A
B.7BA5B2A6B$9.12B9.A5.8BA2B3.BABA2B$9.12B8.2A5.9B5.4B$9.12B3.A10.
4B.4B7.3B$11.10B3.3A7.4B2.4B8.2B$13.7B7.A5.A3B2.B2AB.2A5.2BAB$13.
8B5.2A4.A3B4.AB.A2.A5.A.A$12.5B.4B4.6B3A6.A.A.A7.A$12.6B.4B5.7B4.A
.A.2A$11.6B3.4B2.8B5.2A$7.B2.3BA3B4.15B$5.7BABA2B5.15B$5.7BABA2B6.
14B$4.9BA3B7.10B3.B2A$4.11B.B2A6.4B2AB5.3AB$5.9B2.BA.A4.5B2A2B3.A.
2AB$5.7B7.A4.8B3.A.A.2B$6.6B7.2A5.6B3.A2.A$7.4B15.5B5.2A$8.4B15.3B
$8.5B13.5B$9.5B12.2AB2AB$6.3B2.4B7.2A2.BA.2A2.2A$.B2.BA3B3.4B6.A2.
A.A3.B2.A$3AB2A2B2A3.4B7.2A.7A$4A4B2A4.3BA8.A$.3B2A2.B6.3BA7.A.4A$
.3B12.3AB7.2A2.A!
