#CSYNTH guntrue_118 costs 2318 cells.
#C period 118 fullperiod 118 bbox 61 by 38
#CLL state-numbering golly
x = 61, y = 38, rule = LifeHistory
7.2A3.A$5.3A.A.A.A$4.A4.A.A.A43.A$4.ABABA.A.A42.3A$5.2A.A.A43.A$5.
4BABA9.2A24.A6.2A$8.2BA3B6.B2A2B21.A.A3.4B$4.2B4.5B6.4B22.A.5B$.B.
4B2.6B.9B23.7B$2A22B24.4B2A4B.B$2AB.13BA6B24.4B2A3B.B2A$.B2.7B2A4B
3A4B15.A8.11B2A$6.3B2A6BAB2A4BA.2A8.3A8.9B.2B$7.2BA3BA7BAB2.2A.A7.
A6.2B2.10B$9.B3A4BAB3A14.2A4.2A13B$7.11B2A2B10.6B4.2A7BA5B$6.BA9B
3A2B10.4B7.2B.5B2A4B$5.2A11BA5B7.7B8.4BABA2B.B2A$4.B2A8B.3B2.B3A6.
10B7.7B.BA.A$5.10B6.B2AB2.3B.11B5.7B5.A$8.7B7.A18B5.8B5.2A$10.2BAB
10.8BABA5B5.4B2.4B$8.4BAB10.7BABABA3B5.4B4.4B$8.2A14.11B2A6.4B6.4B
$9.A7.A.2A2.6BA5BA2BA3.4B8.4B$6.3A8.2A.A7BAB2A6BAB.4B10.4B$6.A15.
6BA9B2A4B12.4B$22.6BA5B2A7B14.3BA$22.11BA2BA6B15.ABA$21.9B.5BA2.4B
16.2A$21.4B6.5B4.B.B2A15.B$21.2B2AB6.2BABAB4.BA.A$23.2A9.2A2BA2B4.
A$35.A.B.AB4.2A$33.A.A.2ABAB$32.A.A.A4.A$32.A.A.A.3A$33.A3.2A!
