#CSYNTH guntrue_8520 costs 4950 cells.
#C period 8520 fullperiod 8520 bbox 99 by 50
#CLL state-numbering golly
x = 99, y = 50, rule = LifeHistory
21.2A11.A$20.B2AB9.A.A$21.3B9.A.A2.2A3.A$20.B.B9.2A.2A2.A2.A.A$20.
5B8.B2.A.A3.A.A$20.6B6.2ABA2.4A.A$20.8B4.2A.A.A3.A53.A$21.13B2.A.A
B2.A15.2A33.3A$19.13B5.A.A2B.A14.A33.A$18.15B5.A2B.2A11.BA.A26.A6.
2A$18.15B4.3B12.2A.B2A26.A.A3.4B$17.17B.B.2B12.B2A2B29.A.5B$17.29B
6.4B30.7B$6.A2.2A5.13B2A16B3.6B30.4B2A4B.B$3.A2.4A.A3.14B2A16B2.6B
31.4B2A3B.B2A$3.3A5.A2.2AB3.27B.7B9.2A20.11B2A$6.4A.A.A2.A4.BA33B
6.2B2AB19.9B.2B$3.3A3.2A.A.2A5.B2A4B2.B2.2B2.20B5.4B3.B11.2B2.10B$
3.A2.AB4.A.A5.BABA3B13.21B.6B2A2B8.2A13B$4.A.BA4.A.A4.8B15.26B2A2B
8.2A13B$.5A2B.B3.A4.4B2.2B17.30B8.2B.11B$A5.B.B2A6.4B4.2A15.31B11.
9B.B2A$2A.4A2B2A5.4B6.A15.30B7.A6.7B.BA.A$.A.A2.AB.B5.4B6.A3.A10.
2AB.3B2.22B6.3A5.7B5.A$.A2.A4.2B3.4B3.2A3.4A5.2A2.A.AB6.22B5.A7.8B
5.2A$2.2A5.2B2.4B3.A2.A12.A2.A8.12B3.9B4.2A5.4B2.4B$8.BA6B4.2A.A4.
2A6.A.2A7.12B5.14B4.4B4.4B$7.BABA4B8.2A2.B2AB2.2A.A9.10B6.5B2.7B5.
4B6.4B$7.A2BA3B6.2A3.B2.3B2.A.A.2A.A4.4B.6B6.2A6.A7B2.4B8.4B$6.2B
2A5B4.A2.3A3B.B5.A.A.2A3.4B3.B.B9.A4.BABA11B10.4B$6.10B3.A.A2.A7B
2.B2A6.4B5.3B5.3A4.2BABA10B12.4B$6.6B.4B3.A.A.9B2.2B5.4B5.B2AB5.A
6.3BA10B14.3BA$4.2AB.3B3.4B3.A3.11B5.4B7.2A10.2AB3.10B16.ABA$3.A.A
B2.B5.4B8.10B3.4B19.B3A5.4BA2B18.2A$3.A12.4B7.11B.4B20.B2A.A3.4BAB
A2B18.B$2.2A13.4B6.15B21.2B.A.A3.3BABA2B$18.4B3.16B24.A2.A3.4BAB$
19.4B.6B2A8B26.2A5.5B$20.9BA2BA6B35.3B$21.9B2A6B35.5B$21.16B35.B2A
B2A$21.4B2.6B.2B33.2A2.2A.AB2.2A$19.2AB.B4.5B2.2B32.A2.B3.A.A2.A$
18.A.AB4.2BA3B2.B2AB32.7A.2A$18.A4.4BABA5.2A40.A$17.2A4.2A.A.A43.
4A.A$22.ABABA.A.A41.A2.2A$22.A4.A.A.A$23.3A.A.A.A$25.2A3.A!
