#CSYNTH guntrue_1521 costs 5112 cells.
#C period 1521 fullperiod 1521 bbox 71 by 72
#CLL state-numbering golly
x = 71, y = 72, rule = LifeHistory
45.A9.2A5.2A$44.BAB7.A.BABA.A2.A$41.AB2ABA7.2A.2BABA.2A$40.BA4B5.
5B2.B2.A.A$40.A3.A4.BA3B4.4A.AB$39.B2A2BA4BABA3B4.2B.B3A$38.BA.3BA
.2BA2BA4B6.B2AB$39.2A.A2.4B2A4B8.A.A2B$37.4B7.6B10.AB3A$37.2A9.5B
12.B.B$38.A8.7B$35.3A8.4B.4B$35.A9.4B3.4B$44.4B5.4B2.B$43.4B7.7B$
42.4B9.6B$33.A7.4B5.B4.7B$31.3A6.4B5.4B.9B3.B$30.A8.4B5.16B.B2A$
29.A.A6.4B4.20B2A$28.BA.A5.4B4.20B.B$27.3BA5.4B6.19B$14.2A9.4B6.4B
5.21B$15.A7.6B5.4B4.A.2AB.17B$15.A.AB3.7B4.4B3.3AB2AB2.14B.B2A$16.
2AB3.8B2.4B3.A4.B5.9B.B3.BA.A$18.17B5.3A.2A3.8B10.A$18.16B8.A.A4.
7B11.2A$18.16B8.A.A3.11B$18.16B9.A4.12B$19.15B14.12B7.2A$20.12B.B
2A13.11B2.2A2.A2.A$20.11B2.BA.A10.4B.8B2.A.A2.A.A$21.10B5.A10.2A4.
7B3.B.2A.A$21.6B2A2B5.2A10.A4.7B2.2B2.A$21.6B2A3B13.3A6.6B.2BAB.A$
21.10B14.A8.8BA.A.2A.2A$17.A.2AB.8B23.8B.A.A4.A$15.3AB2AB3.7B23.5B
4.A2.2A$14.A4.B6.6B23.6B4.2A.2A$15.3A.2A4.6B23.6B6.B$17.2A2.A4.5B
23.7B3.B2AB2A$20.A.A.8B23.8B.B2A.A$16.A.2A.A.A8B8.A14.10B5.A$16.2A
.A.BA2B.6B6.3A13.11B4.2A$19.A2.2B2.7B4.A10.2A5.BA8B$19.2A.B3.7B4.
2A10.A5.10B$17.2A2.A.A2.8B.4B10.A.AB2.11B$16.A2.A2.2A2.11B13.2AB.
3BABA6B$17.2A7.12B14.5B3A7B$26.12B14.6BA9B$27.11B14.16B$16.2A12.9B
13.16B$17.A11.10B.2B9.17B$11.A5.A.AB4.B.16B7.4B2.8B3.B2A$11.3A4.2A
B2.23B3.4B4.7B3.BA.A$14.A5.32B5.6B6.BA$13.2A4.32B6.4B7.2B$13.5B.
31B5.A3B7.B3A$4.2A9.3B.30B5.A.AB7.2A.2B$3.A.A8.33B7.A.A8.2A.B$3.A
8.B.8B.B5.17B9.A10.4A$2A.AB.B3.BA9B11.14B6.3A9.AB4.A$.A.A.2AB.3A9B
11.14B6.A10.A2B3A.A$.A.A.2A2B2A10B12.2B4.3B20.A.3B.2A$2A.A2.5BA9B
11.2B6.B20.B2ABA$A2.4A3BA8B.B2A8.B2AB27.2A$.2A2.BAB.BA8B.BA.A8.2A
27.3A$3.2A6.7B5.A38.B$3.A7.2B.3BA5.2A$5.A9.3BA$4.2A10.3AB!
