#CSYNTH guntrue_6703 costs 12862 cells.
#C period 6703 fullperiod 6703 bbox 118 by 109
#CLL state-numbering golly
x = 118, y = 109, rule = LifeHistory
37.2A2.A$36.A.4A$36.A$34.2A.7A$32.A2.A.A3.B2.A$32.2A2.BA.2A2.2A$
36.2AB2AB6.2A$36.5B8.A$37.3B7.A$36.5B6.5A$36.BA4B9.A$34.2BABA3B3.
4AB$34.2BABA4B2.A2.AB$35.2BA4B4.4B$34.15B3.2A$33.14B2A.A2.A$32.15B
2A.2A$31.15B.B$30.4B2.9B$14.2A13.4B5.7B$14.A13.4B4.9B$9.2A5.A10.4B
5.2A4.4B$9.A5.2A9.4B7.A5.4B$6.2A.A.3B11.4B5.3A7.4B$6.A2.A.2A2B2A7.
4B6.A10.4B$8.2A.A.2B2AB5.4B19.4B$11.A.4B5.4B21.4B$11.2A.4B3.4B23.
4B$4.2A8.3BA6B25.4B$3.A.A8.2BABA4B27.4B$3.A8.B.3BA4B29.4B$2A.AB.B
3.11B31.4B$.A.A.2AB.12B32.4B25.A11.2A$.A.A.2A14B33.4B23.A.A9.B2AB$
2A.A2.5B2A8B17.2A15.4B10.A3.A3.2A2.A.A9.3B$A2.4A3BA2BA5B.B2A15.A.A
15.4B7.3A2.A.A2.A2.2A.2A9.B.B$.2A2.BAB.2B2A6B.BA.A16.A4.2A10.4B5.A
5.A.A3.A.A2.B8.5B$3.2A6.7B5.A12.4A.2A2.A2.A9.7B.2A5.A.4A2.AB2A6.6B
$3.A7.2B.4B5.2A11.A2.A.A.A.A.2A10.9B7.A3.A.A.2A4.8B$5.A9.4B19.BABA
BA.A14.6B8.A2.BA.A2.13B$4.2A10.4B19.B2ABA.A15.5B7.A.2BA.A5.13B$17.
4B19.2B.BA15.7B6.2A.2BA5.15B$18.4B17.3B19.6B10.3B4.15B$19.4B7.2A6.
4B19.7B10.2B.B.17B$20.4B7.A6.B2A3B17.6B4.29B$21.4B6.A.AB3.B2A3B17.
7B2.16B2A13B$22.4B6.2AB.10B15.7B2.16B2A14B$23.4B7.13B13.9B.27B3.B
2A$24.4B6.14B12.36B4.A2.A$25.4B5.15B6.B4.20B2.2B2.B3.6B5.2A.A$26.
4B6.8B2.4B4.2AB.19B14.6B7.A$27.4B5.6B5.4B3.2A19B14.9B6.2A$28.4B3.
9B4.4B3.B.17B15.2A4.4B$29.4B.4B4.2A5.4B5.17B15.A5.4B$30.7B5.A3.A3.
4B4.17B12.3A7.4B$31.5B7.4A4.4B3.15B.B2A10.A10.4B$31.5B16.4B2.12B4.
BA.A21.4B10.2A$30.7B4.4A8.15B9.A22.4B9.A$29.4B.4B3.A2.3A7.15B8.2A
22.4B10.A$28.4B3.4B8.A7.14B26.2A5.4B5.5A$27.4B5.4B6.A.A7.12B28.A5.
4B4.A$26.4B7.4B5.A.AB7.10B29.A.AB.7B2.B3A$25.4B9.4B5.A3B7.9B30.2AB
.7B3.2B.A$24.4B11.4B6.4B5.9B32.12B4A$23.4B13.4B5.6B5.6B33.7B2A3BAB
2.2A$22.4B15.4B4.7B.2B2.5B33.7B2A2B.B3A2.A$21.4B17.4B2.8B.9B33.10B
3.B.A.2A$10.A9.4B19.24B31.8B8.A$10.3A6.4B21.24B29.9B7.2A$13.A4.4B
22.19B2.4B27.4B2.3B$12.2A3.4B8.2A13.18B4.4B25.4B3.5B$12.8B8.A.A13.
16B7.4B23.4B7.2A$8.2A4.5B5.2A2.A13.2AB.13B9.4B21.4B8.A$7.A.BAB.5B
6.A.A.2A11.A.AB2.11B11.4B19.4B10.3A$7.A.2AB2.5B6.2A.A2.A9.A5.10B
13.4B10.A6.4B13.A$6.2A.B.B3.5B3.3B.B2.2A8.2A5.2B2A6B14.4B7.3A5.4B$
6.A2.2A2B2.5B3.4B19.3B2A6B15.4B5.A7.4B$7.2A2.AB.13B.B18.10B16.4B4.
2A5.4B$9.2ABA13B.B2A17.8B.B2A.A13.9B4.4B$7.2A2.A5BA10B2A16.7B3.B2A
B3A12.6B5.4B$6.A2.A2.4BABA7B.2B17.6B6.B4.A11.8B2.4B$7.2A3.4BABA7B
21.6B4.2A.3A10.15B$13.4BA7B22.5B4.A2.2A12.14B$15.9B3.2A17.8B.A.A
15.13B$12.B.10B.B2.A8.A8.8BA.A.2A.A9.2AB.10B$11.2A12B3A9.3A6.6B.2B
AB.A.2A8.A.AB3.B2A3B$11.2AB.8B.BA14.A4.7B2.2B2.A11.A6.B2A3B$12.B3.
6B4.2A11.2A4.7B3.B.2A10.2A6.4B$17.4B6.A11.4B.8B2.A.A2.2A17.3B$18.
4B4.A14.11B2.2A2.A2.A17.2B.BA$19.4B3.2A12.12B7.2A17.B2ABA.A$20.4B
16.12B25.BABABA.A$21.2B2A15.11B24.A2.A.A.A.A.2A$22.BABA13.9B12.2A
13.4A.2A2.A2.A$23.A3B9.2B.10B11.A18.A4.2A$24.4B7.16B.B4.BA.A16.A.A
$25.4B3.23B2.B2A17.2A$26.32B$27.32B$28.3BABA25B$29.3B2A6BA18B$31.B
2A5BA19B$32.17B5.B.4B$32.5BA8B11.4B$32.4BA2BA6B12.4B$36.ABA4.2B14.
4B$37.A6.2B14.3BA$43.B2AB14.3BA$44.2A16.3AB!
