#CSYNTH guntrue_708 costs 2623 cells.
#C period 708 fullperiod 708 bbox 61 by 43
#CLL state-numbering golly
x = 61, y = 43, rule = LifeHistory
2.A9.A$2.3A5.3A37.2A$5.A3.A39.B2AB$4.2A.B.2A39.2B$4.7B40.2B$6.3B
33.B6.5B3.2A$4.7B30.3B5.5B.BAB.A$3.4BA4B8.2A12.2A5.4B3.5B2.B2A.A$
3.3BABA3B3.2A2.A2.A12.A5.5B.5B3.B.B.2A$4.3BA3B4.A.A2.A.A12.A.AB.6B
.5B2.2B2A2.A$4.7B5.B.2A.A14.2AB.13B.BA2.2A$3.9B3.2B2.A18.16BAB2A$.
17B.A18.11BA5BA2.2A$.15B2A.2A17.10BAB2A3B2.A2.A$2BA13B2A.A18.9B2AB
2A3B3.2A$.ABA11B.B4.A18.9BA4B$BABA11B5.2A3.A17.6BA2B$.BA13B4.A4.3A
14.11B$3.13B.BA.A7.A13.8BA2B$5.7B2A2B.B2A7.2A13.11B$5.7B2A4B9.4BAB
10.10B$5.13B11.2BAB10.10B.B$6.12B9.7B7.A12B2A$7.11B6.10B6.B2AB3.7B
2A$10.8B5.B2A8B.3B2.B3A4.7B$10.9B5.2A11BA5B5.B3.3B$9.5B2.4B5.BA9B
3A2B6.2A$9.6B2.4B5.11B2A2B6.A$8.6B4.4B6.B3A4BAB3A8.A$4.B2.3BA3B5.
4B3.2BA3BA7BAB2.2A2.2A$2.7BABA2B6.B3A.3B2A6BAB2A4BA2.A$2.7BABA2B7.
A8B2A4B3A4B3.2A$.9BA3B8.A13BA6B$.11B.B2A6.21B$2.9B2.BA.A5.4B2.6B.
9B$2.7B7.A3.2AB.B4.5B6.4B$3.6B7.2A.A.AB4.2BA3B6.B2A2B$4.4B9.A.A4.
4BABA9.2A$5.4B8.A.A4.2A.A.A$6.4B8.A4.ABABA.A.A$7.3BA12.A4.A.A.A$8.
3BA12.3A.A.A.A$9.3AB13.2A3.A!
