#CSYNTH guntrue_1573 costs 3800 cells.
#C period 1573 fullperiod 1573 bbox 100 by 38
#CLL state-numbering golly
x = 100, y = 38, rule = LifeHistory
83.B.B$82.B2A3B$82.A2BA2B10.2A$81.2B2A4B2.2B5.A$8.A61.2A9.13B.BA.A
$7.A.A22.A33.2A3.A6.16B.B2A$5.3A.A20.3A33.A2.A7.BA12BA4B$4.A4.A.2A
16.A34.2A2.3A5.BABA10BABA4B$4.ABABA.A.A16.2A24.A7.A2.2A3.2B3.BABA
11BA4B$5.2A.A.A15.5B13.2A7.3A7.A.A2.3A2B3.2BA15B.B2A$5.4BABA13.4B
16.A6.A11.A.2AB.A23B.BA.A$8.2BA3B11.5B15.A.AB3.2A8.A.A3.2A19B2.2B
5.A$4.2B4.5B5.10B16.2AB.4B8.2A.2A21B10.2A$.B.4B2.6B4.11B18.4B13.A.
B.19B$2A15BA.A10B17.6B4.2A3.2A2.A5.16B$2AB.13BAB2A9B11.2A5.5B3.B2A
B2.A.2A6.10B3.4B.2A$.B2.7BA5B2AB2A9B9.B2A2B2.6B3.3B14.8B3.B2A3B.A$
6.4BABA8B2A9B9.4B.7B4.B.B12.9B4.2AB2.A$7.3BA2BA5BA2BA9B.20B2.6B.BA
7.10B8.A$9.2B2A4B2A3BA27BA11BA.A5.10B5.5A.A$9.8B2A30B3A10B.2A4.7BA
3B5.A4.A.A$8.8B2A3BA12B.12BA3B2A8B7.7BABA2B7.A2.A.A$4.2A.10B3A30B
2A8B7.8BABA2B6.2A3.A$4.A.A11BA27BA3B2A4B2A2B6.A9BA3B$5.AB.6B2.20B.
9BA2BA5BA2BA3B3.B2A10B.B2A$9.B.B4.7B.4B9.9B2A8BABA4B.BABA9B2.BA.A$
10.3B3.6B2.2B2AB9.9B2AB2A5BA9B.7B7.A$9.B2AB3.5B5.2A11.9B2ABA14B3.
6B7.2A$10.2A4.6B17.10BA.A14B4.4B$17.4B18.11B4.6B2.4B5.4B$15.4B.B2A
16.10B5.5B4.B.B2A4.4B$15.2A3.BA.A15.5B11.3BA2B4.BA.A4.4B$16.A6.A
16.4B13.ABA4B4.A5.4B$13.3A7.2A13.5B15.A.A.2A4.2A5.4B$13.A24.2A16.A
.A.ABABA11.4B$39.A15.A.A.A4.A12.3BA$36.3A16.A.A.A.3A14.3BA$36.A19.
A3.2A17.3AB!
