#CSYNTH guntrue_830 costs 1645 cells.
#C period 830 fullperiod 830 bbox 35 by 47
#CLL state-numbering golly
x = 35, y = 47, rule = LifeHistory
28.2A$27.A.A$27.A$25.B2A$20.3B.2B$19.7B4A$19.5B.BA2.A$18.8B2.A$18.
8B3.3A$12.B3.11B4.A$10.17B$10.17B$7.B.12BA7B$6.2A12BABA2B2.2A.A$6.
2A12BABAB3.2AB3A$7.14BA2B4.B4.A$7.4B.4BA8B2.2A.3A$10.5B3A6B4.A.A$
9.6B3A5B5.A.A$10.13B6.A$11.11B$11.11B$3.A6.13B$2.A.A5.5B3A6B4.2A3.
2A$2.A.A4.6B3A5B5.A4.2A$.2A.2A2.8BA4B4.BA.A$.A2.B4.2BA12B.B2A3.4A$
2.AB2A3.BABA13B4.A3.A$A.A.2A2.2BABA13B3.A.3A$2A2.7BA14B3.A.A$6.20B
2.2A$6.19B.BAB2.A2.A$.A4.11B3.4B2.B8A$.3A3.8B4.4B2.3BAB$4.A2.8B3.
4B4.2B5A$3.A2.AB.5B3.4B5.2BAB2.A$3.4A7B2.4B8.B3A$7.2B.3B2.4B$5.2AB
6.4B8.B7A$5.A7.4B7.2BAB5.A$3.A.A6.4B8.2B5A$3.2A6.4B8.3BAB2.A$10.4B
10.B5A3.2A$9.4B11.BAB2.A.A2.A$8.A3B14.2A.A.2A$7.A3B13.A.A2.A$6.B3A
14.2A2.2A!
