#CSYNTH guntrue_1219 costs 8820 cells.
#C period 1219 fullperiod 1219 bbox 147 by 60
#CLL state-numbering golly
x = 147, y = 60, rule = LifeHistory
29.2A84.2A$28.A.A19.2A63.A.A$22.2A4.A21.A.A42.2A20.A4.2A$20.A2.A2.
2A.4A19.A4.2A35.A.A16.4A.2A2.A2.A$20.2A.A.A.A.A2.A15.4A.2A2.A2.A
27.2A4.A18.A2.A.A.A.A.2A$23.A.ABABAB17.A2.A.A.A.A.2A25.A2.A2.2A.4A
16.BABABA.A$23.A.AB2AB20.BABABA.A28.2A.A.A.A.A2.A17.B2ABA.A$24.AB.
2B22.B2ABA.A31.A.ABABAB20.2B.BA$19.A7.3B22.2B.BA32.A.AB2AB20.3B$
17.3A7.4B6.2A12.3B36.AB.2B12.2A6.4B8.A$16.A8.3B2AB6.A4.2A6.4B39.3B
12.A6.B2A3B6.3A$15.A.A7.3B2AB3.BA.A5.A6.B2A3B37.4B6.2A3.A.AB3.B2A
3B9.A$14.BA.A5.10B.B2A6.A.AB3.B2A3B35.3B2AB6.A5.2AB.10B6.A.A$13.3B
A5.13B9.2AB.10B33.3B2AB3.BA.A7.13B5.A.AB$11.4B6.14B11.13B30.10B.B
2A8.14B5.A3B$9.6B5.15B11.14B28.13B10.15B6.4B$8.7B4.4B2.8B13.15B26.
14B12.8B2.4B5.6B$.B.4B.8B2.4B5.6B15.8B2.4B24.15B12.6B5.4B4.7B$2AB.
17B4.9B14.6B5.4B22.4B2.8B13.9B4.4B2.8B.4B.B$2A18B5.2A4.4B12.9B4.4B
20.4B5.6B12.4B4.2A5.17B.B2A$.2B.16B6.A5.4B10.4B4.2A5.4B18.4B4.9B
10.4B5.A7.18B2A$4.16B3.3A7.4B8.4B5.A7.4B16.4B5.2A4.4B8.4B7.3A4.16B
.2B$5.15B3.A10.4B6.4B7.3A5.4B14.4B7.A5.4B6.4B10.A4.16B$6.12B.B2A.A
11.4B4.4B10.A6.4B12.4B5.3A7.4B4.4B16.15B$6.11B2.BA.A.2A10.4B2.4B
19.4B10.4B6.A10.4B2.4B15.2AB.12B$7.10B5.A2.A11.8B21.4B8.4B19.8B15.
A.AB2.11B$7.6B2A2B5.2A14.6B23.4B6.4B21.6B16.A5.10B3.2A$7.6B2A3B21.
4B25.4B4.4B23.4B16.2A5.2B2A6B3.A$7.10B21.6B25.4B2.4B23.6B21.3B2A6B
4.A$3.A.2AB.8B20.8B25.8B23.8B21.10B3.2A$.3AB2AB3.7B18.4B2.4B25.6B
23.4B2.4B20.8B.B2A$A4.B6.6B17.4B4.4B25.4B23.4B4.4B18.7B3.B2AB2A$.
3A.2A4.6B17.4B6.4B23.6B21.4B6.4B17.6B6.B.A$3.2A2.A4.5B16.4B8.4B21.
8B19.4B8.4B17.6B4.2A3.A$6.A.A.8B14.4B10.4B19.4B2.4B10.A6.4B10.4B
16.8B.A2.4A$2.A.2A.A.A8B8.A4.4B12.4B6.A10.4B4.4B7.3A5.4B12.4B14.9B
A.A.A$2.2A.A.BA2B.6B6.3A3.4B14.4B5.3A7.4B6.4B5.A7.4B14.4B4.A8.7B.
2BAB.A.2A$5.A2.2B2.7B4.A5.4B16.4B7.A5.4B8.4B4.2A5.4B16.4B3.3A6.6B
3.2B2.A.A$5.2A.B3.7B4.2A3.4B18.4B5.2A4.4B10.9B4.4B18.4B5.A4.7B4.B.
2A2.A$3.2A2.A.A2.8B.4B2.4B20.4B4.9B12.6B5.4B20.4B3.2A4.7B3.A.A2.A.
A$2.A2.A2.2A2.11B3.4B22.4B5.6B13.8B2.4B22.4B2.4B.8B3.2A2.A.A$3.2A
7.12B.4B24.4B2.8B11.15B24.4B3.11B8.A$12.16B26.15B9.14B26.4B.12B$
13.15B27.14B9.13B28.B3A12B$16.12B28.13B7.2AB.10B30.A13B10.A$15.15B
6.2A19.10B.B2A4.A.AB3.B2A3B33.A9B11.3A$14.16B6.A22.3B2AB3.BA.A3.A
6.B2A3B32.12B9.A$13.18B2.BA.A22.3B2AB6.A2.2A6.4B33.16B6.2A$11.B.
19B.B2A25.4B6.2A10.3B26.A6.24B$10.2A22B27.3B20.2B.BA23.3A3.23B$10.
2A22B24.AB.2B20.B2ABA.A25.A2.24B$11.23B23.A.AB2AB18.BABABA.A24.A.B
.24B$9.5B2.17B24.A.ABABAB15.A2.A.A.A.A.2A21.2A27B$9.2A6.15B22.2A.A
.A.A.A2.A13.4A.2A2.A2.A19.2A2.A22B.4B$10.A9.4B2.4B24.A2.A2.2A.4A
17.A4.2A20.A2.3A3B3.2B3.B7.2B3.4B$7.3A13.B3.5B24.2A4.A19.A.A27.A4.
2B3.4B.3B5.BA2B3.4B$7.A15.2A5.2A30.A.A17.2A29.4A5.B2AB.B2AB4.A.A5.
3BA$24.A5.A32.2A50.A7.2A3.2A6.A7.ABA$21.3A7.3A83.A27.2A$21.A11.A
82.2A28.B!
