#CSYNTH guntrue_3026 costs 6237 cells.
#C period 3026 fullperiod 3026 bbox 99 by 63
#CLL state-numbering golly
x = 99, y = 63, rule = LifeHistory
2A$.A26.A$A25.3A35.2A$2A23.A39.A2.2A$.B23.2A38.A.A.A3.A$3B20.4B2.A
36.A.B4.3A$5B9.B3.B.5B4.3A10.2A24.3B5.A$6B2.B.7B2A7B6.A5.2A2.A19.
2A3.5B3.ABA$2.15B2A8B4.2A5.A.A.A18.A.BAB.6B2.5A$.26B4.5B3.B.A19.A.
2AB2.5B4.3A$.27B5.3B2.2B20.2A.B.B3.5B2.4B4.5B$.30B.9B18.A3.2A2B2.
5B2.4B3.6B$2.35B2A2B2A8.2A7.3A2.AB.3BA9B.8B$3.5BA20B3A5B2A2B2A8.A
11.2ABA3B3A6BAB.8B$6.A2BA22BA3BA2BA4B4.BA.A10.A2.A3B5A3BABA7BA2B$
6.A19B4AB2A4B3A7B.B2A11.2A2.2B2A3B2A3B2A2B.3B3A3B$4.2ABA11BA3B3A4B
3A8BA3B2A2B17.3B5A5B.5B5A3B3.2A$4.3A3B2AB2A3BA4B3A6BA6BABA.2BA.AB
18.3B3A3B.2B2A3B2A3B2A2B2.A2.A$4.2BABA4B2A10BA6B2A5B2A2B3.2A21.2BA
7BABA3B5A3BA2.2A$4.2BA7BA9BABABA6B.2A2B22.A6.8B.BA6B3A3BAB2A$4.2BA
15BABAB3A4B.3BAB7.2A14.3A4.8B.9BA3B.BA2.2A$2.2AB.4B3A6BA2BA2BA7B.
4B6.A2.A17.A4.6B3.4B2.5B2.2B2A2.A$.A.AB.14B2A10B2.4B6.2A.A.2A.A11.
2A4.5B4.4B2.5B3.B.B.2A$.A7.23B2.5B6.B.A.A.2A11.6B9.3A4.5B2.B2A.A$
2A6.23B2.3BA4B2.B2ABA18.5B8.5A2.6B.BAB.A$9.5B2AB2A11B2.3B3A4B.B2A
2.A17.6B9.ABA3.5B3.2A$9.4B2A3B2A3B3.3B2.3B2AB2A5B3.2A16.8B9.A5.3B$
4.2A3.5B2AB2A3B2.3B3.3B2A3B2A4B15.A.2A2.9B9.3A4.B.A$4.A2.2AB.4B3A
3B2.11B2AB2A5B15.2A.A12B10.A3.A.A.A$5.AB2AB2.4BA3B2.23B6.2A11.12B
13.2A2.A$2A.A.A.B6.5B2.23B7.A12.13B16.2A$A.2A.A.2A6.4B2.10B2A14B.B
A.A12.9B.4B$5.A2.A6.4B.7BA2BA2BA6B3A4B.B2A13.9B2.4B$5.2A7.BA3B.4B
3ABABA15BA2B14.11B2.4B$13.2B2A.6BABABA9BA7BA2B14.11B3.4B$5.2A3.2B
2A5B2A6BA10B2A4BABA2B14.12B3.4B$4.BA.A2B.ABA6BA6B3A4BA3B2AB2A3B3A
8.B4.5BA8B3.4B$4.2B2A3BA8B3A4B3A3BA11BAB2A7.3B3.2B2ABA4B.4B3.4B$2.
2AB.7B3A4B2AB4A19BA7.6B2.2BA2BA9B4.4B$.A.AB4.4BA2BA3BA22BA2BA.4B2.
7B.2B3A8B.B2A3.4B$.A8.2A2B2A5B3A20BA25BA4B.BA.A3.4B$2A8.2A2B2A53B
3A3B4.A4.4B$12.9B.47BAB2A2B4.2A4.4B$13.2B2.3B5.28B2A15B3A3B10.4B$
11.A.B3.5B4.27B2A16B2A3B11.4B$10.A.A.A5.2A4.8B2A27B2A2B2A2B2A4B11.
4B$10.A2.2A5.A6.7B2A7B.B3.9B2A4BAB2ABA3B2A2B13.4B$9.2A10.3A4.5B.B
3.B10.4B2.B3A3B2ABA2BA3B2AB15.4B$23.A2.4B20.7B3A5BABA6B.B.B13.4B$
26.2A23.7BABA6BA9B2A13.4B$27.A24.7BA17B2A14.4B$24.3A22.B3.2B.5B2.
12B.2B16.4B$24.A23.2AB.3B.4B3.13B19.3BA$48.2A3BA11.3B3A5B.B18.ABA$
49.B.BA.A10.2BA2BA6B2A18.2A$52.BA.A9.2BAB2A4B.B2A19.B$55.A7.2AB.BA
4B4.B$55.2A5.A.AB.4B$62.A5.5B$61.2A8.2A$71.A$72.3A$74.A!
