#CSYNTH guntrue_2499 costs 6290 cells.
#C period 2499 fullperiod 2499 bbox 85 by 74
#CLL state-numbering golly
x = 85, y = 74, rule = LifeHistory
76.2A$76.2A$70.2A$65.2A3.A.A.6A$59.A5.A6.A.A5.A$59.3A4.3A2.B2A3.3A
$62.A5.A3.2B2.A$61.2A6.4B3.2A4.2A$61.4B3.10B4.A$63.13B3.BA.A$61.
17B.B2A$59.21B$2.2A3.2BA12.2A35.18B2AB$A2BAB2.BA2B6.2A2.A.A35.17BA
2BA$4B2.2B.A2B2AB2.A3.A38.16BABAB$6B2ABABA2BA3.3A.4A38.13BA2B$A4B
2A2B2A4BA4.A.A2.A39.16B$.A2BABAB2A6B4.4B42.7B4.4B2.2A$.B2A2BA.2B2.
4B5.2B39.2B2.6B6.2ABA2.A$5.2BAB2.BA2BA4.5B16.2A.BABA12.5B.5B6.ABAB
3A$6.A2B3.2A2.9B15.A.A2BA2BA5.A.2A.12B3.A2.A.A$16.9B15.A.2BAB2AB5.
2A.A13B3.4A.3A$16.6BA2B.5B8.2A.2A6B8.14B6.A3.A$15.6B3A8B5.2BA.B2AB
.4B9.13B4.A.A2.2A$13.8B3A10B2.3B3A3.3A2B9.13B4.2A$10.2B.4BA9BA13B.
B2AB.A2B6.B3.9B2.B2A$9.2A5B3A3BA3B3A7B.6B2A.2A7.3B2.9B2.BA.A$9.2AB
.2BAB2A3BA3B2ABA6B2.B2ABA2B.A8.3B.10B5.A$10.B.2B2AB2A3BA3B2AB2A4B
3.A2BA2BA.A7.16B4.2A$13.2B4A7B4A6B3.ABAB.2A7.8B.7B$14.6BA3BA12B15.
9BA7B$14.3B2A7B2A10B10.A2.9BABA7B$15.3BA7BA2B.B4.4B7.3A2.9BABA6B$
15.14B7.4B5.A6.9BA7B$15.13B9.4B4.2A5.8B.8B$13.11B14.9B4.4B.B5.8B$
12.13B14.6B5.4B.3B5.6B$12.14B13.8B2.4B2.B2AB4.6B$12.14B11.15B4.2A
5.7B$10.2AB.14B9.14B12.8B2.2A.A$9.A.AB.15B8.13B11.12BA.2A$9.A5.13B
7.2AB.10B12.11B$8.2A6.12B6.A.AB3.B2A4B13.5B2A4B$16.11B7.A5.2B2A5B
12.5B2A3B$18.9B6.2A6.8B12.10B$19.7B15.6B14.9B$19.8B15.5B14.9B$19.
5B2A17.3B16.8B$20.4B2AB15.5B14.8B$21.5B15.B2AB2A15.6B$22.4B12.2A2.
2A.AB2.2A11.6B$21.2B.2B.A10.A2.B3.A.A2.A11.6B$20.A2.AB.A.A10.7A.2A
13.7B$20.4A3.A18.A16.6B$41.4A.A15.6B$22.2A17.A2.2A17.6B$22.2A39.6B
$63.7B$63.8B4.2A$59.A.2AB.5B5.A$57.3AB2AB2.B3AB.BA.A$56.A4.B4.5B.B
2A$57.3A.2A2.9B$59.A.A3.8B$61.A.10B$60.2A.2A9B$63.A.10B$63.A.5B2.
4B$60.2A.2A3B5.4B$60.A.A.6B4.4B$62.A.B.B.2A5.4B$62.2A4.A7.3BA$69.
3A5.3BA$71.A6.3AB!
