#CSYNTH guntrue_6400 costs 3036 cells.
#C period 6400 fullperiod 6400 bbox 46 by 66
#CLL state-numbering golly
x = 46, y = 66, rule = LifeHistory
3.2A2.2A.2A10.B9.A$.3A.A2.A.A.A7.BA2B.2A3.3A$A4.2A.A.B.A2.AB.B3A2B
A.A2.A$A.3A.B.A3BA.A.2A2B.AB.BA3.2A$.AB.2ABA2B2.A.AB.A2BAB4.5B$2.
3B2A3B3A2B.BA2BA4.4B5.2B.2A$4.3BA2B.BA2BA3B6.5B3.B2A2.A$.A2.A.A2.B
.B.3B2A7.6B2.2AB2A$.4A.5ABAB.ABAB6.3BA4B2A2B$5.A6.A.A3.A5.2A3BA2.B
2A2B$3.A.A2.3A.A.A.2A5.4B2AB3.2AB2A$3.2A4.A.A3.A7.B2AB2A4.B2A2.A$
7.A8.A.A4.B3A2B5.2B.2A$7.2A8.2A4.6B$11.B2A10.5B2.2A$11.3AB9.4B4.A
2.A$10.A.2AB9.A3B4.A.A.A$9.A.A.2B8.A5B2.2A.A.A$9.A2.A2.2B5.B3A4BAB
2.2A$10.2A3.3B3.4B3.4B2A$4.2A9.3B.5B3.4B2.A$3.A.A8.9B3.4B3A$3.A8.B
.8B3.B3AB.A$2A.AB.B3.11B5.BA.A3.A.2A$.A.A.2AB.3B2A7B5.4A.A.2A.A$.A
.A.2A5B2A7B4.A4.A.A$2A.A2.15B4.4A.A.A$A2.4A12B.B2A5.A.2A$.2A2.BAB.
10B.BA.A3.A$3.2A6.7B5.A2.A$3.A7.2B.4B5.A.A$.A.A11.4B5.A$.2A13.4B
12.2AB$13.A3.4B10.B3A$4.B7.A.A3.4B9.B2A.A$3.BA2B5.BA2B2.5B8.2B.A.A
$3.ABA3B4.2B.B2.5B5.2B2.A2.A$2.2BA5B3.3BA2B2.4B3.3B3.2A$3.6BAB2.2B
ABAB3.5B.2AB9.2A$3.2ABAB2ABA2BA2BAB4.4BA2BAB8.A.A$3.3B4ABA.B3AB6.
4B2A2B.B8.A$3.8B.6B7.11B3.B.BA.2A$2.4B3AB2.4B9.12B.B2A.A.A$3.5AB3.
2B2AB8.14B2A.A.A$3.BA2B7.2A9.8B2A5B2.A.2A$4.B18.2AB.5BA2BA3B4A2.A$
22.A.AB.6B2A2B.BAB2.2A$14.B2A5.A5.7B6.2A$14.3AB3.2A5.4B.2B7.A$13.A
.2AB9.4B10.A$12.A.A.2B8.4B11.2A$12.A2.A2.2B5.4B$13.2A3.3B3.4B$7.2A
9.B2A.5B$6.A.A8.BA2BA4B$6.A8.B.2B2A4B$3.2A.AB.B3.BA9B$4.A.A.2AB.3A
9B$4.A.A.2A2B2A10B$3.2A.A2.5BA9B$3.A2.4A3BA8B.B2A$4.2A2.BAB.BA8B.B
A.A$6.2A6.7B5.A$6.A7.2B.3BA5.2A$7.A10.3BA$6.2A11.3AB!
