#CSYNTH guntrue_1102 costs 7056 cells.
#C period 1102 fullperiod 1102 bbox 98 by 72
#CLL state-numbering golly
x = 98, y = 72, rule = LifeHistory
46.A3.2A$45.A.A.A.3A$45.A.A.A4.A$46.A.A.ABABA$48.A.A.2A4.2A$40.2A
5.ABA4B4.A$39.B2AB2.3BA2B4.BA.A$40.2B2.5B4.B.B2A$41.2B.6B2.4B$40.
16B$39.6B2A9B$38.6BA2BA9B$37.8B2A6B.4B$36.16B3.4B$35.15B6.4B$34.4B
.11B7.4B$33.4B3.10B8.4B$32.4B5.11B7.4B$31.4B5.2B2.9B.2A4.4B$30.4B
6.2AB2.7BA2.A5.4B13.2A$29.4B3.2A.A.A5.B.3B3A3.A3.4B7.2A2.A.A$28.4B
4.A.2A.A.A2.3B2.B3.4A4.4B6.A3.A4.A$27.4B11.2A2.B2AB2.2A.A8.4B6.3A.
5A$26.4B17.2A4.A.A.2A6.4B7.A.A$25.4B22.A.A.A2.A2.2A3.4B6.ABAB3A$
24.4B23.2A2.A2.A.A.A4.4B6.2ABA2.A$23.4B28.2ABA.AB5.5B4.4B2.2A$22.
4B17.2A13.AB2A4.14B$21.4B17.A.A10.2A.A3B4.10BA2B$20.4B12.2A4.A10.A
2.ABAB.4B.9BABAB$19.4B11.A2.A2.2A.4A6.2A2.AB.2B2A11BA2BA$18.4B12.
2A.A.A.A.A2.A12.2BA2BA.10B2AB15.A$17.4B16.A.ABABAB8.2A2.AB.2B2A15B
13.3A$16.4B17.A.AB2AB9.A2.ABAB.4B.11B.B2A10.A$3.2A10.4B19.AB.2B12.
2A.A3B3.10B3.BA.A.2A6.2A$4.A9.4B23.3B14.AB2A2.7B.5B4.A.A.A3.4B$2.A
10.4B24.4B6.2A2.2ABA.AB3.6B4.2A4.A2.A.5B$2.5A5.4B5.2A16.3B2AB6.A3.
A2.A.A.A2.7B3.A3.A.A3.7B$7.A4.4B5.A17.3B2AB3.BA.A4.A.A2.2A2.3B2AB
5.4A.2A2.4B2A4B.B$4.3AB2.7B.BA.A15.10B.B2A6.2A7.2B2AB14.4B2A3B.B2A
$3.A.2B3.7B.B2A15.13B17.6B4.2A7.11B2A$3.4A12B16.14B17.6B4.A8.9B.2B
$.2A2.BA3B2A7B4.A10.15B16.7B.BA.A3.2B2.10B$A2.3AB.2B2A7B4.3A7.4B2.
8B18.6B2.B2A3.2A13B$2A.A.B3.10B7.A5.4B5.6B19.8B5.2A13B$3.A8.8B5.2A
4.4B4.9B18.8B6.2B.11B$3.2A7.9B4.9B5.2A4.4B16.8B10.9B.B2A$13.3B2.4B
5.6B7.A5.4B15.7B13.7B.BA.A$11.5B3.4B2.2B3A3B4.3A7.4B5.2A7.6B13.7B
5.A$11.2A7.6BA3BA4B2.A10.4B5.A6.7B12.8B5.2A$12.A8.4BA5BA3B14.4B4.A
.AB3.7B11.4B2.4B$9.3A10.4BA3BA4B15.4B4.2AB2.8B10.4B4.4B$9.A13.4B3A
3B.B2A14.4B5.11B9.4B6.4B$25.6B3.BA.A14.4B4.11B8.4B8.4B$25.6B6.A15.
4B3.12B6.4B10.4B$27.4B6.2A15.4B.13B5.4B12.4B$27.3B25.4B.7B.3B5.4B
14.3BA$24.AB.2B27.17B2.4B16.ABA$23.A.AB2AB27.22B17.2A$23.A.ABABAB
27.21B18.B$20.2A.A.A.A.A2.A25.21B2.2A.2A$20.A2.A2.2A.4A23.B.21B3.A
.2A$22.2A4.A26.2A24B.A$28.A.A24.2A22B2A.A$29.2A25.11B3.B.B3.3B.A.
2A$56.4B2.6B10.B.A$62.6B10.A.A$63.2B2A.A7.3A.2A$62.A.A.A.3A4.A$61.
A.2A.A4.A3.2A$61.A4.A3.2A$60.2A4.2A!
