#CSYNTH guntrue_217 costs 3604 cells.
#C period 217 fullperiod 217 bbox 68 by 53
#CLL state-numbering golly
x = 68, y = 53, rule = LifeHistory
30.A16.A$29.A.A13.3A$21.A3.2A2.A.A12.A$20.A.A2.A2.2A.2A11.2A$20.A.
A3.A.A2.A8.6B$21.A.4A2.3AB6.5B$23.A3.A.A.AB4.7B$7.A9.A4.A2.BA.A2.B
A11B$7.3A5.3A3.A.2BA.A5.13B$10.A3.A6.2A.2BA5.A14B$9.2A.B.2A9.3B4.
6A9B$9.7B10.2B.B.5B2A10B$11.3B5.15BA2BA10B$10.5B3.31B$10.6B2.32B$
2A8.7B.27B3.B2A$.A7.35B4.A2.A$.A.AB3.20B2.2B2.B2.7B5.2A.A$2.2AB2.
18B13.7B7.A$4.19B15.8B6.2A$4.BA16B17.2B2.4B12.2A$4.ABA16B15.2A4.4B
10.B2AB$5.2A16B15.A6.4B10.2B$5.3B.12B.B2A14.A6.4B8.2B$10.9B3.BA.A
12.2A7.4B6.4B6.A$10.4B2.4B5.A22.4B4.6B3.3A$9.3B5.4B4.2A16.2A4.4B4.
5B2.A$9.2AB6.4B22.A5.4B2.6B2.2A$8.A.AB7.4B7.2A12.A.AB3.15B$8.2AB9.
4B6.A14.2AB.15B$9.4B8.4B6.A15.17B$11.2A9.4B4.2A15.16B$11.A5.A5.4B
2.2B17.16B.B$12.3A.A.A5.8B15.18B2A$14.A.A.A6.7B13.18B.B2A$17.A.2A
5.7B2.B2.2B2.19B4.B$18.A2.A4.35B$19.2AB3.27B.7B$20.32B2.7B$6.2A4.
2A.2A4.31B4.2B2A$7.A4.A.2A.A4.12B3A14B3.4B2A$7.A.2A.A4.A4.9B2A2BA
3B.B.2B10.2A$5.2A2.A.A.4A.2A3.8BABA4B4.3B10.A$6.A.A2.A.A2.B.A.A2.
15B5.A2B.2A3.3A$5.A2.2ABAB2A2B2A.A3.13B5.A.A2B.A3.A$6.2A2.BAB2ABA.
A.2A4.13B2.A.AB2.A$8.2A2.3A2B2AB.2BA.8B4.2A.A.A3.A$8.A5.AB3.3ABA7B
6.2ABA2.4A.A$9.A5.4A2.2BA3.4B7.B2.A.A3.A.A$8.2A8.A.2A6.4B5.2A.2A2.
A2.A.A$15.2A.A.A8.3BA5.A.A2.2A3.A$15.2A.A.A9.3BA4.A.A$19.A11.3AB4.
A!
