#CSYNTH guntrue_2992 costs 3645 cells.
#C period 2992 fullperiod 2992 bbox 81 by 45
#CLL state-numbering golly
x = 81, y = 45, rule = LifeHistory
15.2A$16.A$16.A.2A3.2A$17.A.A4.A39.B.B$6.2A11.A.3A10.2A.2A24.B2A3B
$7.A5.2AB2.AB.A11.A.A.A25.A2BA2B10.2A$7.A.AB.3BA2BA2BA10.2B.A2.A
23.2B2A4B2.2B5.A$8.2AB.6B.2B11.A2BAB2A12.2A9.13B.BA.A$10.3BA6B.2B
8.B2A.B11.2A3.A6.16B.B2A$10.10BA3B.2B5.3AB3A8.A2.A7.BA12BA4B$11.2B
2A4BA8B4.BA.A2.A6.2A2.3A5.BABA10BABA4B$10.BA3B2AB3A2BA6B3.B.A.A6.A
2.2A3.2B3.BABA11BA4B$9.BABA6B2AB3A10BA.2A5.A.A2.3A2B3.2BA15B.B2A$
7.4BA10BAB2A6B2.A5.A.2A.A.2AB.A23B.BA.A$2A5.2B4A2BA10BA5B3.6A.A2.A
3.2A19B2.2B5.A$.A5.3BABABA4B3A4B2A3B6.A6.A.2A21B10.2A$.A.AB.B2A5B
3A2B3A5B2A3B8.5A.A.B.19B$2.2AB.2B2A4B3A4BABABA7B7.A6.A5.16B$3.6BA
10BA2B4A2B.4B7.3A.2A6.10B3.4B.2A$4.6B2ABA10BA4B2.4B8.A.A8.8B3.B2A
3B.A$4.7B3AB2A6BABAB5.4B10.A6.9B4.2AB2.A$6.6BA2B3AB2A3BAB7.4B7.3A
5.10B8.A$8.8BA4B2A2B9.3BA5.A7.10B5.5A.A$9.2B2.2BA10B9.3BA4.2A5.7BA
3B5.A4.A.A$13.2B.6BA3B10.3A6B4.7BABA2B7.A2.A.A$15.2B.6B.B2A8.7B5.
8BABA2B6.2A3.A$14.A2BA2BA3B.BA.A8.8B2.10BA3B$14.A.BA2.B2A5.A6.24B.
B2A$12.3A.A11.2A4.24B2.BA.A$11.A4.A.A15.14B.7B7.A$11.2A3.2A.A11.2A
B3.10B3.6B7.2A$19.A10.B3A5.7B5.4B$19.2A9.B2A.A3.9B5.4B$30.2B.A.A3.
2B2A4B6.4B$32.A2.A3.2B2A2B9.4B$33.2A5.5B10.4B$41.3B12.4B$40.5B12.
4B$39.B2AB2A13.4B$36.2A2.2A.AB2.2A10.4B$36.A2.B3.A.A2.A11.4B$37.7A
.2A14.4B$44.A17.3BA$39.4A.A18.3BA$39.A2.2A20.3AB!
