#CSYNTH guntrue_7500 costs 3752 cells.
#C period 7500 fullperiod 7500 bbox 67 by 56
#CLL state-numbering golly
x = 67, y = 56, rule = LifeHistory
24.2A2.2A.2A10.A9.A$22.3A.A2.A.A.A7.A3B.2A3.3A$21.A4.2A.A.A.A2.AB.
2BA4B.A2.A$21.A.3A.B.5A.A.A2BA.BA.2A3.2A$22.AB.B2A2BA2.A.AB.4AB4.
4AB$23.A5B3A3BA.3BAB4.B3A5.2B.2A$25.2BAB2A.B4A2BA6.A2B2A3.B2A2.A$
22.A2.A.B2.A.B.2A3B7.4BAB2.BAB2A$22.4A.4ABA2B.2ABA6.2B3A3BA3B$26.A
6.A.A3.A5.2BAB2A2.BA3B$24.A.A2.3A.A.A.2A5.2B2ABAB3.BAB2A$10.2B12.
2A4.A.A3.A7.4B2A4.B2A2.A$8.6B14.A8.A.A4.B2ABAB5.2B.2A$6.10B12.2A8.
2A4.B2AB2A$4.2A3BA2BA3B2A27.2AB2A$3.B5A4B5AB12.B2A11.2BAB$4.2A3BA
2BA3B2A13.3AB10.4B$6.10B14.A.2AB9.5B$8.6B15.A.A.2B8.5B7.A$10.2B17.
A2.A2.2B5.7B5.BAB$10.2B18.2A3.3B3.4B.B3A4.3B$11.B12.2A9.B2A.5B3.3B
3.2BA2B$10.2AB7.2A.A.A8.BA2BA4B3.A3BA2.BABAB$.2A6.A2BAB5.A.A.A8.B.
2B2A4B4.B3AB.7B$2.A4.3B2A3B4.A3.AB.B3.BA9B6.4B.2B3A2B$2.A.AB.8B.BA
.2A2.A.2AB.3A9B6.3B.9B$3.2AB.8B.B2A2.A.A.2A2B2A10B6.3B.9B$5.12B3.
2A.A2.5BA9B6.4B.2B3A2B$5.12B6.4A3BA8B.B2A3.B3AB.7B$5.12B3.3A2.BAB.
BA8B.BA.A2.A3BA2.BABAB$7.10B3.A2.2A6.7B5.A3.3B3.2BA2B$9.7B7.A7.2B.
3BA5.2A2.3A4.3B$9.8B8.A9.3BA9.B5.BAB$8.5B.4B6.2A10.3AB15.A$8.6B.4B
18.4B$7.6B3.4B18.4B12.A$3.B2.3BA3B4.4B18.4B9.3A$.7BABA2B5.4B18.4B
7.A10.B$.7BABA2B6.4B18.4B6.2A8.3A$9BA3B7.4B10.A7.4B.6B8.3A$11B.B2A
6.4B9.3A6.8B9.2BA2B$.9B2.BA.A6.4B11.A6.10B6.2BA2B$.7B7.A7.4B9.2A5.
B.10B4.3BA3B$2.6B7.2A7.4B8.18BAB3.2BABA2B$3.4B18.4B9.15BABA11B$4.
4B18.4B7.2B2A12BABA.10B$5.4B18.4B5.2BA2BA12BA4.2BABA2B$6.4B18.4B4.
3B2A4B2.7B5.3BA3B$7.4B18.4B.9B4.7B6.2BA2B$8.4B18.12B6.3B9.2BA2B$9.
4B18.10B7.5B8.3A$10.4B18.9B10.2A8.3A$11.4B18.9B9.A10.B$12.3BA18.7B
11.3A$13.3BA18.6B13.A$14.3AB19.2B!
