#CSYNTH guntrue_1716 costs 3784 cells.
#C period 1716 fullperiod 1716 bbox 88 by 43
#CLL state-numbering golly
x = 88, y = 43, rule = LifeHistory
2.A9.A$2.3A5.3A$5.A3.A$4.2A.B.2A$4.7B$6.3B$4.7B$3.4BA4B8.2A$3.3BAB
A3B3.2A2.A2.A$4.3BA3B4.A.A2.A.A56.A$4.7B5.B.2A.A33.A22.A.A$3.9B3.
2B2.A35.3A20.A.3A$.17B.A38.A16.2A.A4.A$.15B2A.2A11.A24.2A16.A.A.AB
ABA$2BA13B2A.A12.3A7.2A13.5B15.A.A.2A$.ABA8BA2B.B4.A13.A6.A16.4B
13.2AB2A2B$BABA7BABAB5.2A12.2A3.BA.A15.5B11.A3BAB$.BA8B2A3B4.A13.
4B.B2A16.10B5.B4A4.2B$3.13B.BA.A15.4B18.11B4.AB2A2B2.4B.B$5.11B.B
2A9.2A4.6B17.11B.B4A11B2A$5.2B2A9B10.B2AB3.5B5.2A11.12BAB6ABA4B.B
2A$5.BA2BA8B11.3B3.6B2.2B2AB9.12B3A2BAB2A2B2A2B2.B$6.B2A9B10.B.B4.
7B.4B9.14BA4BA4BAB$7.11B6.AB.6B2.20B.15B2A5B2AB$10.8B5.A.A47BA3BAB
$10.9B4.2A.5BA41BABABAB$9.5B2.4B7.3B3A20B.20B3A3B$9.6B2.4B7.BABABA
41BA5B.2A$8.6B4.4B6.BA3BA47BA.A$4.B2.3BA3B5.4B3.B2A5B2A15B.20B2.6B
.BA$2.7BABA2B6.4B.BA4BA4BA14B9.4B.7B4.B.B$2.7BABA2B7.4B2A2B2ABA2B
3A12B9.B2A2B2.6B3.3B$.9BA3B8.5BAB6ABA12B11.2A5.5B3.B2AB$.11B.B2A6.
10B4AB.11B17.6B4.2A$2.9B2.BA.A5.4B2.2B2ABA4.11B18.4B$2.7B7.A3.2AB.
B4.4AB5.10B16.2AB.4B$3.6B7.2A.A.AB4.BA3BA11.5B15.A.AB3.2A$4.4B9.A.
A4.2B2AB2A13.4B16.A6.A$5.4B8.A.A4.2A.A.A15.5B13.2A7.3A$6.4B8.A4.AB
ABA.A.A16.2A24.A$7.3BA12.A4.A.A.A15.A$8.3BA12.3A.A.A.A16.3A$9.3AB
13.2A3.A19.A!
