#CSYNTH guntrue_3332 costs 6375 cells.
#C period 3332 fullperiod 3332 bbox 85 by 75
#CLL state-numbering golly
x = 85, y = 75, rule = LifeHistory
64.2A$58.A.2A.A.A$58.2A.A.A$62.2AB$62.2B$62.4B2.B$63.8B$63.8B$62.
8B2A$61.2B2A3B.B2A$61.BABA4B.B$61.ABA4B$61.BA7B$62.8B$63.7B$63.8B$
63.8B$63.7B$22.2A39.7B$22.2A17.A2.2A17.8B$41.4A.A15.10B$20.4A3.A
18.A16.10B$20.A2.AB.A.A10.7A.2A13.7B.4B$21.2B.2B.A10.A2.B3.A.A2.A
11.6B3.4B$22.4B12.2A2.2A.AB2.2A11.6B4.4B$21.5B15.B2AB2A15.6B5.4B$
20.4B2AB15.5B14.8B5.4B$19.5B2A17.3B16.8B5.4B$19.8B8.2A5.5B14.9B6.
4B$19.7B8.A2.A3.2B2A2B14.9B7.4B$18.9B5.2B.A.A3.2B2A4B12.10B7.4B$
16.11B5.B2A.A3.9B12.5B2A3B8.4B$8.2A6.12B4.B3A5.7B13.5B2A4B8.4B$9.A
5.13B5.2AB3.10B12.11B9.3BA$9.A.AB.15B7.14B11.12BA.2A5.ABA$10.2AB.
14B8.15B12.8B2.2A.A6.2A$12.14B11.15B4.2A5.7B14.B$12.14B13.8B2.4B2.
B2AB4.6B$12.6BA6B13.7B5.4B.3B5.6B$13.4BAB2A3B14.9B4.4B.B5.8B$15.B
2AB2A7B9.4B4.2A5.8B.8B$15.5B2A7B7.4B5.A6.9BA7B$15.4B3A7B.B4.4B7.3A
2.9BABA6B$14.5B2A17B10.A2.9BABA7B$14.6BABA14B15.9BA7B$13.10BA12B3.
2B2A.2A7.8B.7B$10.B.8BABA12B3.7B.A7.16B4.2A$9.2AB.8BA6B2A6B2.B2A3B
A.A8.3B.10B5.A$9.2A16BA2BA5B.2BA4BA.2A7.3B2.9B2.BA.A$10.2B.14BABA
9B2A.3AB.BAB6.B3.9B2.B2A$13.7B3A2B5A4B2.3B3A3.3A2B9.13B4.2A$15.10B
3A4B5.BAB.B3A.2A2B9.13B4.A.A2.2A$16.BA3BA3B.5B8.2A.A4BA2B8.14B6.A
3.A$16.B4A4B15.A.A3B2AB5.2A.A13B3.4A.3A$6.3B3.2A2.2B2A3B2A15.A.7B
5.A.2A.12B3.A2.A.A$5.3AB2.B2A2B4.3B2A16.2A.2A2B12.5B.5B6.ABAB3A$.A
5B.AB2.4B5.2B39.2B2.6B6.2ABA2.A$.A2BABAB2A6B4.4B42.7B4.4B2.2A$2B3A
6B3A2B4.A.A2.A39.16B$6B2ABABA2BA3.3A.4A38.13BA2B$4B2.BA.5BA2.A3.A
38.16BABAB$2B2AB2.B3A6.2A2.A.A35.17BA2BA$2.2A3.3B12.2A35.18B2AB$
59.21B$61.17B.B2A$63.13B3.BA.A$61.4B3.10B4.A$61.2A6.4B3.2A4.2A$62.
A5.A3.2B2.A$59.3A4.3A2.B2A3.3A$59.A5.A6.A.A5.A$65.2A3.A.A.6A$70.2A
$76.2A$76.2A!
