#CSYNTH guntrue_858 costs 3354 cells.
#C period 858 fullperiod 858 bbox 86 by 39
#CLL state-numbering golly
x = 86, y = 39, rule = LifeHistory
8.A2.A3.2A$8.6A2.A$6.2A6.2A$5.A2.B4AB2.3A$4.A.2AB.2B.B2A2.A$4.A.A
2.4B2.A.A59.A$3.2A.B8AB.2A34.A22.A.A$4.A.A2.4A2.A.A35.3A20.A.3A$4.
A.A3.2B3.A.A38.A16.2A.A4.A$5.A4.2B4.A13.A24.2A16.A.A.ABABA$11.B18.
3A7.2A13.5B15.A.A.2A$10.2AB20.A6.A16.4B13.ABA4B$9.A2BAB5.2A11.2A3.
BA.A15.5B11.BAB2AB$7.3B2A3B4.A12.4B.B2A16.10B5.BABAB4.2B$7.8B.BA.A
14.4B18.11B4.A5B2.4B.B$6.9B.B2A8.2A4.6B17.11B.2BA13B2A$5.B2A9B9.B
2AB3.5B5.2A11.13B2A2BA2B2A4B.B2A$4.BA2BA8B10.3B3.6B2.2B2AB9.13B3AB
ABAB3A3B2.B$5.B2A9B9.B.B4.7B.4B9.15B2A2BA2B2A2B$7.10B5.AB.6B2.20B.
16BA5BA2B$9.7B5.A.A47B5AB$9.8B4.2A.48B3A2B$8.5B.4B7.4BA21B.21BA4B$
8.6B.4B7.2B3A48B.2A$7.6B3.4B6.B5A47BA.A$3.B2.3BA3B4.4B3.2BA5BA16B.
20B2.6B.BA$.7BABA2B5.4B.2B2A2BA2B2A15B9.4B.7B4.B.B$.7BABA2B6.5B3AB
ABAB3A13B9.B2A2B2.6B3.3B$9BA3B7.5B2A2BA2B2A13B11.2A5.5B3.B2AB$11B.
B2A5.12BA2B.11B17.6B4.2A$.9B2.BA.A4.4B2.5BA4.11B18.4B$.7B7.A2.2AB.
B4.BABAB5.10B16.2AB.4B$2.6B7.A.A.AB4.B2ABAB11.5B15.A.AB3.2A$3.4B7.
2A.A4.4BABA13.4B16.A6.A$4.4B9.A4.2A.A.A15.5B13.2A7.3A$5.4B8.2A2.AB
ABA.A.A16.2A24.A$6.3BA11.A4.A.A.A15.A$7.3BA11.3A.A.A.A16.3A$8.3AB
12.2A3.A19.A!
