#CSYNTH guntrue_980 costs 2891 cells.
#C period 980 fullperiod 980 bbox 59 by 49
#CLL state-numbering golly
x = 59, y = 49, rule = LifeHistory
19.2A.2A$18.3B2.A$18.A2B2A12.2A.2B$17.2B3A13.A2.3A$11.4B2.2B3A14.
2A3B$10.6B2.A2B2A14.4BA$8.3B2A4B.3B2.A13.4BA2.4B$7.3BA2BA5B2A.A.A
11.2A3B2.3BA2B$2A5.4BAB2A3B5.2A10.A2.3A.2B4A3B$.A6.4B2A4B17.2A.6B
2A2BA3B$.A.AB2.11B3.4A16.2BA3BA4B5.2A$2.2AB.11B4.A3.A15.3B3A4B6.A$
4.3BA2BA7B6.2A10.2A3.3B3A5B2.BA.A$4.2BA3BA7B6.5B7.A5.11B.B2A$4.4BA
10B7.2B2A3.BA.A4.14B$4.3BAB2A7BAB5.3B2AB2.B2A5.9B3A2B$5.3B3A4B2.2B
2A4.10B5.7B3AB2A2B$6.7B5.2A2B2.10B5.8B2AB3A2B$4.5B.3B6.4B2.9B4.A3B
2.3B2ABA3B$4.2A7.4B3.13B4.BABA5.3BA3B$5.A7.4B4.12B3.2B2A6.3B.5B$2.
3A7.2A2B2A4.10B3.4B3.B2AB7.2A$2.A7.3A.2A.3A3.7B2.B.4B4.4A7.A$9.A3.
B2.B3.A3.13B4.AB2ABA7.3A$8.A.2AB2A.2A.2A4.11B3.3A.2B.3A7.A$8.A.A2.
AB2.A.A5.4B3A3B3.A3.A2.A3.A$6.A.A.B3A3.A.A6.9B3.2A.2A.B4A.A$6.2A.A
.BAB4.A8.A5BA2B3.A.A2.2B2.B.A$9.A.A14.BA5BAB4.A.A3.B3A.A.A$9.2A16.
A5BA6.A4.B2A.A.2A$16.2A8.8B13.B.A$15.B2AB6.4B3A2B14.2A$15.4B5.10B$
16.2B5.4B3.3B$7.2A7.4B2.4B$7.A.A5.5B.4B$8.A.14B$9.14B$9.14B$9.15B$
8.3B2A12B$8.3B2A13B$6.2AB.11B2.4B$5.A.AB2.8B5.4B$5.A5.10B4.4B$4.2A
5.B.B5.2A5.4B$12.3B4.A7.3BA$11.B2AB5.3A5.3BA$12.2A8.A6.3AB!
