#CSYNTH guntrue_760 costs 2989 cells.
#C period 760 fullperiod 760 bbox 61 by 49
#CLL state-numbering golly
x = 61, y = 49, rule = LifeHistory
43.AB6.A$42.B.2A3.3A$9.2A3.2A26.2A.B2.A$9.A.A.A.A27.BA3.2A$11.A.A
32.4B$10.ABA.A2.2A24.B.3B$10.3B.A2.A.A22.7B$12.A.2A.A2.A20.8B$11.
3BA2.3A21.9B$10.A3B3A23.5B3A2B8.A$11.2B.A2.A23.3BA2BA3B5.3A$11.3A
2.2A21.5BA6B4.A$12.2B18.2A4.10BA3B3.2A$12.2B19.A4.2B5A3BA8B$13.B
18.A5.2B3ABA3BAB.4B$12.2AB17.4A2.2BA3BAB4A6B$3.2A6.B2A2B5.2A12.A2.
4B2A4B2ABA4B.2B$4.A4.8B4.A8.4A4.9B2AB2A6B2A$4.A.AB.8B.BA.A7.A2.2B
3.5B2A4B2ABA4B.B2A$5.2AB.2B2A4B.B2A8.2A.2B2.4BA3BAB4A6B2.B$7.3BA2B
A5B13.2BA.4B3ABA3BAB.6B$7.3BA2BA5B13.8B5A3BAB3.4B$7.4B2A6B12.A2BA
13BA3.B2A2B$9.10B6.2A4.3BA4B.4BA3B5.2A.B2A$11.7B6.B2A2B.A13BA2BA8.
BA.A$11.8B6.5BA3B5A8B12.A$10.5B.4B3.7BA3BAB3A4B.A2B12.2A$10.6B.12B
4ABA3BA4B2.2B.2A$9.6B3.9BAB2A4B2A5B3.2B2.A$5.B2.3BA3B4.8B2AB2A9B4.
4A$3.7BABA2B5.7BAB2A4B2A4B2.A$3.7BABA2B7.7B4ABA3BA2B2.4A$2.9BA3B9.
4B.BA3BAB3A2B5.A$2.11B.B2A7.6BA3B5A2B4.A$3.9B2.BA.A5.B3.3BA10B4.2A
$3.7B7.A4.BAB3.6BA5B$4.6B7.2A3.3A3.3BA2BA3B$5.4B12.B3AB3.2B3A5B$6.
4B11.BA.AB3.9B$7.4B11.3A5.8B$8.4B9.5A4.7B$8.5B7.A.3B.A4.3B.B$9.5B
6.A.B.B.A4.2B5.A$6.3B2.4B4.2A.A.A.2A.A2B.A2.A2BA$.B2.BA3B3.4B5.A.
2A4.4BAB.A2BA$3AB2A2B2A3.4B4.A4.3A4BA2B.A$4A4B2A4.3BA4.3A.A2.6AB$.
3B2A2.B6.3BA5.A2.A.5BAB$.3B12.3AB5.2A4.B2.A!
