#CSYNTH guntrue_1286 costs 6734 cells.
#C period 1286 fullperiod 1286 bbox 91 by 74
#CLL state-numbering golly
x = 91, y = 74, rule = LifeHistory
33.2A$32.A.A$26.2A4.A$24.A2.A2.2A.4A$24.2A.A.A.A.A2.A$27.A.ABABAB$
27.A.AB2AB$28.AB.2B32.2A$23.A7.3B30.B2AB$21.3A7.4B6.2A22.2B$20.A8.
3B2AB6.A24.2B$19.A.A7.3B2AB3.BA.A23.4B$18.BA.A5.10B.B2A23.3BA2B4.A
$17.3BA5.13B24.3B2A3BA.2BA$15.4B6.14B24.3B4A6BA$13.6B5.15B24.8BA2B
ABA$12.7B4.4B2.8B25.4BA7B.A$5.B.4B.8B2.4B5.6B21.2B2.4B2A4B$4.2AB.
17B4.9B19.2A8BA4B$4.2A18B5.2A4.4B18.2A7BA5B$5.2B.16B6.A5.4B18.2B.
11B$8.16B3.3A7.4B19.10B.B2A$9.15B3.A10.4B17.11B.BA.A$10.12B.B2A.A
11.4B15.4B.6B5.A6.A$10.11B2.BA.A.2A10.4B13.4B.7B5.2A3.3A$11.10B5.A
2.A11.4B11.4B.4B.4B8.A$11.6B2A2B5.2A14.4B9.4B.4B3.4B7.2A$11.6B2A3B
21.4B7.4B.4B5.3BA3.5B$11.10B23.4B5.4B.4B7.ABAB2.3B$7.A.2AB.8B24.4B
3.4B.4B9.2A7B7.2A$5.3AB2AB3.7B24.4B.4B.4B11.8B8.A$4.A4.B6.6B25.7B.
4B13.10B3.B.A.2A$5.3A.2A4.6B27.5B.4B14.7B2A2B.B3A2.A$7.2A2.A4.5B
27.9B15.7B2A3BAB2.2A$10.A.A.8B25.9B16.12B4A$6.A.2A.A.A8B24.4B.4B
15.2AB.7B3.2B.A$6.2A.A.BA2B.6B23.4B.6B9.2A2.A.AB.7B2.B3A$9.A2.2B2.
7B10.A10.4B.8B9.A2.A5.4B4.A$9.2A.B3.7B8.3A9.4B.4B2.4B6.A2.3A5.4B5.
5A$7.2A2.A.A2.8B.2B3.A11.4B.4B4.4B5.3A7.4B10.A$6.A2.A2.2A2.12B2.2A
9.4B.4B6.4B7.A5.4B9.A$7.2A7.12B.3B2.2B2.B.4B.4B8.4B5.2A4.4B10.2A$
16.14B3.10B.4B10.4B4.9B$17.14B.10B.4B12.4B5.6B$8.2A10.21B.4B14.4B
2.8B$9.A8.27B16.15B$9.A.AB4.28B17.14B$10.2AB.31B18.13B$12.34B18.
10B.B2A$12.34BA.2A16.3B2AB3.BA.A$12.33B.2A.A16.3B2AB6.A$13.30B25.
4B6.2A$14.28B26.3B$16.27B22.AB.2B$16.4B3.20B21.A.AB2AB$12.2A3.2B3.
20B22.A.ABABAB$11.B2AB6.20B20.2A.A.A.A.A2.A$11.4B5.4B.4B.9B22.A2.A
2.2A.4A$12.2B5.4B7.8B25.2A4.A$3.2A7.4B2.4B9.4B34.A.A$3.A.A5.5B.4B
49.2A$4.A.14B$5.14B$5.14B$5.15B$4.3B2A12B$4.3B2A13B$2.2AB.11B2.4B$
.A.AB2.8B5.4B$.A5.10B4.4B$2A5.B.B5.2A5.4B$8.3B4.A7.3BA$7.B2AB5.3A
5.3BA$8.2A8.A6.3AB!
