#CSYNTH guntrue_2214 costs 2604 cells.
#C period 2214 fullperiod 2214 bbox 62 by 42
#CLL state-numbering golly
x = 62, y = 42, rule = LifeHistory
52.A2.2A$34.A17.4A.A$34.3A20.A$32.2A3.A12.7A.2A$24.3B4.A.B.2A.A10.
A2.B3.A.A2.A$23.4B3.B2A2B.A.A10.2A2.2A.AB2.2A$17.4B.8B.3AB.A.2A12.
B2AB2A$14.16B2.ABA.A16.5B$13.17B2.ABA.A17.3B$13.15B5.2A.2A15.2A3B$
12.16B24.B2AB2A$2A5.2B3.17B15.2A6.2ABA4B$.A5.3B2.18B15.A5.9B$.A.AB
.4B3.18B14.A.AB3.7B$2.2AB.5B.20B9.2A3.2AB.10B$4.8B.20B8.A6.13B$4.
16BA13B4.BA.A6.13BA$4.17BA15B.B2A4.A2.11BABA$5.14B2ABA16B4.3A4.8B
2.2A$5.15BAB2A15B3.A7.6B5.B$7.12B2ABA3B2.11B3.2A5.9B$7.9BA3B2A5B.
16B4.4B4.2A$8.8B2A8B4.B2.2B.6B5.4B5.A$9.5BA2BA9B2.3B4.8B2.4B7.3A$
10.4B2ABA2B3A4B.B2AB2.15B10.A$11.3B2AB3A2BA4B2.2A3.14B$11.8BABA4B
8.13B$9.8B3A6B6.2AB.10B$9.16B6.A.AB3.4BA2B$5.2A2.8B.4B9.A5.4BABA2B
$4.B2A2B3.4B14.2A6.3BABA2B$5.4B3.3B23.4BAB$6.A2B30.5B$.B3.ABAB31.
3B$2AB.A.BA31.5B$2ABA2B32.B2AB2A$.3B2A29.2A2.2A.AB2.2A$.4B30.A2.B
3.A.A2.A$36.7A.2A$43.A$38.4A.A$38.A2.2A!
