#CSYNTH guntrue_185 costs 3111 cells.
#C period 185 fullperiod 185 bbox 61 by 51
#CLL state-numbering golly
x = 61, y = 51, rule = LifeHistory
28.A11.2A$27.A.A9.B2AB$19.A3.2A2.A.A9.3B$18.A.A2.A2.2A.2A9.B.B$7.
2A9.A.A3.A.A2.B8.5B$7.A6.2A3.A.4A2.AB2A6.6B$9.A5.A5.A3.A.A.2A4.8B$
5.4A.A.3A5.A2.BA.A2.13B$5.A2.A.A.A6.A.2BA.A5.13B$6.3BA3B6.2A.2BA5.
15B$7.3B.B11.3B4.5B2A8B$3.2A3.5B11.2B.B.6B2A9B$4.A3.5B4.14B2A13B7.
A$3.A4.6B2.14BA2BA13B4.3A$3.2A3.6B2.14BA2BA14B2.A$A4.2B.7B.15BABA
9B3.B2A2.A$5A37B4.A.B3A$4.A21B2.2B2.B2.7B5.A6.2A$2.2A19B13.7B5.3A.
A2.A$2.A.17B15.8B6.A.3A$3.A.15B17.2B2.4B$3A4.13B16.2A4.4B5.2A$A6.
15B14.A6.4B3.B2A2B$6.9B.B3.2A15.3A4.4B3.4B$6.10B4.A19.A4.10B$6.4B
3.4B4.3A15.2A3.B.9B$6.2B2AB3.4B6.A14.15B6.A$8.2A5.4B4.2A16.13B4.3A
$16.4B2.2B17.15B.A$6.3A.A6.8B15.17B.A$5.A2.A.3A5.7B13.19B2A$5.2A6.
A5.7B2.B2.2B2.21BA$9.3AB.A4.37B5A$8.A3.2AB3.9BABA15B.7B.2B4.A$7.A.
2A2.14BA2BA14B2.6B3.2A$7.A.A4.13BA2BA14B2.6B4.A$6.2A.A5.13B2A14B4.
5B3.A$10.2A3.9B2A6B.B.2B11.5B3.2A$12.A3.8B2A5B4.3B11.B.3B$6.2B2.2A
.A2.15B5.A2B.2A6.3BA3B$5.2A2BA.B.A3.13B5.A.A2B.A6.A.A.A2.A$5.2AB3A
B.2A4.13B2.A.AB2.A5.3A.A.4A$6.2B.2B.2B.AB.8B4.2A.A.A3.A5.A5.A$12.
2B3A7B6.2ABA2.4A.A3.2A6.A$6.2B.2B.2B.AB3.4B7.B2.A.A3.A.A9.2A$5.2AB
3AB.2A6.4B5.2A.2A2.A2.A.A$5.2A2BA.B.A8.4B5.A.A2.2A3.A$6.2B2.2A.A9.
4B4.A.A$12.A11.3BA4.A$12.A.A10.3BA$13.2A11.3AB!
