#CSYNTH guntrue_6392 costs 5429 cells.
#C period 6392 fullperiod 6392 bbox 89 by 61
#CLL state-numbering golly
x = 89, y = 61, rule = LifeHistory
54.2A$25.2A7.A20.A2.2A$24.B2AB4.3A20.A.A.A3.A$24.3B4.A8.A15.A.B4.
3A$13.2A10.B.B3.2A5.3A17.3B5.A$12.A2.A2.2A3.10B4.A14.2A3.5B3.ABA$
13.2A2.A.A3.8B6.2A12.A.BAB.6B2.5A$15.2A.B3.11B2.4B12.A.2AB2.5B4.3A
$15.A2.2B.2A14B7.A5.2A.B.B3.5B2.4B4.5B$12.2A.A.B6A13B5.3A4.A3.2A2B
2.5B2.4B3.6B$12.A2.A.ABABAB2A11B5.A8.3A2.AB.3BA9B.8B$14.2A.AB2AB2A
12B4.B2A10.2ABA3B3A6BAB.8B$18.AB.BA11BAB.6B9.A2.A3B5A3BABA7BA2B$
21.13B2A5B11.2A2.2B2A3B2A3B2A2B.3B3A3B$19.6B.8BABA4B.2B12.3B5A5B.
5B5A3B3.2A$19.2AB4.8B3A6B2A.2A9.3B3A3B.2B2A3B2A3B2A2B2.A2.A$11.3B
6.A5.6B2AB2A6B2A.A2.A9.2BA7BABA3B5A3BA2.2A$11.B3A2.3A5.6BA2BA10B.A
.2A2.A6.8B.BA6B3A3BAB2A$10.A.3A2.A6.7BABA7B.2B2.A5.3A4.8B.9BA3B.BA
2.2A$9.A.A.AB8.4B2.3BA7B3.B.2A8.A4.6B3.4B2.5B2.2B2A2.A$9.A2.A2.2B
5.4B5.8B3.A.A2.2A5.2A4.5B4.4B2.5B3.B.B.2A$10.2A3.3B3.4B4.10B3.2A2.
A2.A4.6B9.3A4.5B2.B2A.A$4.2A9.B2A.5B5.2A3.B.B10.2A7.5B8.5A2.6B.BAB
.A$3.A.A8.BA2BA4B7.A4.3B18.6B9.ABA3.5B3.2A$3.A8.B.2B2A4B5.3A4.B2AB
17.8B9.A5.3B$2A.AB.B3.B3A7B6.A7.2A12.A.2A2.9B9.3A4.B.A$.A.A.2AB.
12B28.2A.A12B10.A3.A.A.A$.A.A.2A2B2ABABA6B33.12B13.2A2.A$2A.A2.3B
2ABABA6B33.13B16.2A$A2.4A3BA8B.B2A2.2A27.9B.4B$.2A2.BAB.10B.BA.A2.
A27.9B2.4B$3.2A6.7B5.2A28.11B2.4B$3.A7.2B.3BA5.A29.11B3.4B$5.A9.AB
AB6.A27.12B3.4B$4.2A10.2A2B4.2A21.B4.14B3.4B$17.4B2.2B21.3B3.10B.
4B3.4B$10.2A6.8B18.6B2.15B4.4B$11.A7.7B12.4B2.7B.13B.B2A3.4B$11.A.
2A5.7B2.B2.2B2.29B.BA.A3.4B$12.A2.A4.45B4.A4.4B$13.2AB3.46B4.2A4.
4B$14.14B2A13B2A21B10.4B$15.13B2A13B2A21B11.4B$16.51B11.4B$16.17B.
B5.26B13.4B$17.15B10.B2.20B15.4B$17.15B12.20B.B.B13.4B$18.13B12.
24B2A13.4B$20.13B10.24B2A14.4B$19.8B4.2A.A6.2AB2.5B2.12B.2B16.4B$
19.6B6.2AB3A3.A.AB2.4B3.13B19.3BA$19.5B8.B4.A2.A14.11B.B18.ABA$19.
B.B9.2A.3A2.2A14.12B2A18.2A$20.3B9.A.A20.10B.B2A19.B$19.B2AB9.A.A
18.2AB.6B4.B$20.2A11.A18.A.AB.4B$52.A5.5B$51.2A8.2A$61.A$62.3A$64.
A!
