#CSYNTH guntrue_1390 costs 7150 cells.
#C period 1390 fullperiod 1390 bbox 110 by 65
#CLL state-numbering golly
x = 110, y = 65, rule = LifeHistory
24.2A$24.A.A43.2A$26.A4.2A37.A$22.4A.2A2.A2.A37.A$22.A2.A.A.A.A.2A
33.5A$24.BABABA.A36.A$25.B2ABA.A38.B4A$26.2B.BA39.BA2.A$25.3B35.2A
3.6B$16.2A6.4B36.A2.6B$17.A6.B2A3B33.A3.5B$17.A.AB3.B2A3B22.2A9.2A
2.7B$18.2AB.10B21.A10.2B.8B8.2A$20.13B20.A.AB6.11B9.A$20.14B20.2AB
.2B.15B4.BA.A$20.15B21.23B.B2A$22.8B2.4B20.25B$22.6B5.4B19.25B20.A
$21.9B4.4B18.13B2A3B2A4B12.2A5.3A$20.4B4.2A5.4B16.13BABA2BABA5B10.
B2AB3.A$19.4B5.A7.4B14.4B.8B2A3B2A9B8.3B4.2A$18.4B7.3A5.4B12.4B4.
2B.B.2BA2B2A13B2.2B2.B2.5B$17.4B10.A6.4B10.4B11.2B3A26B$16.4B19.4B
8.4B11.4BA4B.21B2A$3.2A10.4B21.4B6.4B13.7B2.16B2A3B2A$4.A9.4B23.4B
4.4B14.7B2.16B2A2B.B$2.A10.4B25.4B2.4B15.6B4.7BABA9B$2.5A5.4B5.2A
20.8B16.7B10.B2A5B$7.A4.4B5.A22.6B17.6B12.A7B$4.3AB2.7B.BA.A23.4B
17.7B13.7B$3.A.2B3.7B.B2A23.6B15.8B12.7B$3.4A12B24.8B14.9B2.2A6.8B
7.2A$.2A2.BA3B2A7B23.4B2.4B14.7B2.B2AB5.9B6.A$A2.3AB.2B2A7B22.4B4.
4B14.4B5.2B7.9B2.BA.A$2A.A.B3.10B21.4B6.4B6.2A5.2B2AB3.2B6.12B.B2A
$3.A8.8B19.4B8.4B5.A8.2A3.BA2B.18B$3.2A7.9B6.A10.4B10.4B6.A11.A.A
20B$13.3B2.4B5.3A7.4B6.2A4.4B4.2A12.A.17B2A2.B$11.5B3.4B7.A5.4B6.A
2.A4.4B2.2B10.3A3.16B2A.B2A$11.2A7.4B5.2A4.4B8.3A5.8B9.A5.20B2A$
12.A8.4B4.9B18.7B13.20B.2B$9.3A10.4B5.6B12.3A5.7B2.B2.2B2.20B.B$9.
A13.4B2.8B12.A2.A4.35B$24.15B11.2AB3.27B.9B$25.14B12.14B2A16B2.7B$
26.13B13.13B2A16B2.7B$27.10B.B2A12.29B4.6B4.2A$29.3B2AB3.BA.A11.
17B.B.2B10.7B3.B2AB$29.3B2AB6.A12.15B4.3B10.6B3.4B$31.4B6.2A11.15B
5.A2B.2A6.7B3.2B$31.3B21.13B5.A.A2B.A7.5B2.4B7.2A$28.AB.2B24.13B2.
A.AB2.A8.6B.5B5.A.A$27.A.AB2AB22.8B4.2A.A.A3.A7.19B.A$27.A.ABABAB
21.6B6.2ABA2.4A.A5.2A.17B$24.2A.A.A.A.A2.A19.5B8.B2.A.A3.A.A5.A4.
14B$24.A2.A2.2A.4A19.B.B9.2A.2A2.A2.A.A2.3A4.15B$26.2A4.A24.3B9.A.
A2.2A3.A3.A5.12B2A3B$32.A.A21.B2AB9.A.A16.13B2A3B$33.2A22.2A11.A
16.4B2.11B.B2A$86.4B5.8B2.BA.A$85.4B4.10B5.A$84.4B5.2A5.B.B5.2A$
83.A3B7.A4.3B$82.A3B5.3A5.B2AB$81.B3A6.A8.2A!
