#CSYNTH guntrue_7740 costs 3560 cells.
#C period 7740 fullperiod 7740 bbox 89 by 40
#CLL state-numbering golly
x = 89, y = 40, rule = LifeHistory
16.2A5.2B55.A$16.A.A2.4B54.ABA$17.A8B54.2B$12.B6.7B53.A2BAB$11.3B
5.6B55.A.ABA.2A$11.3B4.6B57.A3B2A.A$10.2BA2B3.7B57.BA4.A$10.B3AB3.
7B38.A20.4A$9.B2AB2AB2.2B2A2B2.B36.3A17.2B.A$9.3AB3A2.2BAB2A.B2A
38.A16.AB.AB$8.B3AB3A6B2A2B2A37.2A17.3AB$8.B3AB3A4BAB2A.2B38.4B17.
2A$9.3AB3A.3B2A2B43.5B.B3.B9.AB$9.B2AB2A10B23.A9.3B4.17B3.BA.A$10.
B3AB.9B21.3A9.2AB3.20B.B2A$10.2BA2B3.6B21.A11.A2BA25B$11.3B4.6B21.
2A8.4BABA24B$11.3B4.7B18.4B8.3B2A2B2A22B$12.B5.7B18.2B10.4B2A2BA
21B$18.6B15.8B4.12BA22B$19.6B7.2A3.11B2.4B4A4BA14B2.6B$11.B2A5.6B
6.B2AB2.16B4A.4A13B6.3B$11.3AB4.6B6.3B3.15BA4B4A4B2.6B$10.A.2AB5.
4B4.2B2.B4.14BA12B4.4B$9.A.A.2B6.4B.25BA2B2A4B$9.A2.A2.2B5.29B2A2B
2A3B$10.2A3.3B3.32BABA4B$4.2A9.B2A.35BA2BA$3.A.A8.BA2BA4B3.25B3.B
2A$3.A8.B.2B2A4B9.B.17B4.3B$2A.AB.B3.BA9B16.5B.5B$.A.A.2AB.3A9B18.
B6.4B$.A.A.2A2B2A10B17.B9.2A$2A.A2.5BA9B16.3A8.A$A2.4A3BA8B.B2A14.
2B.BA7.3A$.2A2.BAB.BA8B.BA.A12.A.3BA9.A$3.2A6.7B5.A11.A.A2.A$3.A7.
2B.3BA5.2A10.A2.A$5.A9.3BA17.2A$4.2A10.3AB!
