#CSYNTH guntrue_700 costs 2193 cells.
#C period 700 fullperiod 700 bbox 51 by 43
#CLL state-numbering golly
x = 51, y = 43, rule = LifeHistory
7.2A3.2A28.A$7.A.A.A.A26.3A$9.A.A16.2A9.A$8.A2B.A2.2A12.A9.2A$8.AB
A.A2.A.A11.A.AB2.6B$10.A.2A.A2.A11.2AB.5B$9.2ABA2.3A5.2A7.8B$8.B2A
2B2A8.A8.9B.2B$9.2A.A2.A8.3A5.13B$9.B2A2.2A5.3A3.A5.4BA7B$10.2B9.A
2.ABA.A3.4BABA7B$10.2B10.B2A.A.A3.3B2ABA8B$11.B11.2A.A.2A2.4B2A9B$
10.2AB10.3B2A.BAB2.13B$.2A6.A2BAB5.2A4.2B.B3A2.13B$2.A4.3B2A3B4.A
8.B3A3.11B$2.A.AB.8B.BA.A6.2A.BAB3.10B$3.2AB.8B.B2A5.3A.2A4.5B.4B
2.2A$5.12B6.A4.A4.4B6.BA4BA$5.12B7.3A.A3.4B7.BA4BAB$5.12B3.A5.2A3.
4B8.BA4BAB$7.10B3.3A7.4B11.A2BA$9.7B7.A5.4B10.A.A2.A.A$9.8B5.2A4.
4B11.2A4.2A$8.5B.4B4.9B$8.6B.4B5.7B$7.6B3.4B2.2B2A4B$3.B2.3BA3B4.
7B2A6B$.7BABA2B5.6BABA6B$.7BABA2B6.6BA7B$9BA3B7.5BA4B3.B2A$11B.B2A
7.6B5.3AB$.9B2.BA.A6.6B4.A.2AB$.7B7.A8.4B3.A.A.2B$2.6B7.2A7.3B4.A
2.A$3.4B14.AB.2B6.2A$4.4B12.A.AB2AB$5.4B11.A.ABABAB$6.4B7.2A.A.A.A
.A2.A$7.4B6.A2.A2.2A.4A$8.3BA7.2A4.A$9.3BA12.A.A$10.3AB12.2A!
