#CSYNTH guntrue_3240 costs 2360 cells.
#C period 3240 fullperiod 3240 bbox 59 by 40
#CLL state-numbering golly
x = 59, y = 40, rule = LifeHistory
11.2A5.2B24.2A$.ABA4BA6BA2B3A2.2A9.A4.B3.A.A$BA.4ABABA2BABABAB2AB.
2A2.2A4.A.A.2A2B.BAB$2A2B.2A2.B4AB4.B3A4.A.A4.A.3A.2A4B$2B.2B2AB3.
2B8.BAB5.A6.AB.B2AB.2B$4.A.A4.2B9.A5.A.2A4.4AB3.3A$5.A6.B15.A2.AB
3.BAB3A3.B$11.2AB11.2A.2A2B4.3BA.A$10.A2BAB5.2A2.A.A.9B2.BA$8.3B2A
3B4.A3.A.A3.2B2A3B$8.8B.BA.A2.2A.2AB.BA2BA3B$7.9B.B2A6.B.3B3A5B$6.
B2A9B5.2AB2AB.2BA6B$5.BA2BA8B3.A2.A.2AB.7B10.2A$6.B2A9B3.2A8.5B10.
B2AB$8.10B13.4B12.3B5.2B$10.7B4.4A7.3B5.2B2.2B2.B2.2B.5B$10.8B3.A
3.A5.A27B$9.5B.4B5.2A4.A17BA9B$9.6B.4B4.6B3A.13BABA8B$8.6B3.4B5.6B
3.11BA3BA6B$4.B2.3BA3B4.4B2.8B4.11BABA7B$2.7BABA2B5.15B5.B.13B2.BA
$2.7BABA2B6.14B10.5B7.A.A$.9BA3B7.13B10.2B.2B8.2A$.11B.B2A6.10B.B
2A9.6B$2.9B2.BA.A6.2BA4B3.BA.A6.10B$2.7B7.A5.2BABA4B5.A4.3BABA2BAB
A3B$3.6B7.2A4.2BABA3B6.2A2.2ABA2BA2BA2BAB2A$4.4B16.BA4B11.3BABA2BA
BA3B$5.4B15.5B14.10B$6.4B15.3B17.6B$7.4B13.5B18.2B$8.4B12.2AB2AB$
9.4B11.BA.2A2.2A$10.4B6.2A.A.A3.B2.A$11.4B5.A.2A.7A$12.3BA8.A$13.
3BA7.A.4A$14.3AB7.2A2.A!
