#CSYNTH guntrue_2311 costs 13696 cells.
#C period 2311 fullperiod 2311 bbox 128 by 107
#CLL state-numbering golly
x = 128, y = 107, rule = LifeHistory
38.2A$37.A.A$31.2A4.A$29.A2.A2.2A.4A$29.2A.A.A.A.A2.A4.2A$32.A.ABA
BAB7.A$32.A.AB2AB6.A$33.AB.2B7.5A$36.3B10.A$36.4B3.4AB$34.3B2AB3.A
2.AB$34.3B2AB4.4B$32.15B3.2A$31.14B2A.A2.A$30.11BA3B2A.2A$29.11BAB
AB.B$28.4B2.7BAB$13.2A12.4B5.7B$13.A12.4B4.9B$7.2A5.A10.4B5.2A4.4B
$7.A5.2A9.4B7.A5.4B$4.2A.A.3B11.4B5.3A7.4B$4.A2.A.2A2B2A7.4B6.A10.
4B$6.2A.A.2B2AB5.4B19.4B$9.A.4B5.4B21.4B$9.2A.4B3.4B23.4B$12.3BA6B
25.4B$3.2A7.2BABA4B27.4B25.A11.2A$3.A8.3BA4B29.4B23.A.A9.B2AB$2A.A
.B3.10B14.2A15.4B10.A3.A3.2A2.A.A9.3B$A2.3AB.2B2A7B14.A.A15.4B7.3A
2.A.A2.A2.2A.2A9.B.B$.2A2.BA3B2A7B16.A4.2A10.4B5.A5.A.A3.A.A2.B8.
5B$3.4A12B12.4A.2A2.A2.A9.2B2A3B.2A5.A.4A2.AB2A6.6B$3.A.2B3.7B.B2A
10.A2.A.A.A.A.2A10.2A7B7.A3.A.A.2A4.8B$4.3AB2.7B.BA.A11.BABABA.A
14.BA4B8.A2.BA.A2.13B$7.A4.4B5.A12.B2ABA.A15.5B7.A.2BA.A5.13B$2.5A
5.4B5.2A12.2B.BA15.7B6.2A.2BA5.15B$2.A10.4B17.3B19.6B10.3B4.15B$4.
A9.4B7.2A6.4B19.7B10.2B.B.17B$3.2A10.4B7.A6.B2A3B17.6B4.29B$16.4B
6.A.AB3.B2A3B17.7B2.16B2A13B$17.4B6.2AB.10B15.7B2.16B2A14B$18.4B7.
13B13.9B.27B3.B2A$19.4B6.14B12.36B4.A2.A$20.4B5.15B6.B4.BA5B2A11B
2.2B2.B2.7B5.2A.A$21.4B6.8B2.4B4.2AB.2B2A4B3A8B13.7B7.A$22.4B5.6B
5.4B3.2A3B2A3BA10B15.8B6.2A$23.4B3.9B4.4B3.B.B3A3BA9B17.2B2.4B$24.
4B.4B4.2A5.4B5.B2A2BA11B15.2A4.4B$25.7B5.A3.A3.4B4.B2A14B15.A6.4B$
26.5B7.4A4.4B3.2B2A11B.B2A14.A6.4B$26.5B16.4B2.12B4.BA.A12.2A7.4B$
25.7B4.4A8.15B9.A22.4B$24.4B.4B3.A2.3A7.15B8.2A22.4B$23.4B3.4B8.A
7.6B3A5B33.4B$22.4B5.4B6.A.A7.4BA2BA4B35.4B$21.4B7.4B5.A.AB7.3BABA
BA2B37.4B$20.4B9.4B5.A3B7.3BA3BAB38.4B$19.4B11.4B6.4B5.7BAB39.4B$
18.4B13.4B5.6B5.6B41.4B$17.4B15.4B4.7B.2B2.5B42.4B$4.2A10.4B17.4B
2.8B.9B43.4B$5.A9.4B19.24B43.4B$3.A10.4B21.17BA6B43.4B$3.5A5.4B5.
2A15.17BAB2.4B43.4B$8.A4.4B5.A15.19B4.4B43.4B$5.3AB2.7B.BA.A11.2A.
A17B7.4B43.4B10.2A$4.A.2B3.7B.B2A12.A.2A.15B9.4B43.4B9.A$4.4A12B
21.12B11.4B43.4B10.A$2.2A2.BA3B2A7B22.10B13.4B36.2A5.4B5.5A$.A2.3A
B.2B2A7B22.2B2A6B14.4B36.A5.4B4.A$.2A.A.B3.10B21.3B2A6B15.4B35.A.A
B.7B2.B3A$4.A8.8B21.10B3.2A.2A8.4B35.2AB.7B3.2B.A$4.2A7.9B20.8B.B
2A2.A.A10.4B36.12B4A$14.3B2.4B18.7B3.B2ABA2.A11.4B35.7B2A3BAB2.2A$
12.5B3.4B17.6B6.B.A.A13.4B34.7B2A2B.B3A2.A$12.2A7.4B17.6B4.2A2.A
15.4B33.10B3.B.A.2A$13.A8.4B16.8B.A2.2A17.4B31.8B8.A$10.3A10.4B14.
9BA.A.A19.4B29.9B7.2A$10.A13.4B4.A8.7B.2BAB.A20.4B27.4B2.3B$25.2B
2A3.3A6.6B3.2B2.A.2A18.4B25.4B3.5B$26.BABA5.A4.7B4.B.2A2.A19.4B23.
4B7.2A$27.A3B3.2A4.7B3.A.A2.A22.4B21.4B8.A$28.4B2.4B.8B3.2A2.A24.
4B19.4B10.3A$29.4B3.11B8.3A22.4B10.A6.4B13.A$30.4B.12B10.A23.4B7.
3A5.4B$31.16B35.4B5.A7.4B$32.14B10.A26.4B4.2A5.4B$33.10B11.3A27.9B
4.4B$32.12B9.A31.6B5.4B$31.16B6.2A30.8B2.4B$24.A6.24B28.15B$24.3A
3.23B30.14B$27.A2.24B29.13B$26.A.B.24B27.2AB.10B$26.2A27B25.A.AB3.
B2A3B$24.2A2.A22B.4B24.A6.B2A3B$23.A2.3A3B3.2B3.B7.2B3.4B22.2A6.4B
$24.A4.2B3.4B.3B5.BA2B3.4B30.3B$25.4A5.B2AB.B2AB4.A.A5.4B30.2B.BA$
27.A7.2A3.2A6.A7.4B28.B2ABA.A$29.A27.4B26.BABABA.A$28.2A28.4B23.A
2.A.A.A.A.2A$59.4B22.4A.2A2.A2.A$60.3BA25.A4.2A$61.3BA22.A.A$62.3A
B21.2A!
