#CSYNTH guntrue_4271 costs 13440 cells.
#C period 4271 fullperiod 4271 bbox 128 by 105
#CLL state-numbering golly
x = 128, y = 105, rule = LifeHistory
40.2A$39.A.A$33.2A4.A$31.A2.A2.2A.4A$31.2A.A.A.A.A2.A4.2A$34.A.ABA
BAB7.A$34.A.AB2AB6.A$35.AB.2B7.5A$38.3B10.A$38.4B3.4AB$36.3B2AB3.A
2.AB$36.3B2AB4.4B$34.15B3.2A$33.14B2A.A2.A$32.11BA3B2A.2A$31.11BAB
AB.B$30.4B2.7BAB$14.2A13.4B5.7B$14.A13.4B4.9B$9.2A5.A10.4B5.2A4.4B
$9.A5.2A9.4B7.A5.4B$6.2A.A.3B11.4B5.3A7.4B$6.A2.A.2A2B2A7.4B6.A10.
4B$8.2A.A.2B2AB5.4B19.4B$11.A.4B5.4B21.4B$11.2A.4B3.4B23.4B$4.2A8.
3BA6B8.2A15.4B$3.A.A8.2BABA4B9.A.A15.4B25.A11.2A$3.A8.B.3BA4B12.A
4.2A10.4B23.A.A9.B2AB$2A.AB.B3.11B9.4A.2A2.A2.A9.4B10.A3.A3.2A2.A.
A9.3B$.A.A.2AB.12B9.A2.A.A.A.A.2A10.4B7.3A2.A.A2.A2.2A.2A9.B.B$.A.
A.2A14B11.BABABA.A14.4B5.A5.A.A3.A.A2.B8.5B$2A.A2.5B2A8B12.B2ABA.A
15.2B2A3B.2A5.A.4A2.AB2A6.6B$A2.4A3BA2BA5B.B2A11.2B.BA17.BABA5B7.A
3.A.A.2A4.8B$.2A2.BAB.2B2A6B.BA.A.2A6.3B21.A5B8.A2.BA.A2.13B$3.2A
6.7B5.A.A6.4B22.5B7.A.2BA.A5.13B$3.A7.2B.4B5.A.A6.B2A3B19.7B6.2A.
2BA5.15B$5.A9.4B3.2A.A.AB3.B2A3B20.6B10.3B4.15B$4.2A10.4B6.2AB.10B
18.7B10.2B.B.17B$17.4B7.13B17.6B4.29B$18.4B6.14B16.7B2.16B2A13B$
19.4B5.15B15.7B2.16B2A14B$20.4B6.8B2.4B13.9B.27B3.B2A$21.4B5.6B5.
4B12.36B4.A2.A$22.4B3.9B4.4B6.B4.B2A4BA12B2.2B2.B2.7B5.2A.A$23.4B.
4B4.2A5.4B4.2AB.2BA6B2A8B13.7B7.A$24.7B5.A7.4B3.2A3BA5BA9B15.8B6.
2A$25.5B7.3A5.4B3.B.2BA3B2A9B17.2B2.4B$25.5B9.A6.4B5.BA15B15.2A4.
4B$24.7B16.4B4.2BABA12B15.A6.4B$23.4B.4B16.4B3.2B2A11B.B2A15.A5.4B
$22.4B3.4B16.4B2.12B4.BA.A13.2A6.4B$21.4B5.4B7.A8.15B9.A22.4B$20.
4B7.4B6.3A7.15B8.2A22.4B$19.4B9.4B8.A7.6B2A6B33.4B$18.4B11.4B6.A.A
7.4BAB2A4B35.4B$17.4B13.4B5.A.AB7.3B3A4B37.4B$16.4B15.4B5.A3B7.6B
2AB38.4B$15.4B17.4B6.4B5.8BA39.4B$4.A9.4B19.4B5.6B5.2BA3B41.4B$4.
3A6.4B21.4B4.7B.2B2.BA3B42.4B$7.A4.4B23.4B2.8B.9B43.4B$6.2A3.4B8.
2A15.24B43.4B$6.8B8.A.A16.16BA7B43.4B$2.2A4.5B5.2A2.A18.17B2A2.4B
43.4B10.2A$.A.BAB.5B6.A.A.2A12.2A2.19B4.4B43.4B9.A$.A.2AB2.5B6.2A.
A2.A10.A2.A17B7.4B43.4B10.A$2A.B.B3.5B3.3B.B2.2A12.2A.15B9.4B36.2A
5.4B5.5A$A2.2A2B2.5B3.4B22.12B11.4B36.A5.4B4.A$.2A2.AB.13B.B21.10B
13.4B35.A.AB.7B2.B3A$3.2ABA13B.B2A20.2B2A6B14.4B35.2AB.7B3.2B.A$.
2A2.A5BA10B2A19.3B2A6B15.4B36.12B4A$A2.A2.4BABA7B.2B21.10B16.4B35.
7B2A3BAB2.2A$.2A3.4BABA7B24.8B.B2A.A13.4B34.7B2A2B.B3A2.A$7.4BA7B
24.7B3.B2AB3A12.4B33.10B3.B.A.2A$9.9B3.2A20.6B6.B4.A12.4B31.8B8.A$
6.B.10B.B2.A21.6B4.2A.3A14.4B29.9B7.2A$5.2A12B3A22.5B4.A2.2A17.4B
27.4B2.3B$5.2AB.8B.BA23.8B.A.A21.4B25.4B3.5B$6.B3.6B4.2A12.A8.8BA.
A.2A.A18.4B23.4B7.2A$11.4B6.A12.3A6.6B.2BAB.A.2A19.4B21.4B8.A$12.
4B4.A16.A4.7B2.2B2.A23.4B19.4B10.3A$13.4B3.2A14.2A4.7B3.B.2A24.4B
10.A6.4B13.A$14.4B18.4B.8B2.A.A2.2A23.4B7.3A5.4B$15.4B19.11B2.2A2.
A2.A23.4B5.A7.4B$16.4B17.12B7.2A25.4B4.2A5.4B$17.2B2A16.12B35.9B4.
4B$18.BABA15.11B37.6B5.4B$19.A3B13.9B12.2A26.8B2.4B$20.4B9.2B.10B
11.A25.15B$21.4B7.16B.B4.BA.A25.14B$22.4B3.23B2.B2A26.13B$23.32B
26.2AB.10B$24.32B24.A.AB3.B2A3B$25.31B24.A6.B2A3B$26.30B23.2A6.4B$
28.28B32.3B$29.17B5.B.4B32.2B.BA$29.14B11.4B30.B2ABA.A$29.14B12.4B
28.BABABA.A$33.3B4.2B14.4B25.A2.A.A.A.A.2A$34.B6.2B14.4B24.4A.2A2.
A2.A$40.B2AB14.3BA27.A4.2A$41.2A16.3BA24.A.A$60.3AB23.2A!
