#CSYNTH guntrue_6426 costs 3055 cells.
#C period 6426 fullperiod 6426 bbox 47 by 65
#CLL state-numbering golly
x = 47, y = 65, rule = LifeHistory
25.2A$25.A$26.3A$28.A$29.3B$4.4B16.9B$4.4AB9.4B.11B$3.A4BA7.18B$3.
A2B.A.AB4.18B$4.A3.ABAB3.18B$9.BAB3.19B$8.2BAB2.8BA11B$7.A2BAB.7B
2ABA11B$8.2A2.6BABA14B2.2A$12.5B4A4BA8B.2B2AB$13.3B2A7B2A6B2.4B$
13.4BAB3A2B2AB2A3B3.3B$14.4BAB3A3B3A3B3.B3A3.B$14.6B3A4B2A3B4.2A.A
.B2A$12.19B7.2A2B2A$5.A5.13B.4B9.2A3B$4.A.A4.13B15.4B$4.A.A5.7B2.B
$2.3A.2A4.7B3.4B$.A4.B6.5B4.3BAB$2.3AB2A6.3B4.4ABA$4.A.2A5.4B4.3A.
A.AB$6.5B2.4B5.B3.ABAB$8.10B9.A2B$6.3B2A3B.4B7.2A2B$4.4BA2BA8B5.B
2A2B$4.4BABA10B5.2A$4.4B3A5B2.4B13.A$2.2AB.9B4.4B10.3A$.A.AB2.8B5.
4B8.A$.A7.4B8.4B7.2A$2A5.A14.4B3.5B$6.A2B14.4B2.3B9.2A$6.A3BA13.9B
8.A.A$8.A.3A12.8B.B8.A$8.BA3.A12.11B3.B.BA.2A$9.2AB2A12.12B.B2A.A.
A$7.B3A.A13.14B2A.A.A$7.BA3.AB12.8B2A5B2.A.2A$7.BA2.BAB10.2AB.5BA
2BA3B4A2.A$7.B3A.A10.A.AB.6B2A2B.BAB2.2A$9.2A12.A5.7B6.2A$8.B2AB3.
A6.2A5.4B.2B7.A$9.A.A3.3A10.4B10.A$10.A7.A8.4B11.2A$17.2A7.4B$17.
5B3.4B$8.2A9.3B2.4B$7.A.A8.9B$7.A8.B.8B$4.2A.AB.B3.BA9B$5.A.A.2AB.
3A9B$5.A.A.2A2B2A10B$4.2A.A2.5BA9B$4.A2.4A3BA8B.B2A$5.2A2.BAB.BA8B
.BA.A$7.2A6.7B5.A$7.A7.2B.3BA5.2A$9.A9.3BA$8.2A10.3AB!
