#CSYNTH guntrue_1990 costs 5538 cells.
#C period 1990 fullperiod 1990 bbox 78 by 71
#CLL state-numbering golly
x = 78, y = 71, rule = LifeHistory
37.2A$36.B2AB11.2A.A.2A$37.3B4.A.2A.A2.A.2A2.A3.A$36.B.B5.2A.A.2A.
A4.A.A2.3A$36.5B8.B2.5A.A6.A$36.6B6.2ABA4.A7.2A$36.8B4.2A.A.AB2.A
6.5B$37.13B2.A.A2B.A7.4B$35.13B5.A2B.2A7.5B$34.15B3.3B11.6B$34.15B
3.2B12.6B.B$33.17B.2B2A10.6B.B2A$33.20BABA6B4.7B2A$32.13B2A6BA9B2.
6B.2B$31.14B2A16B2.6B$30.2AB3.27B.3BA5B3.B$29.A2.A4.31BA5B.B2A$28.
A.2A5.6B3.B2.2B2.9B2A2BA2BA6B2A$28.A7.6B14.8BA4BA7B$27.2A6.9B14.4B
3A3B2A7B$34.4B4.2A15.8BA7B$33.4B5.A15.17B$32.4B7.3A12.17B$31.4B10.
A10.2AB.3B.10B$30.4B21.A.AB5.9B$30.4B21.A9.8B$29.5B20.2A8.9B2.B$
26.9B29.9B.B2A$8.2A3.2A11.9B30.10B2A$8.A.A.A.A11.9B31.8B.B$10.A.A
13.10B29.8B$5.2A2.A.2BA11.12B29.7B$4.A.A2.A.ABA10.13B8.2A20.5B$3.A
2.A.2A.A13.11B9.A21.4B$4.3A2.AB2A13.12B4.BA.A21.4B$7.2A2B2AB12.15B
.B2A10.A10.4B$6.A2.A.2A13.17B12.3A7.4B$6.2A2.2AB13.17B15.A5.4B$10.
2B11.B.17B15.2A4.4B$10.2B10.2A19B14.9B6.2A$11.B10.2AB.19B14.6B7.A$
10.2AB10.B4.20B2.2B2.B3.6B5.2A.A$.2A6.A2BAB5.2A7.36B4.A2.A$2.A4.3B
2A3B4.A8.9B.27B3.B2A$2.A.AB.8B.BA.A9.7B2.16B2A14B$3.2AB.8B.B2A10.
7B2.16B2A13B$5.12B12.6B4.29B$5.12B12.7B10.2B.B.17B$5.12B3.A8.6B10.
3B4.15B$7.10B3.3A5.7B6.2A.2BA5.15B$9.7B7.A5.5B7.A.2BA.A5.13B$9.8B
5.2A4.6B8.A2.BA.A2.13B$8.5B.4B4.14B7.A3.A.A.2A4.8B$8.6B.4B5.9B.2A
5.A.4A2.AB2A6.6B$7.6B3.4B2.8B4.A5.A.A3.A.A2.B8.5B$3.B2.3BA3B4.15B
3.3A2.A.A2.A2.2A.2A9.B.B$.7BABA2B5.14B5.A3.A3.2A2.A.A9.3B$.7BABA2B
6.13B17.A.A9.B2AB$9BA3B7.10B.B2A16.A11.2A$11B.B2A7.3B2AB3.BA.A$.9B
2.BA.A6.3B2AB6.A$.7B7.A8.4B6.2A$2.6B7.2A7.3B$3.4B14.AB.2B$4.4B12.A
.AB2AB$5.4B11.A.ABABAB$6.4B7.2A.A.A.A.A2.A$7.4B6.A2.A2.2A.4A$8.3BA
7.2A4.A$9.3BA12.A.A$10.3AB12.2A!
