#CSYNTH guntrue_1356 costs 3196 cells.
#C period 1356 fullperiod 1356 bbox 68 by 47
#CLL state-numbering golly
x = 68, y = 47, rule = LifeHistory
2.A9.A$2.3A5.3A$5.A3.A$4.2A.B.2A$4.7B$6.3B$4.7B$3.4BA4B8.2A$3.3BAB
A3B3.2A2.A2.A$4.3BA3B4.A.A2.A.A$4.7B5.B.2A.A42.2A$3.9B3.2B2.A37.3B
4.A$.17B.A37.5BA.A$.15B2A.2A35.6B2A$2BA13B2A.A36.6B$.ABA8BA2B.B4.A
33.6B$BABA7BABAB5.2A32.8B$.BA8B2A3B4.A31.10B$3.13B.BA.A28.12B$5.
11B.B2A28.4B2A7B4.B$5.2B2A9B29.4B2AB2A7B.B2A$5.BA2BA8B13.2A4.2A8.
3BA4BA9B2A$6.B2A9B12.B2AB2.B2AB6.3B3A3BA10B$7.11B12.4B3.3B5.3BA4B
2A9B$10.7BA13.2B5.B5.4BABA13B$10.6B2AB10.5B2.B2A2B2.6B2A15B$9.5B2.
ABAB9.5B.2B2A2B.8B2A8B4.2A$9.6B2.4B6.13B.10B2A7B4.A$8.6B4.4B5.7B2A
7B.7B2A7B5.3A$4.B2.3BA3B5.4B4.7B2A10B.13B7.A$2.7BABA2B6.4B3.8B2A8B
.2B2A2B.5B$2.7BABA2B7.15B2A6B2.2B2AB2.5B$.9BA3B8.14BABA4B5.B5.2B$.
11B.B2A7.9B2A4BA3B5.3B3.4B$2.9B2.BA.A4.10BA3B3A3B6.B2AB2.B2AB$2.7B
7.A3.2A9BA4BA3B8.2A4.2A$3.6B7.2A2.2AB.7B2AB2A4B$4.4B13.B4.7B2A4B$
5.4B17.12B$6.4B15.10B$7.4B14.8B$8.4B14.6B$9.4B12.6B$10.4B9.2A6B$
11.3BA7.A.A5B$12.3BA6.A4.3B$13.3AB4.2A!
