#CSYNTH guntrue_868 costs 4828 cells.
#C period 868 fullperiod 868 bbox 68 by 71
#CLL state-numbering golly
x = 68, y = 71, rule = LifeHistory
20.A16.A$20.3A13.A.A$23.A12.A.A2.2A3.A$22.2A11.2A.2A2.A2.A.A$22.6B
8.B2.A.A3.A.A$24.5B6.2ABA2.4A.A$24.7B4.2A.A.A3.A$24.13B2.A.AB2.A4.
A9.A$22.13B5.A.A2B.A3.3A5.3A$21.15B5.A2B.2A6.A3.A$21.15B4.3B9.2A.B
.2A$20.17B.B.2B10.7B$20.29B5.3B$19.13B2A16B3.5B$18.14B2A16B2.6B$
17.2AB3.27B.7B8.2A$16.A2.A4.35B7.A$15.A.2A5.7B2.B2.2B2.20B3.BA.A$
15.A7.7B13.18B2.B2A$14.2A6.8B15.19B$7.2A12.4B2.2B17.16BAB$6.B2AB
10.4B4.2A15.16BABA$7.2B10.4B6.A15.16B2A$8.2B8.4B5.A15.2AB.12B.3B$A
6.4B6.4B6.2A13.A.AB3.9B$3A3.2AB3A4.4B22.A5.4B2.4B$3.A2.5A4.4B4.2A
16.2A4.4B5.3B$2.2A2.3BABA2.4B5.A22.4B6.B2A$2.7B2A6B3.BA.A13.2A6.4B
7.BA.A$4.4B2A9B.B2A15.A5.4B9.B2A$4.3BAB2A3B2A5B15.A6.4B8.4B$5.BA2B
A11B15.2A4.4B9.2A$2.B.2BA3B2A8B17.2B2.4B5.A5.A$.2A4B6A8B15.8B5.A.A
.3A$.2AB.6B2A10B13.7B6.A.A.A$2.B4.19B2.2B2.B2.7B5.2A.A$7.35B4.A2.A
$8.7B.27B3.B2A$7.7B2.16B2A14B$8.2A2B4.16B2A13B$8.2A4B3.29B$12.2A
10.2B.B.17B$12.A10.3B4.15B3.A$13.3A3.2A.2BA5.15B2.A.A$15.A3.A.2BA.
A5.13B3.A.A$20.A2.BA.A2.13B4.2A.A.2A$21.A3.A.A.2A4.8B.BA3.A2.A$19.
A.4A2.AB2A6.7B5A.A$18.A.A3.A.A2.B7.4B2.2A2B.B.2A$18.A.A2.A2.2A.2A
5.4B3.2A.BAB.A$19.A3.2A2.A.A5.4B4.BABA.A.A$27.A.A4.4B4.A.A.A.2A$
23.2A3.A4.4B3.3A.A2.A$22.B2AB6.4B3.A5.A.A$22.4B5.4B4.2A5.A$23.2B5.
4B$15.A7.4B2.4B$14.A.A5.5B.4B$15.A.14B$16.14B$16.14B$16.15B$15.3B
2A12B$15.3B2A13B$13.2AB.11B2.4B$12.A.AB2.8B5.4B$12.A5.10B4.4B$11.
2A5.B.B5.2A5.4B$19.3B4.A7.3BA$18.B2AB5.3A5.3BA$19.2A8.A6.3AB!
