#CSYNTH guntrue_231 costs 3672 cells.
#C period 231 fullperiod 231 bbox 68 by 54
#CLL state-numbering golly
x = 68, y = 54, rule = LifeHistory
21.2A.A.2A15.2A5.2A$20.A2.2A.A2.A.2A.A7.A.2BAB.A2.A$19.A.A4.A.2A.A
.2A7.2A.BA2BA.2A$20.A.5A2.B8.6B2.A2.A.A$22.A4.AB2A6.5B4.B3A.AB$21.
A2.BA.A.2A4.7B5.2A.3BA$20.A.2BA.A2.13B8.A3B$15.A4.2A.2BA5.13B7.A.
3A$13.3A8.3B3.15B7.4AB$12.A12.2B3.4BABA8B8.B.A$12.2A10.4B.3BA2B2A
9B$8.2A4B3.14B3A12B$8.2A2B4.31B$7.7B2.32B$8.7B.27B3.B2A$7.35B4.A2.
A$2.B4.19B2.2B2.B2.7B5.2A.A$.2AB.18B13.7B7.A$.2A18B15.8B6.2A$2.B.
16B17.2B2.4B$5.16B15.2A4.4B$4.17B15.A6.4B12.2A$4.15B.B2A14.A6.4B
10.B2AB$2.15B3.BA.A12.2A7.4B10.2B$2.2A2.6B2.4B5.A22.4B8.2B$3.A2.5B
4.4B4.2A22.4B6.4B6.A$3A3.6B4.4B28.4B4.6B3.3A$A6.4B6.4B22.2A4.4B4.
5B2.A$8.2B8.4B22.A5.4B2.6B2.2A$7.2B10.4B6.2A13.A.AB3.15B$6.B2AB10.
4B5.A15.2AB.15B$7.2A12.4B6.A15.17B$22.4B4.2A15.16B$23.4B2.2B17.16B
.B$16.2A6.8B15.18B2A$17.A7.7B13.18B.B2A$17.A.2A5.7B2.B2.2B2.19B4.B
$18.A2.A4.35B$19.2AB3.27B.7B$20.32B2.7B$6.2A4.2A.2A4.31B4.2B2A$7.A
4.A.2A.A4.12B3A14B3.4B2A$7.A.2A.A4.A4.9B2A2BA3B.B.2B10.2A$5.2A2.A.
A.4A.2A3.8BABA4B4.3B10.A$6.A.A2.A.A2.B.A.A2.15B5.A2B.2A3.3A$5.A2.
2ABAB2A2B2A.A3.13B5.A.A2B.A3.A$6.2A2.BAB2ABA.A.2A4.13B2.A.AB2.A$8.
2A2.3A2B2AB.2BA.8B4.2A.A.A3.A$8.A5.AB3.3ABA7B6.2ABA2.4A.A$9.A5.4A
2.2BA3.4B7.B2.A.A3.A.A$8.2A8.A.2A6.4B5.2A.2A2.A2.A.A$15.2A.A.A8.3B
A5.A.A2.2A3.A$15.2A.A.A9.3BA4.A.A$19.A11.3AB4.A!
