#CSYNTH guntrue_8610 costs 5159 cells.
#C period 8610 fullperiod 8610 bbox 67 by 77
#CLL state-numbering golly
x = 67, y = 77, rule = LifeHistory
27.A11.A$9.A17.3A7.3A17.A$9.3A12.A5.A5.A5.A12.3A$12.A11.6A.A3.A.6A
11.A$11.2A16.A.A3.A.A16.2A$11.5B8.2A2BA2.2A.2A2.A2B2A8.5B$13.5B6.A
BA2B2A5.AB2A2BA6.5B$11.7B7.3BA.A5.A.A3B7.7B$9.11B7.2BA7.A2B7.11B$
9.12B7.B9.B7.12B$10.12B3.3B11.3B3.12B$12.11B2.3B11.3B2.11B$13.5BA
9B11.15B$8.3B.B.4BA11B7.16B.B.3B$6.10BAB2A10B7.24B$5.10B2A3B2A8B7.
25B$5.8BA2BA2BA2BA6B9.8B3A13B$5.8BA3B3AB3A4B11.7BABA10BA2B$4.13B2A
3BA4B13.6BA2BA8B3A2B$4.11BA5BA6B11.9B2A8B2A3B$4.11B2A2BABA6B11.19B
2AB2A$4.24B11.19B2ABAB$5.23B11.20BABA$4.23B13.19B2A2B$3.24B13.24B$
2.25B13.25B$2.24B15.24B$2.16B.B.3B19.3B.B.16B$4.14B31.14B$4.3B2.
11B2.B21.B2.11B2.3B$4.3B3.10B.B2A19.2AB.10B3.3B$3.B7.11B2A19.2A11B
7.B$2.2AB7.8B.2B21.2B.8B7.3A$.A.AB2A6.7B21.A5.7B6.4A.A$.BA3B3A5.7B
18.3A4.7B5.3A4BA$2.3A4.A5.6B17.A7.6B5.A4.A2B$.2A.B3A.A5.5B6.2A10.
2A7.5B5.A.3AB.BA$AB.2A2.A.2A4.6B6.A7.5B6.6B4.2A.A2.BA.BA$AB.AB2A4.
A4.6B5.A.AB3.2A2B7.6B4.A4.2A2B.BA$.3AB.A.2A.A2.9B5.2AB2.B2A3B5.9B
2.A.2A.A.3BA$3.2A.A.A.A3.2A4.4B5.10B4.4B4.2A3.A.A.A.2A$4.2BA.A6.A
5.4B5.10B2.4B5.A6.A.BAB$3.2B.B.A3.3A7.4B4.9B2.4B7.3A3.A.A.2B$2.A2B
.2A4.A10.4B4.13B10.A4.2A.3A$.A.4A17.4B3.8BA3B17.2B2A.A$A.A3.A18.4B
3.6BA3B18.B3.B.A$A.5A.A17.4B.B2.4B3A17.A.5A.A$.A5.2A18.2BA10B18.2A
5.A$2.4A22.2B2A7B22.4A$4.A24.2A8B23.A$6.A22.9B22.A$5.2A21.9B23.2A$
29.9B$19.B10.7B$18.2AB2.BA5.8B$17.B2AB.BA.A4.9B$17.B.5BA5.10B12.A$
16.6B.B7.3B3.4B9.3A$12.B3.5B17.4B7.A11.A$11.2AB.2A5B17.4B6.2A9.A.A
$11.2A2B2A6B9.A7.4B.6B9.A2.A$12.B.10B8.3A6.8B8.2A.4A$16.2B2.5B10.A
6.10B5.A.A$16.B4.5B8.2A5.B.10B6.A.A3.2A$14.4B4.5B7.18BAB4.6A2.A$
10.2A2.5A4.5B8.15BABA3BA.2B3.2A$10.A2.A.2B2A5.5B6.2B2A12BABA.2BA3B
ABA$11.A.A2B.B7.5B4.2BA2BA12BA4.A3B.2B2A$12.A2.3B8.5B3.3B2A4B2.7B
7.A2.BA2.A$13.3AB2A8.14B4.7B13.2A$16.A2B9.12B6.3B$13.3A3B10.10B7.
5B$12.A2.3A2B10.9B10.2A$12.2A2.B4A10.9B9.A$17.B2A.A10.4BA2B11.3A$
19.BA12.4BAB13.A$35.3AB!
