#CSYNTH guntrue_1380 costs 2009 cells.
#C period 1380 fullperiod 1380 bbox 49 by 41
#CLL state-numbering golly
x = 49, y = 41, rule = LifeHistory
34.2A4.2A$34.A.A2.A.A$36.A2BA$34.BA4BAB$34.B6AB$.2A32.B4AB$.2AB33.
2B5.B$3.B2.B.9B.B3.B2AB11.B5.3B$.12B2A6B.4A8.4B5.3B$2A9B2A2BA6BABA
BA6.4BA4.2BA2B$2A9B6A4B3AB2A5.B4A2B3.BABAB$.B.8B4A5BAB2A.B6.B2ABA
2B2.BA3BAB$3.17BAB2A8.AB2A2B3.BA3BAB$18.3B.B.3B4.11BA3BA2B$3.17BAB
2A3B5.10BA3BA2B$.B.8B4A5BAB2A9B2A5B.BA3BAB$2A9B6A4BA2BA13B3.BA3BAB
$2A9B2A2BA6B2A13B5.BABAB$.12B2A7B2A6B.4B7.2BA2B$3.B2.B.9B.3B.B.5B
14.3B$.2AB20.4B15.3B$.2A20.4B17.B$12.2A8.4B$11.B2AB6.4B$11.4B5.4B$
12.2B5.4B$4.A7.4B2.4B$3.A.A5.5B.4B$4.A.14B$5.14B$5.14B$5.15B$4.3B
2A12B$4.3B2A13B$2.2AB.11B2.4B$.A.AB2.8B5.4B$.A5.10B4.4B$2A5.B.B5.
2A5.4B$8.3B4.A7.3BA$7.B2AB5.3A5.3BA$8.2A8.A6.3AB!
