#CSYNTH guntrue_6300 costs 3111 cells.
#C period 6300 fullperiod 6300 bbox 51 by 61
#CLL state-numbering golly
x = 51, y = 61, rule = LifeHistory
8.A28.2A3.2A$8.3A26.A.A.A.A$11.A9.2A16.A.A$10.2A9.A12.2A2.A.ABA$
10.6B2.BA.A11.A.A2.A.3B$12.5B.B2A11.A2.A.2A.A$11.8B7.2A5.3A2.A3B$
7.2B.9B8.A8.3A3BA$6.7B3A3B5.3A8.A2.A.2B$6.6BA3BAB5.A3.3A5.2A2.3A$
5.6BA5BAB3.A.ABA2.A9.2B$4.7BA5BAB3.A.A.2BA10.2B$4.7BA5BAB2.2A.A.2A
11.B$4.8BA3BA2.A2B.3A2B10.B2A$4.9B3AB2.3BA.2B4.2A5.2B2AB6.2A$5.11B
3.3BA8.A4.8B4.A$6.10B3.A2B.2A6.A.AB.8B.BA.A$3.2B2.4B.5B4.2A.3A5.2A
B.4B2A2B.B2A$.BA2BA2B6.4B4.A4.A6.5BA2BA3B$3A2B3A7.4B3.A.3A7.5BA2BA
3B$B2A2B2AB8.4B3.2A5.A3.6B2A4B$2.A2BA11.4B7.3A3.10B$A.A2.A.A10.4B
5.A7.7B$2A4.2A11.4B4.2A5.8B$20.9B4.4B.5B$20.7B5.4B.6B$21.8B2.4B3.
6B$19.15B4.3BA3B2.B$18.15B5.2BABA7B$18.14B6.2BABA7B$15.2AB3.10B7.
3BA9B$14.B3A5.B2A3B7.2AB.11B$14.B2A.A4.B2A3B6.A.AB2.9B$14.2B.A.A3.
4B8.A7.7B$16.A2.A4.3B7.2A7.6B$17.2A6.2B.BA14.4B$24.B2ABA.A12.4B$
23.BABABA.A11.4B$21.A2.A.A.A.A.2A7.4B$21.4A.2A2.A2.A6.4B$25.A4.2A
7.4B$23.A.A12.4B$23.2A12.4B$36.4B$21.4A10.5B$21.A3.A8.5B7.A$24.2A
7.7B5.BAB$24.5B3.4B.B3A4.3B$15.2A9.3B2.4B3.3B3.2BA2B$14.A.A8.9B3.A
3BA2.BABAB$14.A8.B.8B4.B3AB.7B$11.2A.AB.B3.BA9B6.4B.2B3A2B$12.A.A.
2AB.3A9B6.3B.9B$12.A.A.2A2B2A10B6.3B.9B$11.2A.A2.5BA9B6.4B.2B3A2B$
11.A2.4A3BA8B.B2A3.B3AB.7B$12.2A2.BAB.BA8B.BA.A2.A3BA2.BABAB$14.2A
6.7B5.A3.3B3.2BA2B$14.A7.2B.3BA5.2A2.3A4.3B$16.A9.3BA9.B5.BAB$15.
2A10.3AB15.A!
