#CSYNTH guntrue_1354 costs 7546 cells.
#C period 1354 fullperiod 1354 bbox 98 by 77
#CLL state-numbering golly
x = 98, y = 77, rule = LifeHistory
38.2A11.A$37.B2AB9.A.A$38.3B9.A.A2.2A3.A$37.B.B9.2A.2A2.A2.A.A$37.
5B8.B2.A.A3.A.A$37.6B6.2ABA2.4A.A$37.8B4.2A.A.A3.A$38.13B2.A.AB2.A
15.2A$36.13B5.A.A2B.A14.A$35.15B5.A2B.2A11.BA.A$35.15B4.3B12.2A.B
2A$34.17B.B.2B12.B2A2B$34.29B6.4B$33.13B2A16B3.6B21.A$32.14B2A16B
2.6B20.3A$31.2AB3.27B.7B19.A$30.A2.A4.35B11.A6.2A$29.A.2A5.7B2.B2.
2B2.20B9.A.A3.4B$29.A7.7B13.18B9.A.5B$28.2A6.8B15.16B10.7B$35.4B2.
2B17.14B11.4B2A4B.B$34.4B4.2A15.16B10.4B2A3B.B2A$33.4B6.A15.14B.B
2A8.11B2A$32.4B6.A14.2AB.3B3.6B.BA.A7.9B.2B$31.4B7.2A12.A.AB7.6B4.
A2.2B2.10B$30.4B22.A9.7B4.A.2A13B$29.4B22.2A4.2A2.8B3.2A.2A13B$28.
4B28.A.A12B5.2B.11B$27.4B29.A3.11B8.9B.B2A$26.4B15.2A12.2A3.4B2A5B
10.7B.BA.A$25.4B15.A.A18.3B2A5B9.7B5.A$24.4B10.2A4.A20.10B8.8B5.2A
$23.4B9.A2.A2.2A.4A17.9B7.4B2.4B$22.4B10.2A.A.A.A.A2.A17.9B6.4B4.
4B$21.4B14.A.ABABAB19.8B6.4B6.4B$20.4B15.A.AB2AB21.8B4.4B8.4B$19.
4B17.AB.2B23.6B4.4B10.4B$18.4B21.3B22.6B3.4B12.4B$17.4B22.4B6.2A
13.6B2.4B14.3BA$16.4B21.3B2AB6.A13.7B.4B16.ABA$3.2A10.4B22.3B2AB3.
BA.A13.6B.4B18.2A$4.A9.4B21.10B.B2A15.9B20.B$2.A10.4B21.13B17.8B$
2.5A5.4B5.2A14.14B16.8B$7.A4.4B5.A2.A11.15B7.A8.7B$4.3AB2.7B.BA.A.
2A10.4B2.8B9.3A6.6B$3.A.2B3.7B.B2A.A11.4B5.6B12.A4.7B$3.4A12B3.A
10.4B4.9B10.2A4.7B$.2A2.BA3B2A7B3.3A7.4B5.2A4.4B9.4B.8B$A2.3AB.2B
2A7B6.A5.4B7.A5.4B10.11B4.A$2A.A.B3.10B5.2A4.4B5.3A7.4B8.12B3.A.A
6.A$3.A8.8B4.9B6.A10.4B7.12B2.2BAB4.3A$3.2A7.9B5.6B19.4B6.11B4.2B
4.A$13.3B2.4B2.8B20.4B4.9B4.B3.3B2.2A$11.5B3.15B18.18B2.3B.8B$11.
2A7.14B18.24B.5B$12.A8.13B17.7BA23B$9.3A10.10B.B2A15.6B2A23B$9.A
14.3B2AB3.BA.A10.2A.7BABA22B$24.3B2AB6.A10.A.A32B$26.4B6.2A10.AB.
30B$26.3B23.28B$23.AB.2B25.17B5.B.4B$22.A.AB2AB23.17B9.B2AB$22.A.A
BABAB21.18B10.2A$19.2A.A.A.A.A2.A19.16B$19.A2.A2.2A.4A18.19B$21.2A
4.A22.16B.3B$27.A.A21.20B$28.2A23.19B$53.19B$53.19B$54.16B.B2A$55.
6B.2B.2B.B2.BA.A$55.5B.4B9.A$54.B2AB3.B2AB9.2A$55.2A5.2A!
