#CSYNTH guntrue_1590 costs 3726 cells.
#C period 1590 fullperiod 1590 bbox 54 by 69
#CLL state-numbering golly
x = 54, y = 69, rule = LifeHistory
25.2A$24.A2.A$19.2A2.A.2A.A$19.A3.A2.A.A$20.3A.3A.2A$22.A.A.A2.A$
22.5B2A$23.A3B$13.2A7.B2AB3A2.2A$13.ABA6.BABAB2.A2.A$14.A3B4.AB2A
2.2A.A$15.B3A3.3B5.A.3A$14.3B4A2B7.A4.A$14.AB.A2.ABA6.2A.2A.3A$15.
2A4.2B4.BAB.BA.A3.A$22.BAB2.BA2B5.A2.A$21.BABA.2BA3BABAB2A.A$18.2A
.B2A4BAB.4B4.A.A$18.2A7B.3ABA.2AB2A.2A$19.7B2.BA2.A.A.A.A$14.2A3.
7B4.2A2.A.A.A4.A$7.2A3.2B2AB3.6B5.A.A.A.A3.3A$6.B2AB2.4B3.8B4.A.A
2.A3.A8.2A$7.2B3.10B2.4B4.2A6.A.2A5.A$8.2B2.10B3.4B10.2A.A.A5.A$7.
2B2A11B4.4B11.B2.A4.2A$4.B.3B2A12B4.4B10.3BA.2A$3.2A18B5.4B8.A2B.A
.A.5A$3.2AB.15B7.4B6.BA.A.A.B3.B2.A$4.B3.4B2A9B7.4B5.2B2AB.B5A.2A$
8.3BABA11B6.4B3.3BA3BA.A.B$9.4BA14B2.11BA2B3.BA2B$9.32BA2B3.BA2B$
8.33BA3BA.A.B$6.28B2A2B.2B2AB.B5A.2A$6.28B2A3.BA.A.A.B3.B2.A$4.31B
5.A2B.A.A.5A$4.19B3.4B.3B7.3BA.2A$4.19B4.4B10.B2.A4.2A$5.16B.B2A3.
4B7.2A.A.A5.A$6.15B.BA.A3.4B7.A.2A5.A$2A2.16B5.A4.4B6.A8.2A$A.A.2A
B.14B3.2A4.4B6.3A$2.AB2AB.12B2A.A.A2.A3.4B7.A$.A2.B4.8B2.B2AB2A2.
2A4.4B$.2A.2A4.6B5.B12.4B$2.A.A6.5B4.2A.2A9.5B$2.A.A4.9B3.A.A3.B7.
5B$3.A5.2A4.B2A3.A.A2.3A5.7B$10.A5.A5.A3.3A4.BA2B.4B$7.3A7.3A5.2BA
2B3.ABA3.4B$7.A11.A5.2BA2B2.A3BA3.4B$24.3BA3B.ABABA4.4B$24.2BABA2B
.4B6.4B$23.9B.3B7.4B$23.9B.3B8.4B$24.2BABA2B.4B9.4B$24.3BA3B.ABABA
9.4B$25.2BA2B2.A3BA10.4B$25.2BA2B3.ABA12.4B$26.3A4.BAB13.4B$26.3A
5.B14.4BA$27.B4.B4.5BA4.B2.BABA$30.11BABA6B2.2A$30.10BA3B2A4B3.B$
29.2A9BA3B2A3B2A$29.2AB.7BA3B2AB.B2A$30.B4.6BABAB4.B$37.5BA!
