#CSYNTH guntrue_1335 costs 5655 cells.
#C period 1335 fullperiod 1335 bbox 87 by 65
#CLL state-numbering golly
x = 87, y = 65, rule = LifeHistory
46.A13.2A$46.3A11.A.A$49.A13.A3.2A$48.2A11.2A.A.A.A$48.5B6.BA.A.A.
A$50.3BAB4.B5A.AB$49.3BABA7B.A3BAB$48.4BA2BA2B.2B4A3BAB$49.4B2A3B
2.2A2.A3BAB$50.6B11.2BAB$51.5B12.A.A$50.7B12.A$49.4B.4B$48.4B3.4B
9.A5.BAB$47.4B5.4B7.A.A3.3A2B5.2A$46.4B7.4B6.A.A2.BA2.2AB3.A.A$45.
4B9.4B4.2A.2A.2AB2A.AB2.A$44.4B11.4B3.A3.B2.B3.B2AB2A$43.4B13.4B3.
3A.2A.3A3.A$42.4B8.2A5.4B4.2A2B2A2.3A.2A$41.4B9.A7.4B4.4B2.A2.A.A.
A$40.4B12.A6.4B3.4B3.2A3.A$20.A18.4B9.4A.A6.4B4.2B$19.A.A3.2A11.2A
2B9.A3.A.A7.4B2.3B$18.A2.A3.A11.ABAB10.A2BA.B2AB.B4.4B.4B$18.A.A.
2A.A10.3BA8.2A.A.B.2A.B2ABA4.9B$17.2A.A.A.A10.4B9.A2.A.3ABA3BA.A4.
7B$15.A2.A.2A2B10.4B12.2A.A3.A2B.BA3.11B5.A.A$15.2A2.4B10.4B17.3A
2.A3.15B3.A.2A$19.7B6.4B21.2A4.15B3.A$20.8B3.4B19.2A.A4.15B3.2A.4A
$21.8B.4B3.2A15.A2.A3.16B.A2B.2A2.A$21.12B4.A17.2A3.11B2A3B2.3BA$
18.2B.11B2.BA.A12.2A7.4B3.5B2AB4.3BA.2B$17.2A14B.B2A14.A6.4B8.6B2.
A2B.3AB$17.2A16B15.A6.4B13.2A4.2A.A.2A$18.2B.14B15.2A4.4B14.A6.A.A
.2B$21.13B17.2B2.4B16.3A.A.A.A2BA$18.2B.14B15.8B6.2A11.2A.A.A.AB$
17.2A18B13.7B7.A15.A.2AB$17.2AB.19B2.2B2.B2.7B5.2A.A12.4A.2B$18.B
2.35B4.A2.A13.A3.AB$21.8B.27B3.B2A15.3A.A$21.7B2.16B2A14B18.A.3A$
21.7B2.16B2A13B24.A$21.7B3.29B24.2A$18.AB.6B11.4B.17B$11.A5.A.A7B
12.2B3.15B$11.3A4.A8B11.3B3.15B$14.A4.B.6B7.2A.2BA5.13B$13.2A7.5B
7.A.2BA.A2.13B$13.5B3.6B8.A2.BA.A.2A4.8B$4.2A9.3B2.5B.B2A7.A4.AB2A
6.6B$3.A.A8.9B3.BA.A4.A.5A2.B8.5B$3.A8.B.8B7.A3.A.A4.A.2A.A.2A5.B.
B$2A.AB.B3.BA9B8.2A3.A2.2A.A2.A.2A.A4.3B$.A.A.2AB.3A9B14.2A.A.2A
11.B2AB$.A.A.2A2B2A10B33.2A$2A.A2.5BA9B$A2.4A3BA8B.B2A$.2A2.BAB.BA
8B.BA.A$3.2A6.7B5.A$3.A7.2B.3BA5.2A$5.A9.3BA$4.2A10.3AB!
