#CSYNTH guntrue_2147 costs 5428 cells.
#C period 2147 fullperiod 2147 bbox 92 by 59
#CLL state-numbering golly
x = 92, y = 59, rule = LifeHistory
45.2A$38.3B4.A$38.5BA.A$37.6B2A$37.6B$36.6B$35.8B$33.5B2A3B$30.7BA
B2AB$29.7BA2BA2B4.B$28.2B2A4BAB2A4B.B2A$12.2A4.2A8.2B2A6B2AB2A3B2A
$11.B2AB2.B2AB6.12B5A3B11.A$11.4B3.3B5.B2A10B2ABABA12.A.A$12.2B5.B
5.BA2BA7BA5B2AB11.A.A$10.5B2.B2A2B2.3B2A11BA6B2.2B5.2A.3A$10.5B.2B
2A2B.13BA3BA3.8B5.B4.A$A7.13B.13B2AB2AB4.8B2.B2AB3A.A$3A5.3B2A11B.
11B2A3B5.8B.B2A.A2.A.A$3.A4.B2AB2A13B.13B3.2B.11B4.A.A$2.2A4.A3BA
13B.2B2A2B.5B4.2A11B5.2A.3A$2.B2A3BA11B2A3B2.2B2AB2.5B4.2AB.10B5.B
4.A$4.2A5BA7BA2BAB5.B5.2B7.B2.10B3.B2AB3A$4.ABAB2A10B2AB5.3B3.4B9.
12B.B2A.A$2.3B5A12B6.B2AB2.B2AB10.15B$.2A3B2AB2A6B2A2B8.2A4.2A10.
14B7.2A$.2AB.4B2ABA4B2A2B27.14B6.A$2.B4.2BA2BA7B30.12B3.BA.A$7.B2A
BA7B33.12B.B2A4.2A$6.3B2A5B36.14B5.A.A$6.8B38.9B2A3B5.A$7.6B40.7BA
BA3B4.2A$6.6B6.2A34.6B2A2B5.2B$4.2A6B7.A37.8B2.5B6.3B5.2A$3.A.A5B
7.A38.16B4.4B5.A$3.A4.3B7.2A6.2BAB13.B.7B5.2B2AB.10B4.5B.BA.A$2.2A
16.A2B2.2BABAB6.B.13B4.3B2A13B3.5B.B2A$18.3A5BABA45B3.7B$17.A2.B.
4B2A45B3.8B$17.2A3.50B3.8B4.2A$23.25B2A33B3.A.A$23.25B2A33B3.A$22.
4B.B.11B3.41B.2A$23.4B2.10B5.10B2.B3.B2.B3.18B$23.2B2AB4.2B2.4B7.
6B14.18B3.2A$25.2A10.4B8.3B13.5B3.12B.B2.A$38.4B9.B13.2A7.12B3A$
39.4B8.2A13.A8.9B.BA$40.4B8.A10.3A4.2A3.9B3.2A$41.4B7.A.A8.A6.A4.
9B4.A$42.4B7.2A12.2A.A4.2B2A3B.B2A2.A.2A$43.4B20.A2.3A.2BA2BA2B.BA
.A.A.2A$44.4B20.2A2.BA3BABAB5.A.A$45.4B21.4A4BA4B3.A.A$46.4B20.A.
4B5.2A4.A$47.4B17.A.A.2A7.A$48.3BA16.2A2.A9.3A$49.3BA19.A.A9.A$50.
3AB19.2A!
