#CSYNTH guntrue_4111 costs 12423 cells.
#C period 4111 fullperiod 4111 bbox 123 by 101
#CLL state-numbering golly
x = 123, y = 101, rule = LifeHistory
40.2A$39.A.A$33.2A4.A$31.A2.A2.2A.4A$31.2A.A.A.A.A2.A4.2A$34.A.ABA
BAB7.A$34.A.AB2AB6.A$35.AB.2B7.5A$38.3B10.A$38.4B3.4AB$36.3B2AB3.A
2.AB$36.3B2AB4.4B$34.15B3.2A$33.14B2A.A2.A$32.11BA3B2A.2A$31.11BAB
AB.B$30.4B2.7BAB$15.2A12.4B5.7B$15.A12.4B4.9B$9.2A5.A10.4B5.2A4.4B
$9.A5.2A9.4B7.A5.4B$6.2A.A.3B11.4B5.3A7.4B$6.A2.A.2A2B2A7.4B6.A10.
4B$8.2A.A.2B2AB5.4B19.4B$11.A.4B5.4B21.4B25.A11.2A$11.2A.4B3.4B23.
4B23.A.A9.B2AB$4.2A8.3BA6B8.2A15.4B10.A3.A3.2A2.A.A9.3B$3.A.A8.2BA
BA4B9.A.A5.2A8.4B7.3A2.A.A2.A2.2A.2A9.B.B$3.A8.B.3BA4B12.A4.A.A9.
4B5.A5.A.A3.A.A2.B8.5B$2A.AB.B3.11B9.4A.2A2.A12.7B.2A5.A.4A2.AB2A
6.6B$A2.A.2AB.12B9.A2.A.A.A.2A12.3B2A4B7.A3.A.A.2A4.8B$.A.A.2A14B
11.BABABA.A14.BA2BAB8.A2.BA.A2.13B$2A.A2.5B2A8B12.B2ABA.A15.3BAB7.
A.2BA.A5.13B$A2.4A3BA2BA5B.B2A11.2B.BA15.A4BAB6.2A.2BA5.15B$.2A2.B
AB.2B2A6B.BA.A.2A6.3B19.4BAB10.3B4.15B$3.2A6.7B5.A.A6.4B19.2A2BA2B
10.2B.B.17B$3.A7.2B.4B5.A.A6.B2A3B17.6B4.29B$5.A9.4B3.2A.A.AB3.B2A
3B17.7B2.16B2A13B$4.2A10.4B6.2AB.10B15.A2B2A2B2.16B2A14B$17.4B7.
13B13.A3B2A3B.27B3.B2A$18.4B6.14B12.36B4.A2.A$19.4B5.15B6.B4.20B2.
2B2.B3.6B5.2A.A$20.4B6.8B2.4B4.2AB.3BA3BA11B14.6B7.A$21.4B5.6B5.4B
3.2A5BA3B2A8B14.9B6.2A$22.4B3.9B4.4B3.B.5BA11B15.2A4.4B$23.4B.4B4.
2A5.4B5.B2A2BA2BA8B15.A5.4B$24.7B5.A3.A3.4B4.A7BA8B12.3A7.4B$25.5B
7.4A4.4B3.B2A2BA2BA6B.B2A10.A10.4B$25.5B16.4B2.12B4.BA.A21.4B$24.
7B6.2A8.13BAB9.A22.4B$23.4B.4B5.A2.A7.9B2AB2AB8.2A22.4B$22.4B3.4B
5.2A.A7.8B2ABA2B33.4B$21.4B5.4B6.A.A7.6BA2BA2B35.4B$20.4B7.4B5.A.A
B7.5B3A2B37.4B$19.4B9.4B5.A3B7.5BA3B38.4B$18.4B11.4B6.4B5.9B39.4B$
17.4B13.4B5.6B5.6B41.4B$16.4B15.4B4.7B.2B2.5B42.4B$15.4B17.4B2.8B.
9B43.4B$4.A9.4B19.18B2A4B43.4B$4.3A6.4B21.16BA2BA4B43.4B11.2A$7.A
4.4B22.17B2A2.4B43.4B8.A2.A$6.2A3.4B8.2A13.18B4.4B36.2A5.4B5.5A$6.
8B8.A.A13.16B7.4B36.A5.4B4.A$2.2A4.5B5.2A2.A13.2AB.13B9.4B35.A.AB.
7B2.B3A$.A.BAB.5B6.A.A.2A11.A.AB2.11B11.4B35.2AB.7B3.2B.A$.A.2AB2.
5B6.2A.A2.A9.A5.10B13.4B36.12B4A$2A.B.B3.5B3.3B.B2.2A8.2A5.2B2A6B
14.4B35.7B2A3BAB2.2A$A2.2A2B2.5B3.4B19.3B2A6B15.4B34.7B2A2B.B3A2.A
$.2A2.AB.13B.B18.10B16.4B33.10B3.B.A.2A$3.2ABA13B.B2A17.8B.B2A.A
13.4B31.8B8.A$.2A2.A5BA10B2A16.7B3.B2AB3A12.4B29.9B7.2A$A2.A2.4BAB
A7B.2B17.6B6.B4.A12.4B27.4B2.3B$.2A3.4BABA7B21.6B4.2A.3A14.4B25.4B
3.5B$7.4BA7B22.5B4.A2.2A17.4B23.4B7.2A$9.9B3.2A17.8B.A.A21.4B21.4B
8.A$6.B.10B.B2.A8.A8.8BA.A.2A.A18.4B19.4B10.3A$5.2A12B3A9.3A6.6B.
2BAB.A.2A19.4B10.A6.4B13.A$5.2AB.8B.BA14.A4.7B2.2B2.A23.4B7.3A5.4B
$6.B3.6B4.2A11.2A4.7B3.B.2A24.4B5.A7.4B$11.4B6.A11.4B.8B2.A.A2.2A
23.4B4.2A5.4B$12.4B4.A14.11B2.2A2.A2.A23.9B4.4B$13.4B3.2A12.12B7.
2A25.6B5.4B$14.4B16.12B34.8B2.4B$15.2B2A15.11B33.15B$16.BABA13.9B
12.2A22.14B$17.A3B9.2B.10B11.A23.13B$18.4B7.16B.B4.BA.A21.2AB.10B$
19.4B3.23B2.B2A21.A.AB3.B2A3B$20.32B23.A6.B2A3B$21.32B21.2A6.4B$
22.3BABA25B30.3B$23.3B2A6BA18B31.2B.BA$25.B2A5BA19B30.B2ABA.A$26.
17B5.B.4B28.BABABA.A$26.5BA8B11.4B25.A2.A.A.A.2A$26.4BA2BA6B12.4B
24.4A.2A2.A$30.ABA4.2B14.4B27.A4.A.A$31.A6.2B14.3BA24.A.A5.2A$37.B
2AB14.3BA23.2A$38.2A16.3AB!
