#CSYNTH guntrue_152 costs 2303 cells.
#C period 152 fullperiod 152 bbox 49 by 47
#CLL state-numbering golly
x = 49, y = 47, rule = LifeHistory
22.A$22.3A5.2A$25.A3.B2AB5.2A$24.2A4.3B5.A$24.5B2.B3.BA.A$26.8B.B
2A$25.2A9B$25.2A9B$26.B.8B$28.9B10.2A$29.5B.4B8.A$20.2A5.14B3.BA.A
$19.A.A4.17B.B2A$19.A4.21B$14.A.2A.2A24B$14.2A.A.25B2.BA$17.A4.10B
A10B2.A.AB$17.2A4.4BA3BABA8B2A.BA.A$21.5BABA5BA6BAB3.AB$20.A5BA7B
2A6B$14.4B4A12BA3B.B$4.2A7.4BA4BA2B.2BA4BA4B$4.2BA4.B.3BA12B4A4B$
3.A2B3.6B2A7BA5BA$4.2A2.BA6BA5BABA5B$.3A3.2A8BABA3BA4B4.2A$B3AB3.
10BA10B4.A$.3B2A.25B.A.2A$.A2BA.24B2A.2A.A$A3BA22B4.A$.3BAB2.17B4.
A.A$.A2BAB4.14B5.2A$3.A8.4B.8B$.A.A.A8.11B$A.2A.3A7.9B2A$A7.A.2B3.
9B2A3.2A$.2A.5A3BAB.8B.B3.B2A2B$2.A.A2.2AB.B3A2.6B6.4B$2.A2.4A3BAB
3.5B7.4B$3.2A3.A.2B6.4B6.B3A$5.3A10.4B6.2B2A$5.A13.4B4.2A2B$20.4B
3.3AB$21.5B.BABAB$22.3BAB2.2A$23.3BA$24.3AB!
