#CSYNTH guntrue_1298 costs 4784 cells.
#C period 1298 fullperiod 1298 bbox 92 by 52
#CLL state-numbering golly
x = 92, y = 52, rule = LifeHistory
75.B.B$74.B2A3B$74.A2BA2B10.2A$73.2B2A4B2.2B5.A$62.2A9.13B.BA.A$
58.2A3.A6.16B.B2A$58.A2.A7.14BA4B$56.2A2.3A5.14BABA4B$55.A2.2A3.2B
3.15BA4B$55.A.A2.3A2B3.18B.B2A$56.A.2AB.A23B.BA.A$54.A.A3.2A19B2.
2B5.A$54.2A.2A21B10.2A$37.A19.A.B.19B$36.A.A15.2A2.A5.16B$36.A.3A
13.A.2A6.10B3.4B.2A$33.2A.A4.A23.8B3.B2A3B.A$33.A.A.ABABA22.9B4.2A
B2.A$35.A.A.2A4.2A16.10B8.A$23.2A9.ABA4B4.A16.10B5.5A.A$21.2B2AB6.
3BA2B4.BA.A15.7BA3B5.A4.A.A$21.4B6.5B4.B.B2A15.7BABA2B7.A2.A.A$21.
9B.6B2.4B16.8BABA2B6.2A3.A$22.18BA2B15.10BA3B$22.9BA9B2A14.13B.B2A
$6.A15.6B4ABA6B2A2B12.13B2.BA.A$6.3A8.2A.A5B2A7BA4B.4B10.4B.7B7.A$
9.A7.A.2A2.3B2AB2A4BA3B3.4B8.4B3.6B7.2A$8.2A14.BA9BAB6.4B6.4B5.4B$
8.6B10.2B2A2BA8B5.4B4.4B7.4B$10.4B10.2BA3BA9B5.4B2.4B9.4B$8.7B7.2A
4BA8BABAB5.8B5.2A4.4B$5.B2A7B6.A2BA2.3B.2BA2BA2BA2B5.7B5.A6.4B$4.B
3A3B2A2B.3B2.BABA6.2AB2ABABAB7.3B3AB.BA.A7.4B$5.A5B3A9BA7.BABA3B8.
4BA3BA.B2A9.4B$6.A9B2A4B10.BA2B7.2B.3BA5BAB12.4B$7.6BA8B10.6B4.2A
5BA5BAB13.4B$9.13B14.2A4.2A5BA5BAB14.4B$7.6BA9B2.2A.A7.A6.2B2.3BA
3BA2B15.4B$6.7BA11BA.2A8.3A8.3B3A3B.2B13.4B$.B2.8BA4B3A4B15.A8.11B
2A13.4B$2AB.8B2AB4ABAB2A24.9B.B2A14.4B$2A22B24.10B.B16.4B$.B.4B2.
6B.3BA5B23.7B22.4B$4.2B4.5B6.4B22.A.5B24.4B$8.2BA3B6.BA2BA21.A.A3.
4B23.4B$5.4BABA9.2A24.A6.2A24.4B$5.2A.A.A43.A26.4B$4.ABABA.A.A42.
3A24.4B$4.A4.A.A.A43.A25.3BA$5.3A.A.A.A70.3BA$7.2A3.A72.3AB!
