#CSYNTH guntrue_1431 costs 4416 cells.
#C period 1431 fullperiod 1431 bbox 96 by 46
#CLL state-numbering golly
x = 96, y = 46, rule = LifeHistory
12.2A3.2A$12.A.A2.A$8.A.2A2.A3.A39.A2.2A23.A2.2A$8.2A.A.A.4A5.A33.
4A.A22.4A.A$12.2A.A8.3A10.2A24.A27.A$12.4B.2A8.A9.A18.7A.2A18.7A.
2A$12.2B.2B.A7.2A6.BA.A17.A2.B3.A.A2.A15.A2.B3.A.A2.A$13.4B.A.2A4.
7B.B2A18.2A2.2A.AB2.2A15.2A2.2A.AB2.2A$12.B2A2B2A.A2.A4.7B23.B2AB
2A22.B2AB2A$11.2B2A2B.B.A.2A2.9B24.5B23.5B$11.7B2.A5.2B3A3B26.3B
25.3B$10.7B2.2A5.3BA4B5.B19.5B23.2A3B$5.2B2.8B9.2BAB2A3B3.3B17.6B
22.B2AB2A$4.12B8.4B7A2.5B8.2A6.8B12.2A6.2ABA4B$4.12B7.4BABABA4B2A
5B8.A5.2B2A5B13.A5.9B$4.6B3A8B2.BABA4BA5BA6B7.A.AB3.B2A4B14.A.AB3.
7B$4.6B2A9B.2B2A11BA6B8.2AB.10B14.2AB.10B$2.8B2ABA10B2A5B3AB2A7B
10.13B15.13B$.9BA2BAB3A8B3ABA2BA9B11.14B14.13BA$7B2AB3A5B2A10BAB2A
8B9.A2.15B10.A2.11BABA$6BA11B2A2B.9B2A6B9.3A4.B2A5B2.4B7.3A4.8B2.
2A$6BA5BA4BABAB2.8B3A6B8.A7.2B2A2B5.4B5.A7.6B5.B$.5B2A4BABABA4B7.
12B8.2A5.2BA6B4.4B4.2A5.9B$2.5B2.7A4B8.12B.3B.B3AB4.4B4.2A5.9B4.4B
4.2A$3.3B3.3B2ABA2B9.8B2.8B3A5.4B5.A7.6B5.4B5.A$4.B5.4BA3B5.2A2.7B
4.6BAB2A2B2.4B7.3A4.8B2.4B7.3A$10.3B3A2B5.A2.7B5.17B10.A2.15B10.A$
9.9B2.2A.A.B.2B2A2B4.8BA8B14.14B$9.7B4.A2.A.2A2B2AB5.9B2A5B15.13B$
7.2AB.7B4.2A.A.4B6.9B2A4B14.2AB.10B$6.A.AB6.2A7.A.2B.2B7.11B15.A.A
B3.4BA2B$6.A9.A8.2A.4B7.12B14.A5.4BABA2B$5.2A10.3A8.A.2A8.11B13.2A
6.3BABA2B$19.A5.4A.A.A.2A.A6.8B20.4BAB$25.A3.A2.2A.2A.A5.4B2AB6.A
15.5B$26.A2.A.A6.A5.5B3A3.3A16.3B$25.2A3.2A6.A.AB3.4B2A2B.A18.5B$
39.3A.A5B4AB.A16.B2AB2A$41.2ABAB2.B7A13.2A2.2A.AB2.2A$41.AB.AB3.4B
16.A2.B3.A.A2.A$42.2A6.3B.2A14.7A.2A$48.4B3.A21.A$48.2A5.A.A14.4A.
A$49.A6.2A14.A2.2A$46.3A$46.A!
