#CSYNTH guntrue_1232 costs 3224 cells.
#C period 1232 fullperiod 1232 bbox 62 by 52
#CLL state-numbering golly
x = 62, y = 52, rule = LifeHistory
45.B.B$44.B2A3B$44.A2BA2B10.2A$43.2B2A4B2.2B5.A$32.2A9.13B.BA.A$
28.2A3.A6.16B.B2A$28.A2.A7.14BA4B$26.2A2.3A5.14BABA4B$25.A2.2A3.2B
3.15BA4B$25.A.A2.3A2B3.18B.B2A$26.A.2AB.A23B.BA.A$24.A.A3.2A19B2.
2B5.A$24.2A.2A21B10.2A$27.A.B.19B$24.2A2.A5.16B$24.A.2A6.10B3.4B.
2A$35.8B3.B2A3B.A$19.3B12.9B4.2AB2.A$19.3BAB2.B6.10B8.A$18.2A2B2AB
3A4.10B5.5A.A$18.2A4B4A3.7BA3B5.A4.A.A$5.A13.B2.2A3B3.7BABA2B7.A2.
A.A$3.3A4.2A12.3B2.8BABA2B6.2A3.A$2.A3.2A2.A16.11BA3B$2.ABAB2.A.A
9.2A4.14B.B2A$3.3B3A.B2A7.A5.13B2.BA.A$4.A2B2.A.A.BA2.BA.A4.4B.7B
7.A$4.A2B3A.A2BAB.B2A4.4B3.6B7.2A$5.AB.B.A2BAB.AB5.4B5.4B$10.7AB4.
4B7.4B$12.3A.AB3.3A2B8.4B$11.3B6.3BAB.3B6.4B$10.3B6.3BA3.5B5.4B$4.
7BA3B3.4B3.6B.B4.4B$.2B.2B2A3B3A7B3.B.3A3B2A4.4B$2A3B2A4B3AB3A2B3.
A2B3A3B2A5.4B$2AB.7B.7B3.A.A2B2A4B7.4B$.B.2B3AB3A4B2A5.AB3.B.3B8.
4B$6.3B3A3B2A2B9.2B12.4B$8.3BA5B.B2A6.2BAB12.4B$10.3B5.BA.A4.2A2B
2A12.4B$9.3B9.A3.B2ABA3B12.4B$5.BA.3A10.2A2.A3BA3B13.4B$5.B7A11.4B
ABA3B13.4B$5.BA.BA2BA.B.BA6.A2B2A3BAB14.4B$3.2AB.BA2BA.3A2BA4.BABA
6BAB14.4B$2.A.AB2.AB.A.A2.2BA5.ABA3BABAB16.4B$2.A7.2AB.3A3B6.B4.B
19.4B$.2A9.A.A2.BABA31.4B$12.A2.2A3.A32.3BA$11.2A4.3A34.3BA$17.A
37.3AB!
