#CSYNTH guntrue_1270 costs 7100 cells.
#C period 1270 fullperiod 1270 bbox 100 by 71
#CLL state-numbering golly
x = 100, y = 71, rule = LifeHistory
96.A$94.3A$93.A$86.A6.2A$85.A.A3.4B$86.A.5B$87.7B$87.4B2A4B.B$87.
4B2A3B.B2A$87.11B2A$87.9B.2B$27.2A45.2A6.2B2.10B$27.A.A43.B2AB4.2A
13B$29.A4.2A31.B6.2B5.2A13B$25.4A.2A2.A2.A28.3B4.2B7.2B.11B$25.A2.
A.A.A.A.2A24.14B9.9B.B2A$27.BABABA.A27.14B11.7B.BA.A$28.B2ABA.A27.
17B5.B.7B5.A$29.2B.BA27.32B5.2A$28.3B28.30B.4B$19.2A6.4B27.31B2.4B
$20.A6.B2A3B24.32B3.4B$20.A.AB3.B2A3B23.32B5.4B$21.2AB.10B20.4B3.
23B2.B2A4.4B$23.13B18.4B7.16B.B4.BA.A4.4B$23.14B16.4B9.2B.10B11.A
5.3BA$23.15B14.4B13.9B12.2A5.ABA$25.8B2.4B12.4B15.11B17.2A$25.6B5.
4B10.4B16.12B17.B$24.9B4.4B8.4B17.12B7.2A$23.4B4.2A5.4B6.4B19.11B
2.2A2.A2.A$22.4B5.A7.4B4.4B18.4B.8B2.A.A2.2A$21.4B7.3A5.4B2.4B19.
2A4.7B3.B.2A$20.4B10.A6.8B21.A4.7B2.2B2.A$19.4B19.6B19.3A6.6B.2BAB
.A.2A$18.4B21.4B20.A8.8BA.A.2A.A$17.4B21.6B28.8B.A.A$16.4B21.A7B
28.5B4.A2.2A$3.2A10.4B21.BABA2.4B27.6B4.2A.3A$4.A9.4B21.2B2A4.4B
25.6B6.B4.A$2.A10.4B21.4B6.4B24.7B3.B2AB3A$2.5A5.4B5.2A14.4B8.4B
24.8B.B2A.A$7.A4.4B5.A2.A11.4B10.4B23.10B$4.3AB2.7B.BA.A.2A10.4B
12.4B21.3B2A6B$3.A.2B3.7B.B2A.A11.4B14.4B21.2B2A6B$3.4A12B3.A10.4B
16.4B20.10B$.2A2.BA3B2A7B3.3A7.4B18.4B9.2A7.12B$A2.3AB.2B2A7B6.A5.
4B20.4B8.A3.2A.14B$2A.A.B3.10B5.2A4.4B22.4B9.A2.A16B$3.A8.8B4.9B
24.4B7.3A2.17B$3.2A7.9B5.6B26.4B5.A6.16B.2B$13.3B2.4B2.8B27.4B4.2A
5.18B2A$11.5B3.15B26.9B4.17B.B2A$11.2A7.14B27.6B5.4B2.8B.4B.B$12.A
8.13B27.8B2.4B4.7B$9.3A10.10B.B2A23.15B5.6B$9.A14.3B2AB3.BA.A22.
14B6.4B$24.3B2AB6.A22.13B5.A3B$26.4B6.2A19.2AB.10B5.A.AB$26.3B27.A
.AB3.B2A3B7.A.A$23.AB.2B28.A6.B2A3B8.A$22.A.AB2AB26.2A6.4B7.3A$22.
A.ABABAB34.3B7.A$19.2A.A.A.A.A2.A33.2B.BA$19.A2.A2.2A.4A32.B2ABA.A
$21.2A4.A35.BABABA.A$27.A.A31.A2.A.A.A.A.2A$28.2A31.4A.2A2.A2.A$
65.A4.2A$63.A.A$63.2A!
