#CSYNTH guntrue_1227 costs 5625 cells.
#C period 1227 fullperiod 1227 bbox 75 by 75
#CLL state-numbering golly
x = 75, y = 75, rule = LifeHistory
46.2A$45.A.A$39.2A4.A$37.A2.A2.2A.4A$37.2A.A.A.A.A2.A$40.A.ABABAB$
40.A.AB2AB$41.AB.2B$44.3B$44.4B6.2A$42.3B2AB6.A$42.3B2AB3.BA.A$40.
10B.B2A$39.13B$38.14B$37.15B$36.4B2.8B$35.4B5.6B$34.4B4.9B$33.4B5.
2A4.4B$17.A.A12.4B3.A3.A5.4B$16.A.2A11.4B4.4A7.4B$16.A13.4B17.4B$
12.A.2A.3A9.4B6.2A11.4B$12.2A.A.A2.A7.4B3.2A2.A.A11.4B$16.3B2AB5.
4B4.A.A.A2.A11.4B$18.4B4.5B5.BA.AB2A12.4B$20.12B4.2ABA16.4B10.2A$
19.2BA10B4.3BA.2A14.4B9.A$19.BABA9B.4B.BABA2.A13.4B10.A$19.A2BA11B
2A2B.BA2.2A7.2A5.4B5.5A$19.B2A10B.A2BA2B14.A5.4B4.A$19.15B2A2B.BA
2.2A8.A.AB.7B2.B3A$17.2AB.11B.4B.BABA2.A9.2AB.7B3.2B.A$16.A.AB3.
10B3.3BA.2A13.12B4A$16.A4.5B.7B2.2ABA16.7B2A3BAB2.2A$15.2A4.2A4.6B
3.BA.AB2A13.7B2A2B.B3A2.A$22.A3.7B2.A.A.A2.A13.10B3.B.A.2A$19.3A5.
B2A3B2.2A2.A.A13.8B8.A$19.A7.B2A2B7.2A13.9B7.2A$20.2A4.6B21.4B2.3B
$21.A4.6B20.4B3.5B$21.A.AB.7B18.4B7.2A$22.2AB2.6B17.4B8.A$24.8B17.
4B10.3A$24.8B16.4B13.A$25.8B14.4B$26.7B8.A4.2A2B$27.6B6.3A3.ABAB$
27.7B4.A5.3BA$27.7B4.2A3.4B$27.8B.4B2.4B$27.11B3.4B$27.12B.4B$27.
16B$17.A10.14B$17.3A11.10B$11.A8.A9.12B$11.3A5.2A6.16B$14.A4.24B6.
A$13.2A6.23B3.3A$13.5B2.24B2.A$4.2A9.3B2.24B.B.A$3.A.A8.32B2A$3.A
8.B.8B.22BA2.2A$2A.AB.B3.BA9B3.2B7.B3.2B3.3B3A2.A$.A.A.2AB.3A9B2.
2BAB5.3B.4B3.2B4.A$.A.A.2A2B2A10B3.A.A4.B2AB.B2AB5.4A$2A.A2.5BA9B
4.A6.2A3.2A7.A$A2.4A3BA8B.B2A21.A$.2A2.BAB.BA8B.BA.A20.2A$3.2A6.7B
5.A$3.A7.2B.3BA5.2A$5.A9.3BA$4.2A10.3AB!
