#CSYNTH guntrue_7182 costs 5610 cells.
#C period 7182 fullperiod 7182 bbox 110 by 51
#CLL state-numbering golly
x = 110, y = 51, rule = LifeHistory
56.2A$56.A22.A$57.A14.2A4.A.A$44.A11.2A13.B2AB3.A.A$44.3A8.B2.2A4.
A7.3B2.2A.3A$47.A7.B2A2.A3.3A6.2B3.B4.A$46.2A6.2B.A.A7.A4.3B.B2AB
3A$41.2A3.4BA2B.BA.A.2A5.2A4.5B2A.A$42.A5.BABA3B2A3.A5.3B.7B$26.B
15.A.AB.2BA2BA3B4.A.AB4.8B$15.A9.3A5.2A8.2AB.3B2A2B7.2AB3.10B$3.A
3.2A6.3A7.3B5.A11.9B9.3B2.2B2A5B3.A$2.A.A.A.A9.A7.B3.BA.A11.9B9.4B
.2B2A6B2.3A$3.2A.A10.AB6.4B.B2A12.9B8.6B.9B5.A$5.A.A9.A2BA3.7B14.
10B6.8B.8B4.2A$.3ABABA11.5B.6B13.12B4.17B5.5B8.A5.2A$A2.AB2A8B3.A
2BA12B.B8.14B2.17B7.4B5.3A4.B2AB$2A2.12B3.2A18BAB3.32B7.5B4.A7.3B$
4.25B2AB2A3B4A2B2.34B4.6B3.2A7.B$6.22B2A2B2A7BA2B2.34B2.12B5.5B$5.
17B2A5B4ABA4B2A31B3AB3A2B.10B7.7B$4.18B3A6BA4BAB2AB.12B2.B.13BA2BA
B4A13B5.3BA5B$3.19B2A6B4.B2.AB2.12B5.20BABA12B.B2.3B3A4B$4.26B3.3B
4.4B.7B7.10B.BA15B2A10B4A3B$9.21B2.B2AB3.4B4.5B5.12B2.5B3A8B2A9BA
3B2AB$11.7B.11B3.2A3.4B7.B7.2A3.6B4.2A2B2A28B$8.AB3.3B4.8B9.4B7.3B
7.A4.5B7.22BA2BA2B2A2B$7.BA.A11.2B12.4B7.B2AB4.3A5.4B7.17B2.4BABA
4B2AB$7.A.AB9.4B11.4B9.2A5.A8.5B5.17B4.3BA4BABAB$8.BA10.2A12.4B29.
2A4.8B.8B6.7B2AB$21.A11.4B30.A5.9B.6B8.9B$18.3A11.4B32.3A2.6B2A2B.
4B9.9B$16.3A12.4B35.A3.5B2A2B2.3B9.9B$15.A14.4B40.10B3.B2A7.2B2A3B
.B2A$16.3A10.4B42.8B4.BA.A4.3BA2BA2B.BA.A$19.A8.4B42.7B.3B5.A3.2A
3BABAB5.A$18.2A7.4B39.A.2A5B4.2A5.2A.A.AB.2BA4B3.2A$18.5B3.4B38.3A
B2AB.3B4.A7.A.A.2B6.2A$9.2A9.3B2.4B38.A4.B3.2B6.3A3.A2.2AB7.A$8.A.
A8.9B40.3A.2A2.3B7.A4.2A2.B8.3A$8.A8.B.8B43.A.A3.B2AB13.2A11.A$5.
2A.AB.B3.BA9B44.A.A4.2A14.A$6.A.A.2AB.3A9B45.A22.A$6.A.A.2A2B2A10B
67.2A$5.2A.A2.5BA9B$5.A2.4A3BA8B.B2A$6.2A2.BAB.BA8B.BA.A$8.2A6.7B
5.A$8.A7.2B.3BA5.2A$10.A9.3BA$9.2A10.3AB!
