#CSYNTH guntrue_4806 costs 6237 cells.
#C period 4806 fullperiod 4806 bbox 99 by 63
#CLL state-numbering golly
x = 99, y = 63, rule = LifeHistory
2A$.A26.A$A25.3A$2A23.A$.B23.2A55.2A$3B20.4B2.A50.2B2AB$5B9.B3.B.
5B4.3A10.2A36.4B$6B2.B.7B2A7B6.A5.2A2.A37.5BA$2.15B2A8B4.2A5.A.A.A
37.5BAB$.26B4.5B3.B.A39.5BAB$.27B5.3B2.2B41.4B2A2B$.30B.9B39.5BA2B
AB$2.35B2A2B2A8.2A24.8BA2BA2B$3.5BA20B3A5B2A2B2A8.A24.10BABA2B$6.A
2BA22BA3BA2BA4B4.BA.A23.B3A12B$6.A19B4AB2A4B3A7B.B2A23.9B2.7B2.4B$
4.2ABA11BA3B3A4B3A8BA3B2A2B24.B2A2BA3B4.12B$4.3A3B2AB2A3BA4B3A6BA
6BABA.2BA.AB23.2AB3A3B6.10B2A$4.2BABA4B2A10BA6B2A5B2A2B3.2A22.B.8B
8.9B2A$4.2BA7BA9BABABA6B.2A2B22.A6.2A9B8.8B.B$4.2BA15BABAB3A4B.3BA
B7.2A14.3A4.2A10B6.3B3AB2A$2.2AB.4B3A6BA2BA2BA7B.4B6.A2.A17.A4.12B
4.3BA2B2AB$.A.AB.14B2A10B2.4B6.2A.A.2A.A11.2A4.4B2.7B2.9B$.A7.23B
2.5B6.B.A.A.2A11.6B7.12B3AB$2A6.23B2.3BA4B2.B2ABA18.5B6.2BABA10B$
9.5B2AB2A11B2.3B3A4B.B2A2.A17.6B5.2BA2BA8B$9.4B2A3B2A3B3.3B2.3B2AB
2A5B3.2A16.8B5.BA2BA5B$4.2A3.5B2AB2A3B2.3B3.3B2A3B2A4B15.A.2A2.9B
5.2B2A4B$4.A2.2AB.4B3A3B2.11B2AB2A5B15.2A.A12B5.BA5B$5.AB2AB2.4BA
3B2.23B6.2A11.12B5.BA5B$2A.A.A.B6.5B2.23B7.A12.13B5.A5B$A.2A.A.2A
6.4B2.10B2A14B.BA.A12.9B.4B6.4B$5.A2.A6.4B.7BA2BA2BA6B3A4B.B2A13.
9B2.4B4.B2A2B$5.2A7.BA3B.4B3ABABA15BA2B14.11B2.4B4.2A$13.2B2A.6BAB
ABA9BA7BA2B14.11B3.4B$5.2A3.2B2A5B2A6BA10B2A4BABA2B14.12B3.4B$4.BA
.A2B.ABA6BA6B3A4BA3B2AB2A3B3A8.B4.5BA8B3.4B$4.2B2A3BA8B3A4B3A3BA
11BAB2A7.3B3.2B2ABA4B.4B3.4B$2.2AB.7B3A4B2AB4A19BA7.6B2.2BA2BA9B4.
4B$.A.AB4.4BA2BA3BA22BA2BA.4B2.7B.2B3A8B.B2A3.4B$.A8.2A2B2A5B3A20B
A25BA4B.BA.A3.4B$2A8.2A2B2A53B3A3B4.A4.4B$12.9B.47BAB2A2B4.2A4.4B$
13.2B2.3B5.28B2A15B3A3B10.4B$11.A.B3.5B4.27B2A16B2A3B11.4B$10.A.A.
A5.2A4.8B2A27B2A2B2A2B2A4B11.4B$10.A2.2A5.A6.7B2A7B.B3.9B2A4BAB2AB
A3B2A2B13.4B$9.2A10.3A4.5B.B3.B10.4B2.B3A3B2ABA2BA3B2AB15.4B$23.A
2.4B20.7B3A5BABA6B.B.B13.4B$26.2A23.7BABA6BA9B2A13.4B$27.A24.7BA
17B2A14.4B$24.3A22.B3.2B.5B2.12B.2B16.4B$24.A23.2AB.3B.4B3.13B19.
3BA$48.2A3BA11.3B3A5B.B18.ABA$49.B.BA.A10.2BA2BA6B2A18.2A$52.BA.A
9.2BAB2A4B.B2A19.B$55.A7.2AB.BA4B4.B$55.2A5.A.AB.4B$62.A5.5B$61.2A
8.2A$71.A$72.3A$74.A!
