#CSYNTH guntrue_565 costs 2730 cells.
#C period 565 fullperiod 565 bbox 65 by 42
#CLL state-numbering golly
x = 65, y = 42, rule = LifeHistory
7.2A5.2A2.2A.2A$7.A2.2A.A2.A2.A.2A$8.2A.A.2A.2A.A$4.2A3.B.B2.A.A2.
A.2A$.A2.A2.A.AB4A.A.2A.BA$.3A2.3AB2A.BABAB.A2B39.2A$4.2A2.5B2A.4A
B33.3B4.A$3.A2.A.5B3A.3AB33.5BA.A$4.2A4.2B.2B3.B34.6B2A$10.2B41.6B
$11.B40.6B$10.2AB38.8B$.2A6.A2BAB5.2A28.10B$2.A4.3B2A3B4.A26.12B$
2.A.AB.8B.BA.A25.13B4.B$3.2AB.8B.B2A25.2BA13B.B2A$5.12B11.2A4.2A8.
2AB2A13B2A$5.12B10.B2AB2.B2AB6.2BA2BA14B$5.12B10.4B3.3B5.4B2A13B$
7.10B11.2B5.B5.A19B$9.7B10.5B2.B2A2B2.A22B$9.8B9.5B.2B2A2B.B3A14B
4.2A$8.5B.2B2A6.13B.10B2A7B4.A$8.6B.2A2B5.7B2A7B.7B2A7B5.3A$7.6B3.
BA2B4.7B2A10B.13B7.A$3.B2.3BA3B4.4B3.14B3AB.2B2A2B.5B$.7BABA2B5.
22BA2.2B2AB2.5B$.7BABA2B6.20BA5.B5.2B$9BA3B7.13B2A4B5.3B3.4B$11B.B
2A3.14BA2BA2B6.B2AB2.B2AB$.9B2.BA.A.2A13B2AB2A8.2A4.2A$.7B7.A.2AB.
13BA2B$2.6B7.A2.B4.13B$3.4B6.A.A7.12B$4.4B5.2A7.10B$5.4B13.8B$6.4B
13.6B$7.4B11.6B$8.4B8.2A6B$9.3BA6.A.A5B$10.3BA5.A4.3B$11.3AB3.2A!
