#CSYNTH guntrue_1391 costs 9588 cells.
#C period 1391 fullperiod 1391 bbox 102 by 94
#CLL state-numbering golly
x = 102, y = 94, rule = LifeHistory
31.2A$30.A.A$24.2A4.A$22.A2.A2.2A.4A$22.2A.A.A.A.A2.A$25.A.ABABAB$
25.A.AB2AB$26.AB.2B$29.3B$29.4B6.2A$27.3B2AB6.A$27.3B2AB3.BA.A$25.
10B.B2A$24.13B$9.A13.14B$9.3A10.15B$12.A8.4B2.8B$11.2A7.4B5.6B$11.
5B3.4B4.9B$13.3B2.4B5.2A4.4B$3.2A7.9B7.A5.4B$3.A8.8B5.3A7.4B$2A.A.
B3.2BA7B6.A10.4B$A2.3AB.2BA8B18.2B2A$.2A2.BA3BA4BA3B19.BABA$3.4A4B
AB2A4B20.A3B$3.A.2B3.4BA2B.B2A19.4B18.A$4.3AB2.7B.BA.A19.4B11.2A3.
A.A$7.A4.4B5.A20.4B11.A3.A2.A$2.5A5.4B5.2A20.4B10.A.2A.A.A$2.A10.
4B27.4B10.A.A.A.2A$4.A9.4B27.4B10.2B2A.A2.A$3.2A10.4B27.4B10.4B2.
2A$16.4B27.4B6.7B$17.4B27.4B3.8B$18.4B22.2A3.4B.8B$19.4B22.A4.12B$
20.4B21.A.AB2.11B.2B$21.4B10.A10.2AB.14B2A$22.4B7.3A12.16B2A$23.4B
5.A15.14B.2B$24.4B4.2A15.4BA4BA3B$17.2A6.9B14.5B2A3B2A2B.2B$18.A7.
6B14.8B2A3B2A3B2A$18.A.2A5.6B3.B2.2B2.10BA4B2A2B.B2A$19.A2.A4.3BA
26B2A3B2.B$20.2AB3.3B3A21B.8B$21.7B2ABA21B2.7B$22.5B2A15BA8B2.7B$
23.5B2ABA10B2A8B3.7B$23.6B3A8B.B.2A11.6B.BA$24.6BA8B4.2AB10.7BA.A$
24.15B5.A2B.2A6.8BA8.A$25.13B5.A.A2B.A6.6B.B8.A.A$27.13B2.A.AB2.A
7.5B11.A.A$26.8B4.2A.A.A3.A8.6B2.2B5.2A.3A$26.6B6.2ABA2.4A.A4.2AB.
9B5.B4.A$26.5B8.B2.A.A3.2A3.A.AB3.8B2.B2AB3A$26.B.B9.2A.2A.A.A6.A
7.8B.B2A.A$27.3B9.A.A3.A.3A2.2A5.2B.11B$26.B2AB9.A.A4.A2.A8.2A11B
7.2A$27.2A11.A6.2A9.2AB.10B6.A$59.B2.10B3.BA.A$62.12B.B2A4.2A$63.
13B5.A.A$62.9B2A3B5.A$63.7BABA3B4.2A$28.2A35.5B2A2B5.2B$29.A37.8B
2.5B6.3B5.2A$28.A38.16B4.4B5.A$28.2A6.2BAB13.B.7B5.2B2AB.10B4.5B.B
A.A$30.A2B2.2BABAB6.B.13B4.3B2A13B3.5B.B2A$28.3A5BABA45B3.7B$27.A
2.B.4B2A45B3.8B$27.2A3.50B3.8B4.2A$33.25B2A33B3.A.A$33.25B2A33B3.A
$32.4B.B.11B3.41B.2A$33.4B2.10B5.10B2.B3.B2.B3.18B$33.2B2AB4.2B2.
4B7.6B14.18B3.2A$35.2A10.4B8.3B13.5B3.12B.B2.A$48.4B9.B13.2A7.12B
3A$49.4B8.2A13.A8.9B.BA$50.4B8.A10.3A4.2A3.9B3.2A$51.4B6.A11.A6.A
4.9B4.A$52.4B5.2A14.2A.A4.2B2A3B.B2A2.A.2A$53.4B20.A2.3A.2BA2BA2B.
BA.A.A.2A$54.4B20.2A2.BA3BABAB5.A.A$55.4B21.4A4BA4B3.A.A$56.4B20.A
.4B5.2A4.A$57.4B17.A.A.2A7.A$58.3BA16.2A2.A9.3A$59.3BA19.A.A9.A$
60.3AB19.2A!
