#CSYNTH guntrue_975 costs 4032 cells.
#C period 975 fullperiod 975 bbox 84 by 48
#CLL state-numbering golly
x = 84, y = 48, rule = LifeHistory
10.A3.2A30.A$9.A.A.A.3A27.BAB$9.A.A.A4.A26.3B$.2A7.A.A.ABABA25.2BA
2B$2.A9.A.A.2A4.2A20.BABAB$2.A.AB5.ABA4B4.A20.7B$3.2AB3.BABA2B4.BA
.A20.2B3A2B$4.5BA2BA4.B.B2A20.9B$5.3BA5B2.4B22.9B$.2B2.2BA5BA6B23.
2B3A2B8.A$2A4BA3BA3BA5B23.7B7.B3A.2A$2A4BA2BABA2BA6B23.BABAB9.B3A.
A$.2B.2BA3BA3BA2B.4B22.2BA2B11.B2A$4.3BA5BA2B3.2BAB22.3B11.3B$4.4B
A3BAB6.2B2A21.BAB8.2A.AB$2.2AB.3B3A2B7.2A2B13.2A6.A8.A.AB2AB$.A.AB
.8B8.4B11.B2AB4.3B7.BA3B.BA$.A5.8B3.2A3.4B11.3B3.2B2A5B3.2BA.2A$2A
3.9B4.A.A3.4B11.B3.3B2A6B2.B4AB$5.2A2.2B.2B.B5.A3.4B9.11B2A10B$6.A
3.BA2B2AB2.2A.A3.4B8.8BA4BA3B6.A$3.3A3.ABAB.2A.AB.A.A4.5B5.18B5.A.
A$2.A5.BA2.A.2A.A2BA.2A4.4B.BA4B3A5B2AB2A2B7.A$3.A4.A.B3A2B.A2.B.A
2.A3.4BABA5BA7BA5B$4.A.2B.B.A3.A2.4A2.2A4.3B2A6BA9B.4B$.3A2.B3A.A
3.B2A8.2A.7BA3BA9B3.4B22.2A.2A$.A2.3A2.BA4.2B2.A6.A.8BA2BA9B5.4B
20.2BA.2A$2.2A2.BA6.A.A.2A7.A.7BABA10B6.4B12.A4.3B$3.A.AB6.A.2A.A
5.3A3.19B7.4B9.3A4.8A$3.A.2BA5.A.A.A2.A3.A5.20B7.4B7.A6.B2A.A3.A$
4.A.A5.2A.A.A.2A9.19B9.4B6.2A6.2AB2.A$2.A.A.A.A2.A2.2A.A13.16B4.A
7.4B.6B7.6A$2.2A3.2A2.2A5.3A14.6BA4B5.3A6.8B8.A.B4.A$21.A14.5BA4B
8.A6.10B4.B6A.A$20.2A16.3BA3B8.2A5.B.10B3.B2ABA.2A$40.4B9.18BAB3.
2B.A$35.2B4.B13.15BABA5B2AB2A$33.6B.B4.2B7.2B2A12BABA.4BAB2.A$31.
10B.6B5.2BA2BA12BA4.3BABA$29.A2B2A4B2A2BA6B4.3B2A4B2.7B5.2BA2.A.A$
28.A3B3A2B3A3BA6B.9B4.7B7.2A2.2A$29.A2B2A4B2A2BA.15B6.3B8.A.A$31.
10B4.13B7.5B5.A.A2.A$33.6B7.12B10.2A5.A.A.2A$35.2B10.12B9.A7.A.A$
48.3BA6B11.3A6.A$49.3BA5B13.A6.2A$50.3A3B!
