#CSYNTH guntrue_38 costs 1705 cells.
#C period 38 fullperiod 38 bbox 55 by 31
#CLL state-numbering golly
x = 55, y = 31, rule = LifeHistory
41.A3.2A$40.A.A.A.3A$21.2A17.A.A.A4.A$22.A2.A15.A.A.ABABA$19.3A3.
3A15.A.A.2A4.2A$7.2A9.A3.3A3.A13.2AB3AB4.A$8.A2.A6.2ABAB2.3A12.A3B
2A4.BA.A$5.3A3.3A6.2B2A.A13.A3BA4.B.B2A$4.A3.3A3.A2.A.2A.ABAB13.4B
AB2.4B$4.3A2B2.3A3.2A.2A3B11.BA5BA7B$6.2B2A.A8.8B6.BA7B2ABA4B$3.A.
2A.ABAB9.9B.2B.BA2BA4B5A4B$3.2A.A4B10.4BABA7BA2BA2B4AB2A.4B$6.8B6.
4BABABA8B2A5B2AB3.4B$7.9B4.19B2AB2A2B5.3BA$A6.4BA5BA3B.A7BA2.6BABA
BA4B4.ABA$3A3.4BAB2A3B3A2B2A6BAB.15B5.2A$3.A2.BA6B2A2B3A3B2ABA4B4.
4B3A4B2A5.B$2.2A3.A7BA.3BA5BA4B8.6B.B2A$2.16B4.9B8.5B3.B$4.5BABABA
4B6.8B8.5B$3.A.5BABA4B10.4BA.2A5.3BA2B3.BA$2.A.A3.9B9.BABA.2A.A6.B
ABAB2.ABAB$3.A6.8B8.A.2A2B11.A.A.B4.A$13.3B2A.2A3.3A2.2B3A7.A.A.3A
4.2B$12.BABA.2A.A2.A3.3A3.A7.2A5.B3.2A$12.A.2A2B6.3A3.3A14.2A3.B$
10.3A2.BAB2A6.A2.A17.2B2.A$9.A3.3A3.A9.2A16.A2.AB$10.A.A3.3A29.BA.
A$9.2A.2A2.A32.AB!
