#CSYNTH guntrue_705 costs 5041 cells.
#C period 705 fullperiod 705 bbox 71 by 71
#CLL state-numbering golly
x = 71, y = 71, rule = LifeHistory
34.A11.2A$33.A.A9.B2AB$25.A3.2A2.A.A9.3B$24.A.A2.A2.2A.2A9.B.B$24.
A.A3.A.A2.B8.5B$25.A.4A2.AB2A6.6B$27.A3.A.A.2A4.8B$26.A2.BA.A2.13B
$25.A.2BA.A5.13B$3.A21.2A.2BA5.15B$2.A.A6.A17.3B4.15B$2.A.A6.3A16.
2B.B.17B$.2A.2A8.A8.29B$4.B8.2A7.16B2A13B$.2AB2AB6.5B.B2.5BA10B2A
14B$2.A.2AB.B6.6B.5B2A20B3.B2A$A5.4B4.8B2A2BABA19B4.A2.A7.A$2A4.
15BABA8B2.2B2.B3.6B5.2A.A4.3A$4.17BA7B14.6B7.A3.A$4.2A15B2ABA2B14.
9B6.3A2.5A$4.2A17B2AB15.2A4.4B8.2A5.A$7.19B16.A5.4B6.A3.2A.A2.2A$
7.11B2.8B11.3A7.4B5.A.2A.A.2A.A$7.10B5.B3.2A11.A10.4B5.A.B.A2.A.A$
4.2A2.11B7.A24.4B5.A2B2A2B.2A$A3.A3.5B4.2A8.3A22.4B6.BABA2.A$3A.A.
8B3.A11.A23.4B6.A.BA.A$3.2A.2A7B3.3A33.4B4.2A.A.2A.A$2A3.A.BA3.4B
4.A29.A4.4B3.AB.A3.2A$A.2A.A.2A4.4B33.3A3.7B2A.2A$2.A.AB.A6.4B23.A
11.A3.8B.A.3A$2.A2.ABAB6.4B22.3A8.2A4.5B3.A3.A$.2A.2B2A2BA5.4B24.A
7.11B2.2A$2.A.A2.A.B.A5.4B10.A11.2A3.B5.10B$2.A.2A.A.2A.A5.4B7.3A
11.8B2.11B$.2A2.A.2A3.A6.4B5.A16.19B$4.A5.2A8.4B4.2A15.B2A17B2A$5.
5A2.3A6.9B14.2BAB2A15B2A$10.A3.A7.6B14.7BA17B$7.3A4.A.2A5.6B3.B2.
2B2.8BABA15B4.2A$7.A7.A2.A4.19BABA2B2A8B4.4B5.A$16.2AB3.20B2A5B.6B
6.B.B2A.A$17.14B2A10BA5B2.B.5B6.B2AB2A$18.13B2A16B7.2A8.B$13.2A4.
29B8.A8.2A.2A$13.A.A3.17B.B.2B16.3A6.A.A$16.A3.15B4.3B17.A6.A.A$
10.AB2.2A.A2.15B5.A2B.2A21.A$9.A4B.A.A3.13B5.A.A2B.A$9.A3B3A.2A4.
13B2.A.AB2.A$10.AB.2A.AB.AB.8B4.2A.A.A3.A$16.3A9B6.2ABA2.4A.A$10.A
B.2A.AB.AB3.4B7.B2.A.A3.A.A$9.A3B3A.2A6.4B5.2A.2A2.A2.A.A$9.A4B.A.
A8.4B5.A.A2.2A3.A$10.AB2.2A.A9.4B4.A.A12.2B$16.A11.4B4.A11.6B$13.A
.A13.4B13.10B$13.2A15.4B10.2A3BA2BA3B2A$31.4B8.B5A4B5AB$32.4B8.2A
3BA2BA3B2A$33.4B9.10B$34.4B10.6B$35.4B11.2B$36.4B7.2AB2.B2A$37.4B
4.BA8BAB$38.5B.BA2BA4BA2BAB$39.7BA8BAB$40.3BA2B.2A4.2A$41.3BA$42.
3AB!
