#CSYNTH guntrue_1450 costs 4884 cells.
#C period 1450 fullperiod 1450 bbox 74 by 66
#CLL state-numbering golly
x = 74, y = 66, rule = LifeHistory
22.A28.A$22.3A24.3A$25.A22.A$16.2A6.2A22.2A6.2A$17.A6.7B12.7B6.A$
7.2A8.A.AB3.8B10.8B3.BA.A8.2A$6.B2AB8.2AB2.10B8.2AB2A5B2.B2A8.B2AB
$6.3B11.8B2A3B8.5BA7B11.3B$7.A.B9.9B2A2B3.3B4.A12B9.B.B$5.BABA2B6.
11BA10B2.BA2BA11B6.6B$5.2AB2AB.2B3.17B2A3BA2BA2BA11B3.2B.2B3AB$6.
3BA5B.8B3A9BA2B3ABA3B3A8B.5BA2BA$6.3BABA3B2.6B3A7B3A3BA4BABA10B2.
5BA3B$5.5BAB2A8BA4BA13B4ABA3BA17BA$4.4BA3BABA7BA2B2A5B.8B.A3BAB3A
9B5A3BAB$5.5B2A2BA7BABA3BA10B2.BA3B5A9B3ABA3BA$.8BA4BA8B2ABA5B.5B
4.A17BA3BAB4A3B$B3A7B3A6B2.3BABA3B2.5B5.3BA5B2.10BABA4BA2B$A9B3A8B
.5BA3B2.5B5.A2BA5B.8B3A3BAB3A2B$.2A17B3.2B.B2AB2A.5B4.B3A2B.2B3.
11BA2BA2BAB$4.4BA11B6.2BABAB.5B4.6B6.11BA2BAB$5.2B2A9B9.B.A3.5B6.B
.B9.12BA$4.3B2A8B11.3B2.5B5.3B11.7BA5B$4.10B2.B2A8.B2AB2.5B5.B2AB
8.2AB2.5B2AB2A$5.8B3.BA.A8.2A3.5B6.2A8.A.AB3.8B$6.7B6.A13.5B16.A6.
7B$11.2A6.2A12.2BABA15.2A6.2A$11.A3.A17.BA3B24.A$12.4A10.A6.BA3B
21.3A$26.3A4.BA2BA21.A$12.2A3.2A10.A3.B3AB$12.A.A.A.A9.2A3.5B4.B$
14.A.A11.10B2.B3A$9.2A2.A.2AB12.8B2.3AB$8.A.A2.A.BAB11.11B.B$7.A2.
A.2A.B13.11B$8.3A2.4B12.11B.B$11.AB2A3B10.3BA7B.3AB$10.A2.A.2A9.4B
ABA4B3.B3A$10.2A2.2AB9.4BABA4B5.B$14.BA10.5BA5B$14.2B8.2AB.7B.B2A$
15.B4.2A.A.AB.7B.BA.A$14.2AB3.2A.A6.4B5.A$5.2A6.A2BAB5.A6.4B5.2A5.
A$6.A4.3B2A3B4.A.2A4.4B9.3A$6.A.AB.8B.BA.A.A2.A3.4B7.A11.A$7.2AB.
8B.B2A4.2A4.4B6.2A9.A.A$9.12B13.4B.6B9.A2.A$9.12B4.4A6.3BA4B8.2A.
4A$9.12B4.A3.A6.ABA7B5.A.A$11.10B7.2A5.B.2A8B6.A.A3.2A$13.7B8.20B
4.A2B3A2.A$13.8B9.16B2A3BA.2B3.2A$12.5B.4B7.2B2A9B2A2B2A.2B6AB$12.
6B.4B5.2BA2BA7BABA3B4.4B.AB2A$11.6B3.4B4.3B2A4B2.2B2A3B7.B2.2A2.A$
7.B2.3BA3B4.4B.9B4.7B13.2A$5.7BABA2B5.12B6.3B$5.7BABA2B6.10B7.5B$
4.9BA3B7.9B10.2A$4.11B.B2A6.9B9.A$5.9B2.BA.A6.7B11.3A$5.3BA3B7.A7.
6B13.A$6.3BA2B7.2A8.2B$7.3AB!
