#CSYNTH guntrue_1132 costs 6825 cells.
#C period 1132 fullperiod 1132 bbox 75 by 91
#CLL state-numbering golly
x = 75, y = 91, rule = LifeHistory
49.2A$49.A.A$51.A$51.2A6.2A$52.B.2B2.B2AB$51.2A3B3.2B$46.A3.B2A4B.
4B$45.A.A2.12B$46.A2.14B6.2A$47.17B5.A$46.17B3.BA.A$45.20B.B2A$44.
23B$43.24B$42.25B$41.4B3.18B$40.4B5.15B$39.4B5.12B$38.4B5.2A10B$
37.4B5.A.AB.11B$36.4B6.A4.12B$35.4B6.2A4.12B7.2A$34.4B14.11B2.2A2.
A2.A$33.4B13.4B.8B2.A.A2.2A$32.4B14.2A4.7B3.B.2A$23.A7.4B16.A4.7B
2.2B2.A$21.3A6.4B14.3A6.6B.2BAB.A.2A$20.A8.4B15.A8.8BA.A.2A.A$19.A
.A6.4B25.8B.A.A$18.BA.A5.4B27.5B4.A2.2A$17.3BA5.4B28.6B4.2A.3A$15.
4B6.4B28.6B6.B4.A$13.6B5.4B29.7B3.B2AB3A$12.7B4.4B31.6B2A.B2A.A$5.
B.4B.8B2.4B32.5BA4B$4.2AB.17B32.6BA4B$4.2A18B27.2A5.5BA2BAB$5.2B.
16B28.A5.7BA2B$8.16B28.A.AB2.4BABA4B$9.15B29.2AB.6BA5B$10.12B.B2A
29.15B$10.11B2.BA.A28.16B$11.10B5.A28.16B.2B$11.6B2A2B5.2A27.18B2A
$11.6B2A3B32.17B.B2A$11.10B32.4B2.8B.4B.B$7.A.2AB.8B31.4B4.7B$5.3A
B2AB3.7B29.4B5.6B$4.A4.B6.6B28.4B6.4B$5.3A.2A4.6B28.4B5.A3B$7.2A2.
A4.5B27.4B5.A.AB$10.A.A.8B25.4B6.A.A$6.A.2A.A.A8B24.4B8.A$6.2A.A.B
A2B.6B23.4B.B4.3A$9.A2.2B2.7B10.A10.4B.4B.A$9.2A.B3.7B8.3A9.4B.5BA
.A$7.2A2.A.A2.8B.2B3.A11.4B.4B.2BAB$6.A2.A2.2A2.12B2.2A9.4B.4B3.2B
$7.2A7.12B.3B2.2B2.B.4B.4B3.2B$16.14B3.10B.4B3.B2AB$17.14B.10B.4B
5.2A$8.2A10.21B.4B$9.A8.27B$9.A.AB4.28B$10.2AB.31B$12.34B$12.34BA$
12.33B.3A$13.30B6.A$14.28B6.2A$16.27B$16.4B3.20B$12.2A3.2B3.20B$
11.B2AB6.20B$11.4B5.4B.4B.9B$12.2B5.4B7.8B$3.2A7.4B2.4B9.4B$3.A.A
5.5B.4B$4.A.14B$5.14B$5.14B$5.15B$4.3B2A12B$4.3B2A13B$2.2AB.11B2.
4B$.A.AB2.8B5.4B$.A5.10B4.4B$2A5.B.B5.2A5.4B$8.3B4.A7.3BA$7.B2AB5.
3A5.3BA$8.2A8.A6.3AB!
