#CSYNTH guntrue_1140 costs 2961 cells.
#C period 1140 fullperiod 1140 bbox 63 by 47
#CLL state-numbering golly
x = 63, y = 47, rule = LifeHistory
29.2ABAB4.A7.A$4.2A4.2B4.2A10.A.B.ABA2.B3A4.ABA4.2A$3.A2.A.6B.A2.A
9.ABA2.2B3.B4A2.2B4.A.2BA$3.3A2.6B2.3A7.2A3.B.2A5.B.2BA.BA3.A.AB.A
$6.10A9.A2.4AB2.A6.A.2B4ABAB2.2A$5.A2.6A2.A9.A6.5A2.5A3.A2B$5.2A.B
4AB.2A6.4A.5A3.2B.AB3A.4A2B4.2A$10.2B10.A4.A5.2A2.2B.2B2.B2.A.A.2A
3.A$10.2B11.3A.A.3A.A2.2A.AB.4A2B.A.A2.A$11.B13.A.A2.A2.A3.B3AB.2B
.BABA2.A.2A$10.2AB13.A.A3.A5.BAB.4B.B2.B2A.A2.A$.2A6.A2BAB5.2A4.2B
A.3A8.8ABA2B.2A.2A$2.A4.3B2A3B4.A4.ABABA13.4A2.A2.A2.A.A$2.A.AB.8B
.BA.A3.BAB4.4A9.2B3.A.4A2.A$3.2AB.8B.B2A4.A2.B3A3.A9.2B4.A6.2A$5.
12B7.3A3.AB4.B3.5B6.A$5.12B9.3ABAB2.12B4.2A$5.12B3.2A2.2A2.2A14BAB
$7.10B3.A2.A.A4.12B2AB2A.B$9.7B5.3A6.12BA7B$9.8B7.A5.12BA3BA4B$8.
5B.4B5.2A4.14B3A5B$8.6B.4B4.9B5.3B.11B$7.6B3.4B5.7B5.17B$3.B2.3BA
3B4.4B2.8B8.17B$.7BABA2B5.15B8.11B.3B2.4B$.7BABA2B6.15B8.5B3A12B$
9BA3B7.3BABA8B8.4BA3BA10B2A$11B.B2A6.2B2A6B3.B2A6.7BA10B2A$.9B2.BA
.A6.2BA4B5.3AB6.B.2AB2A9B.B$.7B7.A5.9B3.A.2AB9.BA10B$2.6B7.2A4.4B
2A2B3.A.A.2B2.A6.12B$3.4B16.2B2A2B3.A2.A4.3A5.5B3.B$4.4B15.5B5.2A
8.A4.2B$5.4B15.3B13.2A.AB3.2B8.A$6.4B13.5B10.A2.3A.A.4A6.BAB$7.4B
12.2AB2AB9.2A3.2A.7ABABA.BA$8.4B7.2A2.BA.2A2.2A11.2AB.4B.B2ABA.AB$
9.4B6.A2.A.A3.B2.A9.2A2.2B.2B.B2A3.A3.A$10.4B7.2A.7A9.A2.3A.4A.BA
4.4A$11.4B8.A17.A4.2B3.2B.2A$12.4B7.A.4A13.4A.2B2AB3AB4.2A$13.4B7.
2A2.A15.A2.B2A.B3.3A2.A$14.4B28.A4.2ABA3.A.A$15.3BA26.2A.3A2.A.2A
2.A$16.3BA25.A2.A2.A.A.A.2A$17.3AB25.2A2.2A.2A!
