#CSYNTH guntrue_2438 costs 10530 cells.
#C period 2438 fullperiod 2438 bbox 162 by 65
#CLL state-numbering golly
x = 162, y = 65, rule = LifeHistory
45.2A84.2A$44.A.A63.2A19.A.A$38.2A4.A20.2A42.A.A21.A4.2A$36.A2.A2.
2A.4A16.A.A35.2A4.A19.4A.2A2.A2.A$36.2A.A.A.A.A2.A18.A4.2A27.A2.A
2.2A.4A15.A2.A.A.A.A.2A$39.A.ABABAB16.4A.2A2.A2.A25.2A.A.A.A.A2.A
17.BABABA.A$39.A.AB2AB17.A2.A.A.A.A.2A28.A.ABABAB20.B2ABA.A$40.AB.
2B20.BABABA.A31.A.AB2AB22.2B.BA$43.3B20.B2ABA.A32.AB.2B22.3B7.A$
34.A8.4B6.2A12.2B.BA36.3B12.2A6.4B7.3A$32.3A6.3B2AB6.A12.3B39.4B6.
2A4.A6.B2A3B8.A$31.A9.3B2AB3.BA.A3.2A6.4B37.3B2AB6.A5.A.AB3.B2A3B
7.A.A$30.A.A6.10B.B2A5.A6.B2A3B35.3B2AB3.BA.A6.2AB.10B5.A.AB$29.BA
.A5.13B7.A.AB3.B2A3B33.10B.B2A9.13B5.A3B$28.3BA5.14B8.2AB.10B30.
13B11.14B6.4B$26.4B6.15B10.13B28.14B11.15B5.6B$24.6B5.4B2.8B12.14B
26.15B13.8B2.4B4.7B$23.7B4.4B5.6B12.15B24.4B2.8B15.6B5.4B2.8B.4B.B
$16.B.4B.8B2.4B4.9B13.8B2.4B22.4B5.6B14.9B4.17B.B2A$15.2AB.17B5.2A
4.4B12.6B5.4B20.4B4.9B12.4B4.2A5.18B2A$15.2A18B7.A5.4B10.9B4.4B18.
4B5.2A4.4B10.4B5.A6.16B.2B$16.2B.16B4.3A7.4B8.4B4.2A5.4B16.4B7.A5.
4B8.4B7.3A3.16B$19.16B4.A10.4B6.4B5.A7.4B14.4B5.3A7.4B6.4B10.A3.
15B$20.15B16.4B4.4B7.3A5.4B12.4B6.A10.4B4.4B11.A.2AB.12B$21.12B.B
2A15.4B2.4B10.A6.4B10.4B19.4B2.4B10.2A.A.AB2.11B$21.11B2.BA.A15.8B
19.4B8.4B21.8B11.A2.A5.10B$17.2A3.10B5.A16.6B21.4B6.4B23.6B14.2A5.
2B2A6B$18.A3.6B2A2B5.2A16.4B23.4B4.4B25.4B21.3B2A6B$17.A4.6B2A3B
21.6B23.4B2.4B25.6B21.10B$17.2A3.10B21.8B23.8B25.8B20.8B.B2A.A$20.
2AB.8B20.4B2.4B23.6B25.4B2.4B18.7B3.B2AB3A$17.2AB2AB3.7B18.4B4.4B
23.4B25.4B4.4B17.6B6.B4.A$18.A.B6.6B17.4B6.4B21.6B23.4B6.4B17.6B4.
2A.3A$16.A3.2A4.6B17.4B8.4B19.8B21.4B8.4B16.5B4.A2.2A$16.4A2.A.8B
16.4B10.4B6.A10.4B2.4B19.4B10.4B14.8B.A.A$19.A.A.A9B14.2A2B12.4B5.
3A7.4B4.4B10.A6.4B12.4B4.A8.8BA.A.2A.A$16.2A.A.BA2B.7B8.A4.ABAB14.
4B7.A5.4B6.4B7.3A5.4B14.4B3.3A6.6B.2BAB.A.2A$17.A.A2.2B3.6B6.3A3.
3BA16.4B5.2A4.4B8.4B5.A7.4B16.4B5.A4.7B2.2B2.A$16.A2.2A.B4.7B4.A5.
4B18.4B4.9B10.4B4.2A5.4B18.4B3.2A4.7B3.B.2A$16.A.A2.A.A3.7B4.2A3.
4B20.4B5.6B12.9B4.4B20.4B2.4B.8B2.A.A2.2A$17.A.A2.2A3.8B.4B2.4B22.
4B2.8B13.6B5.4B22.4B3.11B2.2A2.A2.A$18.A8.11B3.4B24.15B11.8B2.4B
24.4B.12B7.2A$27.12B.4B26.14B9.15B26.16B$27.16B28.13B9.14B27.15B$
12.2A3.A10.14B30.10B.B2A7.13B28.12B$12.A4.3A11.10B33.3B2AB3.BA.A4.
2AB.10B19.2A6.15B$7.2A5.A5.A9.12B32.3B2AB6.A3.A.AB3.B2A3B22.A6.16B
$7.A5.2A4.2A6.16B33.4B6.2A2.A6.B2A3B22.A.AB2.18B$4.2A.A.3B7.24B6.A
26.3B10.2A6.4B25.2AB.19B.B$4.A2.A.2A2B2A6.23B3.3A23.AB.2B20.3B27.
22B2A$6.2A.A.2B2AB4.24B2.A25.A.AB2AB20.2B.BA24.22B2A$9.A.4B5.24B.B
.A24.A.ABABAB18.B2ABA.A23.23B$9.2A.2BAB3.27B2A21.2A.A.A.A.A2.A15.B
ABABA.A24.17B2.5B$12.2B2A6B.22BA2.2A19.A2.A2.2A.4A13.A2.A.A.A.A.2A
22.15B6.2A$2A.2A7.3B2A4B3.2B7.B3.2B3.3B3A2.A20.2A4.A17.4A.2A2.A2.A
24.4B2.4B9.A$2A.A8.8B3.2BAB5.3B.4B3.2B4.A27.A.A19.A4.2A24.5B3.B13.
3A$3.A.B3.2A8B5.A.A4.B2AB.B2AB5.4A29.2A17.A.A30.2A5.2A15.A$3.2A2B.
3BA7B6.A6.2A3.2A7.A50.2A32.A5.A$.2A2.A2BAB2A7B25.A83.3A7.3A$A2.AB
2A12B25.2A82.A11.A$2A.A.AB3.7B.B2A$.A2.3AB2.7B.BA.A$.A5.A4.2BAB5.A
$2.5A5.3BA5.2A$4.A8.3AB!
