#CSYNTH guntrue_9994 costs 9545 cells.
#C period 9994 fullperiod 9994 bbox 115 by 83
#CLL state-numbering golly
x = 115, y = 83, rule = LifeHistory
24.2A$24.A24.2A$9.2A14.3A6.2A13.A$8.B2AB6.2A7.A4.2B2AB9.BA.A$9.3B
5.B2AB7.3B.4B6.3B.B2A13.2A$10.B7.3B6.11B2.7B14.B2AB$8.5B3.2B.B3.B.
22B15.2B$6.4BA35B17.2B3.B$5.4BABA35B15.4B.B2A24.2A$5.4BABA37B11.8B
2A18.A.2A.A.A$6.4BA41B2.2B2.6B2AB.B19.2A.A.A$8.56B2A26.2AB$10.31B.
24B26.2B$10.13B.16B2.28B22.4B2.B$11.12B5.4B.7B2.28B23.8B$10.13B6.
2B2.6B4.26B2A22.8B$11.12B10.6B11.4B.14B2A21.8B2A$12.10B13.3B13.4B
2.11B.B21.2B2A3B.B2A$12.8B13.7B12.4B2.10B23.BABA4B.B$12.5B16.2A.B.
2A13.14B24.ABA4B$11.6B17.A3.A15.14B23.BA7B$11.7B13.3A5.3A12.13B25.
8B$12.5B14.A9.A12.13B26.7B$4.2A6.5B37.8B.2B28.8B$4.A.A3.7B37.8B31.
8B$6.A2.8B37.9B30.7B$5.A.12B35.10B29.7B$5.2A.11B34.7B.4B28.8B$8.4B
2A5B33.8B2.4B26.10B$9.3B2A5B32.8B4.4B26.10B$9.10B32.8B5.4B24.7B.4B
$10.9B30.2AB2.6B5.4B23.6B3.4B$10.9B29.A.AB.7B6.4B22.6B4.4B$10.8B
30.A4.6B8.4B21.6B5.4B$11.8B28.2A4.6B9.4B4.2A13.8B5.4B$12.6B35.6B
10.4B2.B2AB13.8B5.4B$12.6B4.2A28.8B10.4B.3B13.9B6.4B$12.6B4.A30.8B
10.4B.B14.9B7.4B$11.7B.BA.A29.9B11.8B.B9.10B7.4B$11.6B2.B2A30.9B
11.11B8.5B2A3B8.4B$4.2A6.8B32.10B9.12B8.5B2A4B8.4B$5.A6.8B32.10B9.
13B7.11B9.3BA$5.A.AB2.8B33.3B3A5B9.12B7.12BA.2A5.ABA$6.2AB2.7B34.
3BA2BA4B.2A7.14B6.8B2.2A.A6.2A$8.9B35.2BA3BA5B.A8.14B5.7B14.B$8.9B
37.BA2BA3B2.A10.14B4.6B$9.8B37.BABA3B3.A.A6.16B4.6B$6.2B.8B37.5B6.
2A4.A.2AB.12B3.8B$4.13B12.A9.A14.5B10.3AB2AB3.20B$4.13B12.3A5.3A
13.7B8.A4.B5.12BA7B$3.14B15.A3.A17.6B9.3A.2A5.10BABA6B$4.14B13.2A.
B.2A16.5B12.A.A4.12BABA7B$3.10B2.4B12.7B13.8B14.A2.A.2AB.9BA7B$.B.
11B2.4B13.3B13.10B14.4AB2AB3.7B.7B$2A14B.4B11.6B10.12B18.B5.16B4.
2A$2A26B4.6B2.2B6.13B14.2A.2A5.3B.10B5.A$.28B2.7B.4B5.12B16.A.A4.
5B2.9B2.BA.A$.28B2.16B.13B15.A.A4.2A5.9B2.B2A$5.24B.31B16.A6.A4.
13B4.2A$5.2A56B18.3A5.13B4.A.A2.2A$2.B.B2A6B2.2B2.41BA4B16.A6.14B
6.A3.A$.2A8B11.37BABA4B21.A13B3.4A.3A$.2AB.4B15.35BABA4B19.3A.12B
3.A2.A.A$2.B3.2B17.35BA4B19.A5.5B.5B6.ABAB3A$7.2B15.22B.B3.B.2B3.
5B21.2A6.2B2.6B6.2ABA2.A$6.B2AB14.7B2.11B6.3B7.B35.7B4.4B2.2A$7.2A
13.2AB.3B6.4B.3B7.B2AB5.3B33.16B$21.A.AB9.B2A2B4.A7.2A6.B2AB31.13B
A2B$21.A13.2A6.3A14.2A28.16BABAB$20.2A24.A42.17BA2BA$45.2A42.18B2A
B$89.21B$91.17B.B2A$93.13B3.BA.A$91.4B3.10B4.A$91.2A6.4B3.2A4.2A$
92.A5.A3.2B2.A$89.3A4.3A2.B2A3.3A$89.A5.A6.A.A5.A$95.2A3.A.A.6A$
100.2A$106.2A$106.2A!
