#CSYNTH guntrue_1115 costs 7371 cells.
#C period 1115 fullperiod 1115 bbox 91 by 81
#CLL state-numbering golly
x = 91, y = 81, rule = LifeHistory
73.2A$62.2A7.2B2AB$61.B2AB6.4B$62.2B4.6B4.2A$61.2B4.2BA5B2.B2AB$
59.9BA3BA3B.3B$58.10B2A6B2.B.2B$56.9B3A2BA2BA3B3A3B$55.10BA2B3A4BA
3B2A3B$54.11BA6BA2BABA2B2A3B$45.A7.13B2A2B2A2BA5BA4B$43.3A6.4B3.9B
2A5BA2B2A5B$42.A8.4B5.B.13BA2B.B4.B2A$41.A.A6.4B9.2B.10B8.BA.A$40.
BA.A5.4B15.7B12.A$39.3BA5.4B15.11B9.2A$37.4B6.4B16.12B$35.6B5.4B
17.12B$34.7B4.4B19.11B8.A$27.B.4B.8B2.4B18.4B.8B3.2A2.A.A$26.2AB.
17B19.2A4.7B3.A.A2.A.A$26.2A18B21.A4.7B4.B.2A2.A$27.2B.16B18.3A6.
6B3.2B2.A.A$30.16B18.A8.7B.2BAB.A.2A$31.15B27.9BA.A.A$32.12B.B2A
26.8B.A2.4A$32.11B2.BA.A25.6B4.2A3.A$33.10B5.A24.6B6.B.A$33.6B2A2B
5.2A23.7B3.B2AB2A$33.6B2A3B30.8B.B2A$33.10B31.10B3.2A$29.A.2AB.8B
30.3B2A6B4.A$27.3AB2AB3.7B23.2A5.2B2A6B3.A$26.A4.B6.6B24.A5.10B3.
2A$27.3A.2A4.6B25.A.AB2.11B$29.2A2.A4.5B26.2AB.12B$32.A.A.8B27.15B
$28.A.2A.A.A8B8.A18.16B$28.2A.A.BA2B.6B6.3A18.16B.2B$31.A2.2B2.7B
4.A21.18B2A$31.2A.B3.7B4.2A19.17B.B2A$29.2A2.A.A2.8B.4B18.4B2.8B.
4B.B$28.A2.A2.2A2.11B19.4B4.7B$29.2A7.12B17.4B5.6B$38.12B16.4B6.4B
$39.11B15.4B5.A3B$28.2A12.9B13.4B5.A.AB$29.A11.10B.2B9.4B6.A.A$29.
A.AB4.B.2BA13B7.4B8.A$30.2AB2.2B2A2BA5B2A9B3.4B6.3A$32.4BA5BA2B2A
2B2A13B7.A$31.4B2A2BABA2BA6BA11B$31.5B2A3BA4B3A2BA10B$31.6B3A3BA2B
A2B3A9B$31.16B2A10B$30.4B.B5.3BA3BA9B$29.4B11.3BA10B$28.4B12.14B$
2A.2A22.4B14.2B4.3B$2A.2AB20.4B3.A10.2B6.B$5.2AB4.A12.4B4.3A7.B2AB
9.A$5A2BA4.3A9.4B8.A7.2A9.A.A$A3.A.2BA6.A7.4B8.2A17.B2AB$2.A2.3B6.
2A6.4B9.5B7.2A2.A3B2A$.5AB7.6B.4B7.A4.3BAB4.B2A2BA2B2AB$A4.B.A8.8B
6.3A3.3BABA5BAB.2BABAB$A.ABA3BA4.10B6.A5.4BA2BA2B.BA3BA.2A$.2A.3BA
B3.10B.B5.2A5.4B2A3B.BA.B.A.A$4.A.AB3.BA18B6.6B5.2A.A.A.A$.5A5BABA
15B9.5B7.A.A.2A$.A2.BA4B.ABA12B2A2B7.7B6.A.A$2.4A2B4.A12BA2BA2B5.
4B.4B6.2A$A.A2.A2B5.7B2.4B2A3B4.4B3.4B$2A2.2A7.7B4.9B.4B5.4B$5.A.A
8.3B6.12B7.4B$3.A2.A.A5.5B7.10B9.4B$3.2A.A.A5.2A10.9B11.4B$5.A.A7.
A9.9B13.4B$5.A6.3A11.7B15.3BA$4.2A6.A13.6B17.3BA$28.2B20.3AB!
