#CSYNTH guntrue_1971 costs 5913 cells.
#C period 1971 fullperiod 1971 bbox 73 by 81
#CLL state-numbering golly
x = 73, y = 81, rule = LifeHistory
19.2A6.A11.2A$18.A2.A4.A.A9.A2BA$15.A2.3A.A3.A.A9.A2B$13.3A5.A.A.
2A.2A9.B.A$12.A5.2A3.A.A2.B8.A3BA$12.2A4.A.4A2.AB2A6.B2A3B$9.5B6.A
3.A.A.2A4.5B3A$8.4B7.A2.BA.A2.5B3A5B$7.5B6.A.2BA.A5.3B3A7B$6.6B6.
2A.2BA5.3BA11B$4.B.6B10.3B4.3B2A3B2A5B$3.2AB.6B10.2B.B.9B2A6B$3.2A
7B4.21BA7B$4.2B.6B2.21BA3BA5B$7.6B2.25BA6B$.B3.9B.27B3.B2A$2AB.37B
4.A2.A$2A23B2.2B2.B3.6B5.2A.A$.21B14.6B7.A$.19B14.9B6.2A$3.16B15.
2A4.4B$3.17B15.A5.4B$3.17B12.3A7.4B$4.10B.3B.B2A10.A10.4B$5.9B5.BA
.A21.4B$5.8B9.A22.4B$2.B2.9B8.2A22.4B$.2AB.9B33.4B$.2A10B35.4B$2.B
.8B37.4B$5.8B36.4B$5.7B37.5B$6.5B37.9B$7.4B37.9B$7.4B37.9B$8.4B35.
10B$9.4B33.12B$10.4B22.2A8.13B$11.4B22.A9.11B$12.4B21.A.AB4.12B$
13.4B10.A10.2AB.15B$14.4B7.3A12.17B$15.4B5.A15.17B$16.4B4.2A15.17B
.B$9.2A6.9B14.19B2A$10.A7.6B14.19B.B2A$10.A.2A5.6B3.B2.2B2.20B4.B$
11.A2.A4.36B$12.2AB3.27B.9B$13.6BA25B2.7B7.A$14.5BA3BA21B2.7B5.3A$
15.7BA21B4.6B4.A$15.6B2A9B.B.2B10.7B4.2A$16.5B2A3B2A3B4.3B10.6B.5B
$16.11BA3B5.A2B.2A6.10B9.2A$17.7B3A3B5.A.A2B.A7.10B8.A.A$19.5B3A5B
2.A.AB2.A8.10B.B8.A$18.3A5B4.2A.A.A3.A7.16B3.B.BA.2A$18.3B2AB6.2AB
A2.4A.A5.2A.14B.B2A.A.A$18.A3BA8.B2.A.A3.A.A5.A3.14B2A.A.A$18.A.B
9.2A.2A2.A2.A.A2.3A4.8B2A5B2.A.2A$19.2BA9.A.A2.2A3.A3.A4.2AB.5BA2B
A3B4A2.A$18.A2BA9.A.A15.A.AB.6B2A2B.BAB2.2A$19.2A11.A9.A6.A5.7B6.
2A$42.3A3.2A5.4B.2B7.A$45.A8.4B9.A$44.2A7.4B10.2A$44.5B3.4B$35.2A
9.3B2.4B$34.A.A8.9B$34.A8.B.8B$31.2A.AB.B3.BA9B$32.A.A.2AB.3A9B$
32.A.A.2A2B2A10B$31.2A.A2.5BA9B$31.A2.4A3BA8B.B2A$32.2A2.BAB.BA8B.
BA.A$34.2A6.7B5.A$34.A7.2B.3BA5.2A$36.A9.3BA$35.2A10.3AB!
