#CSYNTH guntrue_9993 costs 12099 cells.
#C period 9993 fullperiod 9993 bbox 111 by 109
#CLL state-numbering golly
x = 111, y = 109, rule = LifeHistory
69.2A$69.A.A$71.A4.2A$67.4A.2A2.A2.A$61.2A4.A2.A.A.A.A.2A$61.A7.BA
BABA.A$63.A6.B2ABA.A$59.5A7.2B.BA$59.A10.3B$61.B4A3.4B$61.BA2.A3.B
2A3B$61.4B4.B2A3B$57.2A3.15B$57.A2.A.2A14B$59.2A.2A15B$63.B.15B$
66.9B2.4B$66.7B5.4B13.2A$66.9B4.4B13.A$65.4B4.2A5.4B10.A5.2A$64.4B
5.A7.4B9.2A5.A$63.4B7.3A5.4B11.3B.A.2A$62.4B10.A6.4B7.2A2B2A.A2.A$
61.4B19.4B5.B2A2B.A.2A$60.4B21.4B5.4B.A$59.4B23.4B3.4B.2A$58.4B15.
2A8.6BA3B8.2A$18.2A11.A25.4B15.A.A9.4BABA2B8.A.A$17.B2AB9.A.A23.4B
10.2A4.A12.4BA3B.B8.A$18.3B9.A.A2.2A3.A3.A10.4B9.A2.A2.2A.4A9.11B
3.B.BA.2A$17.B.B9.2A.2A2.A2.A.A2.3A7.4B10.2A.A.A.A.A2.A9.12B.B2A.A
.A$17.5B8.B2.A.A3.A.A5.A5.4B14.A.ABABAB11.14B2A.A.A$17.6B6.2ABA2.
4A.A5.2A.7B15.A.AB2AB12.8B2A5B2.A.2A$17.8B4.2A.A.A3.A7.9B17.AB.2B
11.2AB.5BA2BA3B4A2.A$18.13B2.A.AB2.A8.6B21.3B6.2A.A.AB.6B2A2B.BAB
2.2A$16.13B5.A.A2B.A7.5B22.4B6.A.A5.7B6.2A$15.15B5.A2B.2A6.7B19.3B
2AB6.A.A5.4B.2B7.A$15.15B4.3B10.6B20.3B2AB3.BA.A.2A3.4B9.A$14.17B.
B.2B10.7B18.10B.B2A6.4B10.2A$14.29B4.6B17.13B7.4B$13.13B2A16B2.7B
16.14B6.4B$12.14B2A16B2.7B15.15B5.4B$11.2AB3.27B.9B13.4B2.8B6.4B$
10.A2.A4.36B12.4B5.6B5.4B$9.A.2A5.7B2.B2.2B2.20B4.B6.4B4.9B3.4B$9.
A7.7B13.19B.B2A4.4B5.2A4.4B.4B$8.2A6.8B15.19B2A3.4B7.A5.7B$3.2A10.
4B2.2B17.17B.B3.4B5.3A7.5B$4.A9.4B4.2A15.17B5.4B6.A9.5B$2.A10.4B6.
A15.17B4.4B16.7B$2.5A5.4B5.A15.2AB.15B3.4B16.4B.4B$7.A4.4B5.2A13.A
.AB4.12B2.4B16.4B3.4B$4.3AB2.7B.BA.A2.A11.A9.15B8.A7.4B5.4B$3.A.2B
3.7B.B2A2.2A10.2A8.15B7.3A6.4B7.4B$3.4A12B26.14B7.A8.4B9.4B$.2A2.B
A3B2A7B27.12B7.A.A6.4B11.4B$A2.3AB.2B2A7B28.10B7.BA.A5.4B13.4B$2A.
A.B3.10B28.9B7.3BA5.4B15.4B$3.A8.8B27.9B5.4B6.4B17.4B10.2A$3.2A7.
9B27.6B5.6B5.4B19.4B9.A$13.3B2.4B26.5B2.2B.7B4.4B21.4B10.A$11.5B3.
4B25.9B.8B2.4B16.2A5.4B5.5A$11.2A7.4B23.24B18.A5.4B4.A$12.A8.4B21.
24B19.A.AB.7B2.B3A$9.3A10.4B19.4B2.19B20.2AB.7B3.2B.A$9.A13.4B6.A
10.4B4.19B2.2A17.12B4A$24.4B5.3A7.4B7.17BA2.A17.7B2A3BAB2.2A$25.4B
7.A5.4B9.15B.2A19.7B2A2B.B3A2.A$26.4B5.2A4.4B11.12B24.10B3.B.A.2A$
27.4B4.9B13.10B24.8B8.A$28.4B5.6B14.6B2A2B23.9B7.2A$29.4B2.8B14.6B
2A3B21.4B2.3B$30.15B4.2A.2A3.10B21.4B3.5B$31.14B5.A.A2.2AB.8B20.4B
7.2A$32.13B5.A2.AB2AB3.7B18.4B8.A$33.10B.B2A4.A.A.B6.6B17.4B10.3A$
35.3B2AB3.BA.A4.A2.2A4.6B17.4B13.A$35.3B2AB6.A5.2A2.A.8B16.2A2B$
37.4B6.2A5.A.A.A9B14.ABAB$37.3B14.A.BA2B.7B8.A4.3BA$34.AB.2B12.2A.
A2.2B3.6B6.3A3.4B$33.A.AB2AB11.A2.2A.B4.7B4.A5.4B$33.A.ABABAB12.A
2.A.A3.7B4.2A3.4B$30.2A.A.A.A.A2.A11.A2.2A3.8B.4B2.4B$30.A2.A2.2A.
4A8.3A8.11B3.4B$32.2A4.A12.A10.12B.4B$38.A.A21.16B$39.2A11.A10.14B
$52.3A11.10B$55.A9.12B$54.2A6.16B$44.A9.24B6.A$44.3A9.23B3.3A$47.A
7.24B2.A$46.2A7.24B.B.A$46.5B3.27B2A$37.2A9.3B2.4B.22BA2.2A$36.A.A
8.9B3.2B7.B3.2B3.3B3A2.A$36.A8.B.8B3.2BAB5.3B.4B3.2B4.A$33.2A.AB.B
3.BA9B5.A.A4.B2AB.B2AB5.4A$34.A.A.2AB.3A9B6.A6.2A3.2A7.A$34.A.A.2A
2B2A10B25.A$33.2A.A2.5BA9B25.2A$33.A2.4A3BA8B.B2A$34.2A2.BAB.BA8B.
BA.A$36.2A6.7B5.A$36.A7.2B.3BA5.2A$38.A9.3BA$37.2A10.3AB!
