#CSYNTH guntrue_1165 costs 6060 cells.
#C period 1165 fullperiod 1165 bbox 101 by 60
#CLL state-numbering golly
x = 101, y = 60, rule = LifeHistory
57.2A11.A$56.B2AB9.A.A$57.3B9.A.A2.2A3.A$56.B.B9.2A.2A2.A2.A.A$56.
5B8.B2.A.A3.A.A$56.6B6.2ABA2.4A.A$7.2A5.2A2.2A.2A33.8B4.2A.A.A3.A$
7.A2.2A.A2.A2.A.2A34.13B2.A.AB2.A15.2A$8.2A.A.2A.2A.A35.13B5.A.A2B
.A14.A$4.2A3.A.A2.A.A2.A.2A31.15B5.A2B.2A11.BA.A$.A2.A2.A.BAB3A.A.
2A.BA31.15B4.3B12.2A.B2A$.3A2.2ABA2B.A2B2A.B2A31.17B.B.2B12.B2A2B$
4.2A2.5A2B.2B3A32.13BA3B3A9B6.4B$3.A2.A.B6AB.2B2A31.13BABA2B5A8B3.
6B$4.2A4.2B.2A3.B32.14BA8B2A7B2.6B$10.2B38.2AB3.10B3A4B2A8B.7B$11.
B37.A2.A4.B3A7B2A3BA18B$2A8.2AB35.A.2A5.3BA2B3.B2.2B2.21B$A.A6.A2B
AB5.2A27.A7.3BA2B14.12B3A4B$2.A4.3B2A3B4.A27.2A6.9B14.9BA3BA4B$2.A
.AB.8B.BA.A34.4B4.2A15.8BA4BA4B$3.2AB.8B.B2A34.4B5.A15.14BA4B$5.
12B35.4B7.3A12.15B3AB$5.12B34.4B10.A10.2AB.3B2.2B2A2BABAB2A$5.12B
33.4B21.A.AB6.BA2B4ABA.3A$7.10B32.4B22.A8.3BA6B2.BA.A$9.7B32.4B22.
2A7.4B2A3B7.A$9.8B21.2A7.4B31.10B7.2A$8.5B.4B13.A5.B2AB5.4B31.4B.
6B$8.6B.4B10.3A5.3B5.4B31.4B3.B.B$7.6B3.4B8.A9.B.B3.4B31.4B5.3B$3.
B2.3BA3B4.4B7.2A6.6B.4B31.4B5.B2AB$.7BABA2B5.4B3.5B6.10B31.4B7.2A$
.7BABA2B6.9B5.6B2A4B7.2A22.4B$9BA3B7.9B3.8BA3B8.A22.4B$11B.B2A6.
12BAB4A2BAB6.BA.A21.4B$.9B2.BA.A5.11BABABA2B2A2B2.3B.B2A10.A10.4B$
.7B7.A4.12B3A15B12.3A7.4B$2.6B7.2A2.2A14BA14B15.A5.4B$3.4B12.2A14B
A4BA8B15.2A4.4B$4.4B12.16BA3BA9B14.9B6.2A$5.4B11.10B.6B3A12B14.2BA
3B7.A$6.4B12.B3.4B5.20B2.2B2.B3.2BA3B5.2A.A$7.4B14.B2A2B6.18BA3B2A
7B3AB4.A2.A$8.4B14.2A9.7B.8B2A4B3A10B3.B2A$9.4B24.6B2.7B2A8BA14B$
10.4B22.6B3.8B5A2BABA13B$11.4B21.4B6.9B3A3BA13B$12.4B20.2B2AB12.2B
.B.17B$13.4B17.2AB.2A12.3B4.15B$14.4B15.A.AB11.2A.2BA5.15B$15.4B
14.A14.A.2BA.A5.13B$16.4B12.2A15.A2.BA.A2.13B$17.4B29.A3.A.A.2A4.
8B$18.4B26.A.4A2.AB2A6.6B$19.4B24.A.A3.A.A2.B8.5B$20.4B23.A.A2.A2.
2A.2A9.B.B$21.3BA23.A3.2A2.A.A9.3B$22.3BA30.A.A9.B2AB$23.3AB30.A
11.2A!
