#CSYNTH guntrue_795 costs 3402 cells.
#C period 795 fullperiod 795 bbox 54 by 63
#CLL state-numbering golly
x = 54, y = 63, rule = LifeHistory
25.2A$24.A2.A$19.2A2.A.2A.A$19.A3.A2.A.A$20.3A.A2B.2A$22.A.B.A2.A$
22.BAB4A$23.2BAB$13.2A7.4B3A2.2A$13.A2B6.AB3A2.A2.A$14.2B2A4.B2AB
2.2A.A$15.3AB3.B2A5.A.3A$14.B3A2B2AB7.A4.A$14.BA.B2.2AB6.2A.2A.3A$
15.2A4.2B4.2BA.BA.A3.A$22.BAB2.3BA5.A2.A$21.BABA.4B2A3B3A.A$18.2A.
B2A5BA.B3A4.A.A$18.2A7B.2BABA.A2B2A.2A$19.7B2.BA2.A.A.B.A$14.2A3.
7B4.2A2.A.A.A4.A$7.2A3.2B2AB3.6B5.A.A.A.A3.3A$6.B2AB2.4B3.8B4.A.A
2.A3.A8.2A$7.2B3.10B2.4B4.2A6.A.2A5.A$8.2B2.10B3.4B10.2A.A.A5.A$7.
2B2A11B4.4B11.B2.A4.2A$4.B.3B2A12B4.4B10.BABA.2A$3.2A18B5.4B8.B2A.
A.A.5A$3.2AB.15B7.4B6.2A.B.A.B3.A2.A$4.B3.15B7.4B5.2ABAB.4A2B.2A$
8.3B3A11B6.4B3.2A2B3AB.B.A$9.4BA14B2.8B3A3B3.ABAB$9.3BA25B3A3B3.AB
AB$8.30B2A2B3AB.B.A$6.28B2A2B.2ABAB.4A2B.2A$6.28B2A3.2A.B.A.B3.A2.
A$4.31B5.B2A.A.A.5A$4.19B3.4B.3B7.BABA.2A$4.19B4.4B10.B2.A4.2A$5.
16B.B2A3.4B7.2A.A.A5.A$6.15B.BA.A3.4B7.A.2A5.A$2A2.16B5.A4.4B6.A8.
2A$A.A.2AB.14B3.2A4.4B6.3A$2.AB2AB.12B2A.A.A2.A3.4B7.A$.A2.B4.8B2.
B2AB2A2.2A4.4B$.2A.2A4.6B5.B12.4B$2.A.A6.5B4.2A.2A9.5B$2.A.A4.9B3.
A.A3.B7.5B$3.A5.2A4.B2A3.A.A2.3B5.7B$10.A5.A5.A3.3A4.4B.4B$7.3A7.
3A5.2BA2B3.B2A3.4B$7.A11.A5.2BA2B2.B2ABA3.4B$24.2B3A2B.A3BA4.4B$
24.7B.4A6.4B$23.3B3A3B.2AB7.4B$23.3B3A3B.2AB8.4B$24.7B.4A9.4B$24.
2B3A2B.A3BA9.4B$25.2BA2B2.B2ABA10.4B$25.2BA2B3.B2A12.4B$26.3A4.3B
13.3BA$26.3B5.B15.3BA$27.B23.3A!
