#CSYNTH guntrue_989 costs 7128 cells.
#C period 989 fullperiod 989 bbox 88 by 81
#CLL state-numbering golly
x = 88, y = 81, rule = LifeHistory
28.2A$18.A9.A.A$18.3A9.A2.2A$21.A7.2A.A.A$20.2A5.4B.A$15.2A3.4BA4B
4A$14.A.A5.BABA3BAB2.2A$11.A2.A.A.AB.2BA2BA2B.3A2.A$10.A.A.A2.2AB.
3B2A2B4.A.2A15.2A15.2A$11.A2.A4.9B4.A6.A12.A16.A14.2A$14.2A3.9B3.
2A4.3A10.A18.A.AB11.2A$16.AB.9B8.A13.2A18.2AB.B.3B$14.3A12B7.2A13.
B20.7B3.4A$13.A2.B.12B3.5B13.3B18.7B2.A3.A$13.2A3.18B14.6B16.7B.2B
AB$18.18B3.B2.B3.B2.10B11.10BABAB$16.2A.41B3.2B2.13B2A2B$16.A3.33B
2A28B.2A$14.A.A3.33B2A26B4.A$14.2A4.8B3.48B6.A.A$19.8B3.49B7.2A$
19.7B3.51B$17.2AB.5B3.13B2A3B4.13B.4B8.4B$16.A.AB.5B4.10B.B2A2B5.
7B.B4.4B10.4B$16.A5.4B4.15B18.4B12.4B$15.2A5.3B6.5B2.8B16.4B14.4B$
32.2B5.2B2A3B2.B12.4B16.4B$31.2A4.3BA2BA2B.B2A10.4B18.4B$2.A7.2A
19.A4.4BA2BA4B2A9.4B20.4B$2.3A5.A.A.2A17.A3.4B2A3B.2B9.4B22.3BA$5.
A6.A.A.A7.A7.2A5.8B10.ABAB24.ABA$4.2A5.AB.A2.A5.A.A14.8B8.B2AB26.
2A$4.4B2.B2AB.2A5.2BAB15.8B6.3BA28.B$6.3B2.2A2B8.2B17.2B2.4B4.4B$
6.4B.BA2B7.3B22.4B2.4B$2A5.4B4AB5.4B23.8B$.A5.3BA3B2A2B3.2B2A2B22.
2B2A2B$.A.AB.10BA6B2A2B23.BABA$2.2AB.21B22.2BA3B$4.6B3A6B3A6B20.8B
$4.6B3A6B3A6B19.4B2.4B$4.6B3A6B3A6B18.4B4.4B$5.21B.B2A15.4B6.4B$5.
2B2A6BA10B.BA.A13.4B8.4B$5.2B2A2B3.2B2A3BA3B5.A12.4B10.4B$7.4B5.B
4A4B5.2A10.4B12.4B$7.3B7.2BAB.4B15.4B14.4B10.2A$7.2B8.2B2A2.2BAB
13.4B16.4B9.A$6.BA2B5.2A.B2AB2.2B2A11.4B11.2A5.4B.2B7.A$6.A.A5.A2.
A.BA4.2A2B9.4B13.A5.7B6.2A$7.A7.A.A.A6.4B7.4B14.A.AB.10B.BAB2.2A$
16.2A.A.A4.7B3.4B16.2AB.12B4A2.A$20.2A3.14B19.9B2A4B2.A.2A$24.14B
20.9B2A3B2A.A.A$25.12B21.12B.B2A.A.A$25.11B22.11B3.B.BA.2A$25.11B
21.8B.B8.A$25.12B19.3A6B8.A.A$23.2AB.10BA10.A6.3BA2.3B9.2A$22.A.AB
3.4B2.ABAB7.3A5.3BA3.5B$22.A7.3B3.2A2B5.A7.4B7.2A$21.2A5.5B4.4B4.
2A5.4B8.A$28.2AB7.9B4.4B10.3A$29.A9.2BA3B5.4B13.A$26.3A10.BA6B2.4B
$26.A10.2B2A2BA2B2A4B$37.B3ABABAB3A2B$37.2B2A2BA2B2A2B$35.2AB.BA5B
A2B$34.A.AB3.5AB$34.A6.B3A2B$33.2A6.2BAB$42.3B$43.2B.BA$42.B2ABA.A
$41.BABABA.A$39.A2.A.A.A.A.2A$39.4A.2A2.A2.A$43.A4.2A$41.A.A$41.2A!
