#CSYNTH guntrue_579 costs 4425 cells.
#C period 579 fullperiod 579 bbox 75 by 59
#CLL state-numbering golly
x = 75, y = 59, rule = LifeHistory
45.2A$45.A.A$47.A4.2A$43.4A.2A2.A2.A10.A$43.A2.A.A.A.A.2A9.BAB$45.
BABABA.A13.AB$46.B2ABA.A12.2BABA$47.2B.BA14.A.2AB.2A$46.3B7.A10.6A
.A$16.A16.A3.2A6.4B7.3A9.2B4.A$15.BAB13.3A4.A6.B2A3B8.A10.4A$13.B
2A2.A.2A8.A7.A.AB3.B2A3B7.A.A8.BA.B$10.2A.A2B3AB2AB7.2A7.2AB.10B5.
A.AB7.BA.2A$9.A.2A.B.2B4A5.5B9.13B5.A3B7.A3B$8.A.A2.2A3B2.B4.BA3B
11.14B6.4B7.BA$8.A.A2.A2.2AB3A3BABA3B10.15B5.6B6.BA$9.A4.A.A.BAB.
2BA2BA4B11.8B2.4B4.7B3.BA.A$13.2A.A.B2.4B2A4B12.6B5.4B2.8B3.B2A$
12.A3.2A6.6B12.9B4.17B$13.3A8.5B12.4B4.2A5.16B$15.A7.7B10.4B5.A6.
16B$22.4B.4B8.4B7.3A3.16B$21.4B3.4B6.4B10.A3.15B$20.4B5.4B4.4B11.A
.2AB.12B$19.4B7.4B2.4B10.2A.A.AB2.11B$18.4B9.8B11.A2.A5.10B3.2A$
17.4B11.6B14.2A5.2B2A6B3.A$16.4B13.4B21.3B2A6B4.A$2A13.4B13.6B21.
10B3.2A$.A12.4B13.8B20.8B.B2A$.A.AB2.B5.4B13.4B2.4B18.7B3.B2AB2A$
2.2AB.3B3.4B13.4B4.4B17.6B6.B.A$4.6B.4B13.4B6.4B17.6B4.2A3.A$4.10B
13.4B8.4B16.8B.A2.4A$4.2B2A5B13.4B10.4B14.9BA.A.A$5.A2BA3B13.4B12.
4B4.A8.7B.2BAB.A.2A$5.BABA4B11.4B14.4B3.3A6.6B3.2B2.A.A$6.BA6B9.4B
16.4B5.A4.7B4.B.2A2.A$6.3B2.4B7.4B18.4B3.2A4.7B3.A.A2.A.A$3.B2.3B
3.4B5.4B20.4B2.4B.8B3.2A2.A.A$2.3A.A.B4.4B3.4B22.4B3.11B8.A$2.3ABA
B6.4B.4B24.4B.12B$3.BA.2A7.7B7.A18.16B$2.3A.3B7.5B8.3A17.B3A10B10.
A$.B.A2BA2.A5.6B6.2A3.A17.A9B11.3A$2A.A2B4A4.4B2A4B2.A.A.2A17.2BA
9B9.A$.BAB.B4.2A.4BA2BA2B.A2B.A.A4.A12.16B6.2A$2.A2BA.2A.A3.3BABA
4BA3BA2.A2.A.A4.A6.24B$2.BA.2A.A.A4.3BAB4.A2.B4A2.A.A4.3A3.23B$4.A
4.A3.5B5.4B2A.B.2A.A8.A2.24B$3.2A8.2A7.AB2AB2A2BA.BA8.A.B.24B$3.A.
2A7.A8.AB.B2.2BA11.2A27B$4.A2.A3.3A13.3A11.2A2.A22B.4B$5.2A4.A16.B
11.A2.3A3B3.2B3.B7.2B3.4B$41.A4.2B3.4B.3B5.BA2B3.3BA$42.4A5.B2AB.B
2AB4.A.A5.ABA$44.A7.2A3.2A6.A7.2A$46.A27.B$45.2A!
