#CSYNTH guntrue_2709 costs 3610 cells.
#C period 2709 fullperiod 2709 bbox 95 by 38
#CLL state-numbering golly
x = 95, y = 38, rule = LifeHistory
68.A$68.3A$71.A$70.2A$19.A50.4B19.2A$19.3A9.A40.5B.B3.B10.A$22.A7.
A.A20.A9.3B4.ABA14B3.BA.A$21.2A7.A.A18.3A9.3B3.3BA16B.B2A$21.5B3.
2A.3A15.A11.29B$23.BAB4.B4.A14.2A8.11B2AB2A15B$17.2A3.B3AB.B2AB3A
13.4B8.9BAB2AB2A15B$10.4B3.2BA.B5A.3A.A15.2B10.30B$8.B.4A.BA2B2.2A
3B3A15.8B4.17BA17B$7.4A2.3A.B2.3A3B3A8.2A3.11B2.15B2A10B2.6B$6.A.
3A2.2A.2A2.B2A3B2AB7.B2AB2.11B2A7B.7B2A8B6.3B$7.AB2.B2.B.A3.2B5AB
8.3B3.11B2A15B2.6B$10.5A.A3.3B3A2B5.2B2.B4.9BA17B4.4B$11.2B.2A5.3B
A5B.34B$21.5B.22B2AB2ABA9B$23.26B2AB2A11B$11.A12.39B$11.3A10.4B3.
21BA3B3.3B$14.A8.4B9.B.14BABA4.3B$13.2A7.4B16.5B.5B$13.5B3.4B19.B
6.4B$4.2A9.3B2.4B19.B9.2A$3.A.A8.9B19.BAB8.A$3.A8.B.8B20.2A.2A7.3A
$2A.AB.B3.BA9B20.B5A9.A$.A.A.2AB.3A9B21.2A.B$.A.A.2A2B2A10B21.BA$
2A.A2.5BA9B20.2B$A2.4A3BA8B.B2A18.ABA$.2A2.BAB.BA8B.BA.A18.A$3.2A
6.7B5.A$3.A7.2B.3BA5.2A$5.A9.3BA$4.2A10.3AB!
