#CSYNTH guntrue_78 costs 1517 cells.
#C period 78 fullperiod 78 bbox 41 by 37
#CLL state-numbering golly
x = 41, y = 37, rule = LifeHistory
36.2A$36.A$24.A12.A$24.3A7.4A$27.A6.A$26.2A8.B3A$26.5B5.BA2.A$28.
9B2.2A$18.2A2.AB3.10B$18.A2.A.AB.12B$19.A.2A16B$12.2A6.A3.16B$13.A
7.2A8B2A3B.3BA$.A.2A6.A10.A.7BABAB3.ABA$.2A.A4.4A7.A4.7BAB5.2A$8.A
11.2A2.8B8.B$.3A4.A2B2A11.7B$A.A2.2A.A.B.A10.4B.5B$A3.2A2.A.2A10.
5B4.2A$.3A3.A.2AB9.4B6.A$4.B3A4.A7.BA2B8.3A$.3AB.A2B2ABAB5.B2AB6.
3A2.A$.A3.A3.3BA2.B3.2A2B5.A3.A$2.3A4.A2.5B3A4B.BA2.3A$A.A6.2BA5B
3A4B.B3A7.2A$2A5.3A.AB.2BA9B3.A6.A$6.A2.A.BA3B2A9B.A.A7.A$6.3A.AB.
3B2A8B.B3A6.2A$2A5.A.BA3.12B2.2A5.A$A2.B.B.2A5.5B2A5B2.B2A.BA2B2A.
A$.4AB2AB3.2AB.3BA6B4.A2BAB.A.2A$3.AB.A4.A.AB3.2B2A6B2.A2.A2B$.2A
3.A.A2.A4.5BAB2.B2A3.3A$A2.3A.A.A.A4.2A3.2B3.A6.B2A$2A3.A.A2.A6.A
2.B2AB3.3A3.3AB$6.2A6.3A3.A2BA5.A5.A.A$14.A6.2A13.2A!
