#CSYNTH guntrue_2005 costs 5766 cells.
#C period 2005 fullperiod 2005 bbox 93 by 62
#CLL state-numbering golly
x = 93, y = 62, rule = LifeHistory
58.2A$58.A.A$60.A4.2A$56.4A.2A2.A2.A$56.A2.A.A.A.A.2A$58.BABABA.A$
59.B2ABA.A$60.2B.BA$59.3B$50.2A6.4B$51.A6.B2A3B$51.A.AB3.B2A3B$52.
2AB.10B$8.2A3.2A39.13B$8.A.A.A.A39.14B$10.A.A41.15B$5.2A2.A.2BA42.
8B2.4B13.A$4.A.A2.A.3A42.6B5.4B10.3A$3.A2.A.2A.A43.9B4.4B8.A$4.3A
2.2BAB41.4B4.2A5.4B7.2A$7.2A2BA2B39.4B5.A7.4B3.5B$6.A2.A.AB39.4B7.
3A5.4B2.3B$6.2A2.2AB38.4B10.A6.8BA7.2A$10.2B38.4B19.6B2A8.A$10.2B
37.4B21.2B4AB2AB3.B.A.2A$11.B36.4B22.2B2A2B2A2BA.4A2.A$10.2AB34.4B
23.B2ABA2B2A5B2.2A$.2A6.A2BAB5.2A25.4B24.2BA2BABA2BA2B3A$2.A4.3B2A
3B4.A25.4B23.2AB.A4B2A3.2B.A$2.A.AB.8B.BA.A15.2A7.4B23.A.AB.7B2.B
3A$3.2AB.8B.B2A15.B2AB5.4B24.A5.3BA4.A$5.12B17.3B5.4B24.2A5.A2BA5.
5A$5.12B18.B.B3.4B31.BABA10.A$5.12B16.6B.4B31.4B9.A$7.10B6.2A8.10B
31.4B10.2A$9.7B6.B2A2B3.12B7.2A22.4B$9.8B6.4B2.12B8.A22.4B$8.5B.4B
3.19B6.BA.A21.4B$8.6B.25B2.3B.B2A10.A10.4B$7.6B3.31B12.3A7.4B$3.B
2.3BA3B4.30B15.A5.4B$.7BABA2B5.28B15.2A4.4B$.7BABA2B7.27B14.9B6.2A
$9BA3B9.4B2.21B14.6B7.A$11B.B2A5.7B5.20B2.2B2.B3.6B5.2A.A$.9B2.BA.
A4.2A3.BA6.35B4.A2.A$.7B7.A5.A3.BAB6.7B.27B3.B2A$2.6B7.2A.3A5.A7.
6B2.16B2A14B$3.4B9.A.A14.6B3.16B2A13B$4.4B8.A.A14.4B6.29B$5.4B8.A
15.2B2AB12.2B.B.17B$6.4B21.2AB.2A12.3B4.15B$7.4B19.A.AB11.2A.2BA5.
15B$8.4B18.A14.A.2BA.A5.13B$9.4B16.2A15.A2.BA.A2.13B$10.4B33.A3.A.
A.2A4.8B$11.4B30.A.4A2.AB2A6.6B$12.4B28.A.A3.A.A2.B8.5B$13.4B27.A.
A2.A2.2A.2A9.B.B$14.3BA27.A3.2A2.A.A9.3B$15.3BA34.A.A9.B2AB$16.3AB
34.A11.2A!
