#CSYNTH guntrue_2688 costs 1836 cells.
#C period 2688 fullperiod 2688 bbox 54 by 34
#CLL state-numbering golly
x = 54, y = 34, rule = LifeHistory
22.4B$22.5BA$21.3A2BABA$19.3A.A2BA2B$18.A3.BA.2B2A$18.2AB2A.2BA2B$
19.2B2A.2A2B$18.2BA2B.2AB2A$18.2A2B.AB3.A$18.2BA2BA.3A$18.ABA2B3A$
19.A5B$21.4B$25.4B$9.B2A12.7B$9.3AB10.9B9.2A$8.A.2AB9.16B2.B2A2B6.
2A$7.A.A.2B8.4B.12B2.5B6.A$7.A2.A2.2B5.4B2.20B6.A$8.2A3.3B3.4B3.2B
3A5BA6BAB6.2A$13.B2A.5B5.8B3A5BA2B.B.BA$3.2A7.BA2BA4B6.7B2A2BA4BA
6B3A$3.A8.2B2A4B8.10B2A9B.B2.A$2A.A.B3.10B10.4BA3BABA9B3.2A$A2.3AB
.2B2A7B13.5B2A7B$.2A2.BA3B2A7B5.2A3.2BA4B2A7B$3.4A12B5.A2.B.3A3BAB
A7B$3.A.2B3.7B.B2A4.3A8B2A9B$4.3AB2.7B.BA.A5.AB.B.4BABA8B.B$7.A4.
4B5.A3.2A6.2BA2BA9B2A$2.5A5.4B5.2A2.A6.3B3A10B2A$2.A10.3BA9.A6.4BA
2.9B$4.A9.3BA7.2A6.2B2AB2.3B.5B$3.2A10.3AB16.2A!
