#CSYNTH guntrue_5250 costs 3224 cells.
#C period 5250 fullperiod 5250 bbox 62 by 52
#CLL state-numbering golly
x = 62, y = 52, rule = LifeHistory
26.2A5.2A2.2A.2A$26.A2.2A.A2.A2.A.2A$27.2A.A.2A.2A.A$23.2A3.A.A2.A
.A2.A.2A$7.2A3.2A6.A2.A2.A.3BA2B.A.2A.BA$7.A.A.A.A6.3A2.2ABA2B.ABA
BA.BAB$9.A.A11.2A2.5A2B.3B2A$8.A2B.A2.2A5.A2.A.5B2AB.2BAB$8.ABA.A
2.A.A5.2A4.2B.BA3.B$10.A.2A.A2.A10.2B$9.2ABA2.3A12.B$8.B2A2B2A14.
2AB$9.2A.A2.A4.2A6.A2BAB5.2A10.A$9.B2A2.2A5.A4.3B2A3B4.A4.B5.BAB$
10.2B9.A.AB.8B.BA.A3.3B4.3A$10.2B10.2AB.8B.B2A4.2AB3.5B$11.B12.4B
3A5B5.ABA2B2.5B$10.2AB11.4BA7B5.A3BA.2B3A2B$.2A6.A2BAB5.2A3.5BA6B
6.4A.3BA3B$2.A4.3B2A3B4.A6.10B6.3B.4BA4B$2.A.AB.8B.BA.A8.7B7.3B.4B
A4B$3.2AB.8B.B2A9.8B6.4A.3BA3B$5.12B10.5B.4B4.A3BA.2B3A2B$5.12B10.
6B.4B3.ABA2B2.5B$5.12B9.6B3.4B3.2AB3.5B$7.10B5.B2.3BA3B4.4B.4B4.3A
$9.7B4.7BABA2B5.7B5.BAB$9.8B3.7BABA2B6.5B7.A$8.5B.4B.9BA3B7.5B10.
2A4.2A$8.6B.15B.B2A6.4B10.A.A2.A.A$7.6B3.13B2.BA.A6.4B11.A2BA$3.B
2.3BA3B4.10B7.A2.2A3.4B8.BA4BAB$.7BABA2B5.9B7.4A.A3.4B7.BA4BAB$.7B
ABA2B6.6B14.A4.2B2A6.BA4BA$9BA3B7.4B10.4A.2A4.BABAB.4B2.2A$11B.B2A
6.3B10.A2.2A.BAB3.A9B$.9B2.BA.A4.4B15.B3A3.11B$.7B7.A4.3B13.2B.B3A
2.13B$2.6B7.2A2.2BA2B10.3B2A.BAB2.8BA4B$3.4B12.2BA2B10.2A.A.2A2.6B
ABAB2A3B$4.4B10.2BABA2B8.B2A.A.A3.6BABAB2A3B$5.4B9.3BA3B7.A2.ABA.A
3.14B$6.4B7.4BA4B6.3A3.A5.2BA3B3A3B$7.4B6.4BA4B9.3A5.2B4A7B$8.4B6.
3BA3B9.A8.BA3B2A2B.2B$9.4B5.2BABA2B9.2A7.2B2A3BA$10.4B5.2BA2B17.2A
B.B4A$11.4B4.2BA2B16.A.AB2.2B3AB$12.4B4.3B17.A9.2A$13.3BA3.3B16.2A
9.A$14.3BA3.B29.3A$15.3AB34.A!
