#CSYNTH guntrue_4150 costs 3021 cells.
#C period 4150 fullperiod 4150 bbox 53 by 57
#CLL state-numbering golly
x = 53, y = 57, rule = LifeHistory
36.2A$37.A$35.A4.A$34.A.5A$31.A2.A.A4.2A$30.A.A.A.5A2.A$31.A2.A.A
2B2.3A2.A$34.5ABA3.3A$35.B.2A.A2.A$38.BA3.2A$40.5B$39.4B5.2A.2A$
39.5B3.3B2.A$26.A12.2BA3B2.A2B2A$25.A.A11.B3A5B3A$25.A.A10.B2A2BA
2.2B3A$23.3A.2A8.2BA4B3.A2B2A$22.A4.B4.2A3.B2A3B4.3B2.A$23.3AB2A3B
2AB2.A5B5.2A.2A$25.A.2A.4B3.4A2B$30.3B5.B2A2B2.2A$30.B2AB4.4B4.A2.
A$30.A2BAB3.4B4.A.A.A$15.A11.A2.BABAB2.6B2.2A.A.A$14.A.A9.A.A.2BA
3BA6BA2B2.2A$8.2A4.A.A10.A2.2B.2BA3B3.6A$8.A4.2A.3A11.5B3A3.B2AB2.
A$2A3.2A.A5.B4.A3.A5.B2A5B3.3A2B2A$A4.A.A4.B2AB3A4.3A4.2A4B3.B2ABA
.A$.3A.A6.B2A.A9.A4.4B5.BA.A3.A2.A$3.A.2A2.4B12.2A4.6B3.2B2A.A.4A$
3.10B12.6B2.B.2A2.A4.A.A$4.2B.7B2.B10.5B3.A3.4A.A.A.A$5.11B2A5.B2.
7B3.3A3.A.A2.2A$4.12BA3B2.3B.8B4.A2.A2.A$4.9BA4BA6B.9B7.2A$4.9BAB
2ABA17B$5.7BABABA8BA6B.4B$7.8B2A10B2A3B2.4B$9.3BABABABA7BA2BA2B3.
4B$9.3BA2B2AB2A2B2AB2A2BA3B3.4B$10.2BA2BA7BABABABA3B4.4B$10.3B2A
10B2A8B3.4B$10.6BA8BABABA7B2.4B$9.14BAB2ABA9B2.4B$10.6B.6BA4BA9B3.
4B$10.10B2.3BA12B4.4B$12.5B.B5.2A11B6.4B$13.4B8.B2.7B.2B6.4B$12.B
2A2B12.10B6.4B$13.2A14.4B2.2A.A7.4B$25.A.2AB6.A.3A6.4B$23.3AB2AB4.
A.A4.A6.4B$22.A4.B5.A.2A3.2A7.3BA$23.3A.2A4.A16.ABA$25.2A2.A2.2A
17.2A$28.2A22.B!
