#CSYNTH guntrue_1176 costs 2726 cells.
#C period 1176 fullperiod 1176 bbox 58 by 47
#CLL state-numbering golly
x = 58, y = 47, rule = LifeHistory
53.A$4.A46.3A$4.3A43.A$7.A29.2A11.2A$6.2A11.2A17.A5.BA6B$6.8B5.A
18.A.AB.2BA5B$7.3B3A2B.BA.A19.2AB.10B$5.4BA5B.B2A22.4B2A3BA4B$3.5B
2A3BA3B24.2BA2BA3BA4B$3.4BA5BA3B24.BA2B2A3BA4B$3.4BABA7B24.11B.B$
4.B.2B2AB2A4B23.10B$8.10B21.11B.2B$5.2B.11B18.4BA12B$4.17B15.4BA2B
A10B$4.4B2A5B2A5B15.3BA4B3A7B$3.BA2B3A4B2A5B17.2BA2BABABA3B2A3B$2.
BABA5B2A2BAB2AB18.2BABA2BA2BA2BABA2B$2.4B2A6B2A4B18.3B2A3BABABA2BA
2B$2.B2ABA2B2A5BABAB19.7B3A4BA3B$.5B2A4B3A2BAB21.10BA2BA4B$5B2A5B
2A4B18.A3.12BA4B$.17B16.3A4.2B.11B$3.11B.2B16.A10.10B$4.10B7.2A10.
2A4.14B$5.4B2AB2A5B3.A7.5B3.5BA3B2A2BAB$5.7BABA5B2.A.AB3.2A2B5.5BA
3BA2BA2B$5.3BA5BA5B3.2AB2.B2A3B3.6BA3B2A4B$5.3BA3B2A7B3.10B4.13B.B
2A$3.2AB.5BA7B5.10B2.11BA2B.BA.A$2.A.AB.2B3A9B4.9B2.6B2.4BAB5.A$2.
A5.6B2.6B4.13B2.2B2.2B8.2A$.2A8.2B2.2B2.4B3.12B2.B2AB2.B$11.B2.B2A
B2.4B3.10B4.2A4.ABA$8.2AB4.2A4.4B.B2.7B11.3BA$7.B3A11.13B3.2A6.A.B
AB$7.B2A.A11.11B3.B2A2B3.A.A.AB$7.2B.A.A11.10B4.4B3.A2.A$9.A2.A11.
9B5.4B4.2A$10.2A11.9B5.B3A$24.9B4.2B2A$25.7B4.2A2B$25.8B3.3AB$25.
10B.BABAB$25.9BAB2.2A$26.3B3.3BA$33.3AB!
