#CSYNTH guntrue_1710 costs 3740 cells.
#C period 1710 fullperiod 1710 bbox 68 by 55
#CLL state-numbering golly
x = 68, y = 55, rule = LifeHistory
31.B2A3B4.B12.A$29.3BABA9B9.A2BA$12.B4.3BA2B.B2.6B3A8B9.A2BA.BA$
10.7B4A3B2A8B3A6B2A10.A.2BAB$10.6B4A3B2A3B.4B3A5B.B2A12.2BA$9.2A5B
A2BA3B2ABAB2A2BABA4B4.B12.4B$9.2AB.3B4A4BABAB2A2B2A3B19.5B$10.B4.
2B4A3BAB2A4B9.A12.8B$17.3BA2B3.7B8.3A7.2B2A3B2A4B$30.4B10.A6.BA13B
$31.4B8.2A4.3B2AB5A6B$32.2BAB7.9B2AB2A8B$33.2B2A8.7BAB.BA7B$34.2A
2B6.8B2AB2A9B$35.4B4.6B5AB2A3B4.2A$31.2A3.4B3.13BAB6.A$30.B2A4.4B.
B2.4B2A3B2A2B7.3A$31.A.B4.5B4.8B12.A$27.A.5A5BA3B5.5B$26.A3B3AB2.
2BA4B6.4B$27.AB2.B4.2B3A2B6.A2B$36.7B5.BA2B.A$35.9B5.AB.A2BA$34.4B
.5B8.A2BA$33.4B.7B9.A$32.4B2.7B$31.A3B3.2A3B2A$30.BABA4.B5AB$29.2B
2A5.B2AB2AB$28.4B6.B2AB2AB$10.2A15.4B8.B3AB$11.A14.4B9.5B$11.A.AB
3.A5B2.4B10.4B$12.3A.4A10B10.4B$14.2ABAB2A10B.3B2AB3.4B$14.A2BAB3A
11BA2BA8B$15.ABAB2A4B2A5BA7B2A2B$11.A4.4A5B2A5BA6BA2BAB$11.3A4.A7B
A5BA7B2A$14.A8.10BA2BA3B$13.2A7.7B3.3B2AB$13.5B3.4B$4.2A9.3B2.4B$
3.A.A8.9B$3.A8.B.8B$2A.AB.B3.BA9B$.A.A.2AB.3A9B$.A.A.2A2B2A10B$2A.
A2.5BA9B$A2.4A3BA8B.B2A$.2A2.BAB.BA8B.BA.A$3.2A6.7B5.A$3.A7.2B.3BA
5.2A$5.A9.3BA$4.2A10.3AB!
