#CSYNTH guntrue_8719 costs 14652 cells.
#C period 8719 fullperiod 8719 bbox 132 by 111
#CLL state-numbering golly
x = 132, y = 111, rule = LifeHistory
37.2A2.A$36.A.4A$36.A$34.2A.7A$32.A2.A.A3.B2.A$32.2A2.BA.2A2.2A$
36.2AB2AB6.2A$36.5B8.A$37.3B7.A$36.5B6.5A$36.BA4B9.A$34.2BABA3B3.
4AB$34.2BABA4B2.A2.AB$35.2BA4B4.4B$34.15B3.2A$33.14B2A.A2.A$32.11B
A3B2A.2A$31.11BABAB.B$30.4B2.7BAB$14.2A13.4B5.7B$14.A13.4B4.9B$9.
2A5.A10.4B5.2A4.4B$9.A5.2A9.4B7.A5.4B$6.2A.A.3B11.4B5.3A7.4B$6.A2.
A.2A2B2A7.4B6.A10.4B$8.2A.A.2B2AB5.4B19.4B$11.A.4B5.4B21.4B$11.2A.
4B3.4B23.4B$4.2A8.3BA6B25.4B$3.A.A8.2BABA4B27.4B25.A11.2A$3.A8.B.
3BA4B29.4B23.A.A9.B2AB$2A.AB.B3.11B14.2A15.4B10.A3.A3.2A2.A.A9.3B$
.A.A.2AB.12B14.A.A15.4B7.3A2.A.A2.A2.2A.2A9.B.B$.A.A.2A14B16.A4.2A
10.4B5.A5.A.A3.A.A2.B8.5B$2A.A2.5B2A8B12.4A.2A2.A2.A9.7B.2A5.A.4A
2.AB2A6.6B$A2.4A3BA2BA5B.B2A10.A2.A.A.A.A.2A10.5B3AB7.A3.A.A.2A4.
8B$.2A2.BAB.2B2A6B.BA.A11.BABABA.A14.3B3A8.A2.BA.A2.13B$3.2A6.7B5.
A12.B2ABA.A15.BA2BA7.A.2BA.A5.13B$3.A7.2B.4B5.2A12.2B.BA15.2B2A3B
6.2A.2BA5.15B$5.A9.4B17.3B19.2BA3B10.3B4.15B$4.2A10.4B7.2A6.4B19.
7B10.2B.B.17B$17.4B7.A6.B2A3B17.3B3A4.29B$18.4B6.A.AB3.B2A3B17.B2A
B2AB2.16B2A13B$19.4B6.2AB.10B15.B2ABA2B2.16B2A14B$20.4B7.13B13.2B
2A5B.27B3.B2A$21.4B6.14B12.6BA29B4.A2.A$22.4B5.15B6.B4.3BA2BA13B2.
2B2.B3.6B5.2A.A$23.4B6.8B2.4B4.2AB.6BA12B14.6B7.A$24.4B5.6B5.4B3.
2A7BA11B14.9B6.2A$25.4B3.9B4.4B3.B.2B2A3BA9B15.2A4.4B$26.4B.4B4.2A
5.4B5.BA4BA10B15.A5.4B$27.7B5.A3.A3.4B4.2A3BA11B12.3A7.4B$28.5B7.
4A4.4B3.2BA12B.B2A10.A10.4B$28.5B16.4B2.2BAB2A6B4.BA.A21.4B$27.7B
4.4A8.9BAB2A2B9.A22.4B$26.4B.4B3.A2.3A7.8BA2BA3B8.2A22.4B$25.4B3.
4B8.A7.7BABA4B33.4B$24.4B5.4B6.A.A7.6B3A3B35.4B$23.4B7.4B5.A.AB7.
10B37.4B$22.4B9.4B5.A3B7.9B38.4B$21.4B11.4B6.4B5.9B39.4B$20.4B13.
4B5.6B5.6B41.4B$19.4B15.4B4.7B.2B2.5B42.4B$18.4B17.4B2.8B.9B43.4B$
7.A9.4B19.18B2A4B43.4B$7.3A6.4B21.16BA2BA4B43.4B$10.A4.4B22.17B2A
2.4B43.4B$9.2A3.4B8.2A13.18B4.4B43.4B$9.8B8.A.A13.16B7.4B43.4B$5.
2A4.5B5.2A2.A13.2AB.13B9.4B43.4B$4.A.BAB.5B6.A.A.2A11.A.AB2.11B11.
4B43.4B10.2A$4.A.2AB2.5B6.2A.A2.A9.A5.10B13.4B43.4B9.A$3.2A.B.B3.
5B3.3B.B2.2A8.2A5.2B2A6B14.4B43.4B10.A$3.A2.2A2B2.5B3.4B19.3B2A6B
15.4B36.2A5.4B5.5A$4.2A2.AB.13B.B18.10B16.4B36.A5.4B4.A$6.2ABA13B.
B2A17.8B.B2A.A13.4B35.A.AB.7B2.B3A$4.2A2.A5BA10B2A16.7B3.B2AB3A12.
4B35.2AB.7B3.2B.A$3.A2.A2.4BABA7B.2B17.6B6.B4.A12.4B36.12B4A$4.2A
3.4BABA7B21.6B4.2A.3A14.4B35.7B2A3BAB2.2A$10.4BA7B22.5B4.A2.2A17.
4B34.7B2A2B.B3A2.A$12.9B3.2A17.8B.A.A21.4B33.10B3.B.A.2A$9.B.10B.B
2.A8.A8.8BA.A.2A.A18.4B31.8B8.A$8.2A12B3A9.3A6.6B.2BAB.A.2A19.4B
29.9B7.2A$8.2AB.8B.BA14.A4.7B2.2B2.A23.4B27.4B2.3B$9.B3.2B2A2B4.2A
11.2A4.7B3.B.2A24.4B25.4B3.5B$14.BABA6.A11.4B.8B2.A.A2.2A23.4B23.
4B7.2A$15.A3B4.A14.11B2.2A2.A2.A23.4B21.4B8.A$16.4B3.2A12.12B7.2A
25.4B19.4B10.3A$17.4B16.12B35.4B10.A6.4B13.A$18.4B15.11B37.4B7.3A
5.4B$19.4B13.9B12.2A27.4B5.A7.4B$20.4B9.2B.10B11.A29.4B4.2A5.4B$
21.4B7.16B.B4.BA.A30.9B4.4B$22.4B3.23B2.B2A32.6B5.4B$23.32B34.8B2.
4B$24.32B31.15B$25.31B31.14B$26.30B31.13B$28.28B29.2AB.10B$29.17B
5.B.4B27.A.AB3.B2A3B$29.14B11.4B26.A6.B2A3B$29.14B12.4B24.2A6.4B$
33.3B4.2B14.4B32.3B$34.B6.2B14.4B32.2B.BA$40.B2AB14.4B30.B2ABA.A$
41.2A16.4B28.BABABA.A$60.4B25.A2.A.A.A.A.2A$61.4B24.4A.2A2.A2.A$
62.3BA27.A4.2A$63.3BA24.A.A$64.3AB23.2A!
