#CSYNTH guntrue_1057 costs 8217 cells.
#C period 1057 fullperiod 1057 bbox 99 by 83
#CLL state-numbering golly
x = 99, y = 83, rule = LifeHistory
63.2A$63.A.A$65.A4.2A$61.4A.2A2.A2.A$61.A2.A.A.A.A.2A$63.BABABA.A$
64.B2ABA.A$65.2B.BA$64.3B$55.2A6.2BAB$56.A6.B3A2B$56.A.AB3.5AB$26.
A.2A18.2A7.2AB.BA5BA2B$20.2A3.A.2A.A16.B2AB8.2B2A2BA2B2A2B7.A$21.A
3.A5.A9.B6.2B9.B3ABABAB3A2B6.3A$21.A.2A.AB3A9.3B4.2B10.2B2A2BA2B2A
4B8.A$22.A.A.A.A7.14B11.BA6B2.4B6.A.A$23.3BA2B7.14B11.2BA3B5.4B5.A
.AB$24.2B2A8.17B5.B.9B4.4B5.A3B$23.5B7.28B4.2A5.4B6.4B$15.2A6.5B5.
30B4.A7.4B5.6B$14.A.A5.7B3.31B5.3A5.4B4.7B$10.2A2.A7.8B.32B7.A6.4B
2.8B.4B.B$10.A.A.2A6.5BA34B16.17B.B2A$12.A.4B4.4B3A4B3.23B2.B2A15.
18B2A$12.4A2B.6B5A2B7.16B.B4.BA.A14.16B.2B$10.2A2.BA8B2A3B2A2B7.2B
.10B11.A13.17B$9.A2.3A.7B3A3B3AB2.2A6.9B12.2A8.2A.A16B$9.2A.A.10B
2A3B3ABA2.A7.11B19.A.2A.14B$12.A2.10B5A2BAB2A8.12B25.12B$12.2A3.9B
3A2B.BA2.3A5.12B7.2A17.10B$17.10BA2B2.2B2A3.A5.11B2.2A2.A2.A16.2B
2A6B$17.13B3.B.B.2A4.4B.8B2.A.A2.2A16.3B2A6B$19.12B2.B2A.A5.2A4.7B
3.B.2A19.10B$19.2B6.5B.BAB.A6.A4.7B2.2B2.A19.8B.B2A.A$26.5B4.2A4.
3A6.6B.2BAB.A.2A15.7B3.B2AB3A$25.8B8.A8.8BA.A.2A.A15.6B6.B4.A$24.
4B3.2A17.8B.A.A20.6B4.2A.3A$9.A13.4B4.A19.5B4.A2.2A17.5B4.A2.2A$9.
3A10.4B6.3A16.6B4.2A.3A14.8B.A.A$12.A8.4B9.A15.6B6.B4.A4.A8.8BA.A.
2A.A$11.2A7.4B26.7B3.B2AB3A5.3A6.BABA2B.2BAB.A.2A$11.5B3.4B28.8B.B
2A.A10.A4.2BA2BAB2.2B2.A$13.3B2.4B29.10B13.2A4.2BA2BAB3.B.2A$3.2A
7.9B29.7B3AB13.4B.3BA3BA2.A.A2.2A$3.A8.8B31.6BA2BA15.7BABAB2.2A2.A
2.A$2A.A.B3.10B32.6BA3B14.9BA2B7.2A$A2.3AB.2B2A7B31.8B2ABA13.12B$.
2A2.BA3B2A7B26.2A.12BAB13.11B$3.4A12B24.A2.A7B3A6B13.7B$3.A.2B3.7B
.B2A22.2A2.7B2A8B5.2A5.8B$4.3AB2.7B.BA.A26.14BAB.2B3.A6.8B$7.A4.4B
5.A26.18B2A2.A.AB2.8B$2.5A5.4B5.2A24.17B.B2A3.2AB.10B$2.A10.4B29.
4B2.8B.4B.B6.12B$4.A9.4B27.4B4.7B13.12B$3.2A10.4B25.4B5.6B14.9B2.B
2A$16.4B23.4B6.4B17.8B2.BA.A$17.4B21.4B5.A3B20.6B6.A$18.4B19.4B5.A
.AB21.7B5.2A$19.4B10.A6.4B6.A.A18.10B$20.4B7.3A5.4B8.A18.11B$21.4B
5.A7.4B6.3A19.11B.2B$22.4B4.2A5.4B7.A8.2A10.14B2A$23.3BA5B4.4B18.A
10.12B.B2A$24.3BA2B5.4B19.A.AB4.B2.13B.B$24.B3A4B2.4B21.2AB.19B$
22.15B24.20B$22.14B25.20B$22.13B26.20B$20.2AB.10B17.A2B3.2A2.21B$
19.A.AB3.B2A3B18.2BAB2.BA2BA.6B3.7B2A2B.2B$19.A6.B2A3B14.B2A2BA.2B
2.4B2.4B5.B.3BA2BA3B2A$18.2A6.4B16.A2BABAB2A6B3.4B8.2B2A2B.B2A$27.
3B15.A4B2A2B2A4BA4.4B7.6B2.B$28.2B.BA12.6B2ABABA2BA6.4B7.4B$27.B2A
BA.A11.4B2.2B.A2B2AB7.4B6.4B$26.BABABA.A11.A2BAB2.BA2B12.4B6.2B$
24.A2.A.A.A.A.2A10.2A3.2BA14.4B$24.4A.2A2.A2.A33.4B$28.A4.2A36.3BA
$26.A.A43.3BA$26.2A45.3AB!
