#CSYNTH guntrue_81 costs 3128 cells.
#C period 81 fullperiod 81 bbox 68 by 46
#CLL state-numbering golly
x = 68, y = 46, rule = LifeHistory
20.A8.2A6.2A8.A$14.2A3.A.A4.A2.A.A4.A.A2.A4.A.A3.2A$14.A3.A.A.A2.A
.A.A2.A2.A2.A.A.A2.A.A.A3.A$10.2A3.A2BA.B.A2.2A.A.A.A2.A.A.A.BA2.A
.A.4A3.2A$10.A2.A.A.A.B2A4.A2.AB.A.2A.2A2.B4.2AB.A.A.A2.A$12.2A.A.
4A3.AB2ABA2.A2.A2.4A2B3.3BA.A.2A$13.A.A.A.2A2.AB.AB.B2A.A2.2AB.2A.
2A2.2B.A.A.A$12.A3.A2.BABA.BA5.A.2A.A5.BA.ABAB2.A3.A$11.A7.BA.2A7.
A4.A7.2B.2A7.A$12.3A4.B2A.2A4.3A4.3A4.AB.B2A4.3A$6.A8.A3.BA2B.A3.A
10.A3.A.3AB3.A8.A$6.3A5.2A5.2BA4.2A8.2A4.A2B5.2A5.3A$9.A4.5B3.A3.
4B8.4B3.B3.5B4.A$8.2A6.5B4.BAB12.BAB4.5B6.2A$8.4B2.8B3.ABAB4.2A4.B
ABA3.4BA3B2.4B$10.5B2A6B3.ABAB2.A2.A2.4B3.4BABA3B2AB$10.5BAB2A4B2.
2A2B.A2.2A2.A.3BA2.9BABAB$3.A7.6BA5B.BAB6A2.6A3B.2B2AB2A4BA7.A$3.
3A6.6BA3B.3A3B4.2A4.3BA2B.BA2BA5B6.3A$6.A7.8B2.BAB6A2.6A3B2.2AB3A
2B7.A$5.2A6.9B3.2A2B.A2.2A2.A.3BA3.B3A2BA2B6.2A$5.4B4.8B5.ABAB2.A
2.A2.4B5.B3ABA2B4.4B$7.BAB3.2B2AB3A4.ABAB4.2A4.BABA4.2BA2BA2B3.BAB
$6.BABA4.3AB2A2B3.BAB12.BAB3.2BA2BA2B4.ABAB$.2A2.BABA5.8B4.4B8.4B
4.2BAB3AB5.4B2.2A$.A2.A.2B2A3.9B6.2A8.2A6.2BA2B3AB3.A3B.A2.A$2.6AB
AB2.8B7.A10.A7.2B3AB2A2.3B6A$6.3B3A.3BA6B6.3A4.3A6.5BA2BAB.2BA3B$
2.6ABAB.5BA6B7.A4.A7.A4B2AB2A2B.3B6A$.A2.A.2B2A2.4B2ABA5B18.BABA9B
2.A3B.A2.A$.2A2.BABA3.6B2A5BA16.2B2A3BABA4B3.4B2.2A$6.BABA3.8B2.AB
AB14.4B2.3BA4B3.ABAB$7.BAB4.5B5.2A2B12.4B5.5B4.BAB$5.4B3.A3.5B4.4B
4.4B.5B4.5B3.B3.4B$5.2A4.A2B5.2A5.4B3.4B.5B4.2A5.2BA4.2A$6.A3.A.2B
AB3.A7.4B.5BABA2B6.A3.B3A.A3.A$3.3A4.2A.2AB4.3A5.9B2A2B4.3A4.2AB.B
A4.3A$3.A7.2A.AB7.A5.BABA5BA5.A7.2A.2B7.A$2A.A5.AB.ABAB2.A3.A7.B2A
5B7.A3.A2.BABA.AB5.A.2A$A2.2AB.BA.BA2.2A.A.A.A9.A6B8.A.A.A.2B2.2A.
2A.B2A2.A$2.A2.AB2ABA3.4A.A.2A8.6B8.2A.A.A3B3.2B4A2.A$.2A.BA2.A4.
2AB.A.A.A2.A7.5B6.A2.A.A.A.B2A4.B2.2A.2A$2.A.A.A.2A2.A.B.A2BA3.2A
7.6B5.2A3.4A.A.A2.AB.A.A.A$2.A2.A.A.A2.A.A.A3.A14.3BA8.A3.A.A.A2.A
.A.A2.A$3.A.A2.A4.A.A3.2A15.3BA7.2A3.A.A4.A2.A.A$4.2A8.A22.3AB12.A
8.2A!
