#CSYNTH guntrue_2028 costs 4914 cells.
#C period 2028 fullperiod 2028 bbox 91 by 54
#CLL state-numbering golly
x = 91, y = 54, rule = LifeHistory
17.2A$7.A9.A.A49.2A$7.3A9.A2.2A43.2B2A2B$10.A7.2A.A.A43.6B$4.A4.2A
5.4B.A44.8B$3.A.A3.4BA4B4A42.3B2A7B$3.A.A5.BABA3BAB2.2A33.2A4.2A2B
2A8B4.2A$2A.A.A.AB.2BA2BA2B.3A2.A33.A4.2A12B4.A$2A.A2.2AB.3B2A2B4.
A.2A33.A.AB.14B.BA.A$3.A4.9B4.A6.A16.2A7.A4.2AB.3BA10B.B2A4.A$3.2A
3.9B3.2A4.3A11.2A3.A8.3A4.4B3A11B4.3A$5.AB.9B8.A14.A2.A.A.B9.A3.2B
2A2B2A10B3.A$3.3A12B7.2A15.2A2B3A7.2A4.B2AB3A9B4.2A$2.A2.B.12B3.5B
11.4A4.2AB7.4B3.A2B3A8B3.4B$2.2A3.18B13.A3.5A11.3B2.3B2A9B2.3B$7.
18B3.B2.B3.B4.BA4.2BA5.2A3B3AB.12B.9B$5.2A.30B2.BAB3A2BA4.B2A3B2A
3B.10B.11B$5.A3.33B2A.A.A5.5BA6B3.4B3.12B$3.A.A3.33B3.A6.5B2AB3A2B
4.2B4.13B$3.2A4.8B3.22B3.2A3.3B2A3B5A2B10.15B$8.8B3.23B8.3B2A4B3A
4B8.16B$8.7B3.25B6.2A16B6.16B2A$6.2AB.5B3.13B2A3B4.4B5.2A16B6.16B
2A$5.A.AB.5B4.10B.B2A2B6.4B5.16B8.4B3A4B2A3B$5.A5.4B4.16B7.4B4.15B
10.2B5A3B2A3B$4.2A5.3B6.5B2.8B8.4B5.13B4.2B4.2B3AB2A5B$21.2B5.2B2A
5B7.4B5.12B3.4B3.6BA5B$20.2A4.3BA2BA6B6.4B4.11B.10B.3B2A3B2AB$20.A
5.3BA2BA7B6.4B4.9B.12B.B3A3B2A$18.A.A5.4B2A7B8.4B6.4B2.9B2A3B2.3B$
18.2A4.2AB.12B8.4B4.4B3.8B3A2BA3.4B$23.A.AB3.10B2.B6.4B2.4B3.9B3AB
2AB4.2A$23.A6.10B.B2A6.8B3.10B2A2B2A2B3.A$22.2A7.11B2A7.3BA2B3.12B
3A4B4.3A$24.2A3.11B.2B9.2A2B3.14BA3B.B2A4.A$24.A2.A.2AB.8B10.2B2A
2B.4B.14B.BA.A$26.2AB2AB2.8B8.11B2.12B2A4.A$29.B5.8B6.4B2.BABAB3.
8B2A2B2A4.2A$26.2A.2A5.2B2.4B4.4B3.B2A2B4.7B2A3B$26.2A.A2.A8.4B2.
4B3.3BA3B5.8B$30.3A9.8B5.2B.4B5.6B$26.4A6.2A5.6B5.3B2.4B4.2B2A2B$
25.A4.A4.A2.A4.7B3.2BA8B5.2A$26.4A.A2.A.A.A4.9B.BABA8B$31.A2.A.A.
2A2.7B2A3BA2BA2B2.4B$26.5A.2A.A.B.BAB.2B2AB.2AB.2B2A3B3.4B$25.A2.A
.A.AB.A.AB2A2B.ABAB2.B.5B2.BA3.4B$25.A.2A.BABAB2AB.BAB2.BAB6.2B4.A
.A3.4B$24.2A.A.AB.A2BAB.2A5.4B5.2B4.2A4.4B$27.A2.A.A.ABA.A8.2A4.B
2AB10.4B$27.2A.A.5A.A8.A6.2A12.4B$29.A.A5.A10.3A18.3BA$29.A2.5A13.
A19.3BA$28.2A4.A36.3AB!
