#CSYNTH guntrue_945 costs 2769 cells.
#C period 945 fullperiod 945 bbox 71 by 39
#CLL state-numbering golly
x = 71, y = 39, rule = LifeHistory
15.2B33.2B$13.6B29.6B$11.10B25.10B$9.BA2BAB2ABA2BAB21.2A3BA2BA3B2A
$8.2B4AB2AB4A2B14.2A3.B5A4B5AB$9.BA2BAB2ABA2BAB15.2A4.2A3BA2BA3B2A
$11.10B25.10B$13.6B19.4A6.6B$5.2A8.2B.2B18.A2.A8.2B$5.A.A7.2B3A13.
5B2.B6.4B$6.AB2.5B2A3BA2B.B8.12B2.6B$7.8BA12B4.4B2A16B6.BA2B.2A$7.
10B2ABA8B3.2BAB2A16B5.A2B4A.A$6.8B2A16B3A7B.2B2A8B4.B4ABA.A$6.27B
2A7B.BA2BA7B3.5BABA.2A$5.24B.4B4A6BA2B2A4B2AB2.3BA.2A2B.BAB$5.5B.
2B2.B2.2B2.2B6.5B3A.4BABAB2A2B2A2BA.3B3A3.3A2B$7.2B5.3B12.7BA8BABA
2B2A4BA.BAB.2B2A.A3B$13.B2AB11.4B3.14B3A2B2A2B2.2A.ABA5B$14.2A11.
4B5.5BABA3BA2BA7B3.A.AB4AB$26.4B6.7B7A5BA2B3.A.4A2BA$11.A13.4B3.2A
2.3BA4B3A2BA3BA2BA2B3.2A.2BAB$11.3A10.4B4.A2.AB.A14BABA3B$14.A8.4B
6.3A3B3A7BA2B2A3B.B2A$13.2A7.4B10.4B2A7BA7B.BA.A$13.5B3.4B4.2A.A.
2AB2.4B.AB2A8B5.A$4.2A9.3B2.4B5.A.2A.A4.4B3.4BA7B3.2A$3.A.A8.9B11.
A5.2B4.8B2.2A$3.A8.B.8B12.2A11.2A3B4.A$2A.AB.B3.BA9B28.3B5.3A$.A.A
.2AB.3A9B29.B8.A$.A.A.2A2B2A10B$2A.A2.5BA9B$A2.4A3BA8B.B2A$.2A2.BA
B.BA8B.BA.A$3.2A6.7B5.A$3.A7.2B.3BA5.2A$5.A9.3BA$4.2A10.3AB!
