#CSYNTH guntrue_1967 costs 9360 cells.
#C period 1967 fullperiod 1967 bbox 90 by 104
#CLL state-numbering golly
x = 90, y = 104, rule = LifeHistory
10.2B.B$5.11B$4.6B2A5B$4.5BA2BA4B$5.4BA2BA3B$5.5B3A2B$5.11B10.2A$
5.5B2ABA2B10.A.A.2A$3.2AB.3BA2B2AB12.A.A$2.A.AB.2B5AB11.B2A.A$2.A
5.B4A2B8.2A.BA.BA.2A$.2A6.4A5B4.B2A2B.A.A.2A$8.2B2ABAB2A6B.3B.BA$
8.3BA4BA11B$3.A4.4B2A2BA7B2AB$3.3A4.2B4A8B2A$6.A2.5BA8B.B$5.A2.A
14B$5.4A14B$9.15B$7.2AB5.10B$7.A8.10B$5.A.A5.14B$.2A.A.A5.16B$2.A.
A7.12B.4B$.A3.A2.2A2.11B3.4B$2.3A2.A.A2.8B.4B2.4B7.A$5.2A.B3.7B4.
2A3.4B6.3A$2.2A.A2.2B2.7B4.A5.4B8.A$2.A2.A.BA2B.6B6.3A3.4B6.A.A$3.
3A.A.A8B8.A4.4B5.A.AB$6.A.A.8B14.4B5.A3B$3.2A2.A4.5B16.4B6.4B$.3A.
2A4.6B17.4B5.6B$A4.B6.6B17.4B4.7B$.3AB2AB3.7B18.4B2.8B.4B.B$3.A.2A
B.8B20.17B.B2A$7.10B21.18B2A$7.6B2A3B20.16B.2B$7.6B2A2B5.2A14.16B$
7.10B5.A15.15B$6.11B2.BA.A13.2AB.12B$6.12B.B2A13.A.AB2.11B$5.15B
15.A5.10B3.2A$4.16B14.2A5.2B2A6B3.A$.2B.16B20.3B2A6B4.A$2A18B21.
10B3.2A$2AB.17B20.8B.B2A$.B.4B.8B2.4B18.7B3.B2AB2A$8.7B4.4B17.6B6.
B.A$9.6B5.4B17.6B4.2A3.A$11.4B6.4B16.8B.A2.4A$13.3BA5.4B14.9BA.A.A
$14.BA.A5.4B4.A8.7B.2BAB.A.2A$15.A.A6.4B3.3A6.6B3.2B2.A.A$16.A8.4B
5.A4.7B4.B.2A2.A$17.3A6.4B3.2A4.7B3.A.A2.A.A$19.A7.4B2.4B.8B3.2A2.
A.A$28.4B3.11B8.A$29.4B.12B$30.16B$31.14B10.A$32.10B11.3A$31.2BA9B
9.A$30.2BAB2A3B3A4B6.2A$23.A6.8BA3B2A3B2A5B$23.3A3.2B2A3BA10B3A2B$
26.A2.BA5BA2BA8BA4B$25.A.B.2BA9B2A3BA6B$25.2A4BA3B2A4B2A11B$23.2A
2.A4B2AB2A6BABA4B.4B2.2B$22.A2.3A3B3.2B3.B7.2B3.8B$23.A4.2B3.4B.3B
5.A2BA3.8B$24.4A5.B2AB.B2AB4.A.A5.8B8.2A$26.A7.2A3.2A6.A4.2B.9B5.A
.A$28.A22.2A12B4.A$27.2A22.2AB.9B4.2A$16.2A34.B2.7B5.2B$17.A37.8B
2.5B6.3B5.2A$16.A39.B2A12B4.4B5.A$16.2A6.2BAB13.B.7B5.BA2BA.10B4.
5B.BA.A$18.A2B2.2BABAB6.B.13B4.3B2A13B3.5B.B2A$16.3A5BABA45B3.7B$
15.A2.B.4B2A45B3.8B$15.2A3.50B3.8B4.2A$21.25B2A33B3.A.A$21.25B2A
33B3.A$20.4B.B.11B3.41B.2A$21.4B2.10B5.10B2.B3.B2.B3.18B$21.2B2AB
4.2B2.4B7.6B14.18B3.2A$23.2A10.4B8.3B13.5B3.12B.B2.A$36.4B9.B13.2A
7.12B3A$37.4B8.2A13.A8.9B.BA$38.4B8.A10.3A4.2A3.9B3.2A$39.4B6.A11.
A6.A4.9B4.A$40.4B5.2A14.2A.A4.2B2A3B.B2A2.A.2A$41.4B20.A2.3A.2BA2B
A2B.BA.A.A.2A$42.4B20.2A2.BA3BABAB5.A.A$43.4B21.4A4BA4B3.A.A$44.4B
20.A.4B5.2A4.A$45.4B17.A.A.2A7.A$46.3BA16.2A2.A9.3A$47.3BA19.A.A9.
A$48.3AB19.2A!
