#CSYNTH guntrue_1632 costs 3350 cells.
#C period 1632 fullperiod 1632 bbox 67 by 50
#CLL state-numbering golly
x = 67, y = 50, rule = LifeHistory
50.2A$50.A13.A$51.3A9.A.A$53.A9.3AB$54.3B7.2A$29.4B16.9B4.B2AB$29.
3B2A9.4B.11B3.BA$28.2ABA2B7.18B3.BA$28.2AB.A.BA4.4B2A12B4.B2AB$29.
B3.ABAB3.3B3A12B6.2A$34.A2B3.2BA16B4.3AB$33.4B2.A5BAB2A10B4.B2A$
32.B2A2B.10BA12B.B.B$33.2A2.10B2A11B.2AB$37.22B.B3A$38.BA3BA14B3.
2A$38.2BA4B2A10B4.B2AB$5.B5.B27.3B3ABA10B6.AB$4.3B3.3B26.3B2AB3A9B
6.AB$2.4BA3.A4B22.3B4A3BA8B5.B2AB$.4BA.A.A.A4B20.3BA4BA2BAB.4B7.2A
$.5B2A.2A5B20.3BA4BA2BAB11.B3A$.7B.7B21.3BA3B2.A14.A.A$.7B.7B8.2A
11.7B3.4B11.A$.B5AB.B5AB7.B2AB11.5B4.3B2A$.BAB4A.4ABAB7.3B13.3B4.
2A2B2A$.B2ABABA.ABAB2AB4.2B2.B2.2B2.2B5.4B4.2AB.A.2A$.2BABA.A.A.AB
A28B5.B3.3AB$2.2B3A3.3A13BA9BA6B9.3B$4.BAB3.BAB2.10B5AB2A2B3AB.4B
7.4B$5.B5.B3.9BAB7A2B3A3.4B5.B2A2B$16.6BAB2ABA3B2A4B5.4B5.2A$17.5B
ABA5BAB.B9.4B$16.3B.3B21.4B$5.B.BA5BABA5B23.4B$2.4B2A3BAB2ABA6B23.
4B$.3A2B7ABA9B3.B5.B13.4B$B3A2B2AB5A10B2.BAB3.BAB13.4B$2BA9BA13B3A
3.3A2B12.4B$.24BABA.A.A.ABA2B12.4B$6.2B2.2B2.B2.2B4.B2ABABA.ABAB2A
B13.4B$13.3B7.BAB4A.4ABAB14.4B$12.B2AB7.B5AB.B5AB15.4B$13.2A8.7B.
7B16.4B$23.7B.7B17.4B$23.5B2A.2A5B18.4B$23.4BA.A.A.A4B19.4B$24.4BA
3.A4B21.3BA$26.3B3.3B24.3BA$27.B5.B26.3AB!
