#CSYNTH guntrue_320 costs 1326 cells.
#C period 320 fullperiod 320 bbox 51 by 26
#CLL state-numbering golly
x = 51, y = 26, rule = LifeHistory
8.2A3.ABA6.A.A18.A$8.A.B.B.A.B.A2.A.2A16.3A$9.A.2A.A.6A18.A$8.B2.B
.BAB7.4A13.2A$8.3A7.5A3.A11.4B$9.B6.A2B4.AB4.B3.B.5B$16.A2B3ABAB2.
14B$11.B2A3.A.A.2A10B2A5B$11.3AB4.A3.8B2AB2A4B$10.A.2AB3.2A3.8BA4B
A4B$9.A.A.2B8.8BA3B3A3B6.2B$9.A2.A2.2B5.10B2A4BA4B3.3B$10.2A3.3B3.
4B5.6BABA4B3.3A2B$4.2A9.B2A.5B6.6B2A4B3.B3A2B$3.A.A8.BA2BA4B9.10B
2.B.3AB$3.A8.B.2B2A4B12.6B.2B3A.B$2A.AB.B3.BA9B13.5B2.2B3AB$.A.A.
2AB.3A9B15.B4.2B3A$.A.A.2A2B2A10B15.2B5.3B$2A.A2.5BA9B13.B4AB3.2B$
A2.4A3BA8B.B2A10.B6AB$.2A2.BAB.BA8B.BA.A9.BA4BAB$3.2A6.7B5.A11.A2B
A$3.A7.2B.3BA5.2A8.A.A2.A.A$5.A9.3BA14.2A4.2A$4.2A10.3AB!
