#CSYNTH guntrue_804 costs 3190 cells.
#C period 804 fullperiod 804 bbox 58 by 55
#CLL state-numbering golly
x = 58, y = 55, rule = LifeHistory
15.2A$15.A35.2A$5.4B3.BA.A35.A.A$3.6B3.B2A4.4B30.A$2.11B5.6B9.2A6.
A10.BA.2A$2.B2A8B5.3B3A2B6.B2AB3.3A9.B.A.2A$.2B2A7B2.14B4.3B3.A11.
2A.A$19BA8B5.B.B2.2A7.A2.BA.4A$.18BA16B.3B5.3A3.2A4.A$.17BABA17B6.
A8.4A$.18BA17B2AB4.2A6.BA.B$.17B2A10B2A5B2AB.5B6.BA.2A$16B2A2BA9B
2A5B.B.4B9.A3B$.15B5A12B.B4.7B9.BA$2.9B3A2BAB4A3B3.B10.7B10.BA$2.
11BAB2A9B12.13B3.BA.A$2.12B2ABA3BA4B11.16B.B2A$3.13BABAB2A3B11.19B
$3.13BA2B3A2B12.3BA15B$3.21B11.4BA15B$3.15BA4B11.21B$3.15BA3B12.2B
3A2BA13B$3.19B11.3B2ABABA13B$.2AB.16B11.4BA3BAB2A12B$A.AB3.13B12.
9B2ABA11B$AB10.7B10.B3.3B4ABA2B3A9B$.AB9.7B4.B.12B5A15B$.3BA9.4B.B
.5B2A9BA2B2A16B$.2A.AB6.5B.B2A5B2A10B2A17B$2.B.AB6.2A4.B2A17BA18B$
.4A8.A6.17BABA17B$A4.2A3.3A5.3B.16BA18B$.4A.AB2.A7.2A2.B.B5.8BA19B
$4.A.2A11.A3.3B4.14B2.7B2A2B$.2A.A.B9.3A3.B2AB6.2B3A3B5.8B2AB$.2A.
AB10.A6.2A9.6B4.12B$4.A23.B2A4.4B4.4B2.6B$4.A.A21.3AB10.4B3.4B$5.
2A20.A.2AB9.4B$26.A.A.2B8.4B$26.A2.A2.2B5.4B$27.2A3.3B3.4B$21.2A9.
B2A.5B$20.A.A8.BA2BA4B$20.A8.B.2B2A4B$17.2A.AB.B3.BA9B$18.A.A.2AB.
3A9B$18.A.A.2A2B2A10B$17.2A.A2.5BA9B$17.A2.4A3BA8B.B2A$18.2A2.BAB.
BA8B.BA.A$20.2A6.7B5.A$20.A7.2B.3BA5.2A$21.A10.3BA$20.2A11.3AB!
