#CSYNTH guntrue_1582 costs 6832 cells.
#C period 1582 fullperiod 1582 bbox 112 by 61
#CLL state-numbering golly
x = 112, y = 61, rule = LifeHistory
45.2A$38.3B4.A$38.5BA.A$37.6B2A$37.6B$36.6B$35.8B$33.10B$30.12B$
29.13B4.B18.2A$28.2B2A12B.B2A18.A4.3B$12.2A4.2A8.2B2A14B2A18.A.A5B
$11.B2AB2.B2AB6.20B20.2A6B$11.4B3.3B5.2BA15BA24.6B$12.2B5.A5.2BABA
12BABAB24.6B$10.5B2.BABAB2.3BAB2A12B2A2B22.8B$10.5B.2BAB2A.2B2AB2A
BA9B3.4B21.10B$A7.8B2AB2A.A4BA2B3A8B4.4B21.7B2A3B$3A5.7BA2BA2B3A.
3A2BA2BA7B5.4B15.B4.7BABA3B$3.A4.8B3A2BA4BA.2AB2A8B6.4B11.A.2AB.9B
3A4B$2.AB4.9BAB2AB2A2B.2ABA2B.5B9.4B8.3A.2A8BA9B8.2A4.2A$2.A2BA12B
2ABA3B2.BABAB2.5B4.2A4.4B6.A5.8B4A8B6.B2AB2.B2AB$4.2BA12BABA2B5.A
5.2B5.A.A5.4B5.2A6.6BA3BA5B2AB5.3B3.4B$4.A15BA2B5.3B3.4B4.A8.10B5.
16BA2BAB5.B5.2B$2.20B6.B2AB2.B2AB3.2A9.9B2.12B3A5B2A3B2.2B2AB2.5B$
.2A14B2A2B8.2A4.2A3.A11.16B3.18B.2B2A2B.5B$.2AB.12B2A2B19.A12.14B
4.19B.13B7.A$2.B4.13B19.2A.AB2.6B2.12B5.16B.16B5.3A$7.12B19.A2.2AB
.20B6.13B.19B4.A$6.10B22.2A3.19B2A9.5B.2B2A2B.18B4.2A$6.8B29.19B2A
B8.5B2.B2A2B2.3B2A5B3A10B$7.6B31.21B10.2B5.B5.BA2BA15B$6.6B32.22B
8.4B3.3B5.B2A5BA3BA6B$4.2A6B31.9B2.11B9.B2AB2.B2AB6.8B4A8B$3.A.A5B
32.9B3.5B2.2B11.2A4.2A8.9BA8B2A$3.A4.3B32.9B2.5B3.4B25.4B3A9B.B2A$
2.2A37.2AB.6B2.8B3.2A26.3BABA7B4.B$40.A.AB.4B3.4B3.2A3.A28.3B2A7B$
40.A5.3B2.4B4.A5.3A28.10B$39.2A9.4B6.3A4.A30.8B$49.4B9.A36.6B$48.
4B48.6B$37.2A8.4B49.6B2A$36.B2AB6.4B51.5BA.A$36.4B5.4B52.3B4.A$37.
2B5.4B60.2A$29.A7.4B2.4B$28.A.A5.5B.4B$29.A.14B$30.14B$30.14B$30.
15B$29.3B2A12B$29.3B2A13B$27.2AB.11B2.4B$26.A.AB2.8B5.4B$26.A5.10B
4.4B$25.2A5.B.B5.2A5.4B$33.3B4.A7.3BA$32.B2AB5.3A5.3BA$33.2A8.A6.
3AB!
