#CSYNTH guntrue_130 costs 3190 cells.
#C period 130 fullperiod 130 bbox 58 by 55
#CLL state-numbering golly
x = 58, y = 55, rule = LifeHistory
16.2A$15.B2A2B7.2A$16.4B6.B2AB$11.2A4.6B4.2B9.A$10.B2AB2.8B4.2B8.
3A$11.3B.17B9.A$9.2B.B2.18B7.A.A$8.27B5.A.AB$7.29B5.A3B$6.31B6.4B$
6.12BA19B5.6B$6.11B3A12B3.4B4.7B$4.2AB4.B.3B2A2BA8B.B5.4B2.8B.4B.B
$3.A.AB8.5B2A3B.2B9.17B.B2A$3.A12.B3AB2A15.18B2A$2.2A9.5BA2B2AB14.
16B.2B$12.5B3A4B13.17B$12.8B2A2B9.2A.A16B$3.A8.8B2AB10.A.2A.8B2A4B
$2.A.A2.2A3.8B.4B15.5BA2BA3B$.A.A2.A.A3.7B4.2A16.7BA2B$.A2.2A.B4.B
A5B4.A17.4BA5B$2.A.A2.2B3.BABA2B6.3A13.5BABA3B$.2A.A.BA2B.2B2A3B8.
A14.4BA5B$4.A.A.A9B23.8B.B2A.A$.4A2.A.8B23.7B3.B2AB3A$.A3.2A4.6B
23.6B6.B4.A$3.A.B6.6B23.6B4.2A.3A$2.2AB2AB3.7B23.5B4.A2.2A$5.2AB.
8B23.8B.A.A$2.2A3.10B14.A8.8BA.A.2A.A$2.A4.6B2A3B13.3A6.6B.2BAB.A.
2A$3.A3.6B2A2B17.A4.7B2.2B2.A$2.2A3.10B16.2A4.7B3.B.2A$6.12B15.4B.
8B2.A.A2.2A$6.14B.2A.A10.11B2.2A2.A2.A$5.16BA.2A9.12B7.2A$4.17B13.
12B$.2B.16B14.11B$2A15B3A13.9B12.2A$2AB.13BA3B9.2B.10B11.A$.B.4B.
8B2.A3B7.16B.B4.BA.A$8.7B4.4B3.23B2.B2A$9.6B5.32B$11.4B6.5B2A25B$
13.3BA5.3BA27B$14.BA.A5.3BABA5B2A17B$15.A.A7.2BA6B2A17B$16.A9.8BA
8B5.B.4B$17.3A6.5B2A7B11.4B$19.A6.4BA2BA6B12.4B$30.ABA4.2B14.4B$
31.A6.2B14.3BA$37.B2AB14.ABA$38.2A16.2A!
