#CSYNTH guntrue_615 costs 2703 cells.
#C period 615 fullperiod 615 bbox 53 by 51
#CLL state-numbering golly
x = 53, y = 51, rule = LifeHistory
6.2A13.2A5.A$3.A.A2.A11.A.BABA.A.A.2A$3.2A2.2A11.2A.2BABA.A.2A$.2A
14.5B2.B2.A.A$A.A.7A.2A2.4B4.4A.6A$3A.A5.A.A.B.5B4.2B.A3.B2.A$.BA.
A.2A4.A.4BA2B7.3AB2.2A$5A.A.A3.2A3B3A2B7.BA$BA2.BA2.A4.2B.BAB2AB$B
2A3B2.3A5.6B.2B7.A$.A.2A6.A4.5B.4B4.3A$3AB6.2A2.14B.A$2B8.6B2A10B
2.A$.2B9.6B2A7B4A$A2BA7.3BA4BA7BA5.2A$.2A8.4B2ABABA5B.2BA.A2.A13.B
$.3B.2B4.5BABAB2A2B4.2A.2A8.B5.3B$.16B2ABA3B16.3B4.3B$19B3A4B14.3B
3.B3AB$9B2A16B12.B3AB2.A3BA$9B2A17B11.B3AB.A5BA$2.11BA14B12.4B.7B$
4.B.6BA4BA8B.B2A10.ABA.A7BA$10.3B2A2BA8B.BA.A9.ABA.A7BA$12.5BA7B5.
A9.4B.7B$5.2A6.5B.5B6.2A7.B3AB.A5BA$6.A5.7BA5B14.B3AB2.A3BA$6.A.AB
.8BA2B2A3B13.3B3.B3AB$7.2AB.8BA4BA6B.B7.3B4.3B$9.14BA14B.3B5.3B$9.
17B2A14B6.B$10.16B2A15B$11.4B3A26B$13.3BAB2A18B3.4B$4.2A.2A4.2B2AB
ABA5B4.2B2.4B4.4B$2.A2.A.A2B.5BABAB2A4B8.4B5.4B$2.2A5.A7BA4BA3B8.
2B2AB5.4B$6.4A7B2A6B8.A.A2BAB5.4B$6.A2.10B2A6B4.3A.A.2AB6.4B$7.A.
14B2.2A3.A4.A2.4B5.4B$4.3A4.4B.5B4.A5.3A.A4.2A6.4B$4.A7.2B.6B5.3A
4.2A5.A8.3BA$15.B2ABAB.2B4.A12.3A6.ABA$6.AB7.2B3A3B2A18.A7.2A$.2A
2.B3A7.2BA4B.A27.B$.A2.B3.A.2B4.5B.B.A.2A$2.6A.4A4.4B2.2A.2A$7.A.A
2.B2.5B$4.2A.A.ABA2B.2A$4.2A.A.A.ABAB.A$8.A5.2A!
