#CSYNTH guntrue_1663 costs 10028 cells.
#C period 1663 fullperiod 1663 bbox 109 by 92
#CLL state-numbering golly
x = 109, y = 92, rule = LifeHistory
39.2A11.A$38.B2AB9.A.A$39.3B9.A.A2.2A3.A$38.B.B9.2A.2A2.A2.A.A21.
2A$38.5B8.B2.A.A3.A.A20.B2A2B$38.6B6.2ABA2.4A.A22.4B$38.8B4.2A.A.A
3.A13.A11.4B3.3B$39.13B2.A.AB2.A12.3A8.4B4.5B$37.13B5.A.A2B.A3.A
10.A6.14B$36.15B5.A2B.2A3.3A7.2AB5.14B$36.15B4.3B10.A6.5B3.16B$35.
17B.B.2B10.2A8.5B.16B$35.29B3.4B2A4.22B$34.13B2A16B4.2B2A4.23B$33.
14B2A16B2.7B2.24B4.3B$32.2AB3.27B.7B3.24B.7B$31.A2.A4.35B2.23B.B2A
5B$30.A.2A5.7B2.B2.2B2.19B.25BA2BA5B$30.A7.7B13.43B2A6B$29.2A6.8B
15.48B$36.4B2.2B17.36B.6B.2B$35.4B4.2A15.35B2.8B.B$34.4B6.A15.7B.
26B4.6B.B2A$33.4B5.A15.2AB.3B4.25B8.B3.A.A$32.4B6.2A13.A.AB9.25B
12.2A$31.4B22.A10.5B2.19B4.B$30.4B22.2A10.2A6.20B.B2A$29.4B32.A3.A
6.22B2A$28.4B33.4A6.24B$27.4B43.25B$26.4B35.2A6.24B$25.4B35.B2AB4.
22B.B$24.4B37.3B3.10B.12B$23.4B37.B.B3.8B5.11B$22.4B37.14B9.7B$21.
4B36.15B9.8B5.2A$20.4B36.15B9.8B6.A$19.4B35.16B11.8B2.BA.A$18.4B
35.16B11.10B.B2A$17.4B35.16B12.12B$16.4B34.17B2.B10.12B$15.4B34.
23B6.2AB2.9B$4.A9.4B34.6B2A17B4.A.AB2.8B$4.3A6.4B33.8B2A16B5.A4.8B
2.2B$7.A4.4B25.2A7.27B3.2A4.8B.4B$6.2A3.4B8.2A17.A6.28B8.14B$6.8B
8.A.A17.A.AB.28B10.11B2AB$2.2A4.5B5.2A2.A20.2AB.28B10.11B2A2B$.A.B
AB.5B6.A.A.2A21.24B2.B.B12.14B$.A.2AB2.5B6.2A.A2.A19.23B2.3B15.11B
$2A.B.B3.5B3.3B.B2.2A19.23B2.B2AB13.13B$A2.2A2B2.5B3.4B25.21B4.2A
13.14B$.2A2.AB.13B.B24.16B.B.B2A17.14B$3.2ABA13B.B2A24.16B2.BA.A9.
A7.13B$.2A2.A5BA10B2A24.11B2.2B6.A9.3A3.14B$A2.A2.4BABA7B.2B25.10B
11.2A11.A2.9B$.2A3.4BABA7B29.9B23.A2.10B$7.4BA7B31.7B19.2A3.2A11B$
9.9B3.2A26.4B.B21.A2.2A2.11B$6.B.10B.B2.A25.4B25.2A2.2A10B$5.2A12B
3A25.4B28.A.A.B.8B$5.2AB.8B.BA26.4B29.A2.A3.6B$6.B3.6B4.2A23.4B31.
2A5.4B$11.4B6.A22.4B28.2A8.4B$12.4B4.A22.4B28.B2AB6.4B$13.4B3.2A
20.4B29.4B5.4B$14.4B23.4B31.2B5.4B$15.4B21.ABAB24.A7.4B2.4B$16.4B
19.B2AB24.A.A5.5B.4B$17.4B6.A10.3BA26.A.14B$18.4B5.3A7.4B28.14B$
19.4B7.A5.4B29.14B$20.4B5.2A4.4B30.15B$21.4B4.9B30.3B2A12B$22.4B5.
6B31.3B2A13B$23.4B2.8B29.2AB.11B2.4B$24.15B26.A.AB2.8B5.4B$25.14B
26.A5.10B4.4B$26.13B25.2A5.B.B5.2A5.4B$27.10B.B2A31.3B4.A7.4B$29.
3B2AB3.BA.A29.B2AB5.3A5.4B$29.3B2AB6.A30.2A8.A6.4B$31.4B6.2A47.4B$
31.3B57.4B$28.AB.2B59.4B$27.A.AB2AB59.4B$27.A.ABABAB59.4B$24.2A.A.
A.A.A2.A58.4B$24.A2.A2.2A.4A59.4B$26.2A4.A64.3BA$32.A.A63.3BA$33.
2A64.3AB!
