#CSYNTH guntrue_9288 costs 4094 cells.
#C period 9288 fullperiod 9288 bbox 89 by 46
#CLL state-numbering golly
x = 89, y = 46, rule = LifeHistory
2.A9.A$2.3A5.3A71.2A$5.A3.A74.A$4.2A.B.2A74.A$4.7B27.2A2.A34.2A5.
2A$6.3B28.A.4A30.2A.A.A5.B$4.7B26.A26.A7.A.A.A6.3B$3.4BA4B8.2A13.
2A.7A18.A.A5.A2.A.2A4.4B$3.3BABA3B3.2A2.A2.A10.A2.A.A3.B2.A17.BA2B
5.2A.2A2B2.5B$4.3BA3B4.A.A2.A.A10.2A2.BA.2A2.2A18.2B8.A3B2.5B$4.7B
5.B.2A.A15.2AB2AB21.3B7.3AB.5B$3.9B3.2B2.A17.5B22.4B5.2AB2A4B5.2A$
.17B.A18.3B21.2B2A2B3.BA3B2A4B5.A$.15B2A.2A16.5B20.2B2A7B2AB2A5B.B
A.A$2BA13B2A.A17.6B19.6BA8BA5B.B2A$.ABA8BA2B.B4.A13.8B6.2A10.6B3A
6B3A6B$BABA7BABAB5.2A13.5B2A2B5.A11.5B2AB2A4B2AB2A5B$.BA8B2A3B4.A
15.4B2AB3.BA.A11.6B3A6B3A6B$3.13B.BA.A14.10B.B2A10.2AB.5BA8BA6B$5.
11B.B2A14.13B11.A.AB.5B2AB2A7B2A2B$5.2B2A9B15.14B11.A5.4B2A3BAB3.
2B2A2B$5.BA2BA8B3.A10.15B10.2A5.4B2AB2A5.4B$6.B2A9B3.3A7.4B2.8B18.
4B.B3A7.3B$7.11B6.A5.4B5.6B6.A10.4B2.3BA8.2B$10.8B5.2A4.4B4.9B5.3A
7.ABAB2.2B2A.2A5.2BAB$10.9B4.9B5.2A4.4B7.A5.B2AB4.2A.A2.A5.A.A$9.
5B2.4B5.6B7.A5.4B5.2A4.3BA6.A.A.A7.A$9.6B2.4B2.8B4.3A7.4B4.9B5.A.A
.2A$8.6B4.15B2.A10.4B5.4B2AB5.2A$4.B2.3BA3B5.14B14.4B2.2B3A4B$2.7B
ABA2B6.13B15.3BAB2A2BA4BA.B$2.7BABA2B7.10B.B2A14.B5A4BA2B4A.2A$.9B
A3B8.2BA4B3.BA.A14.2AB4A2BA2B4A.A2.A$.11B.B2A5.2BABA4B5.A15.B2A5B
2A5B3.2A$2.9B2.BA.A4.2BABA3B6.2A16.B2AB2A4.4B$2.7B7.A6.BA4B24.BABA
BA3.A2.AB$3.6B7.2A5.5B27.4B3.4AB$4.4B16.3B28.3A10.A$5.4B14.5B24.AB
.2A7.5A$6.4B13.2AB2AB22.A.AB2AB6.A$7.4B8.2A2.BA.2A2.2A19.A.ABABAB
7.A$8.4B7.A2.A.A3.B2.A16.2A.A.A.A.A2.A4.2A$9.4B8.2A.7A17.A2.A2.2A.
4A$10.3BA9.A26.2A4.A$11.3BA8.A.4A27.A.A$12.3AB8.2A2.A28.2A!
