#CSYNTH guntrue_715 costs 3354 cells.
#C period 715 fullperiod 715 bbox 86 by 39
#CLL state-numbering golly
x = 86, y = 39, rule = LifeHistory
7.2A5.2A2.2A.2A$7.A2.2A.A2.A2.A.2A$8.2A.A.2A.2A.A$4.2A3.A.A2.A.A2.
A.2A$.A2.A2.A.BAB3A.A.2A.BA$.3A2.2ABA2B.A2B2A.B2A55.A$4.2A2.5A2B.
2B3A32.A22.A.A$3.A2.A.B6AB.2B2A32.3A20.A.3A$4.2A4.2B.2A3.B37.A16.
2A.A4.A$10.2B18.A24.2A16.A.A.ABABA$11.B18.3A7.2A13.5B15.A.A.2A$10.
2AB20.A6.A16.4B13.ABA4B$.2A6.A2BAB5.2A11.2A3.BA.A15.5B11.BAB2AB$2.
A4.3B2A3B4.A12.4B.B2A16.10B5.BABAB4.2B$2.A.AB.8B.BA.A14.4B18.11B4.
A5B2.4B.B$3.2AB.8B.B2A8.2A4.6B17.11B.2BA13B2A$5.12B9.B2AB3.5B5.2A
11.13B2A2BA2B2A4B.B2A$5.12B10.3B3.6B2.2B2AB9.13B3ABABAB3A3B2.B$5.
12B9.B.B4.7B.4B9.15B2A2BA2B2A2B$7.10B5.AB.6B2.20B.16BA5BA2B$9.7B5.
A.A47B5AB$9.8B4.2A.48B3A2B$8.5B.4B7.4BA21B.21BA4B$8.6B.4B7.2B3A48B
.2A$7.6B3.4B6.B5A47BA.A$3.B2.3BA3B4.4B3.2BA5BA16B.20B2.6B.BA$.7BAB
A2B5.4B.2B2A2BA2B2A15B9.4B.7B4.B.B$.7BABA2B6.5B3ABABAB3A13B9.B2A2B
2.6B3.3B$9BA3B7.5B2A2BA2B2A13B11.2A5.5B3.B2AB$11B.B2A5.12BA2B.11B
17.6B4.2A$.9B2.BA.A4.4B2.5BA4.11B18.4B$.7B7.A2.2AB.B4.BABAB5.10B
16.2AB.4B$2.6B7.A.A.AB4.B2ABAB11.5B15.A.AB3.2A$3.4B7.2A.A4.4BABA
13.4B16.A6.A$4.4B9.A4.2A.A.A15.5B13.2A7.3A$5.4B8.2A2.ABABA.A.A16.
2A24.A$6.3BA11.A4.A.A.A15.A$7.3BA11.3A.A.A.A16.3A$8.3AB12.2A3.A19.
A!
