#CSYNTH guntrue_9997 costs 12463 cells.
#C period 9997 fullperiod 9997 bbox 121 by 103
#CLL state-numbering golly
x = 121, y = 103, rule = LifeHistory
30.2A$29.A.A$23.2A4.A23.2A$21.A2.A2.2A.4A19.A.A$21.2A.A.A.A.A2.A
21.A4.2A$24.A.ABABAB19.4A.2A2.A2.A$24.A.AB2AB20.A2.A.A.A.A.2A$25.A
B.2B23.BABABA.A$28.3B23.B2ABA.A$19.A8.4B6.2A15.2B.BA$17.3A6.3B2AB
6.A15.3B7.A$16.A9.3B2AB3.BA.A6.2A6.4B7.3A$15.A.A6.10B.B2A8.A6.B2A
3B8.A$14.BA.A5.13B10.A.AB3.B2A3B7.A.A$13.3BA5.14B11.2AB.10B5.A.AB$
11.4B6.15B13.13B5.A3B$9.6B5.4B2.8B15.14B6.4B$8.7B4.4B5.6B15.15B5.
6B$.B.4B.8B2.4B4.9B16.8B2.4B4.7B$2AB.17B5.2A4.4B15.6B5.4B2.8B.4B.B
$2A18B7.A5.4B13.9B4.17B.B2A$.2B.16B4.3A7.4B11.4B4.2A5.18B2A$4.16B
4.A10.4B9.4B5.A6.16B.2B$5.15B16.4B7.4B7.3A3.16B$6.12B.B2A15.4B5.4B
10.A3.15B$6.11B2.BA.A15.4B3.4B11.A.2AB.12B$7.10B5.A16.4B.4B10.2A.A
.AB2.11B$7.10B5.2A16.7B11.A2.A5.10B$7.5B3A3B23.5B14.2A5.2B2A6B23.
2A$7.5B3A2B24.5B20.3B2A6B17.A.2A.A.A$3.A.2AB.4B2A2B23.7B20.10B17.
2A.A.A$.3AB2AB3.4BA2B21.4B.4B19.8B.B2A.A17.2AB$A4.B6.BA2B2A20.4B3.
4B17.7B3.B2AB3A15.2B$.3A.2A4.BA3BA20.4B5.4B9.2A5.6B6.B4.A14.4B2.B$
3.2A2.A4.BA2BA19.4B7.4B7.B2AB5.6B4.2A.3A16.8B$6.A.A.3B3A2B17.4B9.
4B7.3B5.5B4.A2.2A18.8B$2.A.2A.A.A8B8.A7.4B11.4B5.B.B5.8B.A.A20.8B
2A$2.2A.A.BA2B.6B6.3A6.4B13.4B4.5B3.8BA.A.2A.A15.2B2A3B.B2A$5.A2.
2B2.7B4.A8.4B15.4B3.B2A4B.6B.2BAB.A.2A15.BABA4B.B$5.2A.B3.7B4.2A6.
4B17.4B.2B2A11B2.2B2.A18.ABA4B$3.2A2.A.A2.8B.4B5.4B19.19B3.B.2A18.
BA7B$2.A2.A2.2A2.11B6.4B21.18B2.A.A2.2A17.8B$3.2A7.12B4.4B23.17B2.
2A2.A2.A17.7B$12.12B3.4B25.16B7.2A18.8B$13.11B2.4B27.15B27.8B$16.
7B2.4B29.13B28.7B$15.8B.4B31.9B7.2A22.7B$14.8B.4B33.9B6.A23.8B$12.
B.12B35.9B2.BA.A22.10B$8.2A.2A13B36.9B.B2A24.10B$9.A.A.B.11B2.2A
31.12B25.7B.4B$8.A2.A.A12B3.A28.B.13B25.6B3.4B$8.2A2.2A.B.11B.A.2A
24.2A15B24.6B4.4B$17.9B2A.A2.A24.2A18B21.6B5.4B$18.4B.3B.A.2A27.
20B19.8B5.4B$18.4B2.2B.A.A28.21B19.8B5.4B$19.2B3.2B2A2.A29.2B.17B
17.9B6.4B$18.2B4.BAB.2A28.4B3.B2.13B16.9B7.4B$17.B2AB3.B2A.A29.2A
9.8B.4B15.10B7.4B$18.2A6.A.A30.A9.7B3.4B4.2A8.5B2A3B8.4B$24.A.A.2A
26.3A10.9B2.4B2.B2AB7.5B2A4B8.4B$24.2A30.A19.2A3.4B.3B8.11B9.3BA$
76.A5.4B.B9.12BA8.ABA$77.3A3.8B.B6.8B2.3A7.2A$79.A3.11B5.7B6.A7.B$
82.12B5.6B6.2A$82.13B4.6B$83.12B3.8B$84.21B$85.12BA7B$86.10BABA6B$
84.12BABA7B$82.A.2AB.9BA7B$80.3AB2AB3.7B.7B$79.A4.B5.16B4.2A$80.3A
.2A5.3B.10B5.A$82.A.A4.5B2.9B2.BA.A$82.A.A4.2A5.9B2.B2A$83.A6.A4.
13B4.2A$87.3A5.13B4.A.A2.2A$87.A6.14B6.A3.A$93.A13B3.4A.3A$91.3A.
12B3.A2.A.A$90.A5.5B.5B6.ABAB3A$90.2A6.2B2.6B6.2ABA2.A$102.7B4.4B
2.2A$101.16B$100.13BA2B$96.16BABAB$95.17BA2BA$95.18B2AB$95.21B$97.
17B.B2A$99.13B3.BA.A$97.4B3.10B4.A$97.2A6.4B3.2A4.2A$98.A5.A3.2B2.
A$95.3A4.3A2.B2A3.3A$95.A5.A6.A.A5.A$101.2A3.A.A.6A$106.2A$112.2A$
112.2A!
