#CSYNTH guntrue_595 costs 3894 cells.
#C period 595 fullperiod 595 bbox 59 by 66
#CLL state-numbering golly
x = 59, y = 66, rule = LifeHistory
2.2A3.BAB12.2A$BABAB2.BABA6.2A2.A.A$3AB2.2B.A2BA2B2.A3.A$2A5BABAB
3AB3.3A.4A$B2A3B4A3B2AB4.A.A2.A$.B3ABABA5B2A4.4B$.2BA2BA.2B2.B3A5.
2B$5.ABAB2.BABAB4.5B$6.BAB3.2A2.6BA2B$16.6BA2B$16.5BABAB.5B8.2A3.
3B$15.17B5.2B2AB2.B2AB$13.5B2AB3AB2A7B2.5B2.BA.2AB2AB$10.2B.2BAB2A
BA3BAB2ABA12B3ABAB4A$9.2A3B5ABA3BAB5A5B.16B$9.2AB.2B2A2BA5BA2B2A6B
2.4ABAB3A5B$10.B.7B2A3B2A9B3.B2AB2A.AB2.4B$13.BA2BA2BA3BA2BA2BA5B
6.B2AB2.B2A2B$14.5BABABABA11B6.3B3.2A$14.BA3B2A3B2A3BA8B$15.4BA5BA
3B.B4.4B$15.3BA7BA2B7.4B$15.13B9.4B13.2A$13.11B14.4B12.A$12.13B14.
4B5.B2.BA.A$12.14B14.4B3.3B.B2A$12.14B15.4B.6B$10.2AB.14B14.5B2A3B
$9.A.AB.15B14.5B2A2B$9.A5.13B16.BA2BA2B$8.2A6.12B15.2A6B$16.11B15.
2B2A4B$18.9B14.4B2.2B$19.7B14.4B3.2B$19.8B12.4B5.B3.A.2A$19.5B2A
12.4B5.2AB.B3A.A$20.4B2AB10.4B6.BA3B3A2.A$21.5B10.4B9.B.5B2A$22.4B
9.4B11.2BABA$21.2B.2B.A6.4B11.A.A.B.2A.A$20.A2.AB.A.A4.4B11.A.2A.A
.A.2A$20.4A3.A4.4B12.A3.A.A$31.4B12.2A3.A$20.2A8.4B17.2A$20.2A7.4B
3.A$15.A12.4B4.3A$15.3A9.4B8.A12.2A$18.A7.4B8.2A11.A.3A$17.2A6.4B
9.5B8.A4.A$17.6B.4B7.A4.3BAB5.2A.3A$19.8B6.3A3.3BABAB2.2BA.BA$.2A
13.10B6.A5.4BA2BA4B2A$.A2.2A2.B6.10B.B5.2A5.4B2A5B2A.AB$2.2A2B.3AB
3.20B6.6B2.2BA.BAB2A$4.B6A3B2A3B2A11B9.5B4.2A.A.2B$2.2A3.2B.A2B.2A
2BA2BA7B2A2B7.7B4.A.A.ABA$.A2.4ABA5.3BA2BA6BA2BA2B5.4B.4B3.A.3A2.A
$.2A3.A.A7.3B2A2B2.4B2A3B4.4B3.4B3.A3.3A$8.A.A5.7B4.9B.4B5.4B3.3A$
4.4A.2A8.3B6.12B7.4B5.A$4.A2.A9.5B7.10B9.4B3.2A$5.A.A9.2A10.9B11.
4B$6.A11.A9.9B13.4B$15.3A11.7B15.3BA$15.A13.6B17.3BA$31.2B20.3AB!
