#CSYNTH guntrue_1786 costs 8296 cells.
#C period 1786 fullperiod 1786 bbox 122 by 68
#CLL state-numbering golly
x = 122, y = 68, rule = LifeHistory
45.2A47.A$44.A.A47.3A$38.2A4.A52.A$36.A2.A2.2A.4A47.2A$36.2A.A.A.A
.A2.A47.6B$39.A.ABABAB51.5B11.A$39.A.AB2AB51.7B8.3A$40.AB.2B15.2A
34.9B6.A$43.3B14.A.A33.9B6.2A$43.4B6.2A7.A4.2A24.13B2.5B$33.A7.3B
2AB6.A4.4A.2A2.A2.A19.2B.18B$31.3A7.3B2AB3.BA.A4.A2.A.A.A.A.2A18.
2A19B2A$30.A8.10B.B2A7.BABABA.A21.2AB.17B2A$29.A.A6.13B10.B2ABA.A
22.B.17B.B$28.BA.A5.14B11.2B.BA26.16B$27.3BA5.15B10.3B30.14B$25.4B
6.4B2.8B3.2A6.4B29.4B2.8B$23.6B5.4B5.6B4.A6.B2A3B26.4B3.7B$22.7B4.
4B4.9B3.A.AB3.B2A3B25.4B3.11B$15.B.4B.8B2.4B5.2A4.4B3.2AB.10B22.4B
4.12B$14.2AB.17B7.A5.4B4.13B20.4B5.12B7.2A$14.2A18B5.3A7.4B3.14B
18.4B7.11B2.2A2.A2.A$15.2B.16B5.A10.4B2.15B16.4B6.4B.8B2.A.A2.2A$
18.16B17.4B3.8B2.4B14.4B7.2A4.7B3.B.2A$19.15B18.4B2.6B5.4B12.4B9.A
4.7B2.2B2.A$20.12B.B2A17.13B4.4B10.4B7.3A6.6B.2BAB.A.2A$20.11B2.BA
.A17.6B4.2A5.4B8.4B8.A8.8BA.A.2A.A$21.10B5.A18.4B5.A7.4B6.4B18.8B.
A.A$21.6B2A2B5.2A16.6B5.3A5.4B4.4B20.5B4.A2.2A$21.6B2A3B21.3A5B7.A
5.4B2.4B21.6B4.2A.3A$21.10B21.3BA2.4B5.A7.8B21.6B6.B4.A$17.A.2AB.
8B20.3BA4.4B5.3A5.6B22.7B3.B2AB3A$15.3AB2AB3.7B18.4B6.4B7.A5.4B24.
8B.B2A.A$14.A4.B6.6B17.4B8.4B5.2A4.6B23.10B$15.3A.2A4.6B17.4B10.4B
4.13B21.3B2A6B$17.2A2.A4.5B16.4B12.4B5.6B2.4B14.2A5.2B2A6B$20.A.A.
8B14.4B14.4B2.8B3.4B11.A2.A5.10B$17.3A.A.A8B8.A4.4B16.15B2.4B10.2A
.A.AB2.11B$16.A2.A.BA2B.6B6.3A3.4B18.14B3.4B11.A.2AB.12B$15.A.A.A
2.2B2.7B4.A5.4B20.13B4.4B10.A3.15B$14.A.A2.2A.B3.7B4.2A3.4B22.10B.
B2A3.4B7.3A3.16B$14.A.A.A2.A.A2.8B.4B2.4B25.3B2AB3.BA.A3.4B5.A6.
16B.2B$15.2A.2A2.2A2.11B3.4B26.3B2AB6.A4.4B4.2A5.18B2A$26.12B.4B
29.4B6.2A4.9B4.17B.B2A$26.16B30.3B14.6B5.4B2.8B.4B.B$16.A10.14B28.
AB.2B15.8B2.4B4.7B$16.3A11.10B28.A.AB2AB12.15B5.6B$19.A9.12B27.A.A
BABAB11.14B6.4B$18.2A6.16B23.2A.A.A.A.A2.A9.13B5.A3B$12.2A4.24B6.A
16.A2.A2.2A.4A7.2AB.10B5.A.AB$11.B2AB5.23B3.3A18.2A4.A10.A.AB3.B2A
3B7.A.A$11.4B4.24B2.A27.A.A8.A6.B2A3B8.A$12.2B5.24B.B.A27.2A7.2A6.
4B7.3A$3.2A7.4B2.27B2A45.3B7.A$3.A.A5.5B.4B.22BA2.2A44.2B.BA$4.A.
14B3.2B7.B3.2B3.3B3A2.A42.B2ABA.A$5.14B3.2BAB5.3B.4B3.2B4.A42.BABA
BA.A$5.14B4.A.A4.B2AB.B2AB5.4A41.A2.A.A.A.A.2A$5.15B4.A6.2A3.2A7.A
43.4A.2A2.A2.A$4.3B2A12B22.A49.A4.2A$4.3B2A13B21.2A46.A.A$2.2AB.
11B2.4B68.2A$.A.AB2.8B5.4B$.A5.10B4.4B$2A5.B.B5.2A5.4B$8.3B4.A7.3B
A$7.B2AB5.3A5.3BA$8.2A8.A6.3AB!
