#CSYNTH guntrue_835 costs 5810 cells.
#C period 835 fullperiod 835 bbox 70 by 83
#CLL state-numbering golly
x = 70, y = 83, rule = LifeHistory
28.2A$27.A.A19.2A$21.2A4.A20.A.A$19.A2.A2.2A.4A10.2A4.A$19.2A.A.A.
A.A2.A8.A2.A2.2A.4A$22.A.ABABAB10.2A.A.A.A.A2.A$22.A.AB2AB14.A.ABA
BAB$23.AB.2B15.A.AB2AB$26.3B15.AB.2B$26.4B6.2A9.3B$24.3B2AB6.A10.
4B6.2A$9.A14.3B2AB3.BA.A8.3B2AB6.A$9.3A10.10B.B2A9.3B2AB3.BA.A$12.
A8.13B9.10B.B2A$11.2A7.14B8.13B$11.5B3.15B7.14B$13.3B2.4B2.8B8.15B
$3.2A7.9B5.6B7.4B2.8B$3.A8.8B4.9B5.4B5.6B$2A.A.B3.10B5.2A4.4B3.4B
4.9B$A2.3AB.2B2A7B6.A5.4B.4B5.2A4.4B10.2A$.2A2.BA3B2A7B3.3A7.7B7.A
5.4B9.A$3.4A12B3.A10.5B5.3A7.4B10.A$3.A.2B3.7B.B2A.A10.5B5.A2.3A5.
4B5.5A$4.3AB2.7B.BA.A.2A7.7B6.A2.A5.4B4.A$7.A4.4B5.A2.A6.4B.4B4.2A
2.A.AB.7B2.B3A$2.5A5.4B5.2A7.4B3.4B8.2AB.7B3.2B.A$2.A10.4B12.4B5.
4B9.12B4A$4.A9.4B10.4B7.4B8.7B2A3BAB2.2A$3.2A10.4B8.4B9.4B7.7B2A2B
.B3A2.A$16.4B6.4B11.4B6.10B3.B.A.2A$17.4B4.4B13.4B4.8B8.A$18.4B2.
4B15.4B2.9B7.2A$9.A9.8B17.8B2.3B$9.3A8.6B19.6B3.5B$12.A8.4B21.4B7.
2A$11.2A7.6B19.6B6.A$11.5B3.8B10.A6.8B6.3A$13.3B2.4B2.4B7.3A5.4B2.
4B7.A$3.2A7.9B4.4B5.A7.4B4.4B$3.A8.8B6.4B4.2A5.4B6.4B$2A.A.B3.10B
8.9B4.4B8.4B$A2.3AB.2B2A7B9.6B5.4B10.4B$.2A2.BA3B2A7B9.8B2.4B12.4B
$3.4A12B7.15B14.4B$3.A.2B3.7B.B2A5.14B16.4B$4.3AB2.7B.BA.A4.13B18.
4B$7.A4.4B5.A2.2AB.10B20.4B$2.5A5.4B5.A.A.AB3.B2A3B23.4B$2.A10.4B
3.2A.A6.B2A3B23.4B$4.A9.4B5.A6.4B25.5B$3.2A10.4B4.2A6.3B24.7B$16.
4B12.2B.BA20.8B$17.4B10.B2ABA.A20.8B.B$18.4B8.BABABA.A19.10B2A$19.
4B5.A2.A.A.A.A.2A15.9B.B2A$20.4B4.4A.2A2.A2.A5.2A8.9B2.B$21.4B7.A
4.2A8.A9.8B$22.4B4.A.A14.A.AB5.9B$23.4B3.2A5.4A7.2AB.3B.10B$24.4B
7.3A2.A9.17B$25.4B5.A15.17B$26.4B4.2A15.16B$19.2A6.9B14.19B$20.A7.
6B14.21B$20.A.2A5.6B3.B2.2B2.23B2A$21.A2.A4.37B.B2A$22.2AB3.27B.9B
3.B$23.32B2.6B$13.2A9.31B2.6B.2B$12.A.A10.12B3A14B4.7B2A$12.A7.2A
3.9B2A2BA3B.B.2B10.6B.B2A$13.4A3.A5.8BABA4B4.3B10.6B.B$11.A.A3.A4.
A3.15B5.A2B.2A6.6B$10.A.A2.B2AB2.2A4.13B5.A.A2B.A6.5B$7.A2.A4.2B2A
BA2.2A4.13B2.A.AB2.A7.4B$6.A.A.AB3.3BABA2BA.2B.8B4.2A.A.A3.A6.5B$
7.A2.A.2B.5B.2B2AB2A6B6.2ABA2.4A.A4.2A$10.A.2A2.B2ABA2BA.2B3.4B7.B
2.A.A3.2A5.A$11.A2.A.A.ABA2.2A6.4B5.2A.2A.A.A5.3A$9.A.A2.2A.A3.2A
9.3BA5.A.A3.A.3A2.A$9.2A6.A.2A2.4A6.3BA4.A.A4.A2.A$17.2A.A2.A2.A7.
3AB4.A6.2A!
