#CSYNTH guntrue_1378 costs 6566 cells.
#C period 1378 fullperiod 1378 bbox 98 by 67
#CLL state-numbering golly
x = 98, y = 67, rule = LifeHistory
66.2A$43.2A21.A.A$42.A.A23.A4.2A$36.2A4.A21.4A.2A2.A2.A$34.A2.A2.
2A.4A17.A2.A.A.A.A.2A$34.2A.A.A.A.A2.A19.BABABA.A$37.A.ABABAB22.B
2ABA.A$37.A.AB2AB24.2B.BA$38.AB.2B24.3B$33.A7.3B14.2A6.4B8.A$31.3A
7.4B6.2A6.A6.B2A3B6.3A$30.A8.3B2AB6.A7.A.AB3.B2A3B9.A$29.A.A7.3B2A
B3.BA.A8.2AB.10B6.A.A$28.BA.A5.10B.B2A11.13B5.A.AB$27.3BA5.13B13.
14B5.A3B$25.4B6.14B13.15B6.4B$23.6B5.15B15.8B2.4B5.6B$22.7B4.4B2.
8B17.6B5.4B4.7B$15.B.4B.8B2.4B5.6B16.9B4.4B2.8B.4B.B$14.2AB.17B4.
9B14.4B4.2A5.17B.B2A$14.2A18B5.2A4.4B12.4B5.A7.18B2A$15.2B.16B6.A
5.4B10.4B7.3A4.16B.2B$18.17B2.3A7.4B8.4B10.A4.16B$19.16BA2.A9.4B6.
4B16.15B$20.14B.2A3.A8.4B4.4B15.2AB.12B$20.12B7.2A9.4B2.4B15.A.AB
2.11B$16.2A3.10B20.8B16.A5.10B$17.A3.6B2A2B21.6B16.2A5.2B2A6B$16.A
4.6B2A3B21.3AB23.3B2A6B$16.2A3.10B21.3BA2B23.10B$19.2AB.8B20.3BA4B
22.8B.B2A.A$16.2AB2AB3.7B18.4B2.4B20.7B3.B2AB3A$17.A.B6.6B17.4B4.
4B19.6B6.B4.A$15.A3.2A4.6B17.4B6.4B19.6B4.2A.3A$15.4A2.A.8B16.4B8.
4B18.5B4.A2.2A$18.A.A.A9B14.4B10.4B16.8B.A.A$15.2A.A.BA2B.7B8.A4.
4B12.4B15.8BA.A.2A.A$16.A.A2.2B3.6B6.3A3.4B14.4B5.2A7.6B.2BAB.A.2A
$15.A2.2A.B4.7B4.A5.4B16.4B5.A6.7B2.2B2.A$15.A.A2.A.A3.7B4.2A3.4B
18.4B4.A.AB3.7B3.B.2A$16.A.A2.2A3.8B.4B2.4B20.4B4.2AB2.8B2.A.A2.2A
$17.A8.11B3.4B22.4B5.11B2.2A2.A2.A$26.12B.4B24.4B4.11B7.2A$26.16B
26.4B3.11B$16.A10.14B28.4B.11B$16.3A11.10B30.4B.7B9.2A$19.A9.12B
30.12B7.A.A$18.2A6.16B30.13B5.A$12.2A4.24B6.A24.14B.B2A$11.B2AB5.
23B3.3A24.16B$11.4B4.24B2.A25.B.14B.B2A$12.2B5.24B.B.A23.2A16BA2.A
$4.A7.4B2.27B2A23.2A17B2A2.A$3.A.A5.5B.4B.22BA2.2A22.11B5.2B.A.2A$
4.A.14B3.2B7.B3.2B3.3B3A2.A21.4B2.6B5.B.A$5.14B3.2BAB5.3B.4B3.2B4.
A28.6B6.2A$5.14B4.A.A4.B2AB.B2AB5.4A30.2B2A.A$5.15B4.A6.2A3.2A7.A
31.A.A.A.3A$4.3B2A12B22.A32.A.2A.A4.A$4.3B2A13B21.2A31.A4.A3.2A$2.
2AB.11B2.4B52.2A4.2A$.A.AB2.8B5.4B$.A5.10B4.4B$2A5.B.B5.2A5.4B$8.
3B4.A7.3BA$7.B2AB5.3A5.3BA$8.2A8.A6.3AB!
