#CSYNTH guntrue_6885 costs 3750 cells.
#C period 6885 fullperiod 6885 bbox 75 by 50
#CLL state-numbering golly
x = 75, y = 50, rule = LifeHistory
37.2A5.2B$37.A.A2.4B$38.A8B$33.B6.7B$32.3B5.BA4B$32.3B4.2A4B$31.2B
A2B3.3A4B$31.BABAB3.7B$30.BA3BAB2.6B20.A2.2A$30.BA3BAB2.2BA3B.2B
17.4A.A$29.2BA3BA4B3A4B2A21.A$29.2BA3BA3BAB2A2B.B2A14.7A.2A$30.BA
3BAB.B2A4B2.B14.A2.B3.A.A2.A$30.BA3BA10B16.2A2.2A.AB2.2A$31.BABAB.
9B19.B2AB2A$31.2BA2B3.6B21.5B$32.3B4.6B22.3B$32.3B4.7B20.2A3B$33.B
6.6B19.B2AB2A$16.2A5.A15.2BA3B12.2A6.2ABA4B$16.A6.3A14.5B13.A5.9B$
13.BA.A9.A13.3B2A13.A.AB3.7B$10.2A.B2A9.2A12.4B2A14.2AB.10B$3.A5.B
2A2B11.4B7.5BABA2B15.13B$2.A.A5.4B13.2B2.11BA4B14.13BA$2.A.A5.4B
10.5BA4B2A4B4.4B10.A2.11BABA$.2A.2A3.5B2A4B.B.5BA7BA3B5.4B7.3A4.8B
2.2A$4.B4.5BABA10BA3BAB2ABA2B7.4B5.A7.6B5.B$.2AB2A3.8BA4B.3BA5B2AB
A5B6.4B4.2A5.9B$2.A.2A3.4B2A7B.7B2A4B3.2A.A5.9B4.4B4.2A$A3.5BAB2A
5BA3B.4BA8B3.2AB3A4.6B5.4B5.A$2A4.2BAB2ABA3BA10BABA5B4.B4.A3.8B2.
4B7.3A$5.3BA7BA5B.B.4B2A5B3.2A.3A2.15B10.A$5.4B2A4BA5B10.4B5.A.A4.
14B$5.9B2.2B13.4B5.A.A4.13B$6.3B7.4B11.2B2AB5.A3.2AB.10B$18.2A9.2A
B.2A9.A.AB3.4BA2B$18.A9.A.AB12.A5.4BABA2B$19.3A6.A14.2A6.3BABA2B$
21.A5.2A22.4BAB$52.5B$53.3B$52.5B$51.B2AB2A$48.2A2.2A.AB2.2A$48.A
2.B3.A.A2.A$49.7A.2A$56.A$51.4A.A$51.A2.2A!
