#CSYNTH guntrue_764 costs 4095 cells.
#C period 764 fullperiod 764 bbox 65 by 63
#CLL state-numbering golly
x = 65, y = 63, rule = LifeHistory
24.2A$23.BA2B11.2A.A.2A$24.3B4.A.2A.A2.A.2A2.A3.A$23.B.B5.2A.A.2A.
A4.A.A2.3A$23.2BABA8.B2.5A.A6.A$23.6B6.2ABA4.A7.2A$23.A3BA2BA4.2A.
A.AB2.A6.5B$24.A4BABA5B2.A.A2B.A7.4B$22.8B3A2B5.A2B.2A7.5B$21.11B
2A2B3.3B11.6B$21.6BA3B2A3B3.2B12.6B.B$20.8BA8B.4B10.6B.B2A$20.7B2A
20B4.7B2A$19.8BA22B2.6B.2B$18.32B2.6B$17.2AB3.27B.9B3.B$16.A2.A4.
37B.B2A$15.A.2A5.6B3.B2.2B2.23B2A$15.A7.6B14.21B$14.2A6.9B14.19B$
21.4B4.2A15.16B$20.4B5.A15.17B$19.4B7.3A12.17B$19.4B9.A10.2AB.3B.
10B$18.5B19.A.AB5.9B$15.9B18.A9.8B$15.9B17.2A8.9B2.B$15.9B27.9B.B
2A$15.10B27.10B2A$14.12B27.8B.B$13.13B8.2A16.8B$14.11B9.A18.7B$15.
12B4.BA.A19.5B$15.15B.B2A10.A9.4B$15.17B12.3A7.4B$15.17B15.A5.4B$
12.B.17B15.2A4.4B$11.2A19B14.9B6.2A$11.2AB.19B14.6B7.A$12.B4.20B2.
2B2.B3.6B5.2A.A$17.36B4.A2.A$17.9B.27B3.B2A$18.7B2.16B2A14B$18.7B
2.16B2A13B$12.2A4.6B4.29B$11.B2AB3.7B10.2B.B.17B$11.4B3.6B10.3B4.
15B$12.2B3.7B6.2A.2BA5.15B$4.A7.4B2.5B7.A.2BA.A5.13B$3.A.A5.5B.6B
8.A2.BA.A2.13B$4.A.19B7.A3.A.A.2A4.8B$5.17B.2A5.A.4A2.AB2A6.6B$5.
14B4.A5.A.A3.A.A2.B8.5B$5.15B4.3A2.A.A2.A2.2A.2A9.B.B$4.3B2A12B5.A
3.A3.2A2.A.A9.3B$4.3B2A13B16.A.A9.B2AB$2.2AB.11B2.4B16.A11.2A$.A.A
B2.8B5.4B$.A5.10B4.4B$2A5.B.B5.2A5.4B$8.3B4.A7.3BA$7.B2AB5.3A5.3BA
$8.2A8.A6.3AB!
