#CSYNTH guntrue_827 costs 5822 cells.
#C period 827 fullperiod 827 bbox 82 by 71
#CLL state-numbering golly
x = 82, y = 71, rule = LifeHistory
40.2A$19.2A19.A.A$19.A.A20.A4.2A$21.A4.2A10.4A.2A2.A2.A$17.4A.2A2.
A2.A8.A2.A.A.A.A.2A$17.A2.A.A.A.A.2A10.BABABA.A$19.BABABA.A14.B2AB
A.A$20.B2ABA.A15.2B.BA$21.2B.BA15.3B$20.3B9.2A6.4B$11.2A6.4B10.A6.
B2A3B$12.A6.B2A3B8.A.AB3.B2A3B$12.A.AB3.B2A3B9.2AB.10B$13.2AB.10B
9.13B$15.13B8.14B$15.14B7.15B$15.15B8.8B2.4B$17.8B2.4B7.6B5.4B$17.
6B5.4B5.9B4.4B$16.9B4.4B3.4B4.2A5.4B7.A$15.4B4.2A5.4B.4B5.A3.A3.4B
6.3A$.2A11.4B5.A7.7B7.4A4.4B8.A$.A2.A8.4B7.3A5.5B17.4B6.A.A$2.5A5.
4B5.3A2.A5.5B10.4A4.4B5.A.AB$7.A4.4B5.A2.A6.7B8.A3.A5.4B5.A3B$4.3A
B2.7B.BA.A2.2A4.4B.4B7.2A9.4B6.4B$3.A.2B3.7B.B2A8.4B3.4B3.5B10.4B
5.6B$3.4A12B9.4B5.4B2.3B13.4B4.7B$.2A2.BA3B2A7B8.4B7.9B7.2A4.4B2.
8B.4B.B$A2.3AB.2B2A7B7.4B9.8B8.A5.17B.B2A$2A.A.B3.10B6.4B11.10B3.B
.A.2A3.18B2A$3.A8.8B4.4B12.7B2A2B.B3A2.A3.16B.2B$3.2A7.9B2.4B13.7B
2A3BAB2.2A4.16B$13.3B2.8B14.12B4A6.15B$11.5B3.6B13.2AB.7B3.2B.A4.
2AB.12B$11.2A7.4B13.A.AB.7B2.B3A4.A.AB2.11B$12.A6.6B12.A5.4B4.A7.A
5.10B$9.3A6.8B10.2A5.4B5.5A.2A5.2B2A6B$9.A7.4B2.4B15.4B10.A.A5.3B
2A6B$16.4B4.4B13.4B7.2A2.A.A6.10B$3.2A10.4B6.4B11.4B8.2A3.A7.8B.B
2A.A$4.A9.4B8.4B9.4B21.7B3.B2AB3A$2.A10.4B10.4B7.4B22.6B6.B4.A$2.
5A5.4B5.2A5.4B5.4B24.6B4.2A.3A$7.A4.4B5.A2.A4.4B3.4B25.5B4.A2.2A$
4.3AB2.7B.BA.A.2A5.4B.4B25.8B.A.A$3.A.2B3.7B.B2A.A8.7B17.A8.8BA.A.
2A.A$3.4A12B3.A9.5B18.3A6.6B.2BAB.A.2A$.2A2.BA3B2A7B3.3A7.5B21.A4.
7B2.2B2.A$A2.3AB.2B2A7B6.A5.7B19.2A4.7B3.B.2A$2A.A.B3.10B5.2A4.4B.
4B18.4B.8B2.A.A2.2A$3.A8.8B4.9B3.4B19.11B2.2A2.A2.A$3.2A7.9B5.6B5.
4B17.12B7.2A$13.3B2.4B2.8B6.4B16.12B$11.5B3.15B5.4B15.11B$11.2A7.
14B6.B3A13.9B12.2A$12.A8.13B7.A3B9.2B.10B11.A$9.3A10.10B.B2A6.A3B
7.16B.B4.BA.A$9.A14.3B2AB3.BA.A6.4B3.23B2.B2A$24.3B2AB6.A7.32B$26.
4B6.2A7.5B2A25B$26.3B17.3BA27B$23.AB.2B19.3BABA5B2A17B$22.A.AB2AB
20.2BA6B2A17B$22.A.ABABAB20.8BA8B5.B.4B$19.2A.A.A.A.A2.A18.5B2A7B
11.4B$19.A2.A2.2A.4A18.4BA2BA6B12.4B$21.2A4.A26.ABA4.2B14.4B$27.A.
A25.A6.2B14.3BA$28.2A31.B2AB14.ABA$62.2A16.2A!
