#CSYNTH guntrue_1808 costs 2730 cells.
#C period 1808 fullperiod 1808 bbox 70 by 39
#CLL state-numbering golly
x = 70, y = 39, rule = LifeHistory
23.2A$24.A4.3B$24.A.A2BABA$25.2A3BA2B$27.2B3AB$28.B2AB2A$27.5B2AB$
27.2B2A6B$28.3B3A6B$23.B4.3B3A7B$22.2AB.BABA8B2A2B$22.2A3BABA8B2A
2B8.2A4.2A$11.B2A9.5BA14B6.B2AB2.A2BA$11.3AB10.16B2AB5.3B3.4B9.2A$
10.A.2AB9.12BA3BA2BAB5.B5.2B10.A$9.A.A.2B8.12BABA2BA5B2.5B2.5B9.A$
9.A2.A2.2B5.4B3.6BABAB3A5B.6B.5B8.2A$10.2A3.3B3.4B4.19B.13B6.B$4.
2A9.B2A.5B5.16B.16B5.3B$3.A.A8.BA2BA4B6.13B.19B4.4B$3.A8.B.2B2A4B
9.5B.6B.5B3ABABA6B3.5B$2A.AB.B3.11B10.5B2.5B2.5BA2BABA13B$.A.A.2AB
.12B12.2B5.B5.BA2BA3BA13B$.A.A.2A14B11.4B3.3B5.B2A16B$2A.A2.5B2A8B
11.A2BA2.B2AB6.14BA5B$A2.4A3BA2BA5B.B2A10.2A4.2A8.2B2A8BABA3B2A$.
2A2.BAB.2B2A6B.BA.A25.2B2A8BABAB.B2A$3.2A6.7B5.A5.2A19.7B3A3B4.B$
3.A7.2B.4B5.2A3.B2A2B18.6B3A3B$5.A8.5B10.4B2.2B17.6B2A2B$4.2A9.5B
7.6B2.3A18.B2A5B$12.3B2.4B6.5B.BA3B19.2AB2AB$7.B2.BA3B3.4B4.2A2BA
3BA3BA19.B3A2B$6.3AB2A2B2A3.4B3.5AB2.A2BA.A18.2BA3B2A$6.4A4B2A4.5B
.B3A2B4.A.A2BA17.ABA2BA.A$7.3B2A2.B6.5B2.B.2B5.A3BAB16.3B4.A$7.3B
12.3BA3.2BAB5.3BAB23.2A$23.3BA3.A.A5.3A$24.3AB3.A7.2B!
