#CSYNTH guntrue_1592 costs 4757 cells.
#C period 1592 fullperiod 1592 bbox 67 by 71
#CLL state-numbering golly
x = 67, y = 71, rule = LifeHistory
26.2A$25.B2AB11.2A.A.2A$26.3B4.A.2A.A2.A.2A2.A3.A$25.B.B5.2A.A.2A.
A4.A.A2.3A$25.5B8.B2.5A.A6.A$25.6B6.2ABA4.A7.2A$25.8B4.2A.A.AB2.A
6.5B$26.13B2.A.A2B.A7.4B$24.13B5.A2B.2A7.5B$23.15B3.3B11.6B$23.8BA
6B3.2B12.6B.B$22.9BABA5B.4B10.6B.B2A$22.9BA4BA14B4.7B2A$21.12B3A
16B2.6B.2B$20.15BA16B2.6B$19.2AB3.27B.9B3.B$18.A2.A4.37B.B2A$17.A.
2A5.6B3.B2.2B2.23B2A$17.A7.6B14.21B$16.2A6.9B14.19B$23.4B4.2A15.
16B$22.4B5.A15.17B$21.4B7.3A12.17B$20.4B10.A10.2AB.3B.10B$19.4B21.
A.AB5.9B$19.4B21.A9.8B$18.5B20.2A8.9B2.B$15.9B29.9B.B2A$15.9B30.
10B2A$15.9B31.8B.B$15.10B29.8B$14.12B29.7B$13.13B8.2A20.5B$14.11B
9.A21.4B$15.12B4.BA.A21.4B$15.15B.B2A10.A10.4B$15.17B12.3A7.4B$15.
17B15.A5.4B$12.B.17B15.2A4.4B$11.2A19B14.9B6.2A$11.2AB.19B14.6B7.A
$12.B4.20B2.2B2.B3.6B5.2A.A$17.36B4.A2.A$17.9B.27B3.B2A$18.7B2.16B
2A14B$18.7B2.16B2A13B$12.2A4.6B4.29B$11.B2AB3.7B10.4B.17B$11.4B3.
6B12.2B3.15B$12.2B3.7B11.3B3.15B$3.2A7.4B2.5B8.2A.2BA5.13B$3.A.A5.
5B.6B8.A.2BA.A2.13B$4.A.19B7.A2.BA.A.2A4.8B$5.17B.2A8.A4.AB2A6.6B$
5.14B4.A7.A.5A2.B8.5B$5.15B4.3A3.A.A4.A.2A.A.2A5.B.B$4.3B2A12B5.A
3.A2.3A.A2.A.2A.A4.3B$4.3B2A13B7.2A4.A.3A10.B2AB$2.2AB.11B2.4B28.
2A$.A.AB2.8B5.4B12.2A$.A5.10B4.4B10.B2A2B$2A5.B.B5.2A5.4B10.4B$8.
3B4.A7.4B9.4B$7.B2AB5.3A5.4B7.B3A$8.2A8.A6.4B6.2B2A$26.4B4.2A2B$
27.4B3.3AB$28.5B.BABAB$29.3BAB2.2A$30.3BA$31.3AB!
