#CSYNTH guntrue_5800 costs 5472 cells.
#C period 5800 fullperiod 5800 bbox 96 by 57
#CLL state-numbering golly
x = 96, y = 57, rule = LifeHistory
6.2A2.2A.2A10.B9.A$4.3A.A2.A.A.A7.BA2B.2A3.3A$3.A4.2A.A.B.A2.AB.B
3A2BA.A2.A51.2A$3.A.3A.B.A3BA.A.2A2B.AB.BA3.2A44.A4.B2AB$4.AB.2ABA
2B2.A.AB.A2BAB4.5B43.A.A2.2B2A$5.3B2A3B3A2B.BA2BA4.4B5.2B.2A35.BA
2B2.B3A$7.3BA2B.BA2BA3B6.5B3.B2A2.A36.2B4.3B$4.A2.A.A2.B.B.3B2A7.
6B2.2AB2A37.3A2.A4BA$4.4A.5ABAB.ABAB6.8B2A2B38.5BA4BAB$8.A6.A.A3.A
5.2B3AB2.B2A2B36.A4BABA4BA$6.A.A2.3A.A.A.2A5.2BA2BAB3.2AB2A32.B.BA
4BA7B2.2A$6.2A4.A.A3.A7.2BA2BA4.B2A2.A29.5BA4BA2B3A2B3.A$10.A8.A.A
4.BA2BAB5.2B.2A28.12B.8B.A.2A$10.2A8.2A4.2B3AB38.8B3AB2.5B2A.A2.A$
27.B2A2B2.2A32.B.3A9B2.5B.A.2A$27.4B4.A2.A21.A6.4A2BAB3.3B4.B.2B.A
.A$27.4B4.A.A.A20.3A4.5ABAB3.5B4.2B2A2.A$11.ABA12.6B2.2A.A.A23.A4.
4BA4B4.2A4.BAB.2A$11.3BA10.ABA5BAB2.2A23.2A4.5B2.2A4.A5.B2A.A$10.A
.BAB9.B2AB3.2B2ABA25.6B2.B4.A6.3A4.A.A$9.A.A.AB8.3BA3.3BA2.A27.5B
7.3A5.A2.A.A.2A$9.A2.A2.2B5.4B3.AB2AB2A27.7B8.A8.2A$10.2A3.3B3.4B
3.ABABA.A28.8B$4.2A9.3B.5B5.2B.A3.A.2A23.9B$3.A.A8.9B6.2B2A.A.2A.A
22.11B$3.A8.B.8B6.A4.A.A27.6B.4B$2A.AB.B3.11B7.4A.A.A27.5B3.4B$.A.
A.2AB.12B10.A.2A12.A12.8B4.4B$.A.A.2A4B3A7B7.3A16.3A8.10B5.4B$2A.A
2.7BA7B7.A21.A6.12B5.4B$A2.4A4BA7B.B2A2.2A.A8.2A10.2A6.13B5.4B$.2A
2.BAB.3B2ABA3B.BA.A2.A.2A8.A10.5B3.12B7.4B$3.2A6.2BABA2B5.2A13.A.A
B9.4B2.13B7.4B$3.A7.2B.4B5.A15.2AB.3B4.20B8.4B$4.A10.4B6.A15.7B.
23B7.4B$3.2A11.4B4.2A15.28BA4B6.4B$17.4B2.2B17.BA24BABA4B6.4B$10.
2A6.8B15.2B2A23BABA4B7.4B$11.A7.7B13.2B2A2BA23BA4B9.4B$11.A.2A5.7B
2.B2.2B2.3BA4B2A9B.B3.B.2B3.5B12.4B$12.A2.A4.19B3A11B6.3B7.B15.4B$
13.2AB3.20B2A5B.6B6.B2AB5.3B15.4B$14.14B2A16B2.B.5B5.2A6.B2AB15.4B
$15.13B2A16B7.2A14.2A17.4B$16.29B8.A35.4B$16.17B.B.2B16.3A33.4B$
17.15B4.3B17.A34.4B$17.15B5.A2B.2A49.3BA$18.13B5.A.A2B.A50.ABA$20.
13B2.A.AB2.A52.2A$19.8B4.2A.A.A3.A54.B$19.6B6.2ABA2.4A.A$19.5B8.B
2.A.A3.A.A$19.B.B9.2A.2A2.A2.A.A$20.3B9.A.A2.2A3.A$19.B2AB9.A.A$
20.2A11.A!
