#CSYNTH guntrue_1026 costs 2961 cells.
#C period 1026 fullperiod 1026 bbox 63 by 47
#CLL state-numbering golly
x = 63, y = 47, rule = LifeHistory
8.A4.A15.ABABA4.A7.A$7.A.A2.A.A13.A.A.BAB2.BA2B4.BAB4.AB$7.A.4A.A
13.2AB2.BA3.A2BAB2.BA4.A.2AB$6.2A6.2A10.2A3.A.BA5.A.2AB.2A3.A.BA.A
$5.A2.AB2ABA2.A8.A2.3ABA2.B6.A.3A2B2ABA2.2A$4.A.2AB.2A.B2A.A7.2A6.
4AB2.A3BA3.3B$4.A.A2.4A2.A.A12.3A3.AB.5B.2A2BAB4.2A$3.2A.3A4B3A.2A
11.A2.2A2.BA.2A2.B2.A.A.2A3.A$4.A.A2.4B2.A.A6.A8.A2.BA.2A.B2ABAB.A
.A2.A$4.A.A3.2A3.A.A5.A.A5.A.A3.A2BAB.2A.2BAB2.A.2A$5.A4.2B4.A6.AB
.A3.A.A5.A2B.4A.A2.3A.B2.A$11.B12.B2.A.A.A8.2A4B3AB2A.BA.2A$10.2AB
11.4A.A12.4B2.A2.A2.A.A$9.A2BAB5.2A3.B5.4A9.2A3.A.4A2.A$7.3B2A3B4.
A5.5A3.A9.2B4.A6.2A$7.8B.BA.A5.2B3.AB4.B3.5B6.A$6.9B.B2A3.A.A.2BAB
AB2.12B4.2A$5.B2A9B5.2A.A2.2A16B$4.BA2BA8B8.A4.17B.B$5.B2A9B3.A4.
2A3.14BA5B$7.10B3.3A7.14B2A5B$9.7B7.A5.15BABA4B$9.8B5.2A4.4B5.3B.
4B3A4B$8.5B.4B4.9B6.7B2ABA6B$8.6B.4B5.6B9.6BAB2A7B$7.6B3.4B2.3BABA
2B11.4B3A4B.3B2.4B$3.B2.3BA3B4.8B2A5B10.4BABA13B$.7BABA2B5.8BA5B
10.5B2A12B2A$.7BABA2B6.13B11.5BA12B2A$9BA3B7.10B.B2A10.B.14B.B$11B
.B2A6.4B2AB3.BA.A12.12B$.9B2.BA.A4.5B2A2B5.A5.A6.12B$.7B7.A4.8B6.
2A4.3A5.5B3.B$2.6B7.2A5.6B15.A4.2B$3.4B15.5B13.2A.AB3.2A8.B$4.4B
15.3B12.A2.A2B.A.4B6.3A$5.4B13.5B11.2A3.2B.A4B2ABA2B.2A$6.4B12.2AB
2AB15.B2A.4A.2BABA.AB$7.4B7.2A2.BA.2A2.2A10.2A2.AB.2A.BAB3.A3.A$8.
4B6.A2.A.A3.B2.A9.A2.2AB.B2AB.2A4.4A$9.4B7.2A.7A11.A4.AB3.2A.BA$
10.4B8.A19.4A.B3A2BA2B4.2A$11.4B7.A.4A16.A2.B2A.B3.3A2.A$12.4B7.2A
2.A18.A4.4A3.A.A$13.3BA28.2A.3A2.A.2A2.A$14.3BA27.A2.A2.A.A.A.2A$
15.3AB27.2A2.2A.2A!
