#CSYNTH guntrue_498 costs 2016 cells.
#C period 498 fullperiod 498 bbox 48 by 42
#CLL state-numbering golly
x = 48, y = 42, rule = LifeHistory
3.2A$3.A.A$5.A18.2A$5.2AB17.A$7.2B.3B11.A$3.4A7B10.2A$3.A2.AB.5B
11.B$4.A2.8B10.3B9.2A$.3A3.8B9.6B6.B2AB$.A4.11B3.B2.10B4.3B$6.30B
2.B2.2B$6.21B2A16B$2A2.7BA15B2A18B$A.A.2A2.2BABA34BA$2.AB2A3.BABA
32BABA$.A2.B4.2BA34B2A$.2A.2A2.13B4.13B.B3.B3.B$2.A.A4.14B2.7B.B8.
B$2.A.A5.8B3AB2A17.3B$3.A6.2B3A3B3A2B18.BAB$11.BABA3BAB2A18.4AB$
11.2ABA3BABAB17.BA.B.A$10.2B3A3B3A2B6.A6.2A.B.2BA$9.2AB3A8B5.A.A4.
A.2B3A2.3A$10.14B4.A.A4.AB.A3.2A2.A$7.4B.13B2.2A.2A4.A3.2A2.2A$7.
14BA2B4.B4.3A5.A.A$6.2A12BABAB3.2AB2A.A7.A.A$6.2A12BABA2B2.2A.A.A
9.A$7.B.12BA7B$10.17B$10.17B$12.B3.11B4.A$18.8B3.3A$18.8B2.A$19.5B
.BA2.A$19.7B4A$20.3B.2B$25.B2A$27.A$27.A.A$28.2A!
