#CSYNTH guntrue_8080 costs 6630 cells.
#C period 8080 fullperiod 8080 bbox 85 by 78
#CLL state-numbering golly
x = 85, y = 78, rule = LifeHistory
63.2A$59.A.A2.A$57.3A.2A11.A$56.A4.B10.3A$31.2A11.A12.3AB2AB7.A$
30.B2AB9.A.A13.A.2AB.4B2.2A$31.3B9.A.A17.10B$30.B.B9.2A.3A15.8B$
30.3B2A8.B4.A14.11B$30.2BA3B6.2AB3A9.4B2.12B$30.2B3ABAB4.2A.A11.
18B$31.5B2A6B12.19B$29.3BA4BA4B14.17B$28.3BA2B2ABA5B13.17B$28.3BA
5BA5B10.B2.18B$27.4B5ABA6B.B5.23B3.B$27.B2ABA3BA39B.B2A$26.B3A2B3A
19B2A21B2A$25.3B2A2B2A20B2A22B$24.2AB3.44B.3B5.2A$23.A2.A4.43B9.A$
22.A.2A5.6B3.B2.2B2.26B4.B2.BA.A$22.A7.6B13.4B2.7B3.8B3.3B.B2A$21.
2A6.9B17.6B8.5B.6B$28.4B4.2A19.3B11.10B$27.4B5.A21.B13.5B2A2B$26.
4B7.3A33.3BA2BA$25.4B10.A32.4BABAB$24.4B43.6BAB$23.4B43.4B2.3B$22.
4B43.4B3.3B$22.4B42.4B6.A$21.5B41.4B6.A2BA$18.9B39.4B6.A4B2.2A$18.
9B38.4B7.B3A.A2.A$18.9B37.4B9.B.B2A.A$18.10B35.4B10.B2A2.A$17.12B
33.4B10.BAB3A$16.13B8.2A22.4B11.A2B$17.11B9.A22.4B12.BAB3A$18.12B
4.BA.A21.4B12.BABAB2.A$18.15B.B2A10.A10.4B12.ABABA2.2A$18.17B12.3A
7.4B12.A.A2B$18.17B15.A5.4B14.AB$15.B.17B15.2A4.4B$14.2A19B14.9B6.
2A$14.2AB.19B14.6B7.A$15.B4.20B2.2B2.B3.6B5.2A.A$20.36B4.A2.A$20.
9B.27B3.B2A$21.7B2.16B2A14B$11.B2A7.7B2.16B2A13B$11.3AB6.6B4.29B$
10.A.2AB6.7B10.2B.B.17B$9.A.A.2B6.6B10.3B4.15B$9.A2.A2.2B3.7B6.2A.
2BA5.15B$10.2A3.3B3.5B7.A.2BA.A5.13B$4.2A9.B2A.7B8.A2.BA.A2.13B$3.
A.A8.BA2BA9B7.A3.A.A.2A4.8B$3.A8.B.2B2A7B.2A5.A.4A2.AB2A6.6B$2A.AB
.B3.11B5.A5.A.A3.A.A2.B8.5B$.A.A.2AB.12B6.3A2.A.A2.A2.2A.2A9.B.B$.
A.A.2A14B8.A3.A3.2A2.A.A9.3B$2A.A2.5B2A8B20.A.A9.B2AB$A2.4A3BA2BA
5B.B2A19.A11.2A$.2A2.BAB.2B2A6B.BA.A$3.2A6.7B5.A5.2A$3.A7.2B.4B5.
2A3.B2A2B$4.A9.5B10.4B2.2B$3.2A10.5B7.6B2.3A$12.3B2.4B6.5B.BA3B$7.
B2.BA3B3.4B4.2A2BA3BA3BA$6.3AB2A2B2A3.4B3.5AB2.A2BA.A$6.4A4B2A4.5B
.B3A2B4.A.A2BA$7.3B2A2.B6.5B2.B.2B5.A3BAB$7.3B12.3BA3.2BAB5.3BAB$
23.3BA3.A.A5.3A$24.3AB3.A7.2B!
