#CSYNTH guntrue_1214 costs 7029 cells.
#C period 1214 fullperiod 1214 bbox 71 by 99
#CLL state-numbering golly
x = 71, y = 99, rule = LifeHistory
50.2A$49.A.A$43.2A4.A$41.A2.A2.2A.4A$41.2A.A.A.A.A2.A$44.A.ABABAB$
44.A.AB2AB$45.AB.2B$48.3B$48.4B6.2A$46.3B2AB6.A$46.3B2AB3.BA.A$44.
10B.B2A$43.13B$42.14B$41.15B$40.4B2.8B$39.4B5.6B$38.4B4.9B$37.4B5.
2A4.4B10.2A$36.4B7.A5.4B9.A$35.4B5.3A7.4B10.A$34.4B6.A2.3A5.4B5.5A
$33.4B9.A2.A5.4B4.A$32.4B9.2A2.A.AB.7B2.B3A$31.4B15.2AB.7B3.2B.A$
30.4B18.12B4A$29.4B19.7B2A3BAB2.2A$28.4B20.7B2A2B.B3A2.A$19.A7.4B
21.10B3.B.A.2A$17.3A6.4B21.8B8.A$16.A8.4B21.9B7.2A$15.A.A6.4B21.4B
2.3B$14.BA.A5.4B21.4B3.5B$13.3BA5.4B21.4B7.2A$11.4B6.4B21.4B8.A$9.
6B5.4B21.4B10.3A$8.7B4.4B21.4B13.A$.B.4B.8B2.4B21.4B$2AB.17B9.2A
10.A3B$2A18B11.A9.B2AB$.2B.16B9.A10.BABA$4.16B9.5A5.4B5.2A$5.15B
14.A4.4B5.A$6.12B.B2A9.3AB2.7B.BA.A$6.11B2.BA.A7.A.2B3.7B.B2A$7.
10B5.A7.4A12B$7.6B2A2B5.2A4.2A2.BA3B2A7B$7.6B2A3B9.A2.3AB.2B2A7B$
7.10B10.2A.A.B3.10B$3.A.2AB.8B13.A8.8B$.3AB2AB3.7B12.2A7.9B$A4.B6.
6B22.3B2.4B$.3A.2A4.6B21.5B3.4B$3.2A2.A4.5B21.2A7.4B$6.A.A.8B21.A
8.4B12.A$2.A.2A.A.A8B8.A9.3A10.4B9.3A$2.2A.A.BA2B.6B6.3A9.A13.4B7.
A$5.A2.2B2.7B4.A27.4B6.2A$5.2A.B3.7B4.2A19.2A6.4B2.5B$3.2A2.A.A2.
8B.4B2.2A16.A7.8B$2.A2.A2.2A2.11B5.A16.A.AB5.8B$3.2A7.12B2.A19.2AB
.3B2.8B$12.12B2.2A20.16B$13.11B3.B20.18B$16.7B4.3B19.17B$15.8B3.6B
16.16B.B2A$14.9B2.10B11.17B2.BA.A$13.23B3.2B2.20B5.A$11.B.16B2A31B
6.2A$10.2A17B2A22B.7B$10.2A41B2.6B$11.42B3.6B$9.5B2.36B6.4B$9.2A6.
5B5.13B.4B12.B2A2B$10.A7.2B.3B3.7B.B4.4B14.2A.B2A$7.3A12.2A15.4B
18.BA.A$7.A14.A3.A11.4B22.A$23.4A10.4B23.2A$36.4B$25.2A8.4B$24.B2A
B6.4B$24.4B5.4B$25.2B5.4B$16.2A7.4B2.4B$16.A.A5.5B.4B$17.A.14B$18.
14B$18.14B$18.15B$17.3B2A12B$17.3B2A13B$15.2AB.11B2.4B$14.A.AB2.8B
5.4B$14.A5.10B4.4B$13.2A5.B.B5.2A5.4B$21.3B4.A7.3BA$20.B2AB5.3A5.
3BA$21.2A8.A6.3AB!
