#CSYNTH guntrue_4410 costs 3654 cells.
#C period 4410 fullperiod 4410 bbox 58 by 63
#CLL state-numbering golly
x = 58, y = 63, rule = LifeHistory
38.2A$18.2A17.A.A$18.A.A13.A2.A$20.A2.A9.A.A.2A5.B$13.B5.2A.A.A9.
2A.A3B2.3B$12.3B2.4B.2A12.B2A2B.4B$12.4B.2B3A12.2A.BA7B$12.7BAB.2A
9.A2.2A8B3.BA$7.BA3.8B2A2.A8.2A3.8B2.2A.B$6.A.AB2.8B3.2A13.9B.B.2A
$6.BA.A.9B18.3BA5B2.AB$7.AB2.9B18.2BABA5B$10.10B18.2BABA5B$10.10B
18.3BA7B$9.8B2AB18.3B4A4B$9.7BA2BA12.2A5.2B2A2BA3B$9.3BA4B2A5.2A7.
A6.BAB3A2B$10.B4A3B6.A8.A.AB3.2AB2A3B$10.A3BA3B3.BA.A9.2AB.B.B3A3B
6.2A$3.2A6.2A2BA2B.B.B2A12.6BA5B5.A$4.A5.3BABA6B14.13B.BA.A$4.A.AB
.4BA2BA5B15.12B.B2A$5.2AB.5B2A5B16.14B$7.14B16.14B$7.14B15.B.11B$
9.11B.B10.AB.14B$9.14B.2B5.BA16B$9.15B3A5.AB.14B$9.14B.2B9.13B$10.
13B13.12B$10.12B12.10B$14.10B10.2A2.6B$14.6B2.2A11.A2.6B2.B$11.B2.
6B2.A9.3A3.6B.B2A$10.2AB.6B3.3A6.A6.7B2A$10.2A7B6.A12.6B.2B$11.2B.
6B19.5B$14.5B20.6B$13.6B17.A2.6B$13.6B15.3A2.5B$14.5B14.A5.5B$14.
5B2.2A10.2A5.3B$15.3B4.A7.5B5.4B2.BA4.AB$4.AB4.BA2.4B4.A.AB3.2A2B
7.6B2A4B2A2B$2.BABA4BABA5B5.2AB2.B2A3B5.6BA8BA2B$.B3A6B3A5B5.10B4.
4B2.2B3A2B3A2B$2.BABA4BABAB2.4B5.10B2.4B5.2BA2.A2B$4.A2B2.2BA5.4B
4.9B2.4B9.2B$7.2B9.4B4.13B8.6B$5.6B8.4B3.12B7.2A6B2A$3.10B7.4B3.
10B6.BA2BA4BA2BAB$.A2B2A4B2A2BA6.4B.B2.7B6.2BA2BA4BA2BA2B$A3B3A2B
3A3BA6.13B8.BA2BA4BA2BAB$.A2B2A4B2A2BA8.11B11.2A6B2A$3.10B11.10B
13.6B$5.6B13.9B16.2B$7.2B14.9B$24.9B$25.7B$25.8B$25.8BA$25.9BA$26.
3B3.3AB!
