#CSYNTH guntrue_2440 costs 4464 cells.
#C period 2440 fullperiod 2440 bbox 62 by 72
#CLL state-numbering golly
x = 62, y = 72, rule = LifeHistory
12.A$12.3A20.2A3.2A$15.A18.A2B3.2BA$14.2A19.2BA.A2B$14.4B17.2A3.2A
$9.2A5.3B18.3B$8.B2AB3.12B.B7.5B$9.2B4.18B.9B$10.34B3.B$9.2B2A32B.
B2A$8.5BA33B2A$2.A4.15B2A22B.B$.A2BA2.4B2ABA7B2A22B6.2A$.A2BA.5B2A
B2A13B3.2B.11B6.A$3.A.6BA2BA13B7.11B3.BA.A$5.7B2A11B11.12B.B2A$3.A
.14B.3B13.14B$.A2BA.11B.B.B11.2A3.13B$.A2BA2.8B3.2A.A10.A2.A13B$2.
A4.6B6.A.3A10.2A2.10B$8.6B3.A6.A11.12B$7.7B3.2A4.2A9.2A.11B$7.6B
21.A2.4B2A5B$7.6B19.A.A3.3B2A5B$7.6B19.2A4.10B$6.8B25.9B$7.8B24.9B
$6.9B24.8B$6.9B25.8B$6.10B4.2A19.6B$6.5B2A3B3.A.A19.6B$6.5B2A4B2.A
21.6B$6.11B.2A9.2A4.2A3.7B$6.12B11.A6.A3.6B$6.10B2.2A10.3A.A6.6B4.
A$5.13BA2.A10.A.2A3.8B2.A2BA$4.13B3.2A11.B.B.11B.A2BA$4.14B13.3B.
14B.A$2.2AB.12B11.20B$.A.AB3.11B7.23B.A$.A6.11B.2B3.23B.A2BA$2A6.
22B2A15B2.A2BA$6.B.22B2A15B4.A$5.2A39B$5.2AB.36B$6.B3.34B$11.9B.
18B4.2B$13.5B7.B.12B3.B2AB13.2A$14.3B18.4B4.2A12.A.BA$12.2A3.2A17.
4B16.A2B$12.2BA.A2B18.4B12.A3.ABA$11.A2B3.2BA4.B13.4B9.3A4.BAB$12.
2A3.2A4.2AB2.BA9.4B7.A7.2BAB$22.B2AB.BA.A9.4B6.2A7.ABA$22.B.5BA3.A
7.4B.6B7.2B$21.6B.B4.3A6.8B9.2A$17.B3.5B10.A6.10B6.2B$16.2AB.2A5B
8.2A5.B.10B4.BAB$16.2A2B2A6B7.18BAB3.BAB$17.B.10B8.15BABA4B3A$21.
2B2.5B6.2B2A12BABA.3B3A$18.ABA5.5B4.2BA2BA12BA4.BAB$13.B2.BA3B6.5B
3.3B2A4B2.7B5.BAB$12.2A2BA4BA6.14B4.7B6.2B$12.2ABA2BAB2A7.12B6.3B
7.B.2A$13.3B2A2.B9.10B7.5B4.A4B$13.3B15.9B10.2A3.A.2A2B$32.9B9.A5.
AB.2A$33.7B11.3A3.A3B$34.4BAB13.A4.B.A$36.3BA17.A2BA$37.3AB16.ABA!
