#CSYNTH guntrue_970 costs 4312 cells.
#C period 970 fullperiod 970 bbox 77 by 56
#CLL state-numbering golly
x = 77, y = 56, rule = LifeHistory
65.2A$64.B2AB$65.3B$64.B.B8.2A$64.5B6.A$64.6B2.BA.A$59.11B2.B2A$
57.2A14B$47.2A5.3B2A15B$48.A4.20B$48.A.A20B.B2A$26.2A16.2A3.2A19B
2.BA.A$10.2A14.A17.A6.19B5.A$10.2A11.BA.A18.A5.19B5.2A$17.3B.B.B2A
18.2A5.21B$10.4A3.7B20.B6.23B$10.A3.A2.7B18.3B6.20B2A2B$12.BA2B.7B
16.6B4.21B2A2B$12.BABA10B11.10B2.25B$12.2B2A13B2.2B3.11B.26B$10.2A
.28B2A29B$10.A4.26B2A29B$8.A.A6.56B$8.2A7.56B$16.57B$2A13.4B8.4B.
14B5.22B$.A12.4B10.4B4.B.7B7.19B$.A.AB2.B5.4B12.4B7.4B9.18B$2.2AB.
3B3.4B14.4B5.4B11.7B.9B$4.6B.4B16.4B3.4B10.6B4.8B$4.10B18.4B.4B11.
2A8.9B$4.2B2A5B20.7B13.A8.10B$5.A2BA3B22.5B11.3A8.12B.B$5.BABA4B
21.5B11.A10.13B2A$6.BA6B19.7B22.12B2A$6.3B2.4B17.4B.4B20.2A9B2.B$
6.3B3.4B15.4B3.4B14.2A2.A2BA5B2.2B$6.B6.4B13.4B5.4B10.A2.A3.BABA.
2B3.B2A$4.4B6.4B11.4B7.4B8.A.A.A.4BA8.A.A.2A$2A2.2A2BA6.4B9.4B9.4B
8.A2.A.2AB8.A.A.2A.A$A2.A.AB2A7.4B7.4B11.4B10.A.BAB8.2A$.A.3A.A9.
4B5.2A2B13.4B10.A4.A$2.A2.3A10.4B3.2B2A15.4B10.5A$3.3AB2A10.4B.2BA
B17.4B7.A.A7.2A$6.3B11.7B12.A6.4B6.2A3.2A2.A.A$3.3A3B12.5B12.A.A6.
4B9.A.4A$2.A2.BA3B10.6B11.A2BA7.4B4.5A5.A$2.2A2.B2ABA8.9B2.2A2.6B
9.4B3.A4.2A2.2A$7.2BA.A6.5B3A2B.A4B4ABA10.4B3.3A.A.A3.2A$9.BA8.4BA
5B2AB.B2A3B12.4B4.ABA.2A.A2.A$20.3BAB4.3A2BA.BA14.4B4.BA2B3.3A$18.
5B6.BA.B.A.A16.4B3.2AB4A$18.2A11.2A.A.A.A15.11B.A.2A$19.A13.A3.2A
16.3BA2B.A2BAB.A.A$16.3A11.A.A23.3BA3.2A2B.A.A$16.A13.2A25.3AB3.B
2.2A.2A!
