#CSYNTH guntrue_380 costs 2891 cells.
#C period 380 fullperiod 380 bbox 59 by 49
#CLL state-numbering golly
x = 59, y = 49, rule = LifeHistory
41.AB6.A$40.B.2A3.3A$7.2A3.2A26.2A.B2.A$7.A.A.A.A27.BA3.2A$9.A.A
32.4B$8.ABA.A2.2A24.B.3B$8.3B.A2.A.A22.7B$10.A.2A.A2.A20.8B$9.3BA
2.3A21.9B$8.A3B3A23.5B3A2B8.A$9.2B.A2.A23.3BA2BA3B5.3A$9.3A2.2A21.
5BA6B4.A$10.2B18.2A4.10BA3B3.2A$10.2B19.A4.2B5A3BA8B$11.B18.A5.2B
3ABA3BAB.4B$10.2AB17.4A2.2BA3BAB4A6B$.2A6.B2A2B5.2A12.A2.4B2A4B2AB
A4B.2B$2.A4.8B4.A8.4A4.9B2AB2A6B2A$2.A.AB.8B.BA.A7.A2.2B3.5B2A4B2A
BA4B.B2A$3.2AB.2B2A4B.B2A8.2A.2B2.4BA3BAB4A6B2.B$5.3BA2BA5B13.2BA.
4B3ABA3BAB.6B$5.3BA2BA5B13.8B5A3BAB3.4B$5.4B2A6B12.A2BA13BA3.B2A2B
$7.10B6.2A4.3BA4B.4BA3B5.2A.B2A$9.7B6.B2A2B.A13BA2BA8.BA.A$9.8B6.
5BA3B5A8B12.A$8.5B.4B3.7BA3BAB3A4B.A2B12.2A$8.6B.12B4ABA3BA4B2.2B.
2A$7.6B3.9BAB2A4B2A5B3.2B2.A$3.B2.3BA3B4.8B2AB2A9B4.4A$.7BABA2B5.
7BAB2A4B2A4B2.A$.7BABA2B7.7B4ABA3BA2B2.4A$9BA3B9.4B.BA3BAB3A2B5.A$
11B.B2A7.6BA3B5A2B4.A$.9B2.BA.A5.B3.3BA10B4.2A$.7B7.A4.BAB3.6BA5B$
2.6B7.2A3.3A3.3BA2BA3B$3.4B12.B3AB3.2B3A5B$4.4B11.BA.AB3.9B$5.4B
11.3A5.8B$6.4B9.5A4.7B$7.4B7.A.3B.A4.3B.B$8.4B6.A.B.B.A4.2B5.A$9.
4B4.2A.A.A.2A.A2B.A2.A2BA$10.4B5.A.2A4.4BAB.A2BA$11.4B4.A4.3A4BA2B
.A$12.3BA4.3A.A2.6AB$13.3BA5.A2.A.5BAB$14.3AB5.2A4.B2.A!
