#CSYNTH guntrue_981 costs 4785 cells.
#C period 981 fullperiod 981 bbox 87 by 55
#CLL state-numbering golly
x = 87, y = 55, rule = LifeHistory
9.2A11.A$8.B2AB9.A.A$9.3B9.A.A2.2A3.A$8.B.B9.2A.2A2.A2.A.A$8.5B8.B
2.A.A3.A.A12.2A$8.6B6.2ABA2.4A.A13.A$8.8B4.2A.A.A3.A12.BA.A$9.13B
2.A.AB2.A9.B.B2A$7.13B5.A.A2B.A7.4B$6.15B5.A2B.2A7.4B$6.15B4.3B10.
5B$5.17B.B.2B11.6B7.2A$5.29B2.8B8.A14.2A$4.9BA3B2A26B7.A.AB11.2A$
3.10B2A2B2A9B2A14B9.2AB.B.3B$2.2AB3.4BABA13BABA4B.7B12.7B3.4A$.A2.
A4.19BA4B2A9B11.7B2.A3.A$A.2A5.6B3.B2.2B2.8BABA8B11.7B.2BAB$A7.6B
14.5BAB2A8B8.10BABAB$.3A3.9B14.2BAB2A9B.2B2.13B2A2B$3.A3.BA2B3.2A
15.B3A31B.2A$6.B2A2B3.A16.8B.24B4.A$5.BABA3B3.3A11.8B3.2B2A18B6.A.
A$5.3A5B4.A11.2A3.B5.2B2A18B7.2A4.A$2.B.B3A4B18.A10.22B10.3A$.2A
10B14.3A12.B.3B.4B8.4B8.A$.2AB.AB2A5B13.A19.4B10.4B7.2A$2.B2.AB2A
5B8.2A22.4B12.2BAB3.5B$5.8B9.A22.A3B14.2B2A2.3B9.2A$5.9B5.BA.A21.B
ABA16.2A7B8.A.A$4.10B.3B.B2A10.A10.2B2A18.8B.B8.A$3.17B12.3A7.4B
20.11B3.B.BA.2A$3.17B15.A5.4B21.12B.B2A.A.A$3.16B15.2A4.4B22.14B2A
.A.A$.19B14.9B6.2A15.8B2A5B2.A.2A$.21B14.6B7.A14.2AB.5BA2BA3B4A2.A
$2A23B2.2B2.B3.6B5.2A.A13.A.AB.6B2A2B.BAB2.2A$2AB.23B2A12B4.A2.A7.
A6.A5.7B6.2A$.B3.9B.11BA2BA12B3.B2A8.3A3.2A5.4B.2B7.A$7.6B2.10B2A
2BA17B12.A8.4B9.A$4.2B.6B2.11B2A2BA15B12.2A7.4B10.2A$3.2A7B4.11B4A
14B13.5B3.4B$3.2AB.6B10.4B.17B4.2A9.3B2.4B$4.B.6B12.2B3.15B4.A.A8.
9B$6.6B11.3B3.15B4.A8.B.8B$7.5B7.2A.2BA5.13B2.2A.AB.B3.BA9B$8.4B7.
A.2BA.A2.13B5.A.A.2AB.3A9B$9.5B6.A2.BA.A.2A4.8B4.A.A.2A2B2A10B$12.
2A7.A4.AB2A6.6B3.2A.A2.5BA9B$12.A6.A.5A2.B8.5B3.A2.4A3BA8B.B2A$13.
3A2.A.A4.A.2A.A.2A5.B.B4.2A2.BAB.BA8B.BA.A$15.A3.A2.2A.A2.A.2A.A4.
3B7.2A6.7B5.A$20.2A.A.2A11.B2AB6.A7.2B.3BA5.2A$39.2A9.A9.3BA$49.2A
10.3AB!
