#CSYNTH guntrue_1881 costs 3871 cells.
#C period 1881 fullperiod 1881 bbox 79 by 49
#CLL state-numbering golly
x = 79, y = 49, rule = LifeHistory
62.B.B$61.B2A3B$16.A7.A4.BAB2A27.A2BA2B10.2A$9.2A4.ABA4.3AB2.ABA.B
.A25.2B2A4B2.2B5.A$7.A2B.A4.2B2.4AB3.2B2.ABA14.2A9.13B.BA.A$6.A.BA
.A3.AB.A2B.B5.2A.B3.2A8.2A3.A6.16B.B2A$6.2A2.BAB4A2B.A6.A2.B4A2.A
7.A2.A7.BA12BA4B$12.2BA3.5A2.5A6.2A5.2A2.3A5.BABA10BABA4B$6.2A4.2B
4A.3ABA.2B3.3A9.A2.2A3.2B3.BABA11BA4B$6.A3.2A.A.A2.B2.2B.2B2.2A2.A
9.A.A2.3A2B3.2BA15B.B2A$8.A2.A.A.2B4A.BA.2A2.A.A4.2A2.2A.A.2AB.A
23B.BA.A$7.2A.A2.ABAB.2B.B3AB3.A.2A2.A.A2.A2.A3.2A19B2.2B5.A$5.A2.
A.2AB2.B.4B.BAB5.A3.A.A4.2A.2A21B10.2A$5.2A.2A.2BAB8A8.3A.A2B4.A.A
.B.19B$6.A.A2.A2.A2.4A13.ABABA3.A2.A5.16B$6.A2.4A.A3.2B9.4A4.BAB3.
2A6.10B3.4B.2A$5.2A6.A4.2B9.A3.3AB2.A12.8B3.B2A3B.A$11.A6.5B3.B4.B
A3.3A12.9B4.2AB2.A$11.2A4.12B2.BAB3A13.10B8.A$17.16B2A2.2A2.2A6.A
9B5.5A.A$14.B.17B4.A.A2.A5.B2A4BA3B5.A4.A.A$13.5BA14B6.3A5.BABA3BA
BA2B7.A2.A.A$12.5BABA13B5.A7.8BABA2B6.2A3.A$12.4BA17B4.2A5.10BA3B$
11.5B2A4B.3B5.9B4.13B.B2A$9.5BA2BA8B6.6B5.13B2.BA.A$7.8BA2BA5B8.4B
A3B2.4B.7B7.A$.4B2.3B.4B2A5B8.7BA7B3.6B7.2A$.15BA4B9.5B3A6B5.4B$2A
11BABA5B9.13B7.4B$2A12BA5B8.2AB.10B9.4B$.B.14B.B8.A.AB3.4BA2B11.4B
$4.12B11.A5.4BABA2B11.4B$4.12B6.A3.2A6.3BABA2B12.4B$6.B3.5B5.3A11.
4BAB15.4B$13.2B4.A15.5B16.4B$4.A8.2B3.BA.2A13.3B18.4B$3.BAB6.4A.A.
3A2.A10.5B18.4B$3.AB.ABAB7A.2A3.2A9.B2AB2A19.4B$3.BA.AB2AB.4B.B2A
11.2A2.2A.AB2.2A16.4B$.A3.A3.2AB.2B.2B2.2A9.A2.B3.A.A2.A17.4B$.4A
4.AB.4A.3A2.A9.7A.2A20.4B$7.2A.2B3.2B4.A17.A23.4B$.2A4.B3AB2A2B.4A
13.4A.A24.4B$2.A2.3A3.B.2AB2.A15.A2.2A26.4B$2.A.A3.AB2A4.A49.4B$3.
A2.2A.A2.3A.2A49.3BA$4.2A.A.A.A2.A2.A50.3BA$8.2A.2A2.2A52.3AB!
