#CSYNTH guntrue_2170 costs 4964 cells.
#C period 2170 fullperiod 2170 bbox 73 by 68
#CLL state-numbering golly
x = 73, y = 68, rule = LifeHistory
24.2A$25.A7.2A$25.A.AB3.B2AB$26.2AB4.2B$28.3B.2B$28.7B$21.B3.10B
24.2A3.2A$20.2AB.13B.B20.A.A.A.A$20.2A17B2A20.A.A$21.B.16B2A15.2A
2.A.2BA$24.17B14.A.A2.A.ABA$25.B.14B13.A2.A.2A.A$28.11B.B2A12.3A2.
AB2A$28.11B.BA.A14.2A2B2AB$19.A7.11B5.A13.A2.A.2A$17.3A6.11B6.2A
12.2A2.2AB$16.A8.15B21.2B$15.A.A6.4B.12B20.2B$14.BA.A5.4B2.12B7.2A
11.B$13.3BA5.4B4.11B2.2A2.A2.A9.B2A$2A9.4B6.4B3.4B.8B2.A.A2.2A2.2A
5.BA2BA6.2A$.A7.6B5.4B4.2A4.7B3.B.2A5.A4.3B2A3B4.A$.A.AB3.7B4.4B6.
A4.7B2.2B2.A5.A.AB.8B.BA.A$2.2AB3.8B2.4B4.3A6.6B.2BAB.A.2A3.2AB.8B
.B2A$4.17B5.A8.8BA.A.2A.A5.12B$4.16B15.8B.A.A9.12B$4.9BA6B16.5B4.A
2.2A6.12B$4.7B2AB2A5B15.6B4.2A.3A4.10B$5.6B2AB2A5BA.2A10.6B6.B4.A
4.7B$6.14B.2A.A10.7B3.B2AB3A4.8B$6.12B18.8B.B2A.A5.4B.5B$7.10B19.
10B8.4B.6B$7.10B18.3B2A6B7.4B3.6B$7.11B18.2B2A6B6.4B4.3BA3B2.B$7.
10B19.10B5.4B5.2BABA7B$3.A.2AB.8B18.12B3.4B6.2BABA7B$.3AB2AB3.7B
10.A.2A.14B2.4B7.3BA9B$A4.B6.6B10.2A.A20B6.2AB.11B$.3A.2A4.6B15.
19B6.A.AB2.9B$3.2A2.A4.5B16.17B7.A7.7B$6.A.A.8B15.16B7.2A7.6B$2.A.
2A.A.A8B8.A5.16B3.2A13.4B$2.2A.A.BA2B.6B6.3A4.4B2.8B.2B4.A12.4B$5.
A2.2B2.7B4.A6.4B4.7B2.B4.A.AB2.B5.4B$5.2A.B3.7B4.2A4.4B5.6B2.BAB4.
2AB.3B3.4B$3.2A2.A.A2.8B.4B3.4B6.4B4.3A6.6B.4B$2.A2.A2.2A2.11B4.4B
5.A3B5.ABABA5.10B$3.2A7.12B2.4B5.A.AB4.3A.B.3A3.2B2A5B$12.12B.4B6.
A.A4.A3.2A4.A3.A2BA3B$13.15B5.2A.A5.2AB2A.4A4.BABA4B$7.2A7.11B5.A
2.A4.2A2.A.B.A8.BA6B$8.A6.11B7.2A4.A2.ABABA.A.2A5.3B2.4B$8.A.AB2.
11B14.2A.A.4BA.2A5.3B3.4B$9.2AB.12B8.2A5.A.A.3BA9.B6.4B$11.15B7.A
5.A2.5A8.5B5.4B$10.16B4.BA.A5.3A2.3B8.5A6.4B$11.18B.B2A9.4A8.A5BA
6.4B$9.2AB.14B2A2B10.A2.AB6.3A.3B.3A5.4B$8.A.AB4.8B2.BA.AB10.2A.A.
A.2A.A3.5B3.A5.3BA$8.A8.6B5.2A13.2A.2A.A.A.3A.A.4A7.ABA$7.2A9.6B
15.3A3.A6.A3.3A12.2A$19.2B2AB15.A2.2A.A8.A.B.B.2A.A8.B$19.BABAB18.
A.A8.2A.ABA.A.2A$17.4BA32.A.A2.A$17.2A35.A2.2A$18.A34.2A$15.3A$15.
A!
