#CSYNTH guntrue_8748 costs 3444 cells.
#C period 8748 fullperiod 8748 bbox 82 by 42
#CLL state-numbering golly
x = 82, y = 42, rule = LifeHistory
37.2A2.A$4.2A4.2B4.2A18.A.4A14.A14.A9.A$3.A2.A.6B.A2.A17.A19.3A12.
3A5.3A$3.3A2.6B2.3A15.2A.7A15.A14.A3.A$6.10A16.A2.A.A3.B2.A13.2A
13.2A.B.2A$5.A2.6A2.A15.2A2.BA.2A2.2A13.5B4.3B3.7B$5.2A.B4AB.2A19.
2AB2AB18.3B3.6B3.3B$10.2B24.5B17.6B2.6B2.B3AB$10.2B25.3B18.13B2.2B
3A2B$11.B24.5B17.2B2A10B.3BA3B$10.2AB23.2B2A2B15.2BA2BA18B$9.A2BAB
5.2A13.4B2A2B6.2A7.2B2AB2A17B$7.3B2A3B4.A14.9B5.A8.3BABA3BA4B2.3BA
3B$7.8B.BA.A15.7B3.BA.A6.2AB.2BA5B2A2B2.2B3A2B$6.9B.B2A15.10B.B2A
6.A.AB.7B3A2B3.B3AB$5.B2A9B16.13B8.A5.11B4.3B$4.BA2BA8B15.14B7.2A
5.4B.5B3.7B$5.B2A9B3.A10.15B2.A10.4B3.3B4.2A.B.2A$7.10B3.3A7.4B2.
8B4.3A7.4B4.3B5.A3.A$9.7B7.A5.4B5.6B7.A5.4B5.3B3.A.A.A.A.A$9.8B5.
2A4.4B4.9B5.2A4.4B5.2A.2A.A.2A.2A.A.A$8.5B.4B4.9B5.2A4.4B4.9B6.AB.
BA.A7.A.A$8.6B.4B5.6B7.A5.4B5.6B9.B3.4A.2A.2A$7.6B3.4B2.8B4.3A7.4B
2.8B9.2BA.A2.A.A.A$3.B2.3BA3B4.15B2.A10.15B6.2A.4A.A.A2.2A$.7BABA
2B5.14B14.5BA8B5.A2.A4.A.A.A.A.A$.7BABA2B6.13B15.4BABA6B5.2A.BABA.
A.B2A2.A$9BA3B7.10B.B2A14.3B2A5B.B2A4.A.A.A.A.A3.2A$11B.B2A6.2BA4B
3.BA.A14.7B3.BA.A3.A.A.A3.A.2A$.9B2.BA.A4.2BABA4B5.A13.9B5.A4.2A.
2A2.2A.A$.7B7.A4.2BABA3B6.2A12.4B2A2B6.2A$2.6B7.2A5.BA4B22.2B2A2B$
3.4B15.5B23.5B$4.4B15.3B25.3B$5.4B13.5B23.5B$6.4B12.2AB2AB22.2AB2A
B$7.4B7.2A2.BA.2A2.2A15.2A2.BA.2A2.2A$8.4B6.A2.A.A3.B2.A15.A2.A.A
3.B2.A$9.4B7.2A.7A18.2A.7A$10.3BA8.A27.A$11.3BA7.A.4A22.A.4A$12.3A
B7.2A2.A23.2A2.A!
