#CSYNTH guntrue_2838 costs 3528 cells.
#C period 2838 fullperiod 2838 bbox 72 by 49
#CLL state-numbering golly
x = 72, y = 49, rule = LifeHistory
59.2A3.2A$47.A11.A.A.A2.A$47.3A11.A.2A.A$50.A8.B2A.A2.2A$49.2A7.5B
2.A2.A$28.A2.2A16.5B4.4B4.2A$28.4A.A17.11B.B$33.A7.2A2.AB3.11B.B2A
$26.7A.2A5.A2.A.AB.14B2A$25.A2.B3.A.A2.A4.A.2A15B.2B$25.2A2.2A.AB
2.2A5.A3.15B$28.B2AB2A10.2A8B2A7B$29.5B11.A.7BABAB2.4B$30.3B10.A4.
7BAB4.4B$29.5B9.2A3.B2A4B7.4B$28.6B13.2B2A3B9.4B$20.2A6.8B10.4B.5B
8.4B$21.A5.2B2A5B9.4B5.2A9.4B$21.A.AB3.7B9.4B6.A11.4B$22.2AB.10B7.
4B8.3A.A7.4B$24.5B2A6B5.4B10.A.2A8.3BA$24.5B2ABA5B3.6B7.A14.ABA$
20.2A2.6B2A7B.7B7.2A14.2A$16.2A.A.A4.5BA2B2.13B2.BA.A2.A13.B$7.A7.
A.A.A6.6B5.13B.B2A2.2A$6.A.A5.A2.A.BA4.9B4.10BA3B$6.BA2B5.2A.B2AB
2.4B4.2A5.8BABA2B8.A.2A$7.2B8.4B2.4B5.A7.7BABA2B6.3A.A.A$7.3B7.4B.
4B7.3A5.7BA3B5.A4.A.A$7.BA2B5.7BAB5.3A2.3A4.10B5.5A.A$5.2B3AB3.8B
3A5.A2.A4.A4.10B8.A$5.B5A10B4AB.BA.A2.5A6.9B4.2AB2.A$5.A5BA8BA5B.B
2A15.8B3.B2A3B.A$4.4BA2B2A6B2A2BA4B5.2A.2A6.10B3.4B.2A$4.3BABAB3A
4B3ABABA3B4.A.2A2.A5.16B$4.4BA2B2A6B2A2BA4B3.A5.A.B.19B$2.2AB.5BA
8BA5BA5.4A.2A21B10.2A$.A.AB.B4A10B5AB7.A.A3.2A19B2.2B5.A$.A5.3A8B
3.B3A2B9.A.2AB.A23B.BA.A$2A5.BA7B5.2BAB10.A.A2.3A2B3.18B.B2A$6.4B.
4B7.3B10.A2.2A3.2B3.15BA4B$6.3B2.4B8.2B11.2A2.3A5.14BABA4B$4.2AB3.
B2AB.2A5.2BAB12.A2.A7.14BA4B$3.A.AB4.AB.A2.A5.A.A12.2A3.A6.16B.B2A
$3.A8.A.A.A7.A17.2A9.13B.BA.A$2.2A6.A.A.2A37.2B2A4B2.2B5.A$10.2A
42.A2BA2B10.2A$54.B2A3B$55.B.B!
