#CSYNTH guntrue_974 costs 4860 cells.
#C period 974 fullperiod 974 bbox 90 by 54
#CLL state-numbering golly
x = 90, y = 54, rule = LifeHistory
10.2A$9.B2AB$9.3B$2A8.B.B73.A$.A6.5B71.3A$.A.AB2.6B70.A$2.2AB2.11B
58.A6.2A$4.16B55.A.A3.4B$3.12BA7B5.2A30.2A14.A.5B$4.10B3A7B4.A30.B
2A2B3.2A8.7B$2.2AB.7B2AB2A8BA.A31.4B2.B2AB7.4B2A4B.B$.A.AB2.10BABA
6B2A6.A21.B.6B3.2B8.4B2A3B.B2A$.A5.5B2ABA10B6.3A19.10B2.2B9.11B2A$
2A5.7B3A2BA6B5.A22.11B2A2B8.9B.2B$5.4B3A2BA11B5.2A20.12B2A3B.3B2.
10B$3.6BA10B4A2B6.B20.18B2A13B$2.2B2A3B3A4BA9B6.3B19.15B.B2A13B$2.
2B2A7B2A7B2A3B4.6B16.15B3.3B.11B$3.15BABA7B2.10B11.17B7.9B.B2A$3.
26B.11B3.2B2.19B10.7B.BA.A$5.12B3A14B2A31B9.7B5.A$5.12B3A14B2A22B.
7B9.8B5.2A$4.54B2.6B8.4B2.4B$4.54B2.7B6.4B4.4B$4.53B4.6B5.4B6.4B$
4.22B5.14B.4B10.6B5.4B8.4B$6.19B7.7B.B4.4B12.5B4.4B10.4B$6.18B9.4B
7.4B5.2A.2A.8B2.4B12.4B$6.9B.7B11.4B5.4B4.A2.A.A.A8B.4B14.3BA$7.8B
4.6B10.4B3.4B5.2A.A.BA2B.10B16.ABA$6.9B8.2A11.4B.4B9.A2.2B2.9B18.
2A$5.10B8.A13.7B10.2A.B3.8B20.B$2.B.12B8.3A11.5B9.2A2.A.A2.8B.2B$.
2A13B10.A11.5B8.A2.A2.2A2.13B$.2A12B22.7B8.2A7.13B$2.B2.9B2A19.5B.
4B16.14B$4.2B2.5BA2BA2.2A13.5B3.4B14.14B$4.2AB3.2B.ABAB3.A2.A9.5B
5.4B12.4B2.10B$2A.A.A8.A4B.A.A.A8.4B7.4B10.4B2.11B.B$A.2A.A.A8.B2A
.A2.A9.3B9.4B8.4B.14B2A$6.2A8.BAB.A13.B11.30B2A$14.A4.A13.2A3.2A7.
30B$14.5A14.A4.A.A6.30B$34.A5.A4.28B$16.A16.2A5.2A.28B2A$15.A.A24.
2B2A13B2.2B2.6B2AB.B$16.A25.BABA10B11.8B2A$42.BA2B.7B15.4B.B2A$40.
A3.A2.7B16.2B3.B$40.4A3.7B15.2B$47.3B.B.B2A12.B2AB$40.2A11.BA.A12.
2A$40.2A14.A$56.2A!
