#CSYNTH guntrue_3135 costs 5184 cells.
#C period 3135 fullperiod 3135 bbox 96 by 54
#CLL state-numbering golly
x = 96, y = 54, rule = LifeHistory
30.A11.2A9.2A.2A$29.A.A9.B2AB8.2A.ABA22.2B$21.A3.2A2.A.A9.3B14.2BA
4.A13.6B$20.A.A2.A2.2A.2A9.B.B8.5A3B4.3A11.7B$20.A.A3.A.A2.B8.5B8.
A3.A.2AB6.A9.9B$21.A.4A2.AB2A6.6B6.2A2.A2.BAB6.2A10.9B$23.A3.A.A.
2A4.8B7.A.5AB7.5B7.10B$5.2A15.A2.BA.A2.13B6.A2.A4.A.B8.3B6.12B$6.A
14.A.2BA.A5.13B4.2A.A.AB5A4.7B4.9B.4B$6.A.AB11.2A.2BA5.15B5.A.2A.
5B4.7B2.4B2A3B4.4B$7.2AB.2A12.3B4.15B5.A4.A.2B4.A12BA2BA2B5.4B$9.
2B2AB12.2B.B.17B3.2A.4A3BAB.ABA12B2A2B7.4B$9.4B6.29B4.A.A2.A3BA2BA
BA15B9.4B$9.6B3.16B2A13B3.A2.3A3B3.BA18B8.3BA$10.6B2.16B2A14B3.A.A
2.2BA4.10B.B5.2A9.ABA$10.7B.27B3.B2A3.A2.2A7.10B6.A11.2A$9.35B4.A
2.A6.A.A2.A5.8B6.3A9.B$7.21B2.2B2.B2.7B5.2A.A5.A.4A3.6B.4B7.A$6.
19B13.7B7.A6.A7.2A6.4B$5.18B15.8B6.2A7.A6.A7.4B10.2A$4.2A16B17.2B
2.4B13.2A3.3A9.4B9.A$4.BABA15B15.2A4.4B7.2A8.A5.2A5.4B.2B7.A$4.2BA
16B15.A6.4B5.B2AB14.A5.7B6.2A$4.12B2.3B.B2A14.A6.4B5.3B14.A.AB.6B
2A2B.BAB2.2A$2.2AB.10B6.BA.A12.2A7.4B3.B.B16.2AB.5BA2BA3B4A2.A$.A.
AB2.10B8.A22.B3A.6B16.8B2A5B2.A.2A$.A7.8BA7.2A22.A9B8.2A6.14B2A.A.
A$2A7.9BA22.2A7.A11B3.2B2AB5.12B.B2A.A.A$9.6B.3AB22.A8.12B2.4B6.
11B3.B.BA.2A$11.B.B3.4B6.2A13.A.AB6.19B3.8B.B8.A$10.3B5.4B5.A15.2A
B.3B2.3B2A25B8.A.A$10.B2AB5.4B6.A15.9BA2B2ABA15B2.3B9.2A$11.2A7.4B
4.2A15.8BA6B2A13B3.5B$21.4B2.2B17.11BABABA12B7.2A$14.2A6.8B15.9B2A
2BA13B9.A$15.A7.7B13.13BABA5B2.4B12.3A$15.A.2A5.7B2.B2.2B2.17BA2B
5.7B12.A$16.A2.A4.35B6.AB3.2A$17.2AB3.27B.7B6.BAB3.A$18.14B2A16B2.
6B7.A5.3A$19.13B2A16B3.6B14.A$20.29B6.4B$20.17B.B.2B12.B2A2B$21.
15B4.3B12.2A.B2A$21.15B5.A2B.2A11.BA.A$22.13B5.A.A2B.A14.A$24.13B
2.A.AB2.A15.2A$23.8B4.2A.A.A3.A$23.6B6.2ABA2.4A.A$23.5B8.B2.A.A3.A
.A$23.B.B9.2A.2A2.A2.A.A$24.3B9.A.A2.2A3.A$23.B2AB9.A.A$24.2A11.A!
