#CSYNTH guntrue_5400 costs 2440 cells.
#C period 5400 fullperiod 5400 bbox 61 by 40
#CLL state-numbering golly
x = 61, y = 40, rule = LifeHistory
13.2A5.2B24.2A$3.ABA4BA6BA2B3A2.2A9.A4.B3.A.A$2.BA.4ABABA2BABABAB
2AB.2A2.2A4.A.A.2A2B.BAB$2.2A2B.2A2.B4AB4.B3A4.A.A4.A.3A.2A4B$2.2B
.2B2AB3.2B8.BAB5.A6.AB.B2AB.2B$6.A.A4.2B9.A5.A.2A4.4AB3.3A$7.A6.B
15.A2.AB3.BAB3A3.B$13.2AB11.2A.2A2B4.3BA.A$4.2A6.A2BAB5.2A2.A.A.9B
2.BA$5.A4.3B2A3B4.A3.A.A3.2B2A3B$5.A.AB.8B.BA.A2.2A.2AB.BA2BA3B$6.
2AB.8B.B2A6.B.3B3A5B$8.12B5.2AB2AB.2BA6B$8.12B3.A2.A.2AB.7B10.2A$
8.12B3.2A8.5B10.B2AB$10.10B13.4B12.3B5.2B$12.7B4.4A7.3B5.2B2.2B2.B
2.2B.5B$12.8B3.A3.A5.A27B$11.5B.4B5.2A4.A17BA9B$11.6B.4B4.6B3A.13B
ABA8B$10.6B3.4B5.6B3.11BA3BA6B$6.B2.3BA3B4.4B2.8B4.11BABA7B$4.7BAB
A2B5.15B5.B.13B2.BA$4.7BABA2B6.14B10.5B7.A.A$3.9BA3B7.13B10.2B.2B
8.2A$3.11B.B2A6.10B.B2A9.6B$4.9B2.BA.A6.2BA4B3.BA.A6.10B$4.7B7.A5.
2BABA4B5.A4.3BABA2BABA3B$5.6B7.2A4.2BABA3B6.2A2.2ABA2BA2BA2BAB2A$
6.4B16.BA4B11.3BABA2BABA3B$7.4B15.5B14.10B$8.4B15.3B17.6B$8.5B13.
5B18.2B$9.5B12.2AB2AB$6.3B2.4B11.BA.2A2.2A$.B2.BA3B3.4B6.2A.A.A3.B
2.A$3AB2A2B2A3.4B5.A.2A.7A$4A4B2A4.3BA8.A$.3B2A2.B6.3BA7.A.4A$.3B
12.3AB7.2A2.A!
