#CSYNTH guntrue_2745 costs 4158 cells.
#C period 2745 fullperiod 2745 bbox 66 by 63
#CLL state-numbering golly
x = 66, y = 63, rule = LifeHistory
43.2A.2A2.2A5.2A$43.2A.A2.A2.A.2A2.A$46.A.2A.2A.A.2A$43.2A.A2.A.A
2.A.A3.2A$43.AB.2A.A.3ABAB.A2.A2.A$44.2AB.2A2BA.2BAB2A2.3A$45.3A2B
.2B5A2.2A$45.2A2B.B6AB.A2.A$47.B3.2A.2B4.2A$54.2B$54.B$39.A13.B2A$
38.A.A4.2A5.2B2AB6.2A$39.A6.A4.8B4.A$46.A.AB.8B.BA.A$31.2A4.5A5.2A
B.4B2A2B.B2A$31.A5.A4.A6.6BABA3B$23.A.2A.2A.A7.BAB.A5.4B5A3B$23.2A
.A.A.A8.B2A.A2.A2.4B3A5B$28.BA7.A4B.A.A.A.3BABA4B$27.4B5.ABAB3.A2.
A3.7B$20.2A5.4B.AB2.A2BA2.2A5.8B$12.A8.A5.4BABA3B2A9.4B.5B$11.A.A
7.A.AB.11B10.4B.6B$9.3A.A8.2AB2.2B3A2B2AB9.4B3.6B$8.A4.A.2A7.4BA5B
ABAB7.4B4.3BA3B2.B$8.ABABA.A.A8.2BA2BA4B3A6.4B5.2BABA7B$9.2A.A.A
10.3BA2B3ABAB6.4B6.2BABA7B$9.4BABA9.4B3A2B2AB5.4B7.3BA9B$12.2BA3B
7.5B2A2BA2B4.4B6.2AB.11B$8.2B4.5B4.4B2A8B3.4B6.A.AB2.9B$5.B.4B2.6B
.7B2A8B2.4B7.A7.7B$4.2A20BABA8B.4B7.2A7.6B$4.2AB.BA9B3A3B3A9B3AB
18.4B$5.B2.BA9B3A3B3A11BA18.4B$10.8BABA17BAB17.4B$10.8B2A7B.6B2.4B
16.4B$10.8B2A4B4.5B4.B.B2A13.4B$10.2BA2B2A5B7.3BA2B4.BA.A11.4B$10.
B2A2B3A4B9.ABA4B4.A10.4B$10.BAB3A2BA3B10.A.A.2A4.2A8.4B$9.3A4BA2BA
2B8.A.A.ABABA12.4B$9.BABA5BA4B6.A.A.A4.A11.5B$10.B2A2B3A2B2.B2A4.A
.A.A.3A11.5B7.B$10.11B.BA.A4.A3.2A12.6BA5.3B$2A6.2A3BABA4B5.A21.4B
.2BAB4.3B$A2.2A2.A2BA2.BA.4B5.2A5.4A10.4B3.3A3.2BA2B$.A.A3.BABA5.
4B12.A3.A8.4B3.B3AB2.2BA2B$2A.A.4BA7.AB3.2A11.2A7.4B4.B3AB.2BABA2B
$3.A.2AB8.A.A.A2.A11.5B3.4B6.BA2B.3BA3B$3.A.BAB7.A.2A.2A4.2A9.3B2.
4B7.3B.4BA4B$4.A4.A5.A9.A.A8.9B8.3B.4BA4B$5.5A4.2A9.A8.B.8B9.BA2B.
3BA3B$22.2A.AB.B3.BA9B9.B3AB.2BABA2B$7.A15.A.A.2AB.3A9B9.B3AB2.2BA
2B$6.A.A14.A.A.2A2B2A10B10.3A3.2BA2B$7.A14.2A.A2.5BA9B10.BAB4.3B$
22.A2.4A3BA8B.B2A9.A5.3B$23.2A2.BAB.BA8B.BA.A15.B$25.2A6.7B5.A$25.
A7.2B.3BA5.2A$27.A9.3BA$26.2A10.3AB!
