#CSYNTH guntrue_1269 costs 4331 cells.
#C period 1269 fullperiod 1269 bbox 61 by 71
#CLL state-numbering golly
x = 61, y = 71, rule = LifeHistory
37.2A$37.A.A$39.A4.2A$35.4A.2A2.A2.A4.A$35.A2.A.A.A.A.2A3.ABA$37.B
ABABA.A7.2B$38.B2ABA.A6.A2BAB$39.2B.BA8.A.ABA.2A$38.3B12.A3B2A.A$
29.2A6.4B13.BA4.A$30.A6.B2A3B13.4A$30.A.AB3.B2A3B12.2B.A$31.2AB.
10B10.AB.AB$33.13B10.3AB$33.14B11.2A$33.15B11.AB$35.8B2.4B5.B2.BA.
A$35.6B5.4B3.3B.B2A$34.9B4.4B.6B$33.4B4.2A5.10B$32.4B5.A7.5B2A2B$
31.4B7.3A5.3BA2BA$30.4B10.A4.4BABAB$11.2A16.4B15.6BAB$4.2A3.2B2AB
14.4B15.4B2.3B$3.B2AB2.4B14.4B15.4B3.3B2.BA$4.2B3.6B.B9.4B15.4B4.B
.B.ABAB$5.2B2.10B6.4B15.4B6.BA3BA$4.4BA10B5.4B4.A10.4B7.2A.2B$.B.
4B2A3B2A4B2A3.4B5.3A7.4B7.B2A.2A$2A4BA4BAB2A3B2A2.4B9.A5.4B9.2A.2B
$2AB.3B2AB2A7B2.4B9.2A4.4B4.AB2.2A.2BA$.B3.3BA3BA11B10.9B4.A.2AB.
2BA$5.18B13.6B5.A.B.A.A$6.19B2.2B2.B3.6B5.2A.A.2A$6.35B4.A2.A.A$7.
7B.27B3.B2A2.A$7.2B3AB2.16B2A14B3.2A$6.B2A2BAB.17B2A13B$6.2B3AB.
32B$7.2BA6B7.2B.B.17B$7.8B7.3B4.15B$6.8B4.2A.2BA5.15B$6.7B5.A.2BA.
A5.13B$6.6B7.A2.BA.A2.13B4.B$5.7B8.A3.A.A.2A4.8B2.B2A$5.7B6.A.4A2.
AB2A6.8BA.AB$.B3.7B5.A.A3.A.A2.B7.4B2.2B3A$2AB.8B5.A.A2.A2.2A.2A5.
4B3.4B8.2A$2A10B6.A3.2A2.A.A5.4B3.4B2AB6.A$.B.9B14.A.A4.4B5.2B4A3.
BA.A$4.7B16.A4.4B7.BA3BAB.B2A$4.4B23.4B9.5BA2B$5.4B7.A13.4B12.A2BA
3B$6.B2A7.3A10.4B11.5BA2B$7.A11.A8.4B11.BA3BAB.B2A$8.3A7.2A7.4B11.
2B4A3.BA.A$11.A6.5B3.4B11.4B2AB6.A$8.2A.A8.3B2.4B13.4B8.2A$8.A.A8.
9B14.2B3A$5.2A.A8.B.8B15.2BA.AB$5.2A.AB.B3.BA9B18.B2A$8.A.2AB.3A9B
19.B$5.2A.A.2A2B2A10B$6.A.A2.5BA9B$5.A2.4A3BA8B.B2A$6.2A2.BAB.BA8B
.BA.A$8.2A6.7B5.A$8.A7.2B.3BA5.2A$10.A9.3BA$9.2A10.3AB!
