#CSYNTH guntrue_2757 costs 9028 cells.
#C period 2757 fullperiod 2757 bbox 122 by 74
#CLL state-numbering golly
x = 122, y = 74, rule = LifeHistory
112.A2.2A$112.4A.A$117.A$110.7A.2A$109.A2.B3.A.A2.A$109.2A2.2A.AB
2.2A$112.B2AB2A$113.5B$114.3B$113.2A3B$112.B2AB2A$104.2A6.2ABA4B$
105.A5.9B$105.A.AB3.7B$106.2AB.10B$29.2A53.2A22.13B$28.A.A54.A22.
13BA$22.2A4.A54.A7.2A3.2A6.A3.11BABA$20.A2.A2.2A.4A48.4A5.B2AB.B2A
B4.A.A4.8B2.2A$20.2A.A.A.A.A2.A47.A4.2B3.4B.3B5.BA2B3.6B5.B$23.A.A
BABAB48.A2.3A3B3.2B3.B7.2B3.9B$23.A.AB2AB50.2A2.A22B.4B4.2A$24.AB.
2B53.2A27B5.A$19.A7.3B52.A.B.24B7.3A$17.3A7.4B6.2A19.2A23.A2.24B9.
A$16.A8.3B2AB6.A20.A.A19.3A3.23B$15.A.A7.3B2AB3.BA.A22.A4.2A13.A6.
24B$14.BA.A5.10B.B2A19.4A.2A2.A2.A18.16B6.2A$13.3BA5.13B21.A2.A.A.
A.A.2A19.12B9.A$11.4B6.14B23.BABABA.A23.10B11.3A$9.6B5.15B24.B2ABA
.A22.14B10.A$8.7B4.4B2.8B27.2B.BA22.16B$.B.4B.8B2.4B5.6B26.3B24.4B
.12B$2AB.17B4.9B16.2A6.4B23.4B3.11B2.2A2.2A.2A$2A18B5.2A4.4B16.A6.
B2A3B20.4B2.4B.8B2.A.A2.A.A.A$.2B.16B6.A5.4B15.A.AB3.B2A3B19.4B3.
2A4.7B3.B.2A2.A.A$4.16B3.3A7.4B15.2AB.10B16.4B5.A4.7B2.2B2.A.A.A$
5.15B3.A10.4B16.13B14.A3B3.3A6.6B.2BAB.A2.A$6.12B.B2A.A11.4B15.14B
12.A3B4.A8.8BA.A.3A$6.11B2.BA.A.2A10.4B14.15B10.B3A14.8B.A.A$7.10B
5.A2.A11.4B15.8B2.4B8.4B16.5B4.A2.2A$7.6B2A2B5.2A14.4B14.6B5.4B6.
4B17.6B4.2A.3A$7.6B2A3B21.4B12.9B4.4B4.4B17.6B6.B4.A$7.10B23.4B10.
4B4.2A5.4B2.4B18.7B3.B2AB3A$3.A.2AB.8B24.4B8.4B5.A7.8B20.8B.B2A.A$
.3AB2AB3.7B24.4B6.4B7.3A5.6B21.10B$A4.B6.6B25.4B4.4B10.A6.4B21.3B
2A6B$.3A.2A4.6B27.4B2.4B17.6B14.2A5.2B2A6B$3.2A2.A4.5B28.8B17.8B
11.A2.A5.10B$6.A.A.8B28.6B17.4B2.4B10.2A.A.AB2.11B$3.3A.A.A8B8.A
20.4B6.A10.4B4.4B11.A.2AB.12B$2.A2.A.BA2B.6B6.3A19.6B5.3A7.4B6.4B
10.A3.15B$.A.A.A2.2B2.7B4.A21.8B7.A5.4B8.4B7.3A3.16B$A.A2.2A.B3.7B
4.2A19.4B2.4B5.2A4.4B10.4B5.A6.16B.2B$A.A.A2.A.A2.8B.4B18.4B4.4B4.
9B12.4B4.2A5.18B2A$.2A.2A2.2A2.11B19.4B6.4B5.6B14.9B4.17B.B2A$12.
12B17.4B8.4B2.8B15.6B5.4B2.8B.4B.B$12.12B16.4B10.15B13.8B2.4B4.7B$
2.2A9.11B15.4B12.14B11.15B5.6B$3.A12.7B15.4B14.13B11.14B6.4B$3.A.A
B8.10B.2B9.4B16.10B.B2A9.13B5.A3B$4.2AB4.B.16B.B5.4B19.3B2AB3.BA.A
6.2AB.10B5.A.AB$6.26B3.4B20.3B2AB6.A5.A.AB3.B2A3B7.A.A$6.32B23.4B
6.2A4.A6.B2A3B8.A$6.31B24.3B12.2A6.4B7.3A$7.29B22.AB.2B22.3B7.A$8.
27B22.A.AB2AB22.2B.BA$9.2B.B2.18B24.A.ABABAB20.B2ABA.A$11.3B.17B
22.2A.A.A.A.A2.A17.BABABA.A$10.B2AB2.8B4.2B24.A2.A2.2A.4A15.A2.A.A
.A.A.2A$11.2A4.6B4.2B27.2A4.A19.4A.2A2.A2.A$16.4B6.B2AB32.A.A21.A
4.2A$15.B2A2B7.2A34.2A19.A.A$16.2A66.2A!
