#CSYNTH guntrue_4455 costs 3355 cells.
#C period 4455 fullperiod 4455 bbox 55 by 61
#CLL state-numbering golly
x = 55, y = 61, rule = LifeHistory
30.2B5.2A$6.2A22.4B2.A.A$7.A21.8BA$5.A4.A18.7B6.B$4.A.5A19.6B5.3B$
.A2.A.A4.2A18.6B4.3B$A.A.A.B4A2.A16.7B3.5B$.A2.A.A2B2.3A2.A13.7B3.
B3AB$4.2AB2ABA3.3A11.B2.2B2A2B2.2BABA2B$5.B.BA.A2.A13.2AB.BABA2B2.
2B3A2B$8.BA3.2A12.2A3BA8B3A3B$10.5B13.2B.BABA6B3A3B$10.BA3B16.2B2A
3B.2B3A2B$9.B3A3B14.11BABA2B$9.A2B2A3B8.A4.9B.B3AB$8.B3ABA2B7.3A5.
6B3.5B$3.4B2ABAB2A3B5.A8.6B4.3B$.5BA2BA8B4.2A6.7B4.3B$5B6A6B2.5B6.
6B6.B$.5BA2BA8B.3B9.6B$3.4B2ABAB2A6BA5B5.5B$5.4B3ABA5B3A5B4.5B$5.
4BA2B2A4B2A2BA4B4.5B7.A$5.5B3A5BAB3A4B4.4B6.3A$6.5BA6B2ABAB2A4B.4B
6.A$10.3B.8BA2BA7B7.2A$8.5B2.6B6A7B3.5B$8.2A4.8BA2BA9B2.3B9.2A$9.A
5.3B2ABAB2A4B3.9B8.A.A$6.3A7.2BAB3AB9.8B.B8.A$6.A8.3B2A2BA11.11B3.
B.BA.2A$16.3B3AB11.12B.B2A.A.A$17.3BAB12.14B2A.A.A$17.5B12.8B2A5B
2.A.2A$17.2A3.AB8.2AB.5BA2BA3B4A2.A$18.A2.A.AB.B4.A.AB.6B2A2B.BAB
2.2A$15.3A3.AB2AB2A3.A5.7B6.2A$15.A2.3A2.2BA.A2.2A5.4B.2B7.A$18.A
2.4AB.A.A6.4B9.A$19.2A4.A.A.A5.4B10.2A$21.5A.2A5.4B$21.A4.A6.4B$
24.A.A5.4B$17.A6.2A5.4B$17.3A10.4B$20.A8.4B$19.2A7.4B$19.5B3.4B$
10.2A9.3B2.4B$9.A.A8.9B$9.A8.B.8B$6.2A.AB.B3.BA9B$7.A.A.2AB.3A9B$
7.A.A.2A2B2A10B$6.2A.A2.5BA9B$6.A2.4A3BA8B.B2A$7.2A2.BAB.BA8B.BA.A
$9.2A6.7B5.A$9.A7.2B.3BA5.2A$11.A9.3BA$10.2A10.3AB!
