#CSYNTH guntrue_2023 costs 9752 cells.
#C period 2023 fullperiod 2023 bbox 106 by 92
#CLL state-numbering golly
x = 106, y = 92, rule = LifeHistory
46.2A$11.A15.2A.A.2A11.B2AB$9.3A14.A2.2A.A2.A.2A.A4.3B$8.A5.2A9.A.
A4.A.2A.A.2A5.B.B$2.2B4.2A5.A10.A.5A2.B8.5B$.9B5.A.2A3.2A4.A4.AB2A
6.6B$.7B8.A.A4.A3.A2.BA.A.2A4.8B$.9B8.A.3A3.A.2BA.A2.13B$.10B.3B2.
2A.A5.2A.2BA5.13B$.2B2A10B.5B9.3B3.15B$2BA2BA14B11.2B3.15B$2BA2BA
5B2A7B10.4B.17B$.2B2A5B2A8B3.29B$11B2A7B2.16B2A13B$.11B3A5B2.16B2A
14B$.4B.3B2.3BA6B.27B3.B2A$2.2B7.3BA33B4.A2.A$11.21B2.2B2.B3.6B5.
2A.A28.2A$12.17B14.6B7.A22.A.2A.A.A$12.15B14.9B6.2A21.2A.A.A$12.
14B15.2A4.4B32.2AB$12.15B15.A5.4B31.2B$11.16B12.3A7.4B30.4B2.B$10.
2A.3B3.6B.B2A10.A10.4B30.8B$10.2A2B2AB3.4B2.BA.A21.4B18.A10.8B$11.
3B2A5.4B4.A22.4B11.2A3.A.A8.8B2A$6.2A.6B7.4B3.2A22.4B11.A3.A2.A6.
2B2A3B.B2A$6.A2.2A2.B9.4B27.4B10.A.2A.A.A6.BABA4B.B$7.3A.AB11.4B
27.4B10.A.A.A.2A5.ABA4B$10.B.A12.4B27.4B10.2B2A.A2.A3.BA7B$7.5A14.
4B27.4B10.4B2.2A4.8B$7.A19.4B27.4B6.7B9.7B$10.2A16.4B27.4B3.8B10.
8B$10.2A17.4B22.2A3.4B.4B3AB11.8B$30.4B22.A4.7BA4B11.7B$31.4B21.A.
AB2.5BA4BA.2B8.7B$32.4B10.A10.2AB.6BA4BA2B2A7.8B$33.4B7.3A12.10BAB
2A2B2A6.10B$34.4B5.A15.10BABAB.2B8.10B$35.4B4.2A15.6BA3BA2B10.7B.
4B$28.2A6.9B14.8BA5B.2B7.6B3.4B$29.A7.6B14.12BABA3B2A6.6B4.4B$29.A
.2A5.6B3.B2.2B2.14B3A2B.B2A6.6B5.4B$30.A2.A4.29B4A2B2.B6.8B5.4B$
31.2AB3.27B.BA2BA3B10.8B5.4B$32.14B2A16B2.B3ABAB9.9B6.4B$33.13B2A
16B2.6BA9.9B7.4B$34.29B3.3BA3B9.10B7.4B$34.17B.B.2B11.2A4B.BA6.5B
2A3B8.4B$35.15B4.3B10.2A5BA.A5.5B2A4B8.4B$35.15B5.A2B.2A6.BAB2A3BA
6.11B9.3BA$36.13B5.A.A2B.A6.B3A2B.B7.12BA.2A5.ABA$38.13B2.A.AB2.A
7.2BA2B12.8B2.2A.A6.2A$37.8B4.2A.A.A3.A8.6B4.2A5.7B14.B$37.6B6.2AB
A2.4A.A4.2AB.5B2.B2AB4.6B$37.5B8.B2.A.A3.2A3.A.AB3.4B.3B5.6B$37.B.
B9.2A.2A.A.A6.A7.4B.B5.8B$38.3B9.A.A3.A.3A2.2A8.8B.8B$37.B2AB9.A.A
4.A2.A12.9BA7B$38.2A11.A6.2A12.9BABA6B$72.9BABA7B$73.9BA7B$74.8B.
7B$75.16B4.2A$76.3B.10B5.A$76.3B2.9B2.BA.A$77.B3.9B2.B2A$80.13B4.
2A$80.13B4.A.A2.2A$79.14B6.A3.A$78.A13B3.4A.3A$76.3A.12B3.A2.A.A$
75.A5.5B.5B6.ABAB3A$75.2A6.2B2.6B6.2ABA2.A$87.7B4.4B2.2A$86.16B$
85.13BA2B$81.16BABAB$80.17BA2BA$80.18B2AB$80.21B$82.17B.B2A$84.13B
3.BA.A$82.4B3.10B4.A$82.2A6.4B3.2A4.2A$83.A5.A3.2B2.A$80.3A4.3A2.B
2A3.3A$80.A5.A6.A.A5.A$86.2A3.A.A.6A$91.2A$97.2A$97.2A!
