#CSYNTH guntrue_7331 costs 13750 cells.
#C period 7331 fullperiod 7331 bbox 125 by 110
#CLL state-numbering golly
x = 125, y = 110, rule = LifeHistory
37.2A2.A$36.A.4A$36.A$34.2A.7A$32.A2.A.A3.B2.A$32.2A2.BA.2A2.2A$
36.2AB2AB6.2A$36.5B8.A$37.3B7.A$36.5B6.5A$36.BA4B9.A$34.2BABA3B3.
4AB$34.2BABA4B2.A2.AB$35.2BA4B4.4B$34.15B$33.14B2A.A.2A$32.15B2A.
2A.A$31.15B.B$30.4B2.9B$14.2A13.4B5.7B$14.A13.4B4.9B$9.2A5.A10.4B
5.2A4.4B$9.A5.2A9.4B7.A5.4B$6.2A.A.3B11.4B5.3A7.4B$6.A2.A.2A2B2A7.
4B6.A10.4B$8.2A.A.2B2AB5.4B19.4B$11.A.4B5.4B21.4B$11.2A.4B3.4B23.
4B$4.2A8.3BA6B25.4B$3.A.A8.2BABA4B27.4B$3.A8.B.3BA4B29.4B$2A.AB.B
3.11B31.4B$.A.A.2AB.12B32.4B$.A.A.2A14B33.4B$2A.A2.5B2A8B34.4B25.A
11.2A$A2.4A3BA2BA5B.B2A33.4B23.A.A9.B2AB$.2A2.BAB.2B2A6B.BA.A16.2A
15.4B10.A3.A3.2A2.A.A9.3B$3.2A6.7B5.A16.A.A15.4B7.3A2.A.A2.A2.2A.
2A9.B.B$3.A7.2B.4B5.2A17.A4.2A10.4B5.A5.A.A3.A.A2.B8.5B$4.A10.4B
19.4A.2A2.A2.A9.7B.2A5.A.4A2.AB2A6.6B$3.2A11.4B18.A2.A.A.A.A.2A10.
9B7.A3.A.A.2A4.8B$17.4B19.BABABA.A14.6B8.A2.BA.A2.13B$18.4B19.B2AB
A.A15.5B7.A.2BA.A5.13B$19.4B19.2B.BA15.7B6.2A.2BA5.15B$20.4B17.3B
19.6B10.3B4.15B$21.4B7.2A6.4B19.7B10.2B.B.17B$22.4B7.A6.B2A3B17.6B
4.29B$23.4B6.A.AB3.B2A3B17.7B2.16B2A13B$24.4B6.2AB.10B15.7B2.16B2A
14B$25.4B7.13B13.9B.27B3.B2A$26.4B6.14B12.36B4.A2.A$27.4B5.15B6.B
4.20B2.2B2.B2.7B5.2A.A$28.4B6.8B2.4B4.2AB.19B13.7B7.A$29.4B5.6B5.
4B3.2A19B15.8B6.2A$30.4B3.9B4.4B3.B.17B17.2B2.4B$31.4B.4B4.2A5.4B
5.17B15.2A4.4B$32.7B5.A3.A3.4B4.17B15.A6.4B$33.5B7.4A4.4B3.15B.B2A
15.A5.4B$33.5B16.4B2.12B4.BA.A13.2A6.4B$32.7B4.4A8.15B9.A22.4B$31.
4B.4B3.A2.3A7.15B8.2A22.4B$30.4B3.4B8.A7.14B33.4B$29.4B5.4B6.A.A7.
12B35.4B$28.4B7.4B5.A.AB7.10B37.4B10.2A$27.4B9.4B5.A3B7.9B38.4B9.A
$26.4B11.4B6.4B5.9B39.4B10.A$25.4B13.4B5.6B5.6B34.2A5.4B5.5A$24.4B
15.4B4.7B.2B2.5B35.A5.4B4.A$11.2A10.4B17.4B2.8B.9B35.A.AB.7B2.B3A$
12.A9.4B19.24B35.2AB.7B3.2B.A$10.A10.4B21.24B36.12B4A$10.5A5.4B5.
2A15.19B2.4B35.7B2A3BAB2.2A$15.A4.4B5.A11.2A2.19B4.4B34.7B2A2B.B3A
2.A$12.3AB2.7B.BA.A11.A2.A17B7.4B33.10B3.B.A.2A$11.A.2B3.7B.B2A14.
2A.15B9.4B31.8B8.A$11.4A12B21.12B11.4B29.9B7.2A$9.2A2.BA3B2A7B22.
10B13.4B27.4B2.3B$8.A2.3AB.2B2A7B22.2B2A6B14.4B25.4B3.5B$8.2A.A.B
3.10B21.3B2A6B15.4B23.4B7.2A$11.A8.8B21.10B3.2A.2A8.4B21.4B8.A$11.
2A7.9B20.8B.B2A2.A.A10.4B19.4B10.3A$21.3B2.4B18.7B3.B2ABA2.A11.4B
10.A6.4B13.A$19.5B3.4B17.6B6.B.A.A13.4B7.3A5.4B$19.2A7.4B17.6B4.2A
2.A15.4B5.A7.4B$20.A8.4B16.8B.A2.2A17.4B4.2A5.4B$17.3A10.4B14.9BA.
A.A19.9B4.4B$17.A13.4B4.A8.7B.2BAB.A20.6B5.4B$32.4B3.3A6.6B3.2B2.A
.2A17.8B2.4B$33.4B5.A4.7B4.B.2A2.A15.15B$34.4B3.2A4.7B3.A.A2.A17.
14B$35.4B2.4B.8B3.2A2.A18.13B$36.2B2A3.11B8.3A13.2AB.10B$37.BABA.
12B10.A12.A.AB3.B2A3B$38.A15B23.A6.B2A3B$39.14B10.A12.2A6.4B$40.
10B11.3A21.3B$39.12B9.A25.2B.BA$38.16B6.2A23.B2ABA.A$31.A6.24B22.B
ABABA.A$31.3A3.23B22.A2.A.A.A.A.2A$34.A2.24B21.4A.2A2.A2.A$33.A.B.
24B25.A4.2A$33.2A27B22.A.A$31.2A2.A22B.4B21.2A$30.A2.3A3B3.2B3.B7.
2B3.4B$31.A4.2B3.4B.3B5.BA2B3.4B$32.4A5.B2AB.B2AB4.A.A5.4B$34.A7.
2A3.2A6.A7.3BA$36.A27.3BA$35.2A28.3AB!
