#CSYNTH guntrue_4080 costs 2400 cells.
#C period 4080 fullperiod 4080 bbox 50 by 48
#CLL state-numbering golly
x = 50, y = 48, rule = LifeHistory
36.2A$32.2A2.A$28.A3.A.A.A$26.3A4.B.A$25.A5.3B$24.B2A3.B2A2B3.2A$
22.5B2.3B2AB.BAB.A$22.3B4.3BAB2.B2A.A$13.5B4.4B2.2B2AB3.B.B.2A$13.
2B3AB3.B2AB2.2B2AB2.2B2A3.A$12.4B3AB.BA2BA5BA2B.BA2.3A$12.7BA.A3BA
4BA4BAB2A$12.6B4A2BA11BA2.A$10.4B5A.4A4BA7B2.2A$9.6B3A3BA.A3B3A6B$
5.2A2.7BA4B4A.5A4B$5.A2.A11BA2B4A6B$6.2ABA4BA4BA3BA.A7B6.A$3.3A2.A
B.2BA5BA2BAB.B3A4B4.3A$2.A3.2A2B2.B2A2B2.B2AB3.B3A2B4.A$3.2A.B.B3.
B2A2B2.4B4.5B4.2A$4.A.2AB2.BA3B4.3B9.A5B$4.A.BAB.B2A3B2.5B8.B2A2B$
5.2A3.2B2AB3.2AB9.2B2A3B$11.3B5.A9.8B$9.A.B4.3A9.9B$8.A.A.A2.A2.A.
A6.10B$8.A.A.4A3.2A5.4B.8B$7.2A.A14.4B2.8B$11.3A10.4B3.4B3A2B$14.A
8.4B3.10B5.AB.2A$13.2A7.4B5.2BA5BA2B2.B2A2.A$13.5B3.4B5.3BA5BA2B2.
5A$4.2A9.3B2.4B6.2BA6BA8B$3.A.A8.9B7.B2A9B.5B$3.A8.B.8B7.4BAB3A4B
2.5A$2A.2A.B3.11B8.2B2A8B3.B2A2.A$.A.A.A2B.A11B6.2AB.B2.6B5.AB.2A$
.A.A.2A3BA10B5.A.AB6.5B2A$2A.A2.5B2A8B5.A9.2B2.3B$A2.4A2BAB2A6B.B
2A2.2A13.A3BA$.2A2.A2B.B2A7B.BA.A15.A4BA$3.2A6.7B5.A.2A11.A.ABAB$
3.A7.2B.4B5.2A.A9.BABA.A$5.A9.4B16.A4BA$4.2A10.3BA15.A3BA$17.3BA
16.3B$18.3AB15.2A!
