#CSYNTH guntrue_2314 costs 5418 cells.
#C period 2314 fullperiod 2314 bbox 86 by 63
#CLL state-numbering golly
x = 86, y = 63, rule = LifeHistory
2A$.A26.A$A25.3A$2A23.A$.B23.2A$3B20.4B2.A$5B9.B3.B.5B4.3A10.2A$6B
2.B.16B6.A5.2A2.A$2.25B4.2A5.A.A.A$.21B2A3B4.5B3.B.A$.17B2A4BA3B5.
3B2.2B$.17B4ABA7B.9B$2.16BA3BA20B8.2A$3.23BA16B8.A28.A$6.11BAB4A3B
2A16B4.BA.A26.5A$6.13BA2B2ABAB2A18B.B2A26.A5.A$4.15B3A3BABA17B2A2B
17.2A9.B3A2.A$4.21B2A15B.2BA.AB18.A10.2B.A.2A$4.39B3.2A19.A.2A7.2B
2A3.A$4.31B.4B22.A5.A2B.4B.2BA2.A.A$4.29B.5B7.2A14.3A5.2BA5B2AB2A.
2A$2.2AB.27B.4B6.A2.A17.A4.3BA4BAB$.A.AB.26B2.4B6.2A.A.2A.A11.2A4.
ABA5B2AB2A.2A$.A7.23B2.5B6.B.A.A.2A11.6B2.4B.2BA2.A.A$2A6.23B2.8B
2.B2ABA18.5B7.2B2A3.A$9.21B2.10B.B2A2.A17.6B6.2B.A.2A$9.14B3.3B2.
13B3.2A16.8B4.B3A2.A$4.2A3.13B2.3B3.14B15.A.2A2.9B3.A5.A$4.A2.2AB.
10B2.21B15.2A.A12B3.5A$5.AB2AB2.8B2.23B6.2A11.12B4.A$2A.A.A.B6.5B
2.23B7.A12.13B$A.2A.A.2A6.4B2.26B.BA.A12.9B.4B$5.A2.A6.4B.27B.B2A
13.9B2.4B$5.2A7.5B.29B14.11B2.4B$13.4B.31B14.11B3.4B$5.2A3.39B14.
12B3.4B$4.BA.A2B.15B2A21B8.B4.14B3.4B$4.2B2A17BABA3B3A15B7.3B3.10B
.4B3.4B$2.2AB.18B2ABAB2A2BA13B7.6B2.15B4.4B$.A.AB4.16B2A3B4ABA11B.
4B2.3BA3B.13B.B2A3.3BA$.A8.16BA22BA5BA2BA16B.BA.A3.ABA$2A8.20BA3BA
14BA8B2A15B4.A4.2A$12.9B.7BAB4A23BA5B2A9B4.2A4.B$13.2B2.3B5.3BA4B
2A17B2A4BABA2BA2BA9B$11.A.B3.5B4.3B2A21B2A4BABA2BA2B2A8B$10.A.A.A
5.2A4.30BA2BA2BA2B2A10B$10.A2.2A5.A6.16B.B3.8BAB2A2B4A10B$9.2A10.
3A4.5B.B3.B10.4B2.2B2A16B$23.A2.4B20.24B.B.B$26.2A23.26B2A$27.A24.
25B2A$24.3A22.B3.2B.5B2.12B.2B$24.A23.2AB.3B.4B3.13B$48.2A3BA11.
11B.B$49.B.BA.A10.12B2A$52.BA.A9.10B.B2A$55.A7.2AB.6B4.B$55.2A5.A.
AB.4B$62.A5.5B$61.2A8.2A$71.A$72.3A$74.A!
