#CSYNTH guntrue_610 costs 4356 cells.
#C period 610 fullperiod 610 bbox 66 by 66
#CLL state-numbering golly
x = 66, y = 66, rule = LifeHistory
43.2A.2A2.2A5.2A$43.2A.A2.A2.A.2A2.A$46.A.2A.2A.A.2A$43.2A.A2.A.A
2.A.A3.2A$43.AB.2A.A.2BA3B.A2.A2.A$44.BAB.ABABA.2BAB2A2.3A$45.2A3B
.2B5A2.2A$45.BA2B.B2A5B.A2.A$47.B3.AB.2B4.2A$54.2B$54.B$39.A13.B2A
$38.A.A4.2A5.2B2AB6.2A$39.A6.A4.8B4.A$46.A.AB.8B.BA.A$31.2A4.5A5.
2AB.8B.B2A$31.A5.A4.A6.12B$23.A.2A.2A.A7.BAB.A5.12B$23.2A.A.A.A8.B
2A.A2.A2.12B$28.BA7.A4B.A.A.A.10B$27.4B5.ABAB3.A2.A3.7B$20.2A5.4B.
2B2.A2BA2.2A5.8B$12.A8.A5.10B2A9.4B.5B$11.A.A7.A.AB.11B10.4B.6B$9.
3A.A8.2AB2.10B9.2A2B3.6B$8.A4.A.2A7.14B7.ABAB4.3BA3B2.B$8.ABABA.A.
A8.13B6.3BA5.2BABA7B$9.2A.A.A10.12B6.4B6.2BABA7B$9.4BABA9.12B5.4B
7.3BA9B$12.2BA3B7.12B4.4B6.2AB.11B$8.2B4.5B4.7BA6B3.4B6.A.AB2.9B$
5.B.4B2.3BA2B.9B3A5B2.4B7.A7.7B$4.2A9B3A10B2AB2A4B.4B7.2A7.6B$4.2A
B.6B2AB2A8B3AB3A7B18.4B$5.B2.5B3AB3A8B2AB2A7B18.4B$10.4B2AB2A10B3A
8B17.4B$10.5B3A9B.2BA3B2.4B16.4B$10.6BA7B4.5B4.B.B2A13.4B$10.12B7.
3BA2B4.BA.A11.4B$10.12B9.ABA4B4.A10.4B$10.12B10.A.A.2A4.2A8.4B$9.
13B8.A.A.ABABA12.4B$9.14B6.A.A.A4.A11.4B$10.10B2.B2A4.A.A.A.3A11.
4B$10.11B.BA.A4.A3.2A12.4B$2A6.2A10B5.A21.4B$A2.2A2.A2BA2.2B.4B5.
2A19.4B$.A.A3.BABA5.4B15.2A8.4B$2A.A.4BA7.AB15.B2AB6.4B$3.A.2AB8.A
.A.A.2A10.4B5.4B$3.A.BAB7.A.2A.2A.A11.2B5.4B$4.A4.A5.A11.A7.4B2.4B
$5.5A4.2A10.A.A5.5B.4B$27.A.14B$7.A20.14B$6.A.A19.14B$7.A20.15B$
27.3B2A12B$27.3B2A13B$25.2AB.11B2.4B$24.A.AB2.8B5.4B$24.A5.10B4.4B
$23.2A5.B.B5.2A5.4B$31.3B4.A7.3BA$30.B2AB5.3A5.3BA$31.2A8.A6.3AB!
