#CSYNTH guntrue_8192 costs 3344 cells.
#C period 8192 fullperiod 8192 bbox 76 by 44
#CLL state-numbering golly
x = 76, y = 44, rule = LifeHistory
4.B5.B25.A2.2A25.A2.2A$3.3B3.3B24.4A.A24.4A.A$.4BA3.A4B27.A29.A$4B
A.A.A.A4B19.7A.2A20.7A.2A$5B2A.2A5B18.A2.B3.A.A2.A17.A2.B3.A.A2.A$
7B.7B18.2A2.2A.AB2.2A17.2A2.2A.AB2.2A$7B.7B8.2A11.B2AB2A24.B2AB2A$
B2A4B.4B2AB7.3B12.5B25.5B$BAB4A.4ABAB7.A3BA11.3B27.3B$2BA3BA.A3BA
2B6.A4BA3.2A5.5B18.2A5.2A3B$2BA2B.A.A.2BA2B5.A.ABAB3.A2.A3.4BAB17.
A2.A3.B2AB2A$.2B3A3.3A2B4.BABA.A3.BA.A.A3.3BABA2B13.BA.A.A3.2ABA4B
$3.3B3.3B5.A4BA4.3A.A3.4BABA2B13.3A.A3.9B$4.B5.B.B4.A3BA5.3AB5.4BA
2B14.3AB5.7B$11.3B5.3B6.3B3.10B14.3B3.10B$11.3B.3B.2A10.14B16.3BA
10B$8.4BA7B11.15B15.2BABA9BA$8.3B3A6B12.15B15.BABA7BABA$6.4B2AB2A
5BA13.8B2.4B10.A5.A7B2.2A$6.5B3A7BA11.7B5.4B7.3A4.7B5.B$7.5BA6B3AB
10.9B4.4B5.A7.9B$7.12B.4B8.4B4.2A5.4B4.2A5.4B4.2A$3.B.15B.4B6.4B5.
A7.9B4.4B5.A$2.2A6B2A8B2.4B4.4B7.3A4.7B5.4B7.3A$2.2A6B2A6B5.4B2.4B
10.A5.A7B2.4B10.A$3.3B.11B6.8B5.2A8.BABA11B$4.B4.2B.3B10.7B5.A8.2B
ABA10B$12.3B11.7B.BA.A8.3BA10B$5.B5.B.B10.9B.B2A6.3B3.10B$4.3B3.3B
8.2B.11B7.3AB5.4BA2B$2.2B3A3.3A2B5.2A13B7.3A.A3.4BABA2B$.2BA2B.A.A
.2BA2B4.2A13B7.BA.A.A3.3BABA2B$.2BA3BA.A3BA2B5.2B2.10B9.A2.A3.4BAB
$.BAB4A.4ABAB10.3B2A4B.2B7.2A5.5B$.B2A4B.4B2AB10.3B2A6B2A14.3B$.7B
.7B10.9B.B2A13.5B$.7B.7B10.10B.B13.B2AB2A$.5B2A.2A5B10.7B15.2A2.2A
.AB2.2A$.4BA.A.A.A4B9.A.5B16.A2.B3.A.A2.A$2.4BA3.A4B9.A.A3.4B15.7A
.2A$4.3B3.3B12.A6.2A22.A$5.B5.B20.A18.4A.A$33.3A15.A2.2A$35.A!
