#CSYNTH guntrue_2145 costs 4704 cells.
#C period 2145 fullperiod 2145 bbox 96 by 49
#CLL state-numbering golly
x = 96, y = 49, rule = LifeHistory
17.2A5.2A2.2A.2A$17.A2.2A.A2.A2.A.2A$18.2A.A.2A.2A.A$14.2A3.A.A2.A
.A2.A.2A$11.A2.A2.A.BAB3A.A.2A.BA$11.3A2.2ABA2B.A2B2A.B2A55.A$14.
2A2.5A2B.2B3A32.A22.A.A$13.A2.A.B6AB.2B2A32.3A20.A.3A$14.2A4.2B.2A
3.B37.A16.2A.A4.A$20.2B18.A24.2A16.A.A.ABABA$21.B18.3A7.2A13.5B15.
A.A.2A$20.2AB20.A6.A16.4B13.ABA4B$11.2A6.A2BAB5.2A11.2A3.BA.A15.5B
11.3BA2B$12.A4.3B2A3B4.A12.4B.B2A16.8BAB5.5B4.2B$12.A.AB.8B.BA.A
14.4B18.7BABAB4.6B2.4B.B$13.2AB.8B.B2A8.2A4.6B17.11B.16B2A$15.12B
9.B2AB3.2BA2B5.2A11.26B.B2A$15.12B10.3B3.B3A2B2.2B2AB9.8BA2BA7BA7B
2.B$15.12B9.B.B4.2A2BA2B.4B9.11BA7BABA4B$17.10B5.AB.6B2.A19B.8BA9B
A2BA3B$19.7B5.A.A8B2A3B2A23B3A8B2A2B$19.8B4.2A.9B3AB2A25B4A9B$18.
5B.3BA7.9B5A12B.12B5A9B$18.6B.B2AB7.9B4A25B2AB3A9B.2A$17.6B3.ABAB
6.2B2A8B3A23B2A3B2A8BA.A$13.B2.3BA3B4.4B3.3BA2BA9BA8B.19BA2.6B.BA$
11.7BABA2B5.4B.4BABA7BA11B9.4B.2BA2B2A4.B.B$11.7BABA2B6.9BA7BA2BA
8B9.B2A2B2.2B3AB3.3B$10.9BA3B7.27B11.2A5.2BA2B3.B2AB$10.11B.B2A5.
15B.11B17.6B4.2A$11.9B2.BA.A4.4B2.6B4.BABA7B18.4B$11.7B7.A2.2AB.B
4.5B5.BA8B16.2AB.4B$11.7B7.A.A.AB4.2BA3B11.5B15.A.AB3.2A$4.B7.5B7.
2A.A4.4BABA13.4B16.A6.A$3.3B5.7B9.A4.2A.A.A15.5B13.2A7.3A$3.3A4.4B
.4B8.2A2.ABABA.A.A16.2A24.A$2.2BA2B3.B2A3.4B11.A4.A.2A16.A$2.2BA2B
2.B2ABA3.4B11.3A.A20.3A$.2B3A2B.A3BA4.4B12.A.A22.A$.7B.4A6.4B12.A$
3B3A3B.2AB7.4B$3B3A3B.2AB8.4B$.7B.4A9.4B$.2B3A2B.A3BA9.4B$2.2BA2B
2.B2ABA10.4B$2.2BA2B3.B2A12.4B$3.3A4.3B13.3BA$3.3B5.B15.3BA$4.B23.
3AB!
