#CSYNTH guntrue_2618 costs 3750 cells.
#C period 2618 fullperiod 2618 bbox 75 by 50
#CLL state-numbering golly
x = 75, y = 50, rule = LifeHistory
58.B.B$57.B2A3B$57.A2BA2B10.2A$56.2B2A4B2.2B5.A$45.2A9.13B.BA.A$
22.2A17.2A3.A6.16B.B2A$22.2A17.A2.A7.14BA4B$39.2A2.3A5.14BABA4B$
20.4A3.A10.A2.2A3.2B3.15BA4B$20.A2.AB.A.A9.A.A2.3A2B3.18B.B2A$21.
2B.2B.A11.A.2AB.A23B.BA.A$22.4B11.A.A3.2A19B2.2B5.A$21.5B11.2A.2A
21B10.2A$20.4B2AB13.A.B.19B$19.5B2A11.2A2.A5.16B$19.8B10.A.2A6.10B
3.4B.2A$19.7B22.8B3.B2A3B.A$18.9B20.9B4.2AB2.A$16.11B19.10B8.A$8.
2A6.4BA7B17.10B5.5A.A$9.A5.4BAB2A5B16.7BA3B5.A4.A.A$9.A.AB.5BA2BA
6B14.7BABA2B7.A2.A.A$10.2AB.B2A3B3A5B14.8BABA2B6.2A3.A$12.3B2A9B
15.10BA3B$12.14B14.13B.B2A$12.13B14.13B2.BA.A$13.11B14.4B.7B7.A$
15.13B9.4B3.6B7.2A$15.14B7.4B5.4B$15.14B.B4.3AB7.4B$14.23BA9.4B$
14.22BA11.4B8.2A$13.23B3.4B.BA3.4B6.B2AB$10.B.9BA13B3.2B2AB2A.A3.
4B5.4B$9.2AB.6B4A13B2.B2A4B.A4.4B5.2B$9.2A5BA6BA12B.BA2BA2BA.2A4.
4B2.4B7.2A$10.2B.2BA4B2AB2A13BA2B.3AB.BAB3.4B.5B5.A.A$13.2BABA4B2A
10B2.2BA3B3.3BAB4.14B.A$15.BAB2A12B5.BAB.B3A.2BAB5.14B$16.3BABA3B.
5B8.2A.A2BA2BAB5.14B$16.4BA4B15.A.4B2AB5.15B$6.A2B3.2A2.9B15.A.2AB
2A2B4.12B2A3B$5.B2AB2.B2A2B4.5B16.AB.4B4.13B2A3B$.6B.2A2.4B5.2B28.
4B2.11B.B2A$.A2B2AB3A2BA3B4.4B26.4B5.8B2.BA.A$2B3ABA2BAB3A2B4.A.A
2.A4.2A17.4B4.10B5.A$3BA2B3AB2A2BA3.3A.4A4.2A16.4B5.2A5.B.B5.2A$4B
2.2A.6B2.A3.A25.A3B7.A4.3B$2B2AB2.B2AB6.2A2.A.A22.A3B5.3A5.B2AB$2.
2A3.2BA12.2A21.B3A6.A8.2A!
