#CSYNTH guntrue_1070 costs 6177 cells.
#C period 1070 fullperiod 1070 bbox 87 by 71
#CLL state-numbering golly
x = 87, y = 71, rule = LifeHistory
27.2A11.A$26.B2AB9.A.A$27.3B9.A.A2.2A3.A$26.B.B9.2A.2A2.A2.A.A$26.
5B8.B2.A.A3.A.A$26.6B6.2ABA2.4A.A$26.8B4.2A.A.A3.A$27.13B2.A.AB2.A
15.2A$25.13B5.A.A2B.A14.A$24.15B5.A2B.2A11.BA.A$24.15B4.3B12.2A.B
2A$23.17B.B.2B12.B2A2B$23.29B6.4B$22.13B2A16B3.6B21.A$21.14B2A16B
2.6B20.3A$20.2AB3.27B.7B19.A$19.A2.A4.35B11.A6.2A$18.A.2A5.6B3.B2.
2B2.20B9.A.A3.4B$18.A7.6B14.18B9.A.5B$9.BA6.2A6.9B14.16B10.7B$7.B
2A.A12.4B4.2A15.14B11.4B2A4B.B$2.2A2.B4A12.4B5.A15.16B10.4B2A3B.B
2A$2.A2.3A2B12.4B7.3A12.14B.B2A8.11B2A$3.3A3B12.4B11.A9.2AB.3B3.6B
.BA.A7.9B.2B$6.A2B11.4B11.A.A7.A.AB7.6B4.A2.2B2.10B$3.3AB2A10.4B4.
2A5.A.A8.A9.7B4.A.2A13B$2.A2.3B10.4B5.A.A4.A9.2A4.2A2.8B3.2A.2A13B
$.A.A2B.B9.4B8.A2.2A.4A10.A.A12B5.2B.11B$A2.A.2B2A7.4B8.2A.A.A.A2.
A10.A3.11B8.9B.B2A$2A2.5A6.4B10.A.ABABAB11.2A3.4B2A5B10.7B.BA.A$4.
4B6.4B11.A.AB2AB18.3B2A5B9.7B5.A$6.B6.4B13.AB.2B19.10B8.8B5.2A$6.
3B3.4B17.3B19.9B7.4B2.4B$6.3B2.4B18.4B6.2A10.9B6.4B4.4B$6.BA6B17.
3B2AB6.A11.8B6.4B6.4B$5.BABA4B18.3B2AB3.BA.A12.8B4.4B8.4B$5.A2BA3B
17.10B.B2A14.6B4.4B10.4B$4.2B2A5B15.13B16.6B3.4B12.4B$4.10B13.ABA
11B16.6B2.4B14.3BA$4.6B.4B11.B2A12B15.7B.4B16.ABA$2.2AB.3B3.4B9.3B
A2.8B17.6B.4B18.2A$.A.AB2.B5.4B7.4B5.6B18.9B20.B$.A12.4B5.4B4.9B
17.8B$2A13.4B3.4B5.2A4.4B15.8B$16.4B.4B7.A5.4B5.A8.7B$4.A12.7B5.3A
7.4B4.3A6.6B$3.A.A12.5B6.A10.4B6.A4.7B$3.A2BA11.6B17.4B4.2A4.7B$4.
6B2.2A2.3B2A4B17.4B3.4B.8B$4.AB4A4BA.2BA2BA4B17.4B4.11B$5.3B2AB.B
2A4BABA3B19.4B2.12B$6.AB.A2B3A4.BA3B21.4B.12B$7.A.A.B.AB6.5B20.15B
$5.A.A.A.2A11.2A21.11B7.2A$5.2A3.A13.A23.11B6.A$11.A.A11.3A21.11B
2.BA.A$12.2A13.A11.2A8.12B.B2A$40.A7.15B$40.A.AB4.16B$41.2AB.18B$
43.2B2A14B.B2A$43.BA.AB2.8B4.BA.A$44.2A5.6B8.A$50.6B9.2A$50.B2A2B$
50.BABAB$52.A4B$55.2A$55.A$56.3A$58.A!
