#CSYNTH guntrue_3080 costs 3174 cells.
#C period 3080 fullperiod 3080 bbox 69 by 46
#CLL state-numbering golly
x = 69, y = 46, rule = LifeHistory
52.B.B$8.A42.B2A3B$8.3A40.A2BA2B10.2A$11.A9.2A27.2B2A4B2.2B5.A$10.
2A9.A17.2A9.13B.BA.A$10.6B2.BA.A8.2A3.2A3.A6.16B.B2A$12.5B.B2A10.A
3.A2.A7.BA12BA4B$11.8B7.2A.A.A.2A2.3A5.BABA10BABA4B$7.2B.9B8.A.2A.
A2.2A3.2B3.BABA11BA4B$6.13B5.3A5.A.A2.3A2B3.2BA15B.B2A$6.7B2A3B5.A
3.3A.A.A.2AB.A23B.BA.A$5.7BAB2A3B3.A.2AB2.A.A.A3.2A19B2.2B5.A$4.8B
A3BA2B3.A.A.ABA3.A.2A21B10.2A$4.9B3A3B2.2A.B.2A6.A.B.19B$4.10BA2B
2.2BA.B3AB4.A2.A5.16B$4.13B2.3BA.AB5.A.2A6.10B3.4B.2A$5.11B3.3BA8.
A10.8B3.B2A3B.A$6.10B3.2BA.BA5.2A9.9B4.2AB2.A$3.2B2.4B.5B4.2A.3A
13.10B8.A$.BA2BA2B6.4B4.A4.A11.10B5.5A.A$A2B2A2BA7.4B3.A.3A11.7BA
3B5.A4.A.A$A2B2A2BA8.4B3.2A5.A6.7BABA2B7.A2.A.A$2.4A11.4B7.3A5.8BA
BA2B6.2A3.A$A.A2.A.A10.4B5.A7.10BA3B$2A4.2A11.4B4.2A5.13B.B2A$20.
9B4.13B2.BA.A$20.7B5.4B.7B7.A$21.8B2.4B3.6B7.2A$19.15B5.4B$18.15B
7.4B$18.10BA3B9.4B$15.2AB3.5BABA2B11.4B$14.B3A5.4B2AB13.4B$14.B2A.
A3.4BA4B13.4B$14.2B.A.A3.2B2A4B14.4B$16.A2.A3.2B2A2B17.4B$17.2A5.
5B18.4B$25.3B20.4B$24.5B20.4B$23.B2AB2A21.4B$20.2A2.2A.AB22.4B$20.
A2.B3.A.A.2A19.4B$21.7A.2A.A20.4B$28.A25.3BA$23.4A.A26.3BA$23.A2.
2A28.3AB!
