#CSYNTH guntrue_1424 costs 4095 cells.
#C period 1424 fullperiod 1424 bbox 65 by 63
#CLL state-numbering golly
x = 65, y = 63, rule = LifeHistory
22.2A$22.A.A$24.A4.2A$20.4A.2A2.A2.A$20.A2.A.A.A.A.2A$22.BABABA.A$
23.B2ABA.A$24.2B.BA$23.3B7.A$14.2A6.4B7.3A$15.A6.B2A3B8.A$15.A.AB
3.B2A3B7.A.A$16.2AB.10B5.A.AB$18.13B5.A3B$18.14B6.4B$18.15B5.6B$
20.8B2.4B4.7B$20.6B5.4B2.8B.4B.B$19.9B4.17B.B2A$18.4B4.2A5.18B2A$
17.4B5.A6.16B.2B$16.4B7.3A3.16B$3.2A10.4B10.A3.15B$4.A9.4B11.A.2AB
.12B$2.A10.4B10.2A.A.AB2.11B$2.5A5.4B5.2A4.A2.A5.10B$7.A4.4B5.A7.
2A5.2B2A6B$4.3AB2.7B.BA.A13.3B2A6B$3.A.2B3.7B.B2A15.10B$3.4A12B17.
8B.B2A.A$.2A2.BA3B2A7B16.7B3.B2AB3A$A2.3AB.2B2A7B16.6B6.B4.A$2A.A.
B3.10B17.6B4.2A.3A$3.A8.8B16.5B4.A2.2A$3.2A7.9B14.8B.A.A$13.3B2.4B
4.A8.8BA.A.3A$11.5B3.2B2A3.3A6.6B.2BAB.A2.A$11.2A7.BABA5.A4.7B2.2B
2.A.A.A$12.A8.A3B3.2A4.7B3.B.2A2.A.A$9.3A10.4B2.4B.8B2.A.A2.A.A.A$
9.A13.4B3.11B2.2A2.2A.2A$24.4B.12B14.2B$25.16B14.3B$26.14B10.A2.2B
2AB$27.10B11.3A2.2B2ABA$26.12B9.A6.4B.A$25.16B6.2A7.A.4B$18.A6.24B
8.AB2A2B$18.3A3.23B11.B2A2B$21.A2.24B10.3B$20.A.B.24B11.2B$20.2A
27B5.AB3.B.3B$18.2A2.A22B.4B3.A.A2B2A4B$17.A2.3A3B3.2B3.B7.2B3.4B
3.A2B3A3B2A$18.A4.2B3.4B.3B5.BA2B3.4B3.B.3A3B2A$19.4A5.B2AB.B2AB4.
A.A4.5B3.6B.B$21.A7.2A3.2A6.A6.5B3.5B$23.A22.3B2.5B.3B$22.2A17.B2.
BA3B3.5B$40.3AB2A2B2A3.4B$40.4A4B2A4.3BA$41.3B2A2.B6.3BA$41.3B12.
3AB!
