#CSYNTH guntrue_1131 costs 5244 cells.
#C period 1131 fullperiod 1131 bbox 76 by 69
#CLL state-numbering golly
x = 76, y = 69, rule = LifeHistory
22.B$20.B2AB$19.B3AB$19.5B$19.A2BA2B$19.BABA2B$19.BA4B$19.6B$13.2B
A3B2.BA2B.B$12.BA2B2AB2.3A2B2A6.A$12.2A6BA.AB.B2A4.3A$11.B2AB2A2B
3A4.B4.A$12.8BAB9.2A$15.6B7.5B$20.2B4.BA3B$19.B2AB.2BABA3B$20.2A3B
A2BA4B$21.B.3B2A4B$25.6B$25.5B$24.7B$9.A13.4B.4B$9.3A10.4B3.4B$12.
A8.4B5.4B$11.2A7.4B7.4B$11.5B3.4B9.4B$13.3B2.4B11.4B18.A$3.2A7.9B
13.2B2A11.2A3.A.A$3.A8.8B15.BABA11.A3.A2.A$2A.A.B3.10B17.A3B10.A.
2A.A.A$A2.3AB.2B2A7B18.4B10.A.A.A.2A$.2A2.BA3B2A7B19.4B10.2B2A.A2.
A$3.4A12B20.4B10.4B2.2A$3.A.2B3.7B.B2A19.4B6.7B$4.3AB2.7B.BA.A19.
4B3.8B$7.A4.4B5.A15.2A3.4B.8B$2.5A5.4B5.2A15.A4.12B$2.A10.4B21.A.A
B2.11B.2B$4.A9.4B10.A10.2AB.14B2A$3.2A10.4B7.3A12.16B2A$16.4B5.A
15.14B.2B$17.4B4.2A15.13B$10.2A6.9B14.14B.2B$11.A7.6B14.18B2A$11.A
.2A5.6B3.B2.2B2.19B.B2A$12.A2.A4.35B2.B$13.2AB3.27B.8B$14.14B2A16B
2.7B$15.13B2A16B2.7B$16.29B3.7B$16.17B.B.2B11.6B.BA$17.15B4.3B10.
7BA.A5.A$17.15B5.A2B.2A6.8BA4.3A$18.13B5.A.A2B.A6.6B.B4.A$20.13B2.
A.AB2.A7.5B7.2A$19.8B4.2A.A.A3.A8.6B3.5B$19.6B6.2ABA2.4A.A4.2AB.5B
2.3B9.2A$19.5B8.B2.A.A3.2A3.A.AB3.9B8.A.A$19.B.B9.2A.2A.A.A6.A7.8B
.B8.A$20.3B9.A.A3.A.3A2.2A8.9BAB3.B.BA.2A$19.B2AB9.A.A4.A2.A12.9B
3A.B2A.A.A$20.2A11.A6.2A13.10B2A2B2A.A.A$55.9BA5B2.A.2A$53.2AB.8BA
3B4A2.A$52.A.AB.8BAB.BAB2.2A$52.A5.7B6.2A$51.2A5.A3B.2B7.A$57.A3B
9.A$56.B3A10.2A!
