#CSYNTH guntrue_295 costs 2457 cells.
#C period 295 fullperiod 295 bbox 63 by 39
#CLL state-numbering golly
x = 63, y = 39, rule = LifeHistory
7.2A5.2A2.2A.2A31.A$7.A2.2A.A2.A2.A.2A30.A.A$8.2A.A.2A.2A.A33.A.3A
$4.2A3.A.A2.A.A2.A.2A27.2A.A4.A$.A2.A2.A.BAB3A.A.2A.BA27.A.A.ABABA
$.3A2.2ABA2B.A2B2A.B2A30.A.A.2A$4.2A2.5A2B.2B3A19.2A9.ABA4B$3.A2.A
.B6AB.2B2A17.2B2AB6.3BA2B$4.2A4.2B.2A3.B19.4B6.5B4.2B$10.2B26.6BAB
A.6B2.4B.B$11.B27.4BA3BA13B2A$10.2AB26.5BAB5A8B.B2A$.2A6.B2A2B5.2A
2.A15.8B2A2BA7B2.B$2.A4.8B4.A3.3A8.2A.A11B2A6B$2.A.AB.8B.BA.A6.A7.
A.2A2.16B$3.2AB.2B2A4B.B2A6.2A14.13B$5.3BA2BA5B8.4BAB10.15B$5.3BA
2BA5B10.2B2A10.8BA7B$5.4B2A6B8.4B2AB7.A9BA8B$7.10B5.B2A5B2A6.ABAB
2.3B.11B$9.7B5.BA3B5AB.3B2.A2BA6.10B$9.8B5.B8A5B5A7.7B$8.5B.4B5.B
5A6BAB2A10.4B$8.6B.4B5.10B2A3B10.6B$7.6B3.4B6.B2A3B2ABAB2A14.2A$3.
B2.3BA3B4.4B3.3BA2B6AB2AB2.2A.A7.A$.7BABA2B5.2B2A.4BA2B3A3BA5BA.2A
8.3A$.7BABA2B6.BABA5BA2B5A5B15.A$9BA3B7.A12BA7B$11B.B2A5.21B$.9B2.
BA.A4.4B2.6B.9B$.7B7.A2.2AB.B4.5B6.4B$2.6B7.A.A.AB4.2BA3B6.B2A2B$
3.4B7.2A.A4.4BABA9.2A$4.4B9.A4.2A.A.A$5.4B8.2A2.ABABA.A.A$6.3BA11.
A4.A.A.A$7.3BA11.3A.A.A.A$8.3AB12.2A3.A!
