#CSYNTH guntrue_1400 costs 2295 cells.
#C period 1400 fullperiod 1400 bbox 51 by 45
#CLL state-numbering golly
x = 51, y = 45, rule = LifeHistory
7.2A3.2A28.A$7.A.A.A.A26.3A$9.A.A16.2A9.A$8.2AB.A2.2A12.A9.2A$8.B
2A.A2.A.A11.A.AB2.6B$10.B.2A.A2.A11.2AB.5B$9.2BAB2.3A5.2A7.8B$8.2B
5A8.A8.3B3A3B.2B$9.AB.A2.A8.3A5.2BA3BA6B$9.3B2.2A5.3A3.A5.A5BA5B$
10.2A9.A2.3A.A3.A3BA3BA5B$10.2B10.ABA.A.A3.3BABA2BA6B$11.B11.2B.A.
2A2.A3BA3BA6B$10.2AB10.2ABAB.A2B2.5BA7B$.2A6.A2BAB5.2A4.BA.2A2B2.A
3BA8B$2.A4.3B2A3B4.A8.2A2B3.3A8B$2.A.AB.8B.BA.A6.AB.A2B3.10B$3.2AB
.8B.B2A5.3A.2A4.5B.4B2.2B$5.12B6.A4.A4.4B6.3B2A2B$5.12B7.3A.A3.4B
7.B2A2B2AB$5.12B3.A5.2A3.4B8.BA4BAB$7.10B3.3A7.4B11.A2BA$9.7B7.A5.
4B10.A.A2.A.A$9.8B5.2A4.4B11.2A4.2A$8.5B.4B4.9B$8.6B.4B5.7B$7.6B3.
4B2.8B$3.B2.3BA3B4.15B$.7BABA2B5.15B$.7BABA2B6.14B$9BA3B7.10B3.B2A
$11B.B2A6.7B5.3AB$.9B2.BA.A4.9B3.A.2AB$.7B7.A4.4B2A2B3.A.A.2B$2.6B
7.2A5.2B2A2B3.A2.A$3.4B15.5B5.2A$4.4B15.3B$5.4B13.5B$6.4B12.2AB2AB
$7.4B7.2A2.BA.2A2.2A$8.4B6.A2.A.A3.B2.A$9.4B7.2A.7A$10.3BA8.A$11.
3BA7.A.4A$12.3AB7.2A2.A!
