#CSYNTH guntrue_2805 costs 6090 cells.
#C period 2805 fullperiod 2805 bbox 87 by 70
#CLL state-numbering golly
x = 87, y = 70, rule = LifeHistory
34.B25.2A4.2A$29.2A.B3A24.A.A2.A.A$29.A.ABAB27.A2BA$30.A2B27.B2A2B
2AB$31.ABA26.3A2B3A$32.2B.BA15.4B5.BA2BAB$31.AB3A.A2.2A9.6B6.2B$
30.AB.2A2BA.B2AB6.8B6.2B18.A$31.2A.A2B3.3B4.6B2A2B5.6B13.3A$31.2BA
3B2.B.B5.6BABA2B3.7B12.A$32.2BABA.11BA2BA2BA3B.10B10.2A$31.A6.10BA
3B3A4B.10B8.4B$30.A.A4.10B2A2BA2BA15B.B3.B.3B3.B$31.A5.11B2AB2A32B
$37.12B4A16B4A13B$36.33B2AB2A13B$35.12B3.B.15BA2BA2B2A12B$21.2B12.
9B8.10B.4B3A3BA12B$19.6B10.8B9.10B.3BA2BA2BA12B$17.2A6B2A6.2AB.7B
10.7B3.2BABA6B5.B.2B$15.A4BA2BA4BA3.A.AB.7B10.6B5.2B2A6B4.3B$14.BA
4BA2BA4BAB2.A4.7B13.2B6.8B6.B2AB$15.A4BA2BA4BA2.2A4.6B14.2B6.6B9.
2A$17.2A6B2A9.6B13.BA2BAB5.4B$19.6B10.4B.4B10.3A2B3A$21.2B11.4B4.
2A10.B2A2B2AB$18.2BA2.A2B7.ABAB5.A13.A2BA$16.2BAB4ABA2B4.B2AB7.3A
8.A.A2.A.A$15.2BA2BA2BA2BA2B.4BA10.A8.2A4.2A$16.BA2BA2BA2BA7B$18.
2A4.2A.6B$28.4B$11.2A.2A11.4B$8.2A2.A.A11.4B$7.A2.2A3.A9.4B$7.A.A
2.2A.A8.4B$5.2A.A.A.A.A8.4B$5.A2.A.A.2B8.4B$7.A.ABAB8.6B$6.2A.A.A
2B6.8B$4.A2.A.2A3B5.10B$4.2A2.6B4.12B$8.8B.14B$10.22B$10.18B.4B$
10.11B2A3B4.4B$7.13BA2BA2B5.4B$6.B2A12B2A2B7.4B$5.BA2BA14B9.4B$5.
2B2A17B8.4B$5.14B5.2A9.4B$3.13B8.A11.4B$.BA12B10.3A9.4B$BABA11B12.
A10.4B$.ABA11B.B22.4B$2BA13B2A.2A19.4B$.15B2A.A2.A18.4B$.17B.A.2A
19.4B$3.9B3.2B2.A23.4B$4.7B5.B.2A24.4B$4.3BA3B4.A.A2.2A23.4B$3.3BA
BA3B3.2A2.A2.A23.4B$3.4BA4B8.2A25.4B$4.7B37.4B$6.3B40.4B$4.7B39.4B
$4.2A.B.2A40.4B$5.A3.A42.3BA$2.3A5.3A40.3BA$2.A9.A41.3AB!
