#CSYNTH guntrue_1715 costs 7700 cells.
#C period 1715 fullperiod 1715 bbox 100 by 77
#CLL state-numbering golly
x = 100, y = 77, rule = LifeHistory
41.A11.2A$40.A.A9.B2AB$32.A3.2A2.A.A9.3B$31.A.A2.A2.2A.2A9.B.B$17.
2A12.A.A3.A.A2.B8.2BA2B$18.A13.A.4A2.AB2A6.2B3AB$18.A.AB12.A3.A.A.
2A4.3BA2BAB$19.2AB.B9.A2.BA.A2.13B$21.4B7.A.2BA.A5.4B2ABA5B$21.4B
7.2A.2BA5.4BA3B2AB3AB$4.2A15.5B10.3B4.3BA4B2A2B2AB$3.B2A2B12.6B11.
2B.B.5BAB2A2BA2BA2B$4.4B12.8B2.23BA2BABA$5.4B10.31B6A2BAB$3.5B12.
31B2A5BABA$.7B13.7B.27B3.BAB$.7B12.35B4.A2.A$2A7B11.19B2.2B2.B3.6B
5.2A.A$2A9B8.17B14.6B7.A$.B.11B2.2B.15B14.9B6.2A$4.29B15.2A4.4B$4.
20B.8B16.A5.4B$4.16B2A2B3.8B2.2A7.3A7.4B$4.16B2A2B5.B3.2A2.2A7.A
10.4B$5.9BA8B10.A24.B3A$12.3BA.3B.B12.7A12.B.3B.A3B$13.3AB24.A10.
8BA9B2.B$14.4B10.A7.2A2.2A3.B5.2B2A19B$15.4B7.3A7.2A2.8B3.2B2A19B$
16.4B5.A16.8B.19B2A4B$17.4B4.2A15.27BA2BA3B$10.2A6.9B14.15B.2B2.
10B2A4B$11.A7.6B14.17B8.6BA6B$11.A.2A5.6B3.B2.2B2.19B11.11B$12.A2.
A4.35B12.9B$13.BAB3.27B.9B10.3B2A5B$14.ABA5B2A34B8.4BA4B$15.BA2B6A
34B7.8B$16.ABA2BA23B2.13B7.3BA3B$16.2BA2BA2B2ABA5B.B.2B10.7B2.4B7.
5B$17.B2A2B2A4BA3B4.3B9.7B3.4B7.BA$17.B3AB2A3BA4B5.A2B.2A5.7B4.4B$
18.5BAB2A4B5.A.A2B.A6.5B6.4B$20.13B2.A.AB2.A7.4B8.4B2.2B$19.BA2BA
3B4.2A.A.A3.A9.2B10.8B$19.B3A2B6.2ABA2.4A.A8.2B10.8B$19.2BA2B8.B2.
A.A3.A.A6.B2AB10.8B6.2A$19.B.B9.2A.2A2.A2.A.A7.2A9.2B.BABA5B4.A$
20.3B9.A.A2.2A3.A18.2A4B2A6B4.A$19.B2AB9.A.A26.2AB.2BA6B4.2A$20.2A
4.2A5.A28.B2.7B5.2B$27.A37.8B2.5B6.3B5.2A$26.A39.B2A12B4.4B5.A$26.
2A6.2BAB13.B.7B5.BA2BA.10B4.5B.BA.A$28.A2B2.2BABAB6.B.13B4.3B2A13B
3.5B.B2A$26.3A5BABA45B3.7B$25.A2.B.4B2A45B3.8B$25.2A3.50B3.8B4.2A$
31.25B2A33B3.A.A$31.25B2A33B3.A$30.4B.B.11B3.41B.2A$31.4B2.10B5.
10B2.B3.B2.B3.18B$31.2B2AB4.2B2.4B7.6B14.18B3.2A$33.2A10.4B8.3B13.
5B3.12B.B2.A$46.4B9.B13.2A7.12B3A$47.4B8.2A13.A8.9B.BA$48.4B8.A10.
3A4.2A3.9B3.2A$49.4B6.A11.A6.A4.9B4.A$50.4B5.2A14.2A.A4.2B2A3B.B2A
2.A.2A$51.4B20.A2.3A.2BA2BA2B.BA.A.A.2A$52.4B20.2A2.BA3BABAB5.A.A$
53.4B21.4A4BA4B3.A.A$54.4B20.A.4B5.2A4.A$55.4B17.A.A.2A7.A$56.3BA
16.2A2.A9.3A$57.3BA19.A.A9.A$58.3AB19.2A!
