#CSYNTH guntrue_1101 costs 6305 cells.
#C period 1101 fullperiod 1101 bbox 97 by 65
#CLL state-numbering golly
x = 97, y = 65, rule = LifeHistory
44.2A$43.A.A$37.2A4.A$35.A2.A2.2A.4A$35.2A.A.A.A.A2.A$38.A.ABABAB$
38.A.AB2AB$39.AB.2B20.A$34.A7.3B19.3A11.2A$32.3A7.4B6.2A13.A5.2B2.
B2AB$31.A8.3B2AB6.A13.2A4.4B.3B$30.A.A7.3B2AB3.BA.A13.3B.5BA2.B6.
2B$29.BA.A5.10B.B2A16.6BABA12B4.B$28.3BA5.13B17.24B.3B$26.4B6.14B
17.5BA5BA15B2A$24.6B5.15B18.7BA18B2A$23.7B4.4B2.8B20.4B2A3B2A14B.B
$16.B.4B.8B2.4B5.6B21.19B.2B$15.2AB.17B4.9B22.14B$15.2A18B5.2A4.4B
10.A11.10B$16.2B.16B6.A5.4B9.3A9.2A3B2A4B$19.16B3.3A7.4B11.A7.4BA
8B$20.15B3.A10.4B9.2A5.3BA5BA6B$21.12B.B2A.A11.4B8.4BA18B$21.11B2.
BA.A.2A10.4B9.BABA6BABA2B2A4B8.A$17.2A3.10B5.A2.A11.4B7.12BA3B2A4B
3.2A2.A.A$18.A3.6B2A2B5.2A14.4B5.3B2A18B3.A.A2.A.A$17.A4.6B2A3B21.
4B4.2A2BA4B2.12B4.B.2A2.A$17.2A3.10B23.4B.3B3A3B4.5B.6B3.2B2.A.A$
20.2AB.8B15.2B7.8BA3B6.3B2.7B.2BAB.A.2A$17.2AB2AB3.7B8.A3.6B6.10B
5.5B2.9BA.A.A$18.A.B6.6B6.3A3.7B6.9B5.2A6.8B.A2.4A$16.A3.2A4.6B6.A
5.9B6.9B5.A6.6B4.2A3.A$16.4A2.A.8B6.2A5.9B6.7B3.3A6.6B6.B.A$19.A.A
.A9B2.5B5.10B6.6B3.A8.7B3.B2AB2A$16.2A.A.BA2B.7B2.3B6.3BA8B7.2B15.
8B.B2A$17.A.A2.2B3.6B.5B4.3B3A3B.4B23.10B3.2A$16.A2.2A.B4.12B2.4BA
2B2A4.4B21.3B2A6B4.A$16.A.A2.A.A3.18B2A3B5.4B14.2A5.2B2A6B3.A$17.A
.A2.2A3.4B2A3BA12B7.4B11.A2.A5.10B3.2A$18.A8.4B2A2BABA6BABAB9.4B
10.2A.A.AB2.11B$27.18BA4B8.4B11.A.2AB.12B$27.6BA5BA3B5.2A9.4B10.A
3.15B$17.A10.8BA4B7.A11.4B7.3A3.16B$17.3A9.4B2A3B2A9.3A9.4B5.A6.
16B.2B$11.A8.A9.10B11.A10.4B4.2A5.18B2A$11.3A5.2A6.14B22.9B4.17B.B
2A$14.A4.24B21.6B5.4B2.8B.4B.B$13.2A6.12B2A3B2A4B20.8B2.4B4.7B$13.
5B2.16BA7B18.15B5.6B$4.2A9.3B2.13BA5BA5B17.14B6.4B$3.A.A8.31B17.
13B5.A3B$3.A8.B.8B.12BABA6B16.2AB.10B5.A.AB$2A.2A.B3.11B3.2B7.B2.A
5B.3B13.A.AB3.B2A3B7.A.A$.A.A.A2B.A11B2.2BAB5.3B.4B4.2A13.A6.B2A3B
8.A$.A.A.2A3BA10B3.A.A4.B2AB2.2B5.A13.2A6.4B7.3A$2A.A2.5B2A8B4.A6.
2A11.3A19.3B7.A$A2.4A2BAB2A6B.B2A24.A20.2B.BA$.2A2.A2B.B2A7B.BA.A
43.B2ABA.A$3.2A6.7B5.A42.BABABA.A$3.A7.2B.4B5.2A39.A2.A.A.A.A.2A$
5.A9.4B45.4A.2A2.A2.A$4.2A10.3BA48.A4.2A$17.3BA45.A.A$18.3AB44.2A!
