#CSYNTH guntrue_1744 costs 3834 cells.
#C period 1744 fullperiod 1744 bbox 71 by 54
#CLL state-numbering golly
x = 71, y = 54, rule = LifeHistory
9.2A11.A$8.B2AB9.A.A$9.3B9.A.A2.2A3.A$8.B.B9.2A.2A2.A2.A.A$8.5B8.B
2.A.A3.A.A12.2A$8.6B6.2ABA2.4A.A13.A$8.8B4.2A.A.A3.A12.BA.A$9.13B
2.A.AB2.A9.B.B2A$7.13B5.A.A2B.A7.4B$6.15B5.A2B.2A7.4B$6.15B4.3B10.
5B$5.17B.B.2B11.6B7.2A$5.29B2.8B8.A14.2A$4.13B2A26B7.A.AB11.2A$3.
14B2A25B9.2AB.B.3B$2.2AB3.27B.7B12.7B3.4A$.A2.A4.35B11.7B2.A3.A$A.
2A5.6B3.B2.2B2.19B11.7B.2BAB$A7.6B14.17B8.10BABAB$.3A3.9B14.15B.2B
2.13B2A2B$3.A3.4B3.2A15.35B.2A$6.5B3.A16.8B.24B4.A$5.7B3.3A11.8B3.
2B2A18B6.A.A$5.8B4.A11.2A3.B5.2B2A18B7.2A$2.B.8B18.A10.22B$.2A10B
14.3A12.B.3B.4B7.5B$.2AB.9B13.A19.4B9.5B$2.B2.9B8.2A22.4B7.2AB2.4B
$5.8B9.A22.4B3.B2.2B3A3.4B$5.9B5.BA.A21.4B3.2A2BA2BABA3.4B$4.10B.
3B.B2A10.A10.4B4.2A2B2A2B2A4.4B$3.17B12.3A7.4B6.3B2A2.B6.4B$3.17B
15.A5.4B7.3B12.3BA$3.16B15.2A4.ABAB14.B5.B.2BABA$.19B14.6B2AB6.2A
6.3B3.6B2A$.21B14.5BA7.A5.3B2A3.2A3B2.B$2A23B2.2B2.B3.6B5.2A.A4.3B
2A.A.A.2A3B$2AB.37B4.A2.A5.2B3ABA.AB3A2B$.B3.9B.27B3.B2A6.BA3B2A.
2A3BAB$7.6B2.16B2A14B7.BA5B.5BAB$4.2B.6B2.16B2A13B8.2BA4B.4BA2B$3.
2A7B4.29B9.7B.7B$3.2AB.6B10.2B.B.17B9.5B2A.2A5B$4.B.6B10.3B4.15B
10.4BA.A.A.A4B$6.6B6.2A.2BA5.15B11.4BA3.A4B$7.5B6.A.2BA.A5.13B14.
3B3.3B$8.4B7.A2.BA.A2.13B17.B5.B$9.5B6.A3.A.A.2A4.8B$12.2A4.A.4A2.
AB2A6.6B$12.A5.2A3.A.A2.B8.5B$13.3A5.A.A.2A.2A9.B.B$15.A2.3A.A3.A.
A9.3B$18.A2.A4.A.A9.B2AB$19.2A6.A11.2A!
