#CSYNTH guntrue_4600 costs 2544 cells.
#C period 4600 fullperiod 4600 bbox 53 by 48
#CLL state-numbering golly
x = 53, y = 48, rule = LifeHistory
37.A$35.3A$34.A$34.2A$31.5B12.A$30.4B12.3A$29.6B2.B7.A$29.3BA2B.4B
5.2A$27.3B3A8B2.4B4.2A$26.5B2A8B.3B6.A$26.9B2A3B.5B2.BA.A$24.23B.B
2A$8.2A3.2A8.7B2A17B$8.A.A.A.A7.27B$10.A.A9.12BA14B$5.2A2.A.2AB8.
12B2A12B$4.A.A2.A.BAB6.2AB.8B2A3B2A7B$3.A2.A.2A.B7.A.AB3.2B2ABA9B
2A$4.3A2.4B6.A5.3B2AB2A8B2A$7.AB2A3B4.2A4.4B2A2BA9B$6.A2.A.2A12.4B
A2BABA3BA2B$6.2A2.2AB12.5B2A2BA2BA3B6.2A$10.BA14.2B.5B2ABA2B6.A2.A
$10.2B16.A3B3A3B9.A.A$11.B15.AB2A2B2A2B7.3A.2A.2A$10.2AB13.BABA3BA
B8.A3.A2.A.A$.2A6.A2BAB5.2A5.2B3A4B8.7A$2.A4.3B2A3B4.A4.2AB.7B11.
2B.3A$2.A.AB.8B.BA.A3.A.AB2.5B7.4A.3B3.A$3.2AB.8B.B2A4.A6.4B6.A3.
4A.4A$5.12B5.2A6.3BA6.2A4.2A.A$5.12B5.A8.3BA.6B4.2B.A.2A$5.12B6.3A
6.3A5B7.A.A.BA$7.10B9.A6.10B5.2A2B$9.7B9.2A5.B.10B5.A$9.8B8.18BAB
3.B2A$8.5B.4B9.15BABA4B2A$8.6B.4B7.2B2A12BABA.3B3A$7.6B3.4B5.2BA2B
A12BA5.A.BA$3.B2.3BA3B4.4B4.3B2A4B2.7B4.A.A.2A$.7BABA2B5.4B.9B4.7B
3.A.2A$.7BABA2B6.12B6.3B6.A3.3A$9BA3B7.10B7.5B5.3A2.A$11B.B2A6.9B
10.2A7.A$.9B2.BA.A6.9B9.A$.3BA3B7.A7.7B11.3A$2.3BA2B7.2A7.6B13.A$
3.3AB19.2B!
