#CSYNTH guntrue_2015 costs 7728 cells.
#C period 2015 fullperiod 2015 bbox 92 by 84
#CLL state-numbering golly
x = 92, y = 84, rule = LifeHistory
60.2A$59.A.A$53.2A4.A$51.A2.A2.2A.4A$51.2A.A.A.A.A2.A$54.A.ABABAB$
54.A.AB2AB$55.AB.2B$58.3B$58.4B6.2A$56.3B2AB6.A$56.3B2AB3.BA.A$54.
10B.B2A$45.A7.13B$43.3A6.14B$42.A8.BA13B$41.A.A6.2A2B2.8B$40.BA.A
5.2B2A5.6B$39.3BA5.4B4.9B$37.4B6.4B5.2A4.4B$35.6B5.4B7.A5.4B$34.7B
4.4B5.3A7.4B$27.B.4B.8B2.4B6.A10.4B$26.2AB.17B19.4B$26.2A18B21.4B$
27.2B.16B22.4B$30.17B2.2A18.4B$31.16BA2.A19.4B$32.14B.2A22.4B$32.
12B28.4B$33.10B30.4B10.2A$33.6B2A2B31.4B9.A$33.6B2A3B31.4B10.A$33.
10B26.2A5.4B5.5A$29.A.2AB.8B27.A5.4B4.A$27.3AB2AB3.7B26.A.AB.7B2.B
3A$26.A4.B6.6B27.2AB.7B3.2B.A$27.3A.2A4.6B30.12B4A$29.2A2.A4.5B30.
7B2A3BAB2.2A$32.A.A.8B29.7B2A2B.B3A2.A$28.A.2A.A.A8B8.A20.10B3.B.A
.2A$28.2A.A.BA2B.6B6.3A19.8B8.A$31.A2.2B2.7B4.A21.9B7.2A$31.2A.B3.
7B4.2A19.4B2.3B$29.2A2.A.A2.8B.4B18.4B3.5B$28.A2.A2.2A2.11B19.4B7.
2A$29.2A7.12B17.4B8.A$38.12B16.4B10.3A$39.11B15.4B13.A$28.2A12.9B
13.4B$29.A11.10B.2B9.4B$29.A.AB4.B.16B7.4B$30.2AB2.23B3.4B$32.32B$
31.32B$31.31B$31.30B$31.28B$30.4B.B5.17B$29.4B11.14B$28.4B12.14B$
2A.2A22.4B14.2B4.3B$2A.2AB20.4B3.A10.2B6.B$5.2AB4.A12.4B4.3A7.B2AB
$5A2BA4.3A9.4B8.A7.2A3.2A$A3.A.2BA6.A7.4B8.2A11.A.3A$2.A2.3B6.2A6.
4B9.5B8.A4.A$.5AB7.6B.4B7.A4.3BAB5.2A.3A$A4.B.A8.8B6.3A3.3BABAB2.
2BA.BA$A.ABA3BA4.10B6.A5.4BA2BA4B2A$.2A.3BAB3.10B.B5.2A5.4B2A5B2A.
AB$4.A.AB3.BA18B6.6B2.2BA.BAB2A$.5A5BABA15B9.5B4.2A.A.2B$.A2.BA4B.
ABA12B2A2B7.7B4.A.A.ABA$2.4A2B4.A12BA2BA2B5.4B.4B3.A.3A2.A$A.A2.A
2B5.7B2.4B2A3B4.4B3.4B3.A3.3A$2A2.2A7.7B4.9B.4B5.4B3.3A$5.A.A8.3B
6.12B7.4B5.A$3.A2.A.A5.5B7.10B9.4B3.2A$3.2A.A.A5.2A10.9B11.4B$5.A.
A7.A9.9B13.4B$5.A6.3A11.7B15.3BA$4.2A6.A13.6B17.3BA$28.2B20.3AB!
