#CSYNTH guntrue_1105 costs 5415 cells.
#C period 1105 fullperiod 1105 bbox 95 by 57
#CLL state-numbering golly
x = 95, y = 57, rule = LifeHistory
51.2A11.A$50.B2AB9.A.A$51.3B9.A.A2.2A3.A$50.B.B9.2A.2A2.A2.A.A$50.
5B8.B2.A.A3.A.A$50.6B6.2ABA2.4A.A$50.8B4.2A.A.A3.A$51.13B2.A.AB2.A
15.2A$8.2A3.2A34.13B5.A.A2B.A14.A$8.A.A.A.A33.15B5.A2B.2A11.BA.A$
10.A.A35.15B4.3B12.2A.B2A$5.2A2.A.2BA33.17B.B.2B12.B2A2B$4.A.A2.A.
3A33.29B6.4B$3.A2.A.2A.A34.13B2A8B2A6B3.6B$4.3A2.2BAB32.14B2A7B2A
7B2.6B$7.2A2BA2B30.2AB3.20BA6B.7B$6.A2.A.AB30.A2.A4.23BA3BA7B$6.2A
2.2AB29.A.2A5.6B3.B2.2B2.9BA2B2A7B$10.2B30.A7.6B14.6BA3BA8B$10.2B
29.2A6.9B14.4BA3BA9B$11.B36.4B4.2A15.2A3B2A11B$10.2AB34.4B5.A15.2B
4A13B$.2A6.A2BAB5.2A25.4B7.3A12.4BA14B$2.A4.3B2A3B4.A25.4B10.A10.
2AB.3B2.12B$2.A.AB.8B.BA.A15.2A7.4B21.A.AB6.10B.B2A$3.2AB.8B.B2A
15.B2AB5.4B22.A8.10B2.BA.A$5.12B17.3B5.4B22.2A7.9B7.A$5.12B18.B.B
3.4B31.10B7.2A$5.12B16.6B.4B31.4B.6B$7.10B6.2A8.10B31.4B3.B.B$9.7B
6.B2A2B3.12B7.2A22.4B5.3B$9.8B6.4B2.12B8.A22.4B5.B2AB$8.5B.4B3.19B
6.BA.A21.4B7.2A$8.6B.25B2.3B.B2A10.A10.4B$7.6B3.26BA4B12.3A7.4B$3.
B2.3BA3B4.24B4A2B15.A5.4B$.7BABA2B5.21B2A3B2A15.2A4.4B$.7BABA2B7.
18BA3BA4B14.9B6.2A$9BA3B9.4B2.10BA3BA6B14.6B7.A$11B.B2A5.7B5.6B2A
2BA9B2.2B2.B3.6B5.2A.A$.9B2.BA.A4.2A3.BA6.7BA3BA23B4.A2.A$.7B7.A5.
A3.BAB6.7B.6BA20B3.B2A$2.6B7.2A.3A5.A7.6B2.7B2A7B2A14B$3.4B9.A.A
14.6B3.6B2A8B2A13B$4.4B8.A.A14.4B6.29B$5.4B8.A15.2B2AB12.2B.B.17B$
6.4B21.2AB.2A12.3B4.15B$7.4B19.A.AB11.2A.2BA5.15B$8.4B18.A14.A.2BA
.A5.13B$9.4B16.2A15.A2.BA.A2.13B$10.4B33.A3.A.A.2A4.8B$11.4B30.A.
4A2.AB2A6.6B$12.4B28.A.A3.A.A2.B8.5B$13.4B27.A.A2.A2.2A.2A9.B.B$
14.3BA27.A3.2A2.A.A9.3B$15.3BA34.A.A9.B2AB$16.3AB34.A11.2A!
