#CSYNTH guntrue_195 costs 2368 cells.
#C period 195 fullperiod 195 bbox 64 by 37
#CLL state-numbering golly
x = 64, y = 37, rule = LifeHistory
10.A3.2A30.B$9.A.A.A.3A27.3B$9.A.A.A4.A26.3A$.2A7.A.A.ABABA25.2BA
2B$2.A9.A.A.2A4.2A20.2BA2B$2.A.2A5.ABA4B4.A20.2B3A2B$3.A2B3.3BA2B
4.BA.A20.7B$4.9B4.B.B2A20.3B3A3B$5.2BA6B2.4B22.3B3A3B$.2B2.2A3BA9B
23.7B8.A$2A7BABA8B23.2B3A2B7.BA2B.2A$2A6BA3BA7BA23.2BA2B9.A3B.A$.
2B.5B3A5B.3BA22.2BA2B11.B2A$4.12B3.3AB22.3A11.3B$4.10B6.4B21.3B8.
2A.2A$2.2AB.8B7.4B13.2A6.B8.A.AB2AB$.A.AB.8B8.4B11.B2AB4.3B7.B3AB.
2B$.A5.8B3.2A3.4B11.3B3.9B3.2BA.2A$2A3.9B4.A.A3.4B11.B3.11B2.B2AB
2A$5.2A2.2B.2B.A5.A3.4B9.20B3A$6.A3.BA3BAB2.2A.A3.4B8.17B6.A$2A.3A
3.3AB.AB.BA.A.A4.2BA2B5.18B5.A.A$.A.A4.BA2.B.AB.3AB.2A4.2B2A.21B7.
A$.A.A4.B.B2ABAB.A2.A.A2.A3.2A24B$2A.2A.2A.A.A3.B2.4A2.2A4.21B.4B$
.A.A2.4B.A3.3A8.2A.3BA17B3.4B$.A2.3A2.2A4.2B2.A6.A.4BA16B5.4B$2.2A
2.AB6.A.A.2A7.A.20B6.4B$3.A.2A6.A.2A.A5.3A3.19B7.4B$3.A.B2A5.A.B.A
2.A3.A5.20B7.4B$4.A.A5.2A.A.A.2A9.19B9.4B$2.A.A.A.A2.A2.2A.A13.16B
12.4B$2.2A3.2A2.2A5.3A14.11B14.3BA$21.A14.4B3A3B15.ABA$20.2A16.7B
17.2A$40.4B19.B$41.B!
