#CSYNTH guntrue_515 costs 4071 cells.
#C period 515 fullperiod 515 bbox 69 by 59
#CLL state-numbering golly
x = 69, y = 59, rule = LifeHistory
41.A11.2A$40.A.A9.B2AB$32.A3.2A2.A.A9.3B$28.A2.A.A2.A2.2A.2A9.B.B$
19.2A5.3A2.A.A3.A.A2.B8.5B$18.B2AB3.A6.A.4A2.AB2A6.6B$19.2B4.2A7.A
3.A.A.2A4.8B$20.7B6.A2.BA.A2.13B$19.6B7.A.2BA.A5.13B$18.8B6.2A.2BA
5.15B$17.9B10.3B4.15B$15.12B10.2B.B.17B$14.12B4.29B$15.12B2.16B2A
13B$2A13.12B2.16B2A14B$.A12.14B.27B3.B2A$.A.AB2.B5.42B4.A2.A$2.2AB
.3B3.4B2.21B2.2B2.B3.6B5.2A.A$4.6B.4B4.17B14.6B7.A$4.10B4.16B14.9B
6.2A$4.2B2A5B5.15B15.2A4.4B$5.A2BA3B5.17B15.A5.4B$5.BABA4B5.8B.7B
12.3A7.4B$6.BA6B5.6B4.3B.B2A10.A10.4B$6.3B2.4B5.4B9.BA.A21.4B$6.3B
3.4B4.6B10.A21.4B$6.B6.4B4.B.B2A.A8.2A20.5B$4.4B6.4B5.B2AB3A27.7B$
2A2.2A2BA6.4B6.B4.A25.8B$A2.A.AB2A7.4B4.2A.3A27.8B.B$.A.3A.A9.4B4.
A.A28.10B2A$2.A2.3A10.4B3.A.A27.9B.B2A$3.3AB2A10.4B3.A18.2A8.9B2.B
$6.3B11.4B22.A9.8B$3.3A3B12.4B21.A.AB5.9B$2.A2.BA3B12.4B10.A10.2AB
.3B.10B$2.2A2.B2ABA12.4B7.3A12.17B$7.2BA.A12.4B5.A15.17B$9.BA14.4B
4.2A15.16B$18.2A6.9B14.19B$19.A7.6B14.21B$19.A.2A5.6B3.B2.2B2.23B
2A$20.A2.A4.37B.B2A$21.2AB3.27B.9B3.B$22.32B2.6B$12.2A9.31B2.6B.2B
$11.A.A10.12B3A14B4.7B2A$11.A7.2A3.9B2A2BA3B.B.2B10.6B.B2A$12.4A3.
A5.8BABA4B4.3B10.6B.B$10.A.A3.A4.A3.15B5.A2B.2A6.6B$9.A.A2.B2AB2.
2A4.13B5.A.A2B.A6.5B$9.A4.2B2ABA2.2A4.13B2.A.AB2.A7.4B$6.2A.AB3.3B
ABA2BA.2B.8B4.2A.A.A3.A6.5B$6.A2.A.2B.5B.2B2AB2A6B6.2ABA2.4A.A4.2A
$7.A.A.2A2.B2ABA2BA.2B3.4B7.B2.A.A3.2A5.A$6.2A2.A2.A.A.ABA2.2A6.4B
5.2A.2A.A.A5.3A$8.A.A2.2A.A3.2A9.3BA5.A.A3.A.3A2.A$8.2A6.A.2A2.4A
6.3BA4.A.A4.A2.A$16.2A.A2.A2.A7.3AB4.A6.2A!
