#CSYNTH guntrue_990 costs 1792 cells.
#C period 990 fullperiod 990 bbox 56 by 32
#CLL state-numbering golly
x = 56, y = 32, rule = LifeHistory
31.2A$30.A2BAB$31.2BAB$32.BAB$27.A3.ABAB$26.A2B.A.AB$10.2A14.A4BA
11.A$11.A15.4AB9.3A$11.A.AB3.B2A3B3.4B9.A$12.2AB.3B3A5B13.2A7.A$
14.7B2ABA3B9.5B6.A.A$14.7BA2BA4B8.3B8.A.3A$15.6B2ABA4B6.7B5.2A4.A$
11.A4.3B3A7B6.8B5.B.3A$11.3A4.B2A10B.11B4.2ABA$14.A8.4B.15B3.2B2A$
13.2A7.4B.9B3A4B3.BAB2A$13.5B3.4B2.8BA3BA3B3.BA.ABA$4.2A9.3B2.4B4.
6BA5BA2B3.BABA.3A$3.A.A8.9B6.4BA3BA3BA2B3.A.A4.A$3.A8.B.8B7.4BA2BA
BA2BA3B.3A2B2A.A$2A.AB.A3.11B9.3BA3BA3BA2B.B2ABA2.A.2A$.A.A.A2B.2A
10B11.2BA5BA3B2.3AB2A3.A$.A.A.A15B14.A5B.B3.BAB2.A.2A$2A.A2.5BA9B
14.BA2BA8.2A.A.A$A2.4AB4A7B.B2A13.BABA2B7.A.A.A$.2A2.BAB.10B.BA.A
14.ABA4B4.A2.A$3.2A6.7B5.A15.A.A.2A3.2A$3.A7.2B.4B5.2A12.A.A.ABABA
$5.A9.3BA17.A.A.A4.A$4.2A10.3BA16.A.A.A.3A$17.3AB16.A3.2A!
