#CSYNTH guntrue_1257 costs 5609 cells.
#C period 1257 fullperiod 1257 bbox 79 by 71
#CLL state-numbering golly
x = 79, y = 71, rule = LifeHistory
38.2A$38.A.A$40.A4.2A$36.4A.2A2.A2.A$36.A2.A.A.A.A.2A$38.BABABA.A$
39.B2ABA.A$40.2B.BA$39.3B$30.2A6.4B$31.A6.B2A3B$31.A.AB3.B2A3B$32.
2AB.10B$34.13B$34.14B$34.15B$36.8B2.4B$36.6B5.4B$35.9B4.4B$34.4B4.
2A5.4B$33.4B5.A7.4B$32.4B7.3A5.4B$31.4B10.A6.4B13.A$30.2A2B19.4B
10.3A$29.ABAB21.4B8.A$28.3BA23.4B7.2A$27.4B25.4B3.5B$26.4B27.4B2.
3B$25.4B29.9B7.2A$24.4B31.8B8.A$23.4B33.10B3.B.A.2A$22.4B34.7B2A2B
.B3A2.A$21.4B35.7B2A3BAB2.2A$20.4B36.12B4A$20.4B34.2AB.7B3.2B.A$
19.5B33.A.AB.7B2.B3A$16.9B32.A5.4B4.A$16.9B31.2A5.4B5.5A$16.9B37.
4B10.A$16.10B35.4B9.A$15.12B33.4B10.2A$14.13B8.2A22.4B$15.11B9.A
22.4B$16.12B4.BA.A13.2A6.4B$16.15B.B2A15.A5.4B$16.17B15.A6.4B$16.
17B15.2A4.4B$13.B.17B17.2B2.4B$12.2A19B15.8B6.2A$12.2AB.19B13.7B7.
A$13.B4.20B2.2B2.B2.7B5.2A.A$18.36B4.A2.A$18.9B.27B3.B2A$11.A7.7B
2.16B2A14B$11.3A5.7B2.16B2A13B$14.A4.6B4.29B$13.2A4.7B10.2B.B.17B$
13.5B.6B10.3B4.15B$4.2A9.10B6.2A.2BA5.15B$3.A.A8.10B7.A.2BA.A5.13B
$3.A8.B.10B8.A2.BA.A2.13B$2A.AB.B3.BA14B7.A3.A.A.2A4.8B$.A.A.2AB.
3A11B.2A5.A.4A2.AB2A6.6B$.A.A.2A2B2A10B3.A5.A.A3.A.A2.B8.5B$2A.A2.
5BA9B4.3A2.A.A2.A2.2A.2A9.B.B$A2.4A3BA8B.B2A4.A3.A3.2A2.A.A9.3B$.
2A2.BAB.BA8B.BA.A15.A.A9.B2AB$3.2A6.7B5.A16.A11.2A$3.A7.2B.3BA5.2A
$5.A9.3BA$4.2A10.3AB!
