#CSYNTH guntrue_657 costs 4818 cells.
#C period 657 fullperiod 657 bbox 73 by 66
#CLL state-numbering golly
x = 73, y = 66, rule = LifeHistory
22.2A5.2A15.2A.A.2A$21.A2.A.BA2B.A7.A.2A.A2.A.2A2.A3.A$21.2A.A2BAB
.2A7.2A.A.2A.A4.A.A2.3A$22.A.A2.A2.6B8.B2.5A.A6.A$21.BA.3AB4.5B6.
2ABA4.A7.2A$20.A3B.2A5.7B4.2A.A.AB2.A6.5B$20.3BA8.13B2.A.A2B.A7.4B
$18.3A.A7.13B5.A2B.2A7.5B$17.B4A7.15B3.3B11.6B$18.A.B8.15B3.2B12.
6B.B$28.17B.4B10.6B.B2A$28.29B4.7B2A$27.13B2A16B2.6B.2B$26.14B2A
16B2.6B$25.2AB3.27B.9B3.B$24.A2.A4.37B.B2A$23.A.2A5.6B3.B2.2B2.23B
2A$23.A7.6B14.21B$22.2A6.2A7B14.19B$29.ABAB4.2A15.16B$28.3BA5.A15.
17B$27.4B7.3A12.17B$26.4B10.A10.2AB.3B.10B$25.4B21.A.AB5.9B$24.4B
22.A9.8B$23.4B22.2A8.9B2.B$22.4B33.9B.B2A$21.4B35.10B2A$20.4B37.8B
.B$20.4B36.8B$19.5B37.7B$16.9B37.5B$16.9B37.4B$16.9B37.4B$16.10B
35.4B$15.12B33.4B$14.13B8.2A22.4B$15.11B9.A22.4B$16.12B4.BA.A21.4B
$16.15B.B2A10.A10.4B$16.17B12.3A7.4B$16.17B15.A5.A3B$13.B.17B15.2A
4.BABA$12.2A19B14.7B2A6.2A$12.2AB.19B14.6B7.A$13.B4.20B2.2B2.B3.6B
5.2A.A$18.36B4.A2.A$18.9B.27B3.B2A$11.A7.7B2.16B2A14B$11.3A5.7B2.
16B2A13B$14.A4.6B4.29B$13.2A4.7B10.2B.B.17B$13.5B.6B10.3B4.15B$4.
2A9.10B6.2A.2BA5.15B$3.A.A8.10B7.A.2BA.A5.13B$3.A8.B.10B8.A2.BA.A
2.13B$2A.AB.B3.BA14B7.A3.A.A.2A4.8B$.A.A.2AB.3A11B.2A5.A.4A2.AB2A
6.6B$.A.A.2A2B2A10B3.A5.A.A3.A.A2.B8.5B$2A.A2.5BA9B4.3A2.A.A2.A2.
2A.2A9.B.B$A2.4A3BA8B.B2A4.A3.A3.2A2.A.A9.3B$.2A2.BAB.BA8B.BA.A15.
A.A9.B2AB$3.2A6.7B5.A16.A11.2A$3.A7.2B.3BA5.2A$5.A9.3BA$4.2A10.3AB!
