#CSYNTH guntrue_1314 costs 4290 cells.
#C period 1314 fullperiod 1314 bbox 65 by 66
#CLL state-numbering golly
x = 65, y = 66, rule = LifeHistory
13.2A5.BA15.2A.A.2A$12.A2.A.2B2A.A7.A.2A.A2.A.2A2.A$12.2A.5A.2A7.
2A.A.2A.A4.A.A$13.A.A2.A2.6B8.B2.5A.A$12.AB.A2BA4.5B6.2ABA4.A$11.
3BA.BA5.7B4.2A.A.AB2.A$11.2A2B8.13B2.A.A2B.A$9.A2B.A7.13B5.A2B.2A
4.A$8.A3BA7.15B3.3B8.3A$9.A.A8.15B3.2B12.A$19.17B.4B10.2A$19.29B3.
4B2A$18.13B2A16B4.2B2A$17.14B2A16B2.7B$16.2AB3.27B.7B$15.A2.A4.35B
$14.A.2A5.7B2.B2.2B2.19B4.B$14.A7.7B13.18B.B2A$7.2A4.2A6.8B15.18B
2A$6.B2AB10.4B2.2B17.16B.B$7.2B10.4B4.2A15.16B$8.2B8.4B6.A15.17B$A
6.4B6.4B6.A14.2AB.15B$3A3.6B4.4B7.2A12.A.AB3.15B$3.A2.5B4.4B4.2A
16.A5.4B2.6B2.2A$2.2A2.6B2.4B5.A16.2A4.4B4.5B2.A$2.15B3.BA.A12.2A
7.4B4.6B3.3A$4.15B.B2A14.A6.4B6.4B6.A$4.10BAB2A3B15.A6.4B8.2B$5.8B
A2BAB2AB15.2A4.4B10.2B$2.B.9BA5BA17.2B2.4B10.B2AB$.2A8B2A2BABA3B
15.8B6.2A4.2A$.2AB.6BA3BAB2A4B13.7B7.A$2.B4.4BABABABA8B2.2B2.B2.7B
5.2A.A$7.5B3A27B4.A2.A$8.7B.27B3.B2A$7.7B2.6BABA7B2A14B4.2A$8.2A2B
4.7B2A7B2A13B5.A$8.2A4B3.6BA22B3.2A.A$12.2A10.2B.B.17B2.A.BA$12.A
10.3B4.15B3.2A$13.3A3.2A.2BA5.15B4.2A$15.A3.A.2BA.A5.13B3.ABA$20.A
2.BA.A2.13B4.BA.A.A$21.A3.A.A.2A4.8B.2BA.2A.3A$19.A.4A2.AB2A6.6B2A
2BAB.A3.A$18.A.A3.A.A2.B7.4B3.2BA.A.A.2A$18.A2.A.A2.2A.2A5.4B6.BA.
A.A$19.3A.2A2.A.A5.4B10.A.A$23.B3.A.A4.4B11.2A$18.A.2AB2A3.A4.4B$
18.2A.A.2A7.4B$23.5B3.4B$14.2A9.3B2.4B$13.A.A8.9B$13.A8.B.8B$10.2A
.AB.B3.BA9B$11.A.A.2AB.3A9B$11.A.A.2A2B2A10B$10.2A.A2.5BA9B$10.A2.
4A3BA8B.B2A$11.2A2.BAB.BA8B.BA.A$13.2A6.7B5.A$13.A7.2B.3BA5.2A$15.
A9.3BA$14.2A10.3AB!
