#CSYNTH guntrue_1883 costs 8787 cells.
#C period 1883 fullperiod 1883 bbox 101 by 87
#CLL state-numbering golly
x = 101, y = 87, rule = LifeHistory
46.2A$11.A15.2A.A.2A11.B2AB$9.3A14.A2.2A.A2.A.2A.A4.3B$8.A5.2A9.A.
A4.A.2A.A.2A5.B.B$2.2B4.2A5.A10.A.5A2.B8.5B$.9B5.A.2A3.2A4.A4.AB2A
6.6B$.3B2A2B8.A.A4.A3.A2.BA.A.2A4.8B$.B2ABA4B8.A.3A3.A.2BA.A2.13B$
.BA8B.3B2.2A.A5.2A.2BA5.13B$.11B3A.5B9.3B3.15B$3B3A4BA4BA4B11.2B3.
15B$3BA2B2A12B10.4B.17B$.3BA2BA12B3.29B28.2A$6BA3B2AB2A5B2.16B2A
13B21.A.2A.A.A$.4A7BA7B2.16B2A14B20.2A.A.A$.B2AB.3B2.10B.27B3.B2A
23.2AB$2.AB7.37B4.A2.A22.2B$11.21B2.2B2.B3.6B5.2A.A21.4B2.B$12.17B
14.6B7.A22.8B$12.15B14.9B6.2A10.A10.8B$12.14B15.2A4.4B11.2A3.A.A8.
8B2A$12.15B15.A5.4B11.A3.A2.A6.2B2A3B.B2A$11.16B12.3A7.4B10.A.2A.A
.A6.BABA4B.B$10.2A.3B3.6B.B2A10.A10.4B10.A.A.A.2A5.ABA4B$10.2A2B2A
B3.4B2.BA.A21.4B10.2B2A.A2.A3.BA7B$11.3B2A5.4B4.A22.4B10.4B2.2A4.
8B$6.2A.6B7.4B3.2A22.4B6.7B9.7B$6.A2.2A2.B9.4B27.4B3.8B10.8B$7.3A.
AB11.4B22.2A3.4B.8B11.8B$10.B.A12.4B22.A4.12B11.7B$7.5A14.4B21.A.A
B2.11B.2B8.7B$7.A19.4B10.A10.2AB.8BA5B2A7.8B$10.2A16.4B7.3A12.9BA
6B2A6.10B$10.2A17.4B5.A15.9B2A3B.2B8.10B$30.4B4.2A15.8B2A3B10.7B.
4B$23.2A6.9B14.9BA4B.2B7.6B3.4B$24.A7.6B14.9BA3BA4B2A6.6B4.4B$24.A
.2A5.6B3.B2.2B2.11B2A6B.B2A6.6B5.4B$25.A2.A4.27B2A3BA2B2.B6.8B5.4B
$26.2AB3.27B.2B2A4B10.8B5.4B$27.14B2A16B2.7B9.9B6.4B$28.13B2A16B2.
7B9.9B7.4B$29.29B3.7B9.10B7.4B$29.17B.4B11.6B.BA6.5B2A3B8.4B$30.
15B3.2B12.7BA.A5.5B2A4B8.4B$30.15B3.3B11.8BA6.11B9.3BA$31.13B5.A2B
.2A7.6B.B7.12BA.2A5.ABA$33.13B2.A.A2B.A7.3BAB12.8B2.2A.A6.2A$32.8B
4.2A.A.AB2.A8.4B2A4.2A5.7B14.B$32.6B6.2ABA4.A7.2AB.B2A2B2.B2AB4.6B
$32.5B8.B2.5A.A4.A.AB3.4B.3B5.6B$32.B.B5.2A.A.2A.A4.A.A3.A7.4B.B5.
8B$33.3B4.A.2A.A2.A.2A2.A3.2A8.8B.8B$32.B2AB11.2A.A.2A14.9BA7B$33.
2A32.9BABA6B$67.9BABA7B$68.9BA7B$69.8B.7B$70.16B4.2A$71.3B.10B5.A$
71.3B2.9B2.BA.A$72.B3.9B2.B2A$75.13B4.2A$75.13B4.A.A2.2A$74.14B6.A
3.A$73.A13B3.4A.3A$71.3A.12B3.A2.A.A$70.A5.5B.5B6.ABAB3A$70.2A6.2B
2.6B6.2ABA2.A$82.7B4.4B2.2A$81.16B$80.13BA2B$76.16BABAB$75.17BA2BA
$75.18B2AB$75.21B$77.17B.B2A$79.13B3.BA.A$77.4B3.10B4.A$77.2A6.4B
3.2A4.2A$78.A5.A3.2B2.A$75.3A4.3A2.B2A3.3A$75.A5.A6.A.A5.A$81.2A3.
A.A.6A$86.2A$92.2A$92.2A!
