#CSYNTH guntrue_1276 costs 5133 cells.
#C period 1276 fullperiod 1276 bbox 87 by 59
#CLL state-numbering golly
x = 87, y = 59, rule = LifeHistory
31.2A$30.B2AB$31.2B$26.B3.2B8.2A$25.2AB.2B2A6.B2AB$25.2A3B2A3B4.B
2A$26.B.3BABA3B3.A.B$29.3B2A5B4AB$29.8B5ABAB.2A22.B.B$25.11BA6B2AB
.A2.A18.B2A3B$25.10BA3BAB3AB.A3.3A16.A2BA2B10.2A$24.2A2B2A6BABA2B
2AB3.3A3.A14.2B2A4B2.2B5.A$24.2A2BA11B.B7.A.A.A3.2A9.13B.BA.A$25.B
.BA9B12.2A.2A3.A6.16B.B2A$27.2BA7B16.A2.A7.14BA4B$26.4B3A7B6.2A2.
3A2.3A5.14BABA4B$25.16B5.A3.A2.2A3.2B3.15BA4B$24.4B.12B7.A.A.A2.3A
2B3.18B.B2A$9.A13.4B3.11B2.2A2.3A.A.2AB.A23B.BA.A$9.3A10.4B2.4B.8B
2.A.A5.A3.2A19B2.2B5.A$12.A8.4B3.2A4.7B3.B.2A.2A.2A21B10.2A$11.2A
7.4B5.A4.7B2.2B2.A.A2.A.B.19B$11.5B3.4B3.3A6.6B.2BAB.A2.A2.A5.16B$
13.3B2.4B4.A8.8BA.A.3A.2A6.10B3.4B.2A$3.2A7.9B14.8B.A.A4.A8.8B3.B
2A3B.A$3.A8.8B16.5B4.A2.2A2.A6.9B4.2AB2.A$2A.A.B3.10B17.6B4.2A.3A.
A4.10B8.A$A2.3AB.2B2A7B16.6B6.B4.A4.10B5.5A.A$.2A2.BA3B2A7B16.7B3.
B2AB3A4.7BA3B5.A4.A.A$3.4A12B17.8B.B2A.A5.7BABA2B7.A2.A.A$3.A.2B3.
7B.B2A15.10B8.8BABA2B6.2A3.A$4.3AB2.7B.BA.A13.11B7.10BA3B$7.A4.4B
5.A14.10B6.13B.B2A$2.5A5.4B5.2A13.10B5.13B2.BA.A$2.A10.BABA9.2A7.B
A5BA4B3.4B.7B7.A$4.A9.B2AB8.A3.2A.B2ABA3BAB2A2B2.4B3.6B7.2A$3.2A
10.A3B9.A2.3A3BA3BA3BA6B5.4B$16.4B7.3A2.BA4BABA4BA5B7.4B$17.4B5.A
6.2A4BA4B2A4B9.4B$18.4B4.2A5.2BA7BA5B11.4B$19.9B4.5BA3BA6B6.A6.4B$
20.6B5.4B2.A3BA3B.2B4.3A7.4B$20.8B2.4B4.7B2.B3.A11.4B$18.15B5.3A3B
2.3B.A.A11.4B$18.14B6.4B3.6A.A12.4B$18.13B5.A3B5.2A5B.2A11.4B$16.
2AB.10B5.A.AB6.BA.A2BA.A13.4B$15.A.AB3.B2A3B7.A.A6.A.BA4B.A14.4B$
15.A6.B2A3B8.A5.3A.A.B2A.A16.4B$14.2A6.4B7.3A5.A4.A.A.2A18.4B$23.
3B7.A8.4A.BAB4.A16.4B$24.2B.BA17.2B2.5A17.4B$23.B2ABA.A14.2A.3AB
22.4B$22.BABABA.A14.A.2A3.BA21.4B$20.A2.A.A.A.A.2A12.A.AB2.2A22.4B
$20.4A.2A2.A2.A13.A.A27.4B$24.A4.2A16.A29.3BA$22.A.A53.3BA$22.2A
55.3AB!
