#CSYNTH guntrue_351 costs 2030 cells.
#C period 351 fullperiod 351 bbox 58 by 35
#CLL state-numbering golly
x = 58, y = 35, rule = LifeHistory
6.A7.2A10.A.2A4.2A.A$6.3A4.B2AB9.2A2.A2.A2.2A$A8.A4.3B7.2A3.A4.A3.
2A$3A5.2A3.B.B7.A3.2A.4A.2A3.A$3.A4.13B3.3A.A.A2.A.A.3A$2.2A6.12B
4.A.A.A2BA.A.A$2.4B2.14B5.2BA4BA2B$4.13B2A7B.3B4A3B$4.12B3A8B3.4B$
5.10B2A2BABA5B4.2B$6.13B2ABA4B$8.6B3AB4AB2AB.3B$5.B.10B3A5BA6B$4.
2AB.8BA15B.2B$4.2A8BABA2B2A2BABA8B2A$5.2B.15BA8B.B2A$8.6BA5B3A10B.
B$10.3B.B2AB4AB3A6B14.A$13.4BAB2A13B10.3A$13.5BABA2B2A10B8.A$3.2A
4.2A2.8B3A12B7.2A$3.A.A2.B2A2B.7B2A14B3.5B$5.A3.4B5.14B2.4B2.3B9.
2A$5.2AB.5B4.12B5.9B8.A.A$3.2A2.BA5B5.13B4.8B.B8.A$2.A2.AB2A.2AB
11.B.B3.2A5.9BAB3.B.BA.2A$3.2A3.2B2AB10.3B4.A6.9B3A.B2A.A.A$5.2ABA
5.A8.B2AB4.3A3.10B2A2B2A.A.A$5.A2.A.5A9.2A7.A3.9BA5B2.A.2A$6.A.A.A
22.A.2AB.8BA3B4A2.A$7.A4.A18.2A.A.AB.8BAB.BAB2.2A$11.2A18.A2.A5.7B
6.2A$33.2A5.A3B.2B7.A$39.A3B9.A$38.B3A10.2A!
