#CSYNTH guntrue_5460 costs 3570 cells.
#C period 5460 fullperiod 5460 bbox 70 by 51
#CLL state-numbering golly
x = 70, y = 51, rule = LifeHistory
17.2A3.2A24.2A$17.A.A.A.A23.B2AB$19.A.A14.AB.4B5.2B$18.B2A.A2.2A8.
A.2AB2A2B5.2B$18.BAB.A2.A.A7.A.4B2AB4.3B$20.B.2A.A2.A5.2A.A2BA2BAB
3.5B$19.4B2.3A4.BAB.B3A.2BAB.2BA2BA2B$18.3B2ABA7.BA3B3.3BA3BA4BAB$
19.2A.A2.A6.BA2B.3AB.BA3BA4BA2B6.3B$19.B2A2.2A6.BA2BA2BA.2A4.4B3A
2BA2.6B$20.AB11.B2A4B.A5.9BA9B$20.2B11.2B2AB2A.A3.6BAB2A10B$21.B
12.4B.BA3.5BAB2ABA3B3A5B$20.2AB21.5BAB2A2B3A2BA5B$11.2A6.A2BAB5.2A
11.9BA2BA5BA5B$12.A4.3B2A3B4.A12.7B3A3BA2B2A4B.B2A$12.A.AB.8B.BA.A
12.14B2A4B3.BA.A$13.2AB.8B.B2A13.10B.B3.B10.A$15.12B16.9B16.2A$15.
12B15.9B4.A$15.12B3.A10.4B2.B6.A.A$17.10B3.3A7.4B2.2B6.A.A$19.7B7.
A5.4B2.4B4.2A.2A$19.8B5.2A4.4B3.5AB.AB4.A$18.5B.4B4.9B3.A5B4AB2A2.
A$18.6B.4B5.7B3.A2B.AB2A.AB.3A$17.6B3.4B2.3BA4B5.A3.BA3BA2B2.3A$
13.B2.3BA3B4.8BABA4B8.3B2A3BA3.A$11.7BABA2B5.7B2A6B9.B.A.A.BABA.A$
11.7BABA2B6.14B9.A.A.4ABABA2.A$10.9BA3B7.10B3.B2A4.3A.2A2.B.2B2.3A
$10.11B.B2A6.2BA4B5.3AB2.A3.A3.2AB4A$11.9B2.BA.A4.2BABA4B3.A.2AB2.
2A2.A.2A.2A4.A$11.7B7.A4.2BABA3B3.A.A.2B7.A.A.AB4A$11.7B7.2A5.BA4B
3.A2.A11.A.A3B2.3A$4.B7.5B15.5B5.2A12.A.A4BA2.A$3.3B5.7B15.3B17.2A
.A.AB.A.A$3.3A4.4B.4B13.5B17.A.A.ABABA$2.2BA2B3.B2A3.4B12.2AB2AB
15.A2.4A$2.2BA2B2.B2ABA3.4B11.BA.2A2.2A13.2A4.5A$.2B3A2B.A3BA4.4B
6.2A.A.A3.B2.A15.4A2.A2.A$.7B.4A6.4B5.A.2A.7A16.A2.A4.2A$3B3A3B.2A
B7.4B8.A$3B3A3B.2AB8.4B7.A.4A$.7B.4A9.4B7.2A2.A$.2B3A2B.A3BA9.4B$
2.2BA2B2.B2ABA10.4B$2.2BA2B3.B2A12.4B$3.3A4.3B13.3BA$3.3B5.B15.3BA
$4.B23.3AB!
