#CSYNTH guntrue_477 costs 4104 cells.
#C period 477 fullperiod 477 bbox 76 by 54
#CLL state-numbering golly
x = 76, y = 54, rule = LifeHistory
64.2A$63.B2AB$64.3B$63.B.B8.2A$63.5B6.A$63.6B2.BA.A$58.11B2.B2A$
56.2A14B$46.2A5.3B2A15B$47.A4.20B$47.A.A20B.B2A$25.2A16.2A3.2A19B
2.BA.A$9.2A14.A17.A6.19B5.A$9.2A11.BA.A18.A5.19B5.2A$16.3B.B.B2A
18.2A5.21B$9.4A3.7B20.B6.23B$9.A3.A2.7B18.3B6.20B2A2B$11.BA2B.7B
16.6B4.21B2A2B$11.BABA10B11.10B2.25B$11.2B2A13B2.2B3.11B.26B$9.2A.
28B2A29B$9.A4.26B2A29B$7.A.A6.56B$7.2A7.56B$2A13.57B$.A12.4B8.4B.
14B5.22B$.A.AB2.B5.4B10.4B4.B.7B7.19B$2.2AB.3B3.4B12.4B7.4B9.18B$
4.6B.4B14.4B5.4B11.7B.9B$4.10B16.4B3.4B10.6B4.8B$4.2B2A5B18.4B.4B
11.2A8.9B$5.A2BA3B20.7B13.A8.10B$5.BABA4B20.5B11.3A8.12B.B$6.BA6B
19.5B11.A10.13B2A$6.3B2.4B17.7B22.12B2A$6.3B3.4B15.4B.4B20.2A9B2.B
$6.A.B4.4B13.4B3.4B14.2A2.A2BA5B2.2B$.2A2.BAB6.4B11.4B5.4B10.A2.A
3.BABA.2B3.B2A$.A2.3ABAB5.4B9.4B7.4B8.A.A.A.4BA8.A.A.2A$2.3A.3B2A
5.4B7.4B9.4B8.A2.A.2AB8.A.A.2A.A$5.A2.A.B6.4B5.4B11.4B10.A.BAB8.2A
$.A.2A2.A.ABAB5.4B3.2A2B9.A3.4B10.A4.A$.2A.A.2A.A2.2AB4.4B.2B2A8.
3A4.4B10.5A$4.A2.A.A2.BABA4.5BAB8.A8.4B$4.2A2.A5.B.A4.5B9.2A8.4B
10.A$15.2A3.B2A3B7.B2AB9.4B8.A.A$9.AB8.B3A6B2.B.2A12.4B8.A$4.2A2.B
ABA6.2BA2BA4B.BA2B.AB12.4B$4.A2.A3.B.2A4.B2ABA4B3AB3A14.4B$5.6A.3A
B4.B2A2B4.B3.A16.4B$10.A.A2.A2.5B5.6A17.4B$7.2A.A.A2BAB.2A7.B2ABAB
19.3BA$7.2A.A.A.BA2B.A7.2AB23.3BA$11.A5.2A9.B25.3AB!
