#CSYNTH guntrue_238 costs 2295 cells.
#C period 238 fullperiod 238 bbox 51 by 45
#CLL state-numbering golly
x = 51, y = 45, rule = LifeHistory
22.2A$22.2A$40.2A3.2A$20.4A3.A12.2A2.A.3A$20.A2.AB.A.A15.A4.A$21.
2B.2B.A12.4A.2A2.A$22.4B8.2A4.A2.A.B.A.2A$21.5B8.A7.2B4A.A$20.4B2A
B9.A6.2BABA.A$19.5B2A6.5A7.2B.BA$19.8B5.A10.BAB$19.7B8.B4A3.A3B$
18.9B7.BA2.A3.ABA3B$16.11B3.2A2.4B4.B2A3B$8.2A6.12B3.A3.15B$9.A5.
13B3.A.A.2A13BA$9.A.AB.15B3.2A.2AB2A8BABA$10.2AB.14B8.B.B2A8B2A$
12.14B13.BA7B2.B$12.14B13.7B$12.13B14.9B$13.11B14.4B4.2A$15.13B9.
4B5.A$15.3B2A5B2A2B7.4B7.3A$15.B2A2BA3BA2B2A.B4.4B10.A$14.2B2A3BAB
A3B2A9B$14.2BA2B2A3B2A2BA8B$13.BA2B2A7B2A2BA5B3.BA2B.2A$10.A.2AB3A
9B3ABA3B3.B4A2B.A$9.A2B.3BA5BA5BA3BA3B2.A5BA.A$9.A9BA5BA6BA3B.A2BA
4B.2A$10.2A.BA3BABA3BABA3BABA8B.AB2A.2BA$13.2A2B2A7B2A2B2A2B2.4B2A
3.2A3B$15.17B5.A2B.2ABA.4B$16.5BABAB.5B8.2A.4BA2BA$16.9B15.A.A5BA$
6.ABA3.2A2.5B3AB15.A.2B4AB$5.A2BA2.A2BAB4.B3AB16.2A.2BAB$.3BA2B.2B
2.2BAB5.2B$.2B4A4BA2BAB4.4B$B2A3B4A3B2AB4.A.A2.A$BA2BA4B4A2B3.3A.
4A$BA2B2.2B.2BA3B2.A3.A$BA2BA2.A2BA6.2A2.A.A$2.2A3.ABA12.2A!
