#CSYNTH guntrue_2622 costs 1782 cells.
#C period 2622 fullperiod 2622 bbox 54 by 33
#CLL state-numbering golly
x = 54, y = 33, rule = LifeHistory
.4B3.B.4BA4B.B3.4B$.4B.7BA2BA6B.4B$2A10B5A10B2A$2A9B2AB3A10B2A$.B.
9BAB2A10B.B$3.10B2A11B14.B$20.3B.B.3B9.B3A$3.10B2A8B2A4B6.2B.3AB$.
B.9BAB2A6B3ABA4B3.3AB.B$2A9B2AB3A4BA4B3A3B3.3B$2A10B5A5B3ABA4B4.4B
$.4B.7BA2BA6B2A4B5.5B$.4B3.B.4BA4B.3B.B.4B3.2B3A3B12.A$27.8BA2BA5B
7.3A$26.12BA5B6.A$11.A13.11B3A7B4.2A$11.3A10.4B2.22B$14.A8.4B4.9B.
9B$13.2A7.4B3.22B$13.5B3.4B4.2A4.7B3A7B$4.2A9.3B2.4B6.A6.5BA9B$3.A
.A8.9B4.3A7.5BA2BA4B$3.A8.B.8B5.A12.3B3A2B$2A.AB.B3.BA9B21.5B$.A.A
.2AB.3A9B21.4B$.A.A.2A2B2A10B22.3B$2A.A2.5BA9B20.B.B3A$A2.4A3BA8B.
B2A16.B3A.2B$.2A2.BAB.BA8B.BA.A15.3AB$3.2A6.7B5.A16.B$3.A7.2B.3BA
5.2A$5.A9.3BA$4.2A10.3AB!
