#CSYNTH guntrue_1420 costs 4300 cells.
#C period 1420 fullperiod 1420 bbox 86 by 50
#CLL state-numbering golly
x = 86, y = 50, rule = LifeHistory
25.2A3.A45.A2.2A$23.3A.A.A.A44.4A.A$22.A4.A.A.A49.A$22.ABABA.A.A
43.7A.2A$17.2A4.2A.A.A44.A2.B3.A.A2.A$18.A4.4BABA5.2A36.2A2.2A.AB
2.2A$18.A.AB4.2BA3B2.B2AB38.B2AB2A$19.2AB.B4.5B2.2B40.5B$21.4B2.6B
.2B42.3B$21.16B33.2A5.2A3B$21.9B2A6B31.A2.A3.B2AB2A$20.9BA2BA6B28.
BA.A.A3.2ABA4B$19.4B.6B2A8B27.3A.A3.9B$18.ABAB3.16B26.3AB5.7B$2.2A
13.B2AB6.15B26.3B3.10B$3.A12.3BA7.11B.4B28.3BA10B$3.A.AB2.B5.4B8.
10B3.4B21.2A4.2BABA9BA$4.2AB.3B3.4B3.A3.11B5.4B7.2A12.A5.BABA7BABA
$6.6B.4B3.A.A.9B2.2B5.4B5.B2AB9.A9.A7B2.2A$6.10B3.A.A2.A7B2.B2A6.
4B5.3B4.2A2.A.4A4.7B5.B$6.2B2A5B4.A2.3A3B.B5.A.A.2A3.4B3.B.B5.A3.A
4.A4.9B$7.A2BA3B6.2A3.B2.3B2.A.A.2A.A4.4B.6B4.3A.ABA5.4B4.2A$7.BAB
A4B8.2A2.B2AB2.2A.A9.10B6.A.A.2A3.4B5.A$8.BA6B4.2A.A4.2A6.A.2A7.
12B3.BAB.B3.4B7.3A$2.2A5.2B2.4B3.A2.A9.2A.A2.A8.12B2.11B10.A$.A2.A
4.2B3.4B3.2A3.4A3.A.2A2.A.AB6.13B.9B$.A.A2.AB.A5.4B6.A3.A10.2AB.3B
2.22B$2A.4A3BA5.4B6.A15.29B$A5.B.2BA6.4B4.2A15.29B$.3AB2AB.A3.A4.
4B2.2B17.28B$4.A.2B4.A.A4.8B15.27B.B2A$3.A2.2A4.A.A5.7B13.21B.6B2.
BA.A$3.3A3.2A.A.2A5.7B2.B2.2B2.20B5.4B7.A$6.4A.A.A2.A4.35B6.2B2AB
6.2A$3.3A5.A2.2AB3.27B.7B9.2A$3.A2.4A.A3.14B2A16B2.6B$6.A2.2A5.13B
2A16B3.6B$17.29B6.4B$17.17B.B.2B12.B2A2B$18.15B4.3B12.2A.B2A$18.
15B5.A2B.2A11.BA.A$19.13B5.A.A2B.A14.A$21.13B2.A.AB2.A15.2A$20.8B
4.2A.A.A3.A$20.6B6.2ABA2.4A.A$20.5B8.B2.A.A3.A.A$20.B.B9.2A.2A2.A
2.A.A$21.3B9.A.A2.2A3.A$20.B2AB9.A.A$21.2A11.A!
