#CSYNTH guntrue_1157 costs 6972 cells.
#C period 1157 fullperiod 1157 bbox 84 by 83
#CLL state-numbering golly
x = 84, y = 83, rule = LifeHistory
39.2A$39.A.A$41.A4.2A$37.4A.2A2.A2.A$37.A2.A.A.A.A.2A$39.BABABA.A$
40.B2ABA.A$41.2B.BA$40.3B$31.2A6.4B$32.A6.6B$32.A.AB3.6B$33.2AB.4B
A5B$35.6BA6B$35.5BABA6B13.A$35.6B2A7B10.3A$37.4B2A2B2.4B8.A$18.A
18.6B5.4B7.2A$17.A.A3.2A11.9B4.4B3.5B$16.A2.A3.A11.4B4.2A5.4B2.3B$
16.A.A.2A.A10.4B5.A7.9B7.2A$15.2A.A.A.A10.4B7.3A5.8B8.A$13.A2.A.2A
2B10.4B10.A6.10B3.B.A.2A$13.2A2.4B10.4B18.7B2A2B.B3A2.A$17.7B6.4B
19.7B2A3BAB2.2A$18.2B4A2B3.4B20.12B4A$19.BA3BA2B.4B3.2A14.2AB.7B3.
2B.A$19.B3A8B4.A10.2A2.A.AB.7B2.B3A$16.2B.2A2B2ABA3B2.BA.A11.A2.A
5.4B4.A$15.2A2BABA4BA4B.B2A10.A2.3A5.4B5.5A$15.2ABA6BA7B12.3A7.ABA
B10.A$16.2B.AB2A10B15.A5.B2AB9.A$19.BA11B15.2A4.3BA10.2A$16.2B.5BA
8B14.9B6.2A$15.2A7BABA8B14.6B7.A$15.2AB.B2ABA2BA11B2.2B2.B3.6B5.2A
.A15.A$16.B2.2B3A30B4.A2.A14.5A$19.ABA2B2AB.16BA10B3.B2A14.A5.A$
19.BA5B2.14B2AB2A13B4.2A9.B3A2.A$19.7B2.14BA2BA13B6.A10.2B.A.2A$
19.7B3.14B2A13B7.A.2A7.2B2A3.A$16.AB.6B11.2B.B.6B2A9B2.A5.A2B.4B.
2BA2.A.A$9.A5.A.A7B10.3B4.5B2A8B3.3A5.2BA5B2AB2A.2A$9.3A4.A5BABA6.
2A.2BA5.15B6.A4.3BA4BAB$12.A4.B.3B2AB6.A.2BA.A5.13B6.2A4.ABA5B2AB
2A.2A$11.2A7.3BAB7.A2.BA.A2.13B8.6B2.4B.2BA2.A.A$11.5B3.6B8.A3.A.A
.2A4.8B9.5B7.2B2A3.A$13.3B2.5B.B2A4.A.4A2.AB2A6.6B8.7B6.2B.A.2A$3.
2A7.9B3.BA.A3.2A3.A.A2.B8.5B8.8B4.B3A2.A$3.A8.8B7.A6.A.A.2A.2A9.B.
B8.9B3.A5.A$2A.A.B3.10B8.2A2.3A.A3.A.A9.3B8.11B3.5A$A2.3AB.2B2A7B
12.A2.A4.A.A9.B2AB8.6B.4B4.A$.2A2.BA3B2A7B13.2A6.A11.2A9.5B3.4B$3.
4A12B28.A12.8B4.4B$3.A.2B3.7B.B2A26.3A8.10B5.4B$4.3AB2.7B.BA.A28.A
6.8BA3B5.4B$7.A4.4B5.A15.2A10.2A6.7B3A3B5.4B$2.5A5.4B5.2A15.A10.5B
3.2BA4BAB2AB7.4B$2.A10.4B21.A.AB9.4B2.B3A6B2AB7.4B$4.A9.4B10.A10.
2AB.3B4.4B2ABABABA5B3A8.4B$3.2A10.4B7.3A12.7B.4BA4BA2BA6B2A2B7.4B$
16.4B5.A15.12BAB2AB2A8BA5B6.3BA$17.4B4.2A15.11B2A4B4A6BA5B6.ABA$
10.2A6.9B14.18B3A5B3A5B7.2A$11.A7.3BA2B14.35B9.B$11.A.2A5.ABA3B3.B
2.2B2.19B.B3.B.2B3.5B$12.A2.A4.B2A9BA3B2A15B6.3B7.B$13.2AB3.10BA3B
AB2ABA7B.6B6.B2AB5.3B$14.14BA2BABA4B2A6B2.B.5B5.2A6.B2AB$15.13B2A
2B3A2B2A7B7.2A14.2A$16.17B2A10B8.A$16.17B.B.2B16.3A$17.15B4.3B17.A
$17.15B5.A2B.2A$18.13B5.A.A2B.A$20.13B2.A.AB2.A$19.8B4.2A.A.A3.A$
19.6B6.2ABA2.4A.A$19.5B8.B2.A.A3.A.A$19.B.B9.2A.2A2.A2.A.A$20.3B9.
A.A2.2A3.A$19.B2AB9.A.A$20.2A11.A!
