#CSYNTH guntrue_3312 costs 1458 cells.
#C period 3312 fullperiod 3312 bbox 54 by 27
#CLL state-numbering golly
x = 54, y = 27, rule = LifeHistory
26.4B3.B.4BA4B.B3.4B$26.4B.7BA2BA6B.4B$25.2A10B5A10B2A$A24.2A9B2AB
3A10B2A$3A23.B.9BAB2A10B.B$3.A24.10B2A11B$2.2AB2.2B8.BA6.3B.B.3B$
2.8B6.2BAB5.13B2A11B$4.10BAB2ABAB.15BAB2A10B.B$4.8B2AB2A19B2AB3A
10B2A$3.9B2ABABABA.16B5A10B2A$3.7BABABA3BA19BA2BA6B.4B$3.7B2A6BA9B
.B.3B.4BA4B.B3.4B$4.22B$4.17B2.4B$4.B2A6B2AB2A3B3.4B12.2A$5.2A5B2.
2B2A3B4.4B10.B2A2B$7.4B4.A4B6.4B10.4B2.2B$7.3B7.3B7.4B7.6B2.3A$7.
2AB4.A4.AB7.4B6.5B.BA3B$3.2A.A.A4.A.A.A3BA.2A4.4B4.2A2BA3BA3BA$3.A
.2A.A.A.A.A2.5B2.A5.4B3.5AB2.A2BA.A$7.A.A.2A2.2A5B2A7.5B.B3A2B4.A.
A2BA$7.A.A3.2A2.5A2.3A5.5B2.B.2B5.A3BAB$8.A.A.A2.A.5B.A2.A6.3BA3.
2BAB5.3BAB$9.A3.2A4.B4.2A8.3BA3.A.A5.3A$35.3AB3.A7.2B!
