#CSYNTH guntrue_1150 costs 2838 cells.
#C period 1150 fullperiod 1150 bbox 66 by 43
#CLL state-numbering golly
x = 66, y = 43, rule = LifeHistory
11.2A4.2A$11.A.A2.A.A$13.A2BA12.2A$11.BA4BAB2.A2.A4.A$11.B2A2B2AB
2.4A5.A$12.2B2A2B7.2A2.2A$6.2A6.2B4.A.2A.A.A3.2A$4.A2.A6.B5.2A.ABA
.2A.A2.A.2A24.2A$4.2A.A.AB2.AB9.4B3.A.A.A25.A.A$6.A.2AB.2B2AB7.A3B
3A.A2.A26.AB$6.A3.3B4A4B2.BA4B.A.A.A6.4B3.B.9B2.2B$5.2A3.5BAB2A3BA
2B.3BAB.A.2A5.4B.6BA3BA8B$4.A2.2A.4B2A7BAB2.ABAB.A7.2A9BA5BA6B2A$
3.A.A.B.A.4B4A2B3AB3.B2.2A7.2A15BA6B2A$3.A.ABABA5.11B9.2A4.B.9BA3B
2A5B.B$2A.A.4B7.4B3.4B7.B2AB5.10B3A6B$A2.ABA2B16.4B6.3B3.3B.B.3B$
2.A4.BA16.4B6.B4.3B2ABA6B3A6B$3.5A18.BABA3.9BABABA5BA3B2A5B.B$27.B
2A12BA4BA9BA6B2A$5.A5.A16.A13BABABA4BA5BA6B2A$4.A.A3.A.A16.14B2ABA
5BA3BA8B$5.A5.A18.13B.B.3B.9B2.2B$31.10B21.AB$9.5A18.10B19.A.A$8.A
4.AB16.2A4B2.4B18.2A$6.A2.5A16.ABA4B3.4B$6.2A.A.AB2A7.2B2A3.3BA2.B
5.4B$9.A.AB2AB5.2BABA6B10.4B$9.A.A.B.A.4B3AB2A4B3.B2.2A4.4B$10.A2.
2A.4B2A3B2A4B2.2A2B.A5.4B$11.2A3.3B2A10B.B3AB.A.2A3.4B$12.A3.4BA6B
2.2B3AB.A.A.A5.4B$12.A.2AB.3BAB7.3AB3A.A2.A5.4B$10.2A.A.AB2.2B9.BA
2B3.A.A.A6.4B$10.A2.A6.B5.2A.ABA.2A.A2.A.2A6.4B$12.2A6.2B4.A.2A.A.
A3.2A11.4B$18.BA2BAB7.2A2.2A14.4B$17.A2B2A2BA2.4A5.A15.4B$17.A2B2A
2BA2.A2.A4.A17.4B$19.4A12.2A17.3BA$17.A.A2.A.A30.3BA$17.2A4.2A31.
3AB!
