#CSYNTH guntrue_6804 costs 3834 cells.
#C period 6804 fullperiod 6804 bbox 54 by 71
#CLL state-numbering golly
x = 54, y = 71, rule = LifeHistory
44.A$42.3A$41.A7.2A$41.A2.3A.A2.A$38.2A.A.A2.A.2A2.A$38.A2.2ABAB.B
2.2A$40.A3.3B3A$41.3AB.B2.A$43.AB2A.A$9.A29.3A3.2A.4A$9.3A26.A2.4A
B.B4.A$3.2A7.A26.A4.A.2A.3A$2.A2.A.3A2.A27.3A.B3A.A$.A2.2A.A2.A.A.
2A26.2A5BA$2.2A2.B.2A2BA2.A27.6B$4.5AB3.A29.4B$4.A2.A.4A29.4B6.2A$
5.A.BABA30.7B4.A$2.4A.AB3.3A25.10BA.A$.A4.A.B4A2.A14.A8.11B2A$2.3A
.2A.A5.A12.3A7.4B2A6B$4.A.A2BA.4A.2A9.A9.4B.ABA6B$4.A6BA2.A.A10.2A
7.4B.3BA6B$5.A5B5.A7.5B6.4B.3B2A5B$7.3BA5.A.AB3.2A2B7.4B.3B2A7B$2A
6.A3B5.2AB2.B2A3B5.4B2.6BA6B$.A4.7B5.10B4.4B3.5BA6B2A$.A.A10B5.10B
2.BA2B4.10B.B2A$2.2A11B4.9B2.2A2B6.8B3.B$4.12B4.11B2A7.6B$3.9B.3BA
3.12B9.5B$3.10B.ABAB3.10B8.A.4B$4.10B.2A2B.B2.7B7.A2BA2.4B$3.4B2A
6B.13B8.A2BA4.2A$2.5BABA5B2.11B6.A3.A6.A$.2A3BA2BA5B3.5B3A2B4.3A
11.3A$.2AB.2B2A6B3.9B4.A16.A$2.B3.BA6B3.2BA6B5.2A$8.6B4.BA7B.5B$8.
5B6.A6B2.3B9.2A$9.4B.B4.13B8.A.A$7.4B2.3AB2.2B3A8B.B8.A$7.2A4.B3A
2.17B3.B.BA.2A$8.A6.B4.3B2.12B.B2A.A.A$5.3A17.14B2A.A.A$5.A19.8B2A
5B2.A.2A$23.2AB.5BA2BA3B4A2.A$22.A.AB.6B2A2B.BAB2.2A$22.A5.7B6.2A$
21.2A5.4B.2B7.A$27.4B9.A$12.A13.4B10.2A$12.3A10.4B4.A$15.A8.4B3.3A
$14.2A7.5B2.A$14.5B3.5B2.2BA$5.2A9.3B2.4B2.A3BA6.A4.2A$4.A.A8.9B3.
A2B7.A.A4.A$4.A8.B.8B3.2BA2B5.A2.A2.A$.2A.2A.B3.11B3.A6B4.A.2A.A.
4A$2.A.A.A2B.A11B2.BA4B3A2.2A.A2.A.A3.A$2.A.A.2A3BA10B3.A9BA2.A.2A
.2A2.A$.2A.A2.5B2A8B4.5B2A3B3A.BA2B.A.2A$.A2.4A2BAB2A6B.B2A3.3A2.
4BA.2BA.2B.A$2.2A2.A2B.B2A7B.BA.A3.2B3.2BA2B.3AB.2A$4.2A6.7B5.A9.
2B2AB3.2B$4.A7.2B.4B5.2A8.BA3.2A.A.2A$6.A9.4B15.B2A.A.2A.A.A$5.2A
10.3BA16.A.A3.A2.A$18.3BA15.A.A3.A.A$19.3AB15.A5.A!
