#CSYNTH guntrue_4998 costs 4292 cells.
#C period 4998 fullperiod 4998 bbox 74 by 58
#CLL state-numbering golly
x = 74, y = 58, rule = LifeHistory
2.2A$2B2AB$2B2A$2BA$BABA3.B$.BA.A.3A12.B2AB$3.AB4A11.B4A$3.BA3B12.
A2BABA31.2A$4.4B10.BA.A.B2A31.A13.A$2A7.2B6.BABA3.B33.3A9.A.A$.A5.
5B5.2AB40.A9.A2BA$.A.AB.6B5.3AB40.3B7.2B$2.2AB.9B2.BABAB14.A2BA16.
9B4.BABA$4.13B2.2A15.3BAB9.4B.11B3.2A$4.B2A10B18.A4BA7.18B3.2A$4.B
2A10B18.2AB.A.AB4.18B4.BABA$4.13B19.B3.AB2A3.4B3A11B6.2B$5.8B2A3B
23.3B3.5BAB2A10B4.A2BA$5.8BABA3B21.4B2.6BA2B2A9B4.ABA$5.7B.A6B19.B
A2BA.8BA2BA11B.B.B$5.7B2.7B19.2A2.10B2A11B.ABA$6.5B4.7B22.22B.A2BA
$6.4B6.7B22.20B3.2B$7.5B5.7B21.3B2A14B4.ABAB$10.2A6.7B21.BAB4A11B
6.2A$10.A8.7B20.BA5BA10B6.2A$11.3A6.7B17.2B2A5BA9B5.ABAB$13.A7.7B
15.2BA3BABA4B.4B7.2B$22.7B14.3BABA7B11.A2BA$23.7B14.2B3A2B2.B14.A.
A$24.7B7.A5.7B3.B2AB11.A$25.7B6.3A4.5B4.4AB$26.7B8.A4.3B4.ABA2BA$
27.7B6.2A3.4B4.2AB.A.AB$28.7B5.9B5.B3.ABAB$29.7B6.8B9.B2A$30.7B4.
5B.4B7.B3A$31.7B2.7B.4B5.BABAB$32.7B.7B2.4B5.2A$33.14B3.4B$34.13B
4.4B$35.13B4.4B$35.10B2AB5.4B$35.10B2AB6.4B$31.2A2.13B7.4B$30.B2A
2B2.9B.B2A6.4B$31.4B5.6B.BA.A6.4B$32.A2B5.5B5.A7.4B$27.B3.ABAB6.2B
7.2A7.4B$26.2AB.A.BA10.A2BA12.4B$26.2ABA2B12.3BAB12.4B$27.3B2A11.A
4BA13.4B$27.4B12.2AB.A.AB12.4B$44.B3.AB2A12.4B$49.3B13.4B$48.4B14.
3BA$47.BA2BA15.3BA$48.2A18.3AB!
