#CSYNTH guntrue_1320 costs 1848 cells.
#C period 1320 fullperiod 1320 bbox 42 by 44
#CLL state-numbering golly
x = 42, y = 44, rule = LifeHistory
25.2A$23.3A.A$16.A5.A4.3A$15.A.A4.A.2A4.A$15.A.A3.2A.A.4A$14.2A.2A
.2B2.B.B$13.A4.A3B3ABA.4A$14.3A2B2A.B.2AB2A2.A$16.A.B2ABA5B$19.BAB
A.4B$25.B6.2A$24.B5.BAB.A$10.2A11.4B3.B2A.A$11.A5.11B2.B.B.2A$11.A
.AB.4BA6B2.2B2A3.A$5.A6.2AB.3BAB2A5B.BA2.3A$2A.2BAB7.4B2A2BA6BAB2A
$A.3BA8.4BA3BA7BA2.A$.2AB10.4BABA3BA5B2.2A$2.3B11.2B2A4BA5B$3.2A.
2A8.8BA4B$2.B2ABA.A9.3BA5B$.2B.B3AB9.9B$2.2A.A2B3.2B5.9B6.2B$2.2AB
2AB2.3A6.7B5.6B$3.3A7BA4.8B3.2B6A2B$2.A5.BA3BAB3.7B2.3BA6BA3B$.A.A
4.BA4B2A7B3.3BA8BA3B$2.A5.3B4ABA2B.2B5.3BA6BA3B$6.B.3B3A2BA3B9.2B
6A2B$5.2A8BA.4B10.6B$5.A.7B4.4B11.2B$3.2A2.AB2.B7.4B7.3B2.3B$2.A2.
3AB.4B6.4B4.3BA4BA3B$2.2A6.A.2A7.5B.4B6A4B$7.4AB2A8.9BA4BA3B$7.A4.
B9.7B.2B4.2B$8.3A.2A9.5B$10.A.A7.3B2.4B$12.A2.B2.BA3B3.4B$12.A.3AB
2A2B2A3.4B$11.2A.4A4B2A4.3BA$15.3B2A2.B6.3BA$15.3B12.3AB!
