#CSYNTH guntrue_1978 costs 5665 cells.
#C period 1978 fullperiod 1978 bbox 103 by 55
#CLL state-numbering golly
x = 103, y = 55, rule = LifeHistory
7.A33.A$A6.3A29.3A6.A49.2A$3A7.A27.A7.3A49.A.A$3.A5.2A27.2A5.A53.A
B$2.2A5.5B21.5B5.2A31.4B3.B.9B2.2B$2.4B5.6B15.6B5.4B31.4B.11B2A6B$
4.3B2.8B3.BA5.AB3.8B2.3B32.2A15BABA4B2A$4.11B2A3BA.A3.A.A3B2A11B
32.2A15BAB2A3B2A$5.7BAB3A4BA5.A4B2A10B34.B.15B2A3B.B$6.6B4A3B.B7.B
.6BA6B37.15BA3B$2A2.B2.5BABA3B13.4B3A4B2.B2.2A$A2.2A2BA5B3A17.B2AB
5A3BA2.A31.15BA3B$.2ABA5B3ABAB17.2B3AB4AB4A30.B.15B2A3B.B$4.6B4A2B
17.3BA5BABA25.A6.2A15BAB2A3B2A$.3A.4BAB2A4B4.A5.A4.7BAB3A.3A22.3A
4.2A15BABA4B2A$.A2.A2.A8BA3.A.A3.A.A3.A6BABA2.A2.A25.A4.4B.11B2A6B
$2.A.A3.A8BA2.A2.A.A2.A2.ABA6BA3.A.A25.2A4.4B3.B.9B2.2B$3.A4.4B2AB
A4B.3A.3A.3ABA7B4.A26.6B21.AB$9.2B4A6B3.A3.ABA5BA3B34.5B19.A.A$9.B
AB3A5BABA.A.3AB4AB3A2B33.7B18.2A$9.3A5BA2B2A.A.A.A3B5AB2AB33.8B$7.
3BABA5B2.B2.A.A2.B2.4B3A4B31.9B$4.B.3B4A6B4.A.A4.6BA6B.B27.11B$3.A
4B3ABA7B4.A4.10B2A4BA27.6B.4B$2.A.A3B2A11B7.11B2A3BA.A26.5B3.4B$3.
AB3.8B2.4B5.4B2.8B3.BA11.A12.8B4.4B$8.6B5.BABA7BAB3.6B16.3A8.10B5.
4B$11.5B4.B2A7BA2.5B22.A6.12B5.4B$14.2A5.A7B4.2A12.2A10.2A6.13B5.
4B$14.A7.6B6.A13.A10.5B3.12B7.4B$15.3A5.4B4.3A14.A.2A9.4B2.13B7.4B
$17.A6.4B3.A6.A10.A2B.BAB4.20B8.4B$25.4B7.3A12.3BA3B.23B7.4B$26.4B
5.A15.A7BA19BA4B6.4B$27.4B4.2A15.5BA3BA16BABA4B6.4B$20.2A6.9B14.5B
A4BA16BABA4B7.4B$21.A7.6B14.6B2A5BA16BA4B9.4B$21.A.2A5.6B3.B2.2B2.
9B2A2B3A3B.B3.B.2B3.5B12.4B$22.A2.A4.30B2AB6.3B7.B15.4B$23.2AB3.
27B.2BA3B6.B2AB5.3B15.4B$24.6BA3BA21B2.B.5B5.2A6.B2AB15.4B$25.BA2B
2A3BA11BABA7B7.2A14.2A17.4B$26.2BA6BA10B2A7B8.A35.3BA$26.2BAB2AB2A
8B.B.BA16.3A33.ABA$27.A8B3A3B4.3B17.A34.2A$27.BAB2A4B2A4B5.A2B.2A
49.B$28.BA2B3ABA4B5.A.A2B.A$30.4BA8B2.A.AB2.A$29.BABA4B4.2A.A.A3.A
$29.BABA2B6.2ABA2.4A.A$29.B3AB8.B2.A.A3.A.A$29.B.B9.2A.2A2.A2.A.A$
30.3B9.A.A2.2A3.A$29.B2AB9.A.A$30.2A11.A!
