#CSYNTH guntrue_494 costs 4828 cells.
#C period 494 fullperiod 494 bbox 71 by 68
#CLL state-numbering golly
x = 71, y = 68, rule = LifeHistory
16.2A$15.B2A2B7.2A$16.4B6.B2AB$11.2A4.6B4.2B$10.B2AB2.8B4.2B$11.3B
.17B$9.2B.B2.18B$8.27B$7.29B$6.31B$6.32B$6.26B3.4B$4.2AB4.B.16B.B
5.4B$3.A.AB8.10B.2B9.4B$3.A12.7B15.4B$2.2A9.11B15.4B$12.12B16.4B7.
A$12.12B17.4B6.3A$.2A.2A2.2A2.11B19.4B8.A$A.A.A2.A.A2.8B.4B18.4B6.
A.A$A.A2.2A.B3.7B4.2A19.4B5.A.AB$.A.A.A2.2B2.7B4.A21.4B5.A3B$2.A2.
A.BA2B.6B6.3A19.4B6.4B$3.3A.A.A8B8.A20.4B5.6B$6.A.A.8B30.4B4.7B$3.
2A2.A4.5B32.4B2.8B.4B.B$.3A.2A4.6B33.17B.B2A$A4.B6.6B33.18B2A$.3AB
2AB3.7B33.16B.2B$3.A.2AB.8B34.16B$7.10B34.15B$7.6B2A3B31.2AB.12B$
7.6B2A2B5.2A24.A.AB2.11B$7.10B5.A25.A5.10B$6.11B2.BA.A24.2A5.2B2A
6B$6.12B.B2A31.3B2A6B$5.15B34.10B$4.16B34.8B.B2A.A$.2B.16B33.7B3.B
2AB3A$2A18B33.6B6.B4.A$2AB.17B33.6B4.2A.3A$.B.4B.8B2.4B32.5B4.A2.
2A$8.7B4.4B30.8B.A.A$9.6B5.4B20.A8.8BA.A.2A.A$11.4B6.4B19.3A6.6B.
2BAB.A.2A$13.3BA5.4B21.A4.7B2.2B2.A$14.BA.A5.4B19.2A4.7B3.B.2A$15.
A.A6.4B18.4B.8B2.A.A2.2A$16.A8.4B19.11B2.2A2.A2.A$17.3A6.4B17.12B
7.2A$19.A7.4B16.12B$28.4B15.11B$29.B3A13.9B12.2A$30.A3B9.2B.10B11.
A$31.A3B7.16B.B4.BA.A$32.4B3.23B2.B2A$33.32B$34.5B2A25B$35.3BA27B$
36.3BABA5B2A17B$38.2BA6B2A17B$39.8BA8B5.B.4B$39.5B2A7B11.4B$39.4BA
2BA6B12.4B$43.ABA4.2B14.4B$44.A6.2B14.3BA$50.B2AB14.ABA$51.2A16.2A!
