#CSYNTH guntrue_1060 costs 3844 cells.
#C period 1060 fullperiod 1060 bbox 62 by 62
#CLL state-numbering golly
x = 62, y = 62, rule = LifeHistory
35.2A$34.A2.A$33.A.2A.A2.2A$33.A.A2.A3.A$32.2A.2BA.3A$32.A2.A.B.A$
33.4ABAB$35.BA2B$29.2A2.3A4B7.2A$29.A2.A2.3ABA6.2BA$30.A.2A2.B2AB
4.2A2B$27.3A.A5.2AB3.B3A$26.A4.A7.B2A2B3AB$24.3A.2A.2A6.B2A2.B.AB$
23.A3.A.AB.A2B4.2B4.2A$22.A2.A5.A3B2.BAB$22.A.3A3B2A4B.ABAB$20.A.A
4.3AB.A5B2AB.2A$20.2A.2A2BA.ABA2B.7B2A$23.A.B.A.A2.AB2.7B$18.A4.A.
A.A2.2A4.7B3.2A$18.3A3.A.A.A.A5.6B3.B2A2B3.2A$11.2A8.A3.A2.A.A4.8B
3.4B2.B2AB$12.A5.2A.A6.2A4.4B2.10B3.2B$11.A5.A.A.2A10.4B3.10B2.2B$
11.2A4.A2.B11.4B4.11B2A2B$14.2A.ABAB10.4B4.12B2A3B.B$9.5A.A.A.2AB
8.4B5.18B2A$8.A2.A3.B.A.B.2A6.4B7.15B.B2A$8.2A.2B4A.BAB2A5.4B7.15B
3.B$12.A.B.B3A2B2A3.4B6.11B3A3B$11.BABA3.3B3A8B2.14BA4B$11.BABA3.
3B3A25BA3B$12.A.B.B3A2B2A30B$8.2A.2B4A.BAB2A.2B2A28B$8.A2.A3.B.A.B
.2A3.2A28B$9.5A.A.A.2AB5.31B$14.2A.ABAB7.3B.4B3.19B$11.2A4.A2.B10.
4B4.19B$11.A5.A.A.2A7.4B3.2AB.16B$8.2A.A6.2A.A7.4B3.A.AB.15B$8.A.A
10.A6.4B4.A5.16B2.2A$18.3A6.4B4.2A3.14B.B2A.A.A$11.B2A4.A7.4B3.A2.
A.A.2A12B.B2ABA$11.3AB10.4B4.2A2.2AB2AB2.8B4.B2.A$10.A.2AB9.4B12.B
5.6B4.2A.2A$9.A.A.2B8.4B10.2A.2A4.5B6.A.A$9.A2.A2.2B5.4B12.A.A3.9B
4.A.A$10.2A3.3B3.4B13.A.A3.2AB4.2A5.A$4.2A9.B2A.5B15.A5.A5.A$3.A.A
8.BA2BA4B19.3A7.3A$3.A8.B.2B2A4B20.A11.A$2A.AB.B3.BA9B$.A.A.2AB.3A
9B$.A.A.2A2B2A10B$2A.A2.5BA9B$A2.4A3BA8B.B2A$.2A2.BAB.BA8B.BA.A$3.
2A6.7B5.A$3.A7.2B.3BA5.2A$5.A9.3BA$4.2A10.3AB!
