#CSYNTH guntrue_382 costs 3078 cells.
#C period 382 fullperiod 382 bbox 57 by 54
#CLL state-numbering golly
x = 57, y = 54, rule = LifeHistory
16.2A$15.B2A2B7.2A$16.4B6.B2AB7.A$11.2A4.6B4.2B8.3A$10.B2AB2.8B4.
2B10.A$11.3B.17B7.A.A$9.2B.B2.18B6.A.AB$8.27B5.A3B$7.29B6.4B$6.31B
5.6B$6.32B4.7B$6.26B3.4B2.8B.4B.B$4.2AB4.B.16B.B5.17B.B2A$3.A.AB8.
10B.2B9.18B2A$3.A12.7B14.16B.2B$2.2A9.11B13.16B$12.12B13.15B$12.
12B11.2AB.12B$3.A8.11B11.A.AB2.11B$2.A.A2.2A3.8B.4B9.A5.10B$.A.A2.
A.A3.7B4.2A8.2A5.2B2A6B$.A2.2A.B4.7B4.A15.3B2A6B$2.A.A2.2B3.6B6.3A
13.10B$.2A.A.BA2B.7B8.A13.8B.B2A.A$4.A.A.A9B21.7B3.B2AB3A$.4A2.A.
8B22.6B6.B4.A$.A3.2A4.6B23.6B4.2A.3A$3.A.B6.6B22.5B4.A2.2A$2.2AB2A
B3.7B21.8B.A.A$5.2AB.8B13.A8.8BA.A.2A.A$2.2A3.10B13.3A6.6B.2BAB.A.
2A$2.A4.6B2A3B15.A4.7B2.2B2.A$3.A3.6B2A2B5.2A8.2A4.7B3.B.2A$2.2A3.
10B5.A9.4B.8B2.A.A2.2A$6.11B2.BA.A11.11B2.2A2.A2.A$6.12B.B2A11.12B
7.2A$5.15B13.12B$4.16B13.11B$.2B.12B3AB12.9B12.2A$2A14BA3B9.2B.10B
11.A$2AB.13BA3B7.16B.B4.BA.A$.B.4B.8B2.4B3.23B2.B2A$8.7B4.32B$9.6B
5.5B2A25B$11.4B6.3BA27B$13.3BA5.3BABA5B2A17B$14.BA.A6.2BA6B2A17B$
15.A.A7.8BA8B5.B.4B$16.A8.5B2A7B11.4B$17.3A5.4BA2BA6B12.4B$19.A9.A
BA4.2B14.4B$30.A6.2B14.3BA$36.B2AB14.ABA$37.2A16.2A!
