#CSYNTH guntrue_1368 costs 2773 cells.
#C period 1368 fullperiod 1368 bbox 59 by 47
#CLL state-numbering golly
x = 59, y = 47, rule = LifeHistory
16.A7.A4.ABABA15.A2.2A$9.BA4.BAB4.2BAB2.BAB.A.A14.4A.A$7.B2A.A4.AB
2.BA2BA3.AB2.B2A19.A$6.A.AB.A3.2A.B2A.A5.AB.A3.2A10.7A.2A$6.2A2.AB
2A2B3A.A6.B2.AB3A2.A8.A2.B3.A.A2.A$12.3B3.A3BA2.B4A6.A9.2A2.2A.AB
2.2A$6.2A4.BA2B2A.5B.BA3.5A.4A9.B2AB2A$6.A3.2A.A.A2.B2.2A.AB2.2A5.
A4.A9.5B$8.A2.A.A.BAB2AB.2A.AB2.A.3A.A.3A11.3B$7.2A.A2.BA2B.2A.BA
2BA3.A2.A2.A.A12.2A3B$5.A2.B.3A2.A.4A.2BA5.A3.A.A12.B2AB2A$5.2A.AB
.2AB3A4B2A8.3A.B2A3.2A6.2ABA4B$6.A.A2.A2.A2.4B13.2ABAB3.A5.9B$6.A
2.4A.A3.2A9.4A4.3A2.A.AB3.7B$5.2A6.A4.2B9.A3.4A2.A3.2AB.10B$11.A6.
5B3.B4.BA3.B2A6.13B$11.2A4.ABA9B2.BABA2B8.13BA$17.2A14B2A2.2A2.2A
2.11BABA$14.B.2A2B3A10B4.A.A2.A4.8B2.2A$13.A3B3A4BA6BAB6.3A5.6B5.B
$12.ABA2B4A11BA5.A7.9B$12.A4B2A4B2A5B3AB4.2A5.4B4.2A$11.6B2ABAB.3B
5.9B4.4B5.A$9.4B2A2BA8B5.7B5.4B7.3A$7.8BA2B2A4B8.8B2.4B10.A$.4B2.
3B.BAB2A6B8.15B$.7B2A4B2A4BA8.15B$2A10B4A2BABA8.15B2.2A$2A6BA4B3A
3BA6.3B3.11B.2B2AB$.B.7B3A2B2A.B6.3AB5.4BA2B3.4B$4.10B2A9.3A.A3.4B
ABA2B2.4B$4.9BABA6.A2.BA.A.A3.3BABA2B3.2ABA$6.B3.5B5.3A4.A2.A3.4BA
B5.BABA$13.2B4.A8.2A5.5B6.BA2B$4.B8.2A3.BA.2A13.3B7.2A2B$3.3A6.4B.
A.2BA2.A10.5B5.B2A2B$3.2A.2BAB2A4BA.2B3.2A9.B2AB2A6.2A$3.BA.ABA2B.
4A.2AB11.2A2.2A.AB2.2A$.A3.A3.BAB.2A.BA2.2A9.A2.B3.A.A2.A$.4A4.2A.
B2AB.B2A2.A9.7A.2A$7.AB.2A3.BA4.A17.A$.2A4.2BA2B3AB.4A13.4A.A$2.A
2.3A3.B.2AB2.A15.A2.2A$2.A.A3.4A4.A$3.A2.2A.A2.3A.2A$4.2A.A.A.A2.A
2.A$8.2A.2A2.2A!
