#CSYNTH guntrue_3486 costs 2706 cells.
#C period 3486 fullperiod 3486 bbox 66 by 41
#CLL state-numbering golly
x = 66, y = 41, rule = LifeHistory
32.4B$32.5BA$31.3A2BABA$29.3A.A2BA2B$28.A3.BA.2B2A$28.2AB2A.2BA2B
11.A$29.2B2A.2A2B11.A.A$28.2BA2B.2AB2A10.A.A4.2A$28.2A2B.AB3.A8.3A
.2A4.A$28.2BA2BA.3A4.A3.A4.B5.A.2A3.2A$28.ABA2B3A4.3A4.3AB2AB4.A.A
4.A$29.A5B4.A9.A.2AB6.A.3A$31.4B4.2A12.4B2.2A.A$35.6B12.10B$34.5B
10.B2.7B.2B$33.7B2.B5.13B$32.8B.3B2.16B$31.9B.10B2A9B$30.18BA3BA9B
$29.4B.14BA3BA8B$28.4B2.5B2A9B2A7B$27.4B3.5BABA6B2A7B$26.4B3.6BAB
2A4B2ABA6B$11.A13.4B4.7B2A6BABA5B$11.3A10.4B3.7B2A9B2A5B$14.A8.4B
2.8BA3BA14B$13.2A7.4B2.9BA3BA15B$13.5B3.4B3.9B2A10B.6B$4.2A9.3B2.
4B4.16B2.10B$3.A.A8.9B6.13B5.B.5B$3.A8.B.8B6.2B.7B2.B8.4B$2A.AB.B
3.BA9B6.10B12.2B2AB$.A.A.2AB.3A9B6.A.2A2.4B14.2A$.A.A.2A2B2A10B4.
3A.A6.B2A.A$2A.A2.5BA9B3.A4.A.A4.B2AB3A$A2.4A3BA8B.B2A2.A3.2A.A5.B
4.A$.2A2.BAB.BA8B.BA.2A7.A4.2A.3A$3.2A6.7B5.A8.2A4.A.A$3.A7.2B.3BA
5.A.A12.A.A$5.A9.3BA5.2A13.A$4.2A10.3AB!
