#CSYNTH guntrue_1037 costs 8064 cells.
#C period 1037 fullperiod 1037 bbox 126 by 64
#CLL state-numbering golly
x = 126, y = 64, rule = LifeHistory
69.2A$68.A.A$27.A34.2A4.A24.2A$25.3A32.A2.A2.2A.4A20.A.A$24.A35.2A
.A.A.A.A2.A22.A4.2A$24.2A37.A.ABABAB20.4A.2A2.A2.A$20.6B37.A.AB2AB
21.A2.A.A.A.A.2A$7.A11.5B40.AB.2B24.BABABA.A$7.3A8.7B42.3B24.B2ABA
.A$10.A6.9B41.4B6.2A16.2B.BA$9.2A6.9B39.3B2AB6.A16.3B$9.5B2.13B36.
3B2AB3.BA.A7.2A6.4B$11.18B.2B31.10B.B2A9.A6.B2A3B7.A$10.2A19B2A29.
13B11.A.AB3.B2A3B7.3A$10.2A17B.B2A28.14B12.2AB.10B8.A$11.B.17B.B
28.15B14.13B6.A.A$13.16B30.4B2.8B16.14B5.A.AB$14.14B30.4B5.6B16.
15B5.A3B$15.8B2.4B28.4B4.9B17.8B2.4B6.4B$16.7B3.4B26.4B5.2A4.4B16.
6B5.4B5.6B$13.11B3.4B24.4B7.A5.4B14.9B4.4B4.7B$12.12B4.4B22.4B5.3A
7.4B12.4B4.2A5.4B2.8B.4B.B$3.2A7.12B5.4B20.4B6.A10.4B10.4B5.A7.17B
.B2A$2.A2.A2.2A2.11B7.4B18.4B19.4B8.4B7.3A5.18B2A$3.2A2.A.A2.8B.4B
6.4B16.4B21.4B6.4B10.A5.16B.2B$5.2A.B3.7B4.2A7.4B14.4B23.4B4.4B17.
16B$5.A2.2B2.7B4.A9.4B12.4B25.4B2.4B18.15B$2.2A.A.BA2B.6B6.3A7.4B
10.4B27.8B17.2AB.12B$2.A.2A.A.A8B8.A8.4B8.4B29.6B17.A.AB2.11B$6.A.
A.8B18.4B6.4B31.4B18.A5.10B3.2A$3.2A2.A4.5B20.4B4.4B31.6B16.2A5.2B
2A6B3.A$.3A.2A4.6B21.4B2.4B31.8B21.3B2A6B4.A$A4.B6.6B21.8B31.4B2.
4B21.10B3.2A$.3AB2AB3.7B22.6B31.4B4.4B20.8B.B2A$3.A.2AB.8B24.4B31.
4B6.4B18.7B3.B2AB2A$7.10B23.6B29.4B8.4B17.6B6.B.A$7.6B2A3B21.8B27.
4B10.4B17.6B4.2A3.A$7.6B2A2B21.4B2.4B25.4B12.4B16.8B.A2.4A$7.10B
20.4B4.4B23.4B14.4B14.9BA.A.A$6.12B7.2A9.4B6.4B21.4B16.4B4.A8.7B.
2BAB.A.2A$6.14B.2A3.A8.4B8.4B19.4B18.4B3.3A6.6B3.2B2.A.A$5.16BA2.A
9.4B10.4B10.A6.4B20.4B5.A4.7B4.B.2A2.A$4.17B2.3A7.4B12.4B7.3A5.4B
22.4B3.2A4.7B3.A.A2.A.A$.2B.16B6.A5.4B14.4B5.A7.4B24.4B2.4B.8B3.2A
2.A.A$2A18B5.2A4.4B16.4B4.2A5.4B26.4B3.11B8.A$2AB.17B4.9B18.9B4.4B
28.4B.12B$.B.4B.8B2.4B5.6B20.6B5.4B30.B3A12B$8.7B4.4B2.8B20.8B2.4B
32.A13B10.A$9.6B5.15B16.15B34.A9B11.3A$11.4B6.14B16.14B34.12B9.A$
13.3BA5.13B16.13B34.16B6.2A$14.BA.A5.10B.B2A12.2AB.10B28.A6.24B$
15.A.A7.3B2AB3.BA.A10.A.AB3.B2A3B30.3A3.23B$16.A8.3B2AB6.A10.A6.B
2A3B33.A2.24B$17.3A7.4B6.2A8.2A6.4B34.A.B.24B$19.A7.3B26.3B34.2A
27B$24.AB.2B28.2B.BA29.2A2.A22B.4B$23.A.AB2AB26.B2ABA.A27.A2.3A3B
3.2B3.B7.2B3.4B$23.A.ABABAB24.BABABA.A28.A4.2B3.4B.3B5.BA2B3.4B$
20.2A.A.A.A.A2.A20.A2.A.A.A.A.2A26.4A5.B2AB.B2AB4.A.A5.3BA$20.A2.A
2.2A.4A20.4A.2A2.A2.A28.A7.2A3.2A6.A7.ABA$22.2A4.A28.A4.2A32.A27.
2A$28.A.A24.A.A37.2A28.B$29.2A24.2A!
