#CSYNTH guntrue_1984 costs 5415 cells.
#C period 1984 fullperiod 1984 bbox 95 by 57
#CLL state-numbering golly
x = 95, y = 57, rule = LifeHistory
46.2A$45.A.A$39.2A4.A$21.2A14.A2.A2.2A.4A$13.A7.A9.A5.2A.A.A.A.A2.
A$13.3A2.BA.A7.3A8.A.ABABAB$16.A.B2A7.A11.A.AB2AB$15.A.2B9.2A11.AB
.2B45.A$15.B2AB6.5B14.3B42.3A$16.BA5.BA3B16.4B6.2A32.A$17.2B3.BABA
3B13.3B2AB6.A26.A6.2A$16.B2A3BA2BA4B12.3B2AB3.BA.A25.A.A3.4B$17.2A
.3B2A4B11.10B.B2A27.A.5B$22.6B11.13B30.7B$22.5B11.14B30.4B2A4B.B$
21.7B9.15B30.4B2A3B.B2A$20.4B.4B7.4B2.8B32.11B2A$19.4B3.4B5.4B5.6B
32.9B.2B$18.4B5.4B3.ABAB4.9B26.2B2.10B$17.4B7.4B.B2AB5.2A4.4B24.2A
13B$.2A13.4B9.6BA7.A5.4B23.2A13B$2.A12.4B11.5B5.3A7.4B23.2B.11B$2.
A.AB2.B5.4B12.6B4.A10.4B17.A7.9B.B2A$3.2AB.3B3.4B8.2A.3B2A4B15.4B
16.3A7.7B.BA.A$5.6B.4B8.B2A3BA2BA4B15.4B18.A5.7B5.A$5.10B10.2A3.BA
BA3B17.4B16.2A.11B5.2A$5.2B2A5B10.2A5.BA3B19.4B15.9B2.4B$6.A2BA3B
10.B2AB6.5B18.4B16.6B4.4B$6.BABA4B9.A.AB9.2A19.4B15.5B6.4B$A6.BA6B
9.A.B2A7.A21.4B13.7B6.4B$3A5.2B2.4B5.3A2.BA.A7.3A19.4B12.6B8.4B$3.
A4.2B3.4B4.A7.A9.3A12.B.3B.4B10.7B9.4B$2.2A4.B5.4B11.2A11.A10.18B
4.6B10.3BA$2.4B.3A5.4B11.A10.2A3.B5.2B2A16B2.7B11.ABA$4.6A6.4B7.3A
11.8B3.2B2A16B2.2B2A3B12.2A$3.A.2A.B8.4B5.A16.8B.20B.3B2A4B12.B$2.
A.AB12.4B4.2A15.38B$2.A8.2A6.9B14.15B.2B2.20B$.2A9.A7.6B14.17B8.
17B$12.A.2A5.6B3.B2.2B2.19B11.15B$13.A2.A4.35B12.15B$14.2AB3.27B.
7B12.17B$15.14B2A25B11.17B$16.13B2A26B8.2AB.3B3.8B$17.29B2.8B8.A.A
B7.7B$17.17B.B.2B11.6B8.A11.6B$18.15B4.3B10.5B8.2A11.4B$18.15B5.A
2B.2A7.4B19.2AB.2B$19.13B5.A.A2B.A7.4B18.A.AB.4B$21.13B2.A.AB2.A9.
B.B2A16.A6.2A$20.8B4.2A.A.A3.A12.BA.A14.2A6.A$20.6B6.2ABA2.4A.A13.
A23.3A$20.5B8.B2.A.A3.A.A12.2A24.A$20.B.B9.2A.2A2.A2.A.A$21.3B9.A.
A2.2A3.A$20.B2AB9.A.A$21.2A11.A!
