#CSYNTH guntrue_7880 costs 5525 cells.
#C period 7880 fullperiod 7880 bbox 85 by 65
#CLL state-numbering golly
x = 85, y = 65, rule = LifeHistory
24.2A$17.2A3.2B2AB$16.B2AB2.4B11.2A22.2A$17.2B3.6B.B8.A14.2A5.B2AB
$18.2B2.10B5.A15.A7.2B$17.2B2A11B5.2A15.A7.6B$14.B.3B2A12B5.B14.2A
6.8B.B$13.2A18B4.2AB13.B6.13B$13.2AB.15B5.ABAB10.3B6.13B$14.B3.15B
4.BA3B7.6B5.12B2A9.B$18.17B3.5B3.10B4.12B2AB3.ABA.B2A$19.19B.5B.
11B2.17B3.2BA2B2A$19.33B2A16B2.2B2.BA2BAB.B$20.7B.23BA2B2A14B3.2B.
2B2A2B$20.6B2.23B2AB2A13B3.B2A2B2AB$19.7B2.24B3A13B5.2AB.3B$18.9B
2.38B7.B$10.B7.38B2.9B$5.3B.B2A5.40B2.7B$5.B2A2B2AB3.41B2.6B$3.2B
2A2B.2B3.18B2A22B.7B$.B.BA2BAB2.2B2.18B2A31B$2A2BA2B3.17B2.11B.4B
2.19B$2AB.ABA3.B2A12B4.10B3.4B4.17B$.B9.2A12B5.6B7.4B5.15B3.B$12.
13B6.3B10.4B5.15B.B2A$12.13B6.B13.4B3.18B2A$14.B.8B6.2A14.4B2.12B
2A3B.B$17.6B7.A16.4B2.11B2A2B$22.2B8.A15.4B.10B2.2B$21.B2AB6.2A16.
4B2.B.6B3.2B$22.2A26.4B5.4B2.B2AB$28.2A17.A3.4B3.B2A2B3.2A$28.A.A
14.3A4.4B3.2A$25.2A.A.A13.A8.4B9.4A$25.A.A.A.2A11.2A8.4B7.A3.A$27.
A.A.B.AB6.5B9.4B6.2A$26.2A.A3BAB4.BA3B4.A7.4B.6B$25.BABA2B.BA5BABA
3B3.3A6.8B$24.B2A2BA2B2AB.2BA2BA4B5.A6.10B13.2A$24.2A3BA2.2A2.3B2A
4B5.2A5.B.10B6.B2.2A2.A$23.B2AB11.6B6.18BAB3.B3A.2B2A$23.A.A12.5B
9.15BABA3B6AB$24.A12.7B7.2B2A12BABA.2BA.2B3.2A$36.4B.4B5.2BA2BA12B
A5.AB4A2.A$35.4B3.4B4.3B2A4B2.7B7.A.A3.2A$24.2A8.4B5.4B.9B4.7B5.A.
A$23.B2AB6.4B7.12B6.3B8.2A.4A$23.4B5.4B9.10B7.5B9.A2.A$24.2B5.4B3.
2A6.9B10.2A9.A.A$16.A7.4B2.4B3.B2A2B5.9B9.A11.A$15.A.A5.5B.4B5.4B
6.7B11.3A$16.A.14B6.4B7.6B13.A$17.14B6.B3A10.2B$17.14B6.2B2A$17.
15B4.2A2B$16.3B2A12B3.3AB$16.3B2A14B.BABAB$14.2AB.11B2.5B2.2A$13.A
.AB2.8B5.4B$13.A5.10B4.4B$12.2A5.B.B5.2A5.4B$20.3B4.A7.3BA$19.B2AB
5.3A5.3BA$20.2A8.A6.3AB!
