#CSYNTH guntrue_1576 costs 4505 cells.
#C period 1576 fullperiod 1576 bbox 85 by 53
#CLL state-numbering golly
x = 85, y = 53, rule = LifeHistory
59.2A$58.B2A2B3.2A$22.2A35.4B2.B2AB$21.B2AB5.2A23.B.6B3.2B$22.2B7.
A21.10B2.2B$17.6B7.A17.A4.11B2A2B$14.B.8B6.2A14.3A3.12B2A3B.B$12.
13B6.B13.A6.18B2A$12.13B6.3B11.2A6.15B.B2A$.B9.2A12B5.6B7.4B5.15B
3.B$2AB.3B3.B2A12B4.10B3.3B5.17B$2A2B2AB3.17B2.11B.4B2.19B$.B.2B2A
2B2.2B2.18B2A31B$3.BA2BAB.2B3.18B2A22B.7B$5.2BA2B2AB3.41B2.6B$5.AB
A.B2A5.36BA3B2.7B$10.B7.31BA6B2.9B$18.9B2.11B4A4BA3BABA12B7.B$19.
7B2.11B2A2BA3B2A5BA13B5.2AB.ABA$20.6B2.10B2A2BA4B2A20B3.B2A2BA2B$
20.7B.11BA2BA7BA19B3.2B.BA2BAB$19.21B2A5B2AB2A18B2.2B2.2B2A2B.B$
19.19B2.4B.3BABA5B2.17B3.B2A2B2A$18.17B4.4B3.10B4.12B2AB3.3B.B2A$
14.B3.15B5.4B7.6B5.12B2A9.B$13.2AB.15B5.4B10.3B6.13B$13.2A18B3.4B
13.B6.13B$14.B.3B2A12B2.4B14.2A6.8B.B$17.2B2A11B2.4B16.A7.6B$18.2B
2.10B.4B16.A7.2B$17.2B3.6B.B2.4B17.2A5.B2AB$16.B2AB2.4B5.4B26.2A$
17.2A3.2B2AB3.4B$24.2A3.4B$13.B2A12.4B$13.3AB10.4B$12.A.2AB9.4B$
11.A.A.2B8.4B$11.A2.A2.2B5.4B$12.2A3.3B3.4B$6.2A9.B2A.5B$5.A.A8.BA
2BA4B$5.A8.B.2B2A4B$2.2A.AB.B3.BA9B$3.A.A.2AB.3A9B$3.A.A.2A2B2A10B
$2.2A.A2.5BA9B$2.A2.4A3BA8B.B2A$3.2A2.BAB.BA8B.BA.A$5.2A6.7B5.A$5.
A7.2B.3BA5.2A$7.A9.3BA$6.2A10.3AB!
