#CSYNTH guntrue_910 costs 2684 cells.
#C period 910 fullperiod 910 bbox 61 by 44
#CLL state-numbering golly
x = 61, y = 44, rule = LifeHistory
39.2A$7.2A3.2A24.A2BA$7.A.A.A.A13.AB.4B5.2B$9.A.A14.A.2AB2A2B5.2B$
8.A2B.A2.2A9.A.4B2AB4.B2A$8.ABA.A2.A.A7.2A.A2BA2BAB3.5B$10.A.2A.A
2.A4.BAB.B3A.2BAB.8B$9.2ABA2.3A5.BA3B3.3BA7B3A$8.B2A2B2A8.BA2B.3AB
.BA5B2AB2AB6.3B$9.2A.A2.A7.BA2BA2BA.2A4.3BABA4B2.6B$9.B2A2.2A8.B2A
4B.A5.6A13B$10.2B12.2B2AB2A.A3.3B3A14B$10.2B13.4B.BA3.5BA16B$11.B
23.22B$10.2AB20.24B$.2A6.A2BAB5.2A12.22B.B2A$2.A4.3B2A3B4.A13.20B
3.BA.A$2.A.AB.8B.BA.A13.10B.B3.B10.A$3.2AB.8B.B2A15.9B16.2A$5.12B
16.A8B4.A$5.12B15.BABA2.B6.A.A$5.12B3.A10.2B2A2.2B6.A.A$7.10B3.3A
7.4B2.4B4.2A.2A$9.7B7.A5.4B3.5AB.AB4.A$9.8B5.2A4.4B3.A5B4AB2A2.A$
8.5B.4B4.9B4.A2B.AB2A.AB.3A$8.6B.4B5.7B5.A3.BA3BA2B2.3A$7.6B3.4B2.
9B10.3B2A3BA3.A2.2A$3.B2.3BA3B4.15B.B9.B.A.A.BABA.A2.A$.7BABA2B5.
15B2A.2A5.A.A.4ABABA.A$.7BABA2B6.14B2A.A2.A.3A.2A2.B.2B2.A$9BA3B7.
15B3.3A3.A3.2AB4A$11B.B2A7.3B2AB4.4B6.2A2.2A.2A$.9B2.BA.A6.3B2AB3.
A2.AB4.2A5.A.AB4A$.7B7.A8.4B3.4AB5.A5.A.A3B2.A$2.6B7.2A7.3B10.A3.A
.A2.2A.A4BA2.A$3.4B14.AB.2B7.5A4.A.A2.A.AB.A.A.2A$4.4B12.A.AB2AB6.
A10.2A.A.ABABA2.A$5.4B11.A.ABABAB7.A8.A2.4A5.A$6.4B7.2A.A.A.A.A2.A
4.2A9.2A4.5A$7.4B6.A2.A2.2A.4A17.4A2.A$8.3BA7.2A4.A21.A2.A$9.3BA
12.A.A$10.3AB12.2A!
