#CSYNTH guntrue_8775 costs 4650 cells.
#C period 8775 fullperiod 8775 bbox 93 by 50
#CLL state-numbering golly
x = 93, y = 50, rule = LifeHistory
42.2A23.2B$40.A4BA19.6B$38.BA6BAB15.2B6A2B$36.2BA8BA2B11.3BA6BA3B$
35.3BA8BA3B9.3BA8BA3B$36.2BA8BA2B11.3BA6BA3B$38.BA6BAB15.2B6A2B$
40.A4BA19.6B$42.2A23.2B14.A2.2A$42.2B23.2B14.4A.A$42.B24.B20.A$41.
B2A22.B2A12.7A.2A$33.2A5.2B2AB6.2A5.2A5.BA2BA6.2A2.A2.B3.A.A2.A$
34.A4.8B4.A7.A4.3B2A3B4.A3.2A2.2A.AB2.2A$34.A.AB.8B.BA.A7.A.AB.8B.
BA.A6.B2AB2A$11.2A22.2AB.4B2A2B.B2A9.2AB.8B.B2A8.5B$7.A4.A24.6BABA
3B13.12B11.3B$6.A.A.A26.7B2A3B13.12B10.2A3B$5.A2.A.5A9.2A7.A3.12B
13.12B9.B2AB2A$5.2ABA5.A8.B2AB4.3A3.10B15.10B3.2A6.2ABA4B$3.2A3.4A
B10.3B4.A7.7B18.7B6.A5.9B$2.A2.3AB.B2A11.B.B3.2A5.8B17.8B6.A.AB3.
7B$3.2A2.2A2B2AB5.13B4.4B.5B15.4B.5B6.2AB.10B$5.2AB.2B2AB4.12B5.4B
.6B14.4B.6B8.13B$5.A3.B3A5.14B2.4B3.6B12.4B3.6B7.13BA$3.A.A2.BABAB
.23B4.3BA3B2.B7.4B4.3BA3B2.B3.11BABA$3.2A4.2A2.4BA3B4A11B5.2BABA7B
4.4B5.2BABA7B3.8B2.2A$13.4BAB3A13B6.2BABA7B3.4B6.2BABA7B3.6B5.B$
13.4BA5BA10B7.3BA9B.4B7.3BA9B.9B$10.3B.6B2ABA2BA5B7.2AB.15B6.2AB.
15B4.2A$8.7BA6B4A7B.B3.A.AB2.13B6.A.AB2.13B5.A$5.2B.6BABA6BA2BA5B.
B2A2.AB6.10B7.A7.10B7.3A$4.2A10B2A4B2A10B2A3.AB5.9B7.2A7.9B10.A$4.
2AB.5BA2BA6BABA6B.2B4.3BA5.B.4B19.B.4B$5.B.7B4A6BA7B7.2A.AB6.3B22.
3B$8.5BA2BAB2A6B.3B10.B.AB6.4B21.4B$6.10BA5BA4B12.4A8.3A22.3B$5.
13B3ABA4B4.2B5.A4.2A5.A3BA20.B3AB$4.11B4A3BA4B3.4A5.4A.AB4.A3BA20.
A3BA$4.22B.B8AB5.A.2A3.2B3A2B18.A5BA$2.4B2.14B5.2A6B2A2.2A.A.B4.7B
18.7B$2.2A6.12B4.A.A.4B.A.A2.A.AB4.9B16.A7BA$3.A4.13B3.3A.A.A2.A.A
.3A2.A5.9B16.A7BA$3A5.2A3.B.B7.A3.2A.4A.2A5.A.A4.7B18.7B$A8.A4.3B
7.2A3.A4.A3.2A3.2A4.2B3A2B18.A5BA$6.3A4.B2AB9.2A2.A2.A2.2A2.A9.A3B
A20.A3BA$6.A7.2A10.A.2A4.2A.A.A10.A3BA20.B3AB$38.A12.3A22.3B$51.3B
22.3B$52.B24.B!
