#CSYNTH guntrue_1281 costs 4810 cells.
#C period 1281 fullperiod 1281 bbox 65 by 74
#CLL state-numbering golly
x = 65, y = 74, rule = LifeHistory
37.2A$36.A.A$30.2A4.A$28.A2.A2.2A.4A$28.2A.A.A.A.A2.A$31.A.ABABAB$
31.A.AB2AB$32.AB.2B$35.3B$35.4B6.2A$33.3B2AB6.A7.A.A$24.A8.3B2AB3.
BA.A4.A2.2A.A$22.3A6.10B.B2A5.3A3.A$21.A8.13B11.2A.2A.A$20.A.A6.
14B9.2A.B.A.2A$19.BA.A5.15B9.A2.AB$18.3BA5.4B2.8B12.4A$16.4B6.4B5.
6B9.3A2.3B$14.6B5.4B4.9B8.A2.2A3B$13.7B4.4B5.2A4.4B8.A.A.4A$6.B.4B
.8B2.4B7.A5.4B6.2A.A.3ABA.2A$5.2AB.17B5.3A7.4B5.A2.3A2B.A.2A$5.2A
18B6.A10.B3A5.2A2.B.A.A$6.2B.16B18.A3B6.ABABA.4A$9.17B18.A3B5.A3.B
A4.A$10.16BA.2A15.4B5.3A.B.3A$11.14B.2A.A16.4B6.ABABA$11.12B24.4B
6.3A$12.10B26.4B5.3B$12.6B2A2B27.4B3.B.B$12.6B2A3B27.8B$12.10B29.
7BAB$8.A.2AB.8B30.5BABAB$6.3AB2AB3.7B29.5B2A2B$5.A4.B6.6B28.8B.B2A
$6.3A.2A4.6B28.7B3.BA.A$8.2A2.A4.5B27.4B.2B2A5.A$11.A.A.8B25.4B4.
2A5.2A$7.A.2A.A.A8B24.4B$7.2A.A.BA2B.6B23.4B$10.A2.2B2.7B10.A10.4B
$10.2A.B3.7B8.3A9.4B$8.2A2.A.A2.8B.2B3.A11.4B7.A$7.A2.A2.2A2.12B2.
2A9.4B.B4.3A$8.2A7.12B.3B2.2B2.B.4B.4B.A$17.14B3.10B.5BA.A$18.14B.
10B.4B.2BAB$9.2A10.21B.4B3.2B$10.A8.27B3.2B$10.A.AB4.28B2.B2AB$11.
2AB.31B3.2A$13.34B$13.34BA$13.33B.3A$14.30B6.A$15.28B6.2A$11.A5.
27B$11.3A3.4B3.20B$14.A3.2B3.20B$13.2A7.20B$13.5B3.4B.4B.9B$4.2A9.
3B2.4B7.8B$3.A.A8.9B9.4B$3.A8.B.8B$2A.AB.B3.BA9B$.A.A.2AB.3A9B$.A.
A.2A2B2A10B$2A.A2.5BA9B$A2.4A3BA8B.B2A$.2A2.BAB.BA8B.BA.A$3.2A6.7B
5.A$3.A7.2B.3BA5.2A$5.A9.3BA$4.2A10.3AB!
