#CSYNTH guntrue_904 costs 2479 cells.
#C period 904 fullperiod 904 bbox 67 by 37
#CLL state-numbering golly
x = 67, y = 37, rule = LifeHistory
20.2A$21.A4.3B$21.A.A5B$22.2A3BA2B$24.2B3AB$25.2A2BAB$24.BA3BA2B$
24.BABA6B$25.12B$11.B2A6.B4.B2AB2A7B$11.3AB4.2AB.5BA6B2A2B$10.A.2A
B4.2A7BA6B2A2B8.2A4.2A$9.A.A.2B5.7BABA10B6.B2AB2.B2AB$9.A2.A2.2B5.
5BA2BA7B2AB5.3B3.4B9.2A$10.2A3.3B3.7B2A7BA2BAB5.B5.2B10.A$4.2A9.B
2A.10B5A4B2A3B2.2B2AB2.5B9.A$3.A.A8.BA2BA4B3.2B2AB3A10B.2B2A2B.5B
8.2A$3.A8.B.2B2A4B4.A7BA10B.5B3A2BA2B6.B$2A.AB.B3.11B5.B3AB3A8B.8B
3AB3AB5.3B$.A.A.2AB.12B5.2BA2B3A5B.10BA7BA4.4B$.A.A.2A14B7.5B.2B2A
2B.10B3AB2A2B3.5B$2A.A2.5B2A8B7.5B2.B2A2B2.3B2A4B5A10B$A2.4A3BA2BA
5B.B2A7.2B5.B5.BA2BA7B2A8B$.2A2.BAB.2B2A6B.BA.A5.4B3.3B5.B2A7BA2BA
5B$3.2A6.7B5.A5.B2AB2.B2AB6.10BABA7B$3.A7.2B.4B5.2A5.2A4.2A8.2B2A
6BA7B2A$5.A8.5B27.2B2A6BA5B.B2A$4.2A9.5B27.7B2AB2AB4.B$12.3B2.4B
27.12B$7.B2.2A3B3.4B29.6BABAB$6.2A4B4A3.4B30.2BA3BAB$6.2A2B2AB3A4.
4B30.BA2B2A$7.3BAB2.B6.4B30.B3A2B$7.3B12.4B29.2BA3B2A$23.3BA29.5BA
.A$24.3BA28.3B4.A$25.3AB34.2A!
