#CSYNTH guntrue_1239 costs 4608 cells.
#C period 1239 fullperiod 1239 bbox 64 by 72
#CLL state-numbering golly
x = 64, y = 72, rule = LifeHistory
28.A$28.3A12.BA3.AB$31.A8.BABA.A.A.ABAB$30.2A8.A2BA.A.A.A2BA$30.5B
4.2BA3BA.A3BA2B$32.3BAB3.BA3BA.A3BAB$31.3BABA4BA2BAB.BA2BAB$30.4BA
2BA2B2.2AB3.B2A$31.4B2A3B3.2B3.2B$32.6B4.2B5.2B$33.5B3.B2AB3.B2AB$
32.7B3.2A5.2A$31.4B.4B$30.4B3.4B$29.4B5.4B$6.A.2A.2A15.4B7.4B$6.2A
.A.2A14.4B9.4B$9.A16.4B11.4B$4.4ABA.2A12.4B13.4B$4.A2.A.ABA2.A9.4B
15.4B$5.2B.2BA2.2A8.4B17.4B$6.4B12.4B19.4B4.2A5.2A$5.6B10.4B21.4B.
2B2A5.A$4.7B9.4B23.7B3.BA.A$3.8B8.4B25.8B.B2A$3.10B5.4B27.5B2A2B$
4.11B2.4B28.5BABAB$3.17B28.7BAB$2.17B28.8B$2.16B28.4B3.B.B$3.15B
27.4B5.BAB$3.15B26.4B6.3A$4.15B24.4B6.ABABA$5.14B12.A10.4B5.3A.B.
3A$5.7BAB2A3B12.3A7.4B5.A4.2A3.A$4.7BA2BAB2AB15.A5.4B7.4A.2AB2A$4.
7BA5BA15.2A4.4B11.A.B.A2.2A$4.5B2A2BABA3B14.9B6.A2.2A.A.ABABA2.A$
4.5BA3BAB2A4B14.6B5.3A2.2A.A4B.A.2A$4.5BABABABA8B2.2B2.B3.6B5.A9.A
3B.A.A$.A2.6B3A27B4.A.B2A7.5A2.A$A.A.9B.27B3.B2A2.A6.3B2.3A$.A2.6B
.B2.6BABA7B2A14B2.2A7.4A$4.5B5.7B2A7B2A13B12.BA2.A$5.2B2AB5.6BA22B
9.2A.A.A.2A$3.2AB.A.BA11.2B.B.17B9.A.2A.2A$2.A.AB2.2A.A9.3B4.15B3.
A10.A3.3A$2.A8.A5.2A.2BA5.15B2.A.A9.A.2A2.A$.2A8.2A4.A.2BA.A5.13B
3.A.A10.A.A$18.A2.BA.A2.13B4.2A.A.2A$19.A3.A.A.2A4.8B.AB3.A2.A$17.
A.4A2.AB2A6.6BA2B3A.A$16.A.A3.A.A2.B7.4B2.4B.A.2A$16.A2.A.A2.2A.2A
5.4B3.2B.BAB.A$17.3A.2A2.A.A5.4B4.BABA.A.A$21.B3.A.A4.4B4.A.A.A.2A
$16.A.2AB2A3.A4.4B3.3A.A2.A$16.2A.A.2A7.4B3.A5.A.A$21.5B3.4B4.2A5.
A$12.2A9.3B2.4B$11.A.A8.9B$11.A8.B.8B$8.2A.AB.B3.BA9B$9.A.A.2AB.3A
9B$9.A.A.2A2B2A10B$8.2A.A2.5BA9B$8.A2.4A3BA8B.B2A$9.2A2.BAB.BA8B.B
A.A$11.2A6.7B5.A$11.A7.2B.3BA5.2A$13.A9.3BA$12.2A10.3AB!
