#CSYNTH guntrue_765 costs 1960 cells.
#C period 765 fullperiod 765 bbox 49 by 40
#CLL state-numbering golly
x = 49, y = 40, rule = LifeHistory
37.2A5.2B$37.A.A2.4B$38.A8B$33.B6.7B$32.3B5.6B$32.3A4.2B3AB$31.2BA
2B3.2BA2BAB$31.2BA2B3.BA3BAB$30.2B3A2B2.B4AB$30.7B2.2BA3B.2B$29.3B
3A12B2A$29.3B3A6BA3B.B2A$30.7B.2B4AB2.B$30.2B3A5BA3BAB$31.2BA2B.4B
A2BAB$31.2BA2B3.2B3AB$32.3A4.6B$32.3B4.7B$33.B6.6B$16.2A5.A15.6B$
16.A6.3A14.5B$13.BA.A9.A13.5B$10.2A.B2A9.2A12.6B$3.A5.B2A2B11.4B7.
10B$2.A.A5.4B13.2B2.16B$2.A.A5.4B10.ABA13B4.4B$.2A.2A3.8B2AB.B.4BA
7B2A3B5.3BA$4.B4.7BABA4BA4BA6B2A2B7.ABA$.2AB2A3.2B2A2BA6B.6BA11B6.
2A$2.A.2A3.2B2A2BA2BA3B.3BA2BA2B2A2B3.2A.A5.B$A3.11BA6B.6BA2B2A2B
3.2AB3A$2A4.2B2A6BA4BA4BABA7B4.B4.A$5.3B2A7BA4B.B.B2A8B3.2A.3A$5.
13BABA10.4B5.A.A$5.9B2.2B13.4B5.A.A$6.3B7.4B11.2B2AB5.A$18.2A9.2AB
.2A$18.A9.A.AB$19.3A6.A$21.A5.2A!
