#CSYNTH guntrue_7229 costs 14351 cells.
#C period 7229 fullperiod 7229 bbox 113 by 127
#CLL state-numbering golly
x = 113, y = 127, rule = LifeHistory
29.3B$28.5B6.2A$27.6B6.A21.2A11.A$10.2A14.7B8.A18.B2AB9.A.A$10.A2.
A8.2A.8B7.2A19.3B9.A.A2.2A3.A$12.2A8.A.9B4.BAB2.2A16.B.B9.2A.2A2.A
2.A.A9.A2.A$8.4A11.A.9B3.B4A2.A15.5B8.B2.A.A3.A.A9.4A$8.A3.4A4.3A
3.14B2.2A16.6B6.2ABA2.4A.A8.2A4.2A$10.A.A2.A4.A4.15B2A18.8B4.2A.A.
A3.A9.A3.2A2.A$9.2A2B.B11.13B2.A19.13B2.A.AB2.A9.3A.2A$8.A2.A7B7.
13B2.A.A15.13B5.A.A2B.A3.A6.B3.4A$6.A2.ABA8B3.15B4.2A14.15B5.A2B.
2A3.3A4.2ABA4.A$6.2A.A.2A8B.17B19.15B4.3B10.A2.B2A.A.A2.A$9.A.B.
21B2.4B17.17B.B.2B10.2A2.5B4A$9.A.2A21B3.4B16.29B3.7B.B$8.2A.A.21B
4.4B14.9B2A2B2A16B4.5B2.2A$11.A.B.19B5.4B12.9BABA2B2A16B2.6B4.A$
11.2A2.18B7.4B10.2AB3.6BA20B.7B4.A.A$15.9B.7B9.4B8.A2.A4.35B4.2A$
14.8B7.B12.4B6.A.2A5.7B2.B2.2B2.20B$14.7B22.4B5.A7.7B13.17B$13.11B
20.4B3.2A6.8B15.16B$13.12B20.4B9.4B2.2B17.15B$13.12B21.4B7.4B4.2A
16.15B$14.11B22.4B5.4B6.A14.8B.6B5.2A$12.4B.8B23.4B3.4B5.A16.2A3.B
3.7B.BA2.A$12.2A4.7B24.4B.4B6.2A16.A7.7B.B3A$13.A4.7B25.7B22.3A8.
9B$10.3A6.6B26.5B23.A10.7B.B3A$10.A8.7B25.5B32.2AB.5B.BA2.A$19.8B
23.7B30.A.AB.4B5.2A$20.8B21.4B.4B29.A4.4B$20.9B19.4B3.4B27.2A3.4B$
19.6B.4B10.A6.4B5.BABA30.4B$19.7B.4B7.3A5.4B7.B2AB28.4B$3.2A15.6B
2.4B5.A7.4B9.A3B26.4B$4.A8.B4.8B3.4B4.2A5.4B11.4B24.4B$4.A.AB3.4B.
6B2AB5.9B4.4B13.4B22.4B$5.2AB.13B2A2B5.6B5.4B15.4B20.4B$7.18B6.8B
2.4B17.4B18.4B$7.17B5.15B19.4B16.4B$8.13B8.14B21.4B14.4B$10.12B7.
13B23.4B12.4B$12.10B5.2AB.10B25.4B10.4B$12.11B3.A.AB3.B2A3B28.4B8.
4B$13.2B.7B3.A6.B2A3B29.4B6.4B$13.11B.2A6.4B32.4B4.4B$12.11B11.3B
33.4B2.4B$3.2A7.11B12.2B.BA21.A9.8B$2.A2.A2.2A2.11B11.B2ABA.A20.3A
8.6B$3.2A2.A.A2.8B2.B2A8.BABABA.A23.A8.4B$5.2A.B3.7B3.BA.A5.A2.A.A
.A.A.2A19.2A7.6B$5.A2.2B2.7B6.A5.4A.2A2.A2.A19.5B3.8B$2.2A.A.BA2B.
6B7.2A8.A4.2A23.3B2.4B2.4B$2.A.2A.A.A8B15.A.A19.2A7.9B4.4B$6.A.A.
8B15.2A20.A8.8B6.4B$3.2A2.A4.5B35.2A.A.B3.10B8.4B$.3A.2A4.6B35.A2.
3AB.2B2A7B9.4B$A4.B6.B3A2B35.2A2.BA3B2A7B10.4B$.3AB2AB3.BA2BA2B37.
4A12B11.4B$3.A.2AB.3B2ABAB38.A.2B3.7B.B2A10.4B13.A$7.10B39.3AB2.7B
.BA.A10.4B10.3A$7.11B41.A4.4B5.A11.4B8.A$7.10B37.5A5.4B5.2A11.4B7.
2A$7.3B2A5B37.A10.4B18.4B3.5B$6.7B2A3B38.A9.4B18.4B2.3B$6.4B2A8B.
2A.A30.2A10.4B18.9B7.2A$5.16BA.2A43.4B18.8B8.A$4.17B22.A11.2A12.4B
18.10B3.B.A.2A$.2B.16B22.A.A9.B2AB12.4B17.7B2A2B.B3A2.A$2A18B10.A
3.A3.2A2.A.A9.3B14.4B16.7B2A3BAB2.2A$2AB.17B7.3A2.A.A2.A2.2A.2A9.B
.B14.4B15.12B4A$.B.4B.8B2.4B5.A5.A.A3.A.A2.B8.5B15.4B12.2AB.7B3.2B
.A$8.7B4.7B.2A5.A.4A2.AB2A6.6B16.4B10.A.AB.7B2.B3A$9.6B5.9B7.A3.A.
A.2A4.8B17.4B9.A5.4B4.A$11.4B6.6B8.A2.BA.A2.13B19.4B7.2A5.4B5.5A$
13.3BA5.5B7.A.2BA.A5.13B18.4B12.4B10.A$14.BA.A3.7B6.2A.2BA5.15B18.
4B10.4B9.A$15.A.A4.6B10.3B4.15B19.4B8.4B10.2A$16.A5.7B10.2B.B.17B
19.4B6.4B$17.3A2.8B2.29B20.4B4.4B$19.A2.25B2A13B20.4B2.4B$22.25B2A
14B20.8B$21.37B3.B2A20.6B11.A$21.36B4.A2.A20.4B10.3A$16.B4.20B2.2B
2.B2.7B5.2A.A18.6B8.A$15.2AB.21B11.7B7.A17.8B7.2A$15.2A24B10.8B6.
2A15.4B2.4B3.5B$16.B.23B11.2B2.4B21.4B4.4B2.3B9.2A$19.15B2A7B8.2A
4.4B19.4B6.9B8.A.A$19.15B2A8B7.A6.4B17.4B8.8B.B8.A$19.25B9.A5.4B
15.4B10.11B3.B.BA.2A$19.12B4.8B9.2A6.4B13.4B11.12B.B2A.A.A$18.11B
6.8B18.4B11.4B12.14B2A.A.A$17.13B6.3B.4B18.4B9.4B13.8B2A5B2.A.2A$
18.12B11.4B18.4B7.4B12.2AB.5BA2BA3B4A2.A$19.10B13.4B18.4B5.4B12.A.
AB.6B2A2B.BAB2.2A$19.9B15.4B18.4B3.4B13.A5.7B6.2A$19.9B16.4B18.4B.
4B13.2A5.4B.2B7.A$19.9B17.4B18.7B20.4B9.A$22.5B19.4B18.5B20.4B10.
2A$23.4B20.4B6.A10.5B19.4B$23.4B21.4B5.3A7.7B6.A10.4B$24.4B21.4B7.
A5.4B.4B5.3A7.4B$25.4B21.4B5.2A4.4B3.4B7.A5.4B$26.4B21.4B4.9B5.4B
5.2A4.4B$27.4B21.4B5.6B7.4B4.9B$28.4B21.4B2.8B8.4B5.6B$29.4B21.15B
7.4B2.8B$30.4B21.14B8.15B$31.4B21.13B9.14B$32.4B21.10B.B2A8.13B$
33.4B22.3B2AB3.BA.A8.10B.B2A$34.4B21.3B2AB6.A9.2BA4B3.BA.A$35.4B
22.4B6.2A7.2BABA4B5.A$36.4B21.3B16.2BABA3B6.2A$37.4B17.AB.2B19.BA
4B$38.4B15.A.AB2AB18.5B$39.4B14.A.ABABAB18.3B$40.4B10.2A.A.A.A.A2.
A15.5B$41.4B9.A2.A2.2A.4A15.2AB2AB$42.4B10.2A4.A15.2A2.BA.2A2.2A$
43.4B15.A.A13.A2.A.A3.B2.A$44.4B15.2A15.2A.7A$45.3BA33.A$46.3BA32.
A.4A$47.3AB32.2A2.A!
