#CSYNTH guntrue_408 costs 1968 cells.
#C period 408 fullperiod 408 bbox 41 by 48
#CLL state-numbering golly
x = 41, y = 48, rule = LifeHistory
24.A$22.3A7.2A$21.A6.A3.A$21.2A3.3A4.A$19.4B2.A6.2A$14.AB3.2B4.2A
5.B$13.A.AB.9B4.3B$14.A10B5.4B$15.B.6BA3B2.5B$16.6BABA8B$16.6BA2BA
6B$16.7B2A5B$16.13B$14.2AB.B.5B2A2B$13.A.AB2.4BA2B2AB$13.A7.2BA4BA
B$12.2A8.BAB4AB$21.2B4A2B$22.2B5A2B$22.2B5A2B$24.2B4A2B$23.B4ABAB
8.2A$23.BA4BA2B7.A$11.B2A10.B2A2BA4B2.BA.A$11.3AB9.2B2A5B.B.B2A$
10.A.2AB9.13B$9.A.A.2B8.5B2A7B$9.A2.A2.2B5.5BA2BA6B$10.2A3.3B3.7BA
BA6B$4.2A9.3B.5B2.3BA6B.B$3.A.A8.9B5.10BA$3.A8.B.8B4.9B.BA.A$2A.AB
.B3.11B5.2A4.2B3.BA$.A.A.2AB.12B6.A2.4B$.A.A.2A14B3.3A3.2A$2A.A2.
5B2A8B3.A6.A$A2.4A3BA2BA5B.B2A.A3.3A$.2A2.BAB.2B2A6B.BA.A.2A2.A$3.
2A6.7B5.A2.2A3.A$3.A7.2B.4B5.2A5.2A$5.A8.5B$4.2A9.5B$12.3B2.4B$7.B
2.BA3B3.4B$6.3AB2A2B2A3.4B$6.4A4B2A4.3BA$7.3B2A2.B6.3BA$7.3B12.3AB!
