#CSYNTH guntrue_1580 costs 4810 cells.
#C period 1580 fullperiod 1580 bbox 74 by 65
#CLL state-numbering golly
x = 74, y = 65, rule = LifeHistory
27.A$27.3A$30.A$29.2A$29.4B14.A$31.5B9.3A$28.B.9B5.A$27.6B2A5B4.BA
18.A2.2A$26.6BABABA3B.A3BA18.4A.A$22.B2.6BA2B4A6B25.A$21.2AB.6BA
12BA17.7A.2A.A$21.A.A7BABA9B2A16.A2.B3.A.A.2A$22.A9B2A5BA2B.B17.2A
2.2A.AB$23.17B2A22.B2AB2A$21.4B.15B24.5B$21.2A2.15B26.3B$22.A2.8B
2A4B19.2A5.2A3B$19.3A3.17B15.A2.A3.B2AB2A$19.A6.17B12.BA.A.A3.2ABA
4B$26.17B7.2A3.3A.A3.9B$25.7B2A9B2.2A2.A2.A2.3AB5.7B$25.7B2A.8B2.A
.A2.2A4.3B3.10B$25.8B3.7B3.B.2A9.3BA10B$25.8B3.7B2.2B2.A9.2BABA9BA
$25.8B4.6B.2BAB.A.2A7.BABA7BABA$24.9B4.8BA.A.2A.A9.A7B2.2A$23.9B5.
8B.A.A12.7B5.B$22.8B8.5B4.A2.2A9.9B$21.4B.4B8.6B4.2A.3A6.4B4.2A$
20.4B3.2B8.6B6.B4.A4.4B5.A$19.4B14.7B3.B2AB3A4.4B7.3A$18.4B16.8B.B
2A.A5.4B10.A$17.4B17.10B8.4B$16.4B17.3B2A6B7.4B$2A13.4B19.2B2A6B6.
4B$.A12.4B20.10B5.4B$.A.AB2.B5.4B20.12B3.4B$2.2AB.3B3.4B14.A.2A.
14B2.4B$4.6B.4B15.2A.A20B$4.10B20.19B$4.2B2A5B22.17B$5.A2BA3B23.
16B$5.BABA4B21.16B$6.BA6B19.4B2.8B.2B$7.2B2.4B17.4B4.7B2.A$7.2B3.
4B15.4B5.6B2.BAB$6.A2BA3.4B13.4B6.4B4.3B$6.4B4.4B11.4B5.A3B5.A.A.A
$5.A4BA4.4B9.4B5.A.AB4.9A$3.3A.2A.3A3.4B7.4B6.A.A4.A3.3B3.A$2.A3.A
2.A3.A3.4B5.4B8.A4.A.2AB3.B2A.A$2.2A.2A.B4A.A3.4B3.4B6.3A4.A2.A.2A
.2A.A2.A$3.A.A2.BA2.B.A4.4B.4B6.A7.2A2.2BA.A2B2.2A$3.A.A3.BABA.A.A
3.7B6.A.A10.2B3.2B$4.A4.BAB.A.2A4.5B7.A2.A.2A5.A2BA.A2BA$11.A.A6.
6B5.2A.A.A.A.A.A2.A2BA.A2BA$12.2A5.4B2A3B.BA.B.A.A4.2A3.2A3.2A$18.
4BA2BA2B.BA3BA.2A$19.3BABA5BAB.2BABAB$20.3BAB4.B2A2BA2B2AB$18.5B7.
2A2.A3B2A$18.2A17.B2AB$19.A18.A.A$16.3A20.A$16.A!
