#CSYNTH guntrue_805 costs 5440 cells.
#C period 805 fullperiod 805 bbox 68 by 80
#CLL state-numbering golly
x = 68, y = 80, rule = LifeHistory
28.2A16.2A$27.A.A8.2A5.A.A$21.2A4.A10.A.A4.A$19.A2.A2.2A.4A8.A2.2A
.4A$19.2A.A.A.A.A2.A7.2A.A.A.A2.A$22.A.ABABAB10.A.ABABAB$22.A.AB2A
B11.A.AB2AB$23.AB.2B13.AB.2B$26.3B15.3B$26.4B6.2A6.4B6.2A$24.3B2AB
6.A5.3B2AB6.A$24.3B2AB3.BA.A5.3B2AB3.BA.A$22.10B.B2A4.10B.B2A$21.
13B5.13B$20.14B4.14B$4.2A13.15B3.15B$5.A12.4B2.8B4.4B2.8B$5.A.AB2.
B5.4B5.6B3.4B5.6B$6.2AB.3B3.4B4.9B.4B4.9B$8.6B.4B5.2A4.7B5.2A4.4B$
8.10B7.A5.5B7.A5.4B10.2A$8.2B2A5B5.3A6.5B4.3A7.4B9.A$9.A2BA3B6.A7.
7B3.A10.4B10.A$5.2A2.BABA4B12.4B.4B7.2A5.4B5.5A$6.A3.BA6B10.4B3.4B
7.A5.4B4.A$5.A4.3B2.4B8.4B5.4B6.A.AB.7B2.B3A$5.2A3.3B3.4B6.4B7.4B
6.2AB.7B3.2B.A$7.A3B6.4B4.4B9.4B7.12B4A$5.3A4B6.4B2.4B11.4B6.7B2A
3BAB2.2A$4.A2.B.A2B7.8B13.4B5.7B2A2B.B3A2.A$3.A2.5A.A7.6B15.4B4.
10B3.B.A.2A$4.2A2.B.A.3A6.4B17.4B2.8B8.A$6.2AB2A4.A4.6B17.13B7.2A$
6.A4.4A4.8B17.6B2.3B$7.4A7.4B2.4B10.A6.4B3.5B$9.A2.A4.4B4.4B7.3A5.
6B5.2A$11.2A3.4B6.4B5.A7.8B4.A$2A13.4B8.4B4.2A5.4B2.4B4.3A$.A12.4B
10.9B4.4B4.4B5.A$.A.AB2.B5.4B12.6B5.4B6.2B2A$2.2AB.3B3.4B13.8B2.4B
8.BABA$4.6B.4B12.15B10.A3B$4.10B13.14B12.4B$4.2B2A5B14.13B14.4B$5.
A2BA3B13.2AB.10B16.4B$5.BABA4B11.A.AB3.B2A3B19.4B$6.BA6B10.A6.B2A
3B19.4B$6.3B2.4B8.2A6.4B21.2BA2B$6.3B3.4B16.3B20.2BABA4B$6.B6.4B
16.2B.BA17.2BA2BA3B$4.4B6.4B14.B2ABA.A16.4BA4B$2A2.2A2BA6.4B12.BAB
ABA.A15.10B$A2.A.AB2A7.4B9.A2.A.A.A.2A13.10B2A$.A.3A.A9.4B8.4A.2A
2.A4.2A8.9BA2BA$2.A2.3A10.4B11.A4.A.A3.A9.8BABA$3.3AB2A10.4B6.2A2.
A5.2A3.A.AB4.11BA$6.3B11.4B5.A.A.2A10.2AB.10B3A2B$3.3A3B12.4B6.A
15.12B2A3B$2.A2.BA3B12.4B4.2A15.17B$2.2A2.B2ABA12.4B2.2B17.17B.B$
7.2BA.A4.2A6.8B15.19B2A$9.BA6.A7.7B13.19B.B2A$17.A.2A5.7B2.B2.2B2.
20B4.B$18.A2.A4.36B$19.2AB3.27B.9B$20.14B2A16B2.7B$21.13B2A16B2.7B
$22.29B4.6B$22.17B.B.2B10.7B$23.15B4.3B10.6B$23.15B5.A2B.2A6.7B$
24.13B5.A.A2B.A7.5B$26.13B2.A.AB2.A8.6B$25.8B4.2A.A.A3.A7.9B$25.6B
6.2ABA2.4A.A5.2A.7B$25.5B8.B2.A.A3.A.A5.A5.4B$25.B.B9.2A.2A2.A2.A.
A2.3A7.4B$26.3B9.A.A2.2A3.A3.A10.3BA$25.B2AB9.A.A23.3BA$26.2A11.A
25.3A!
