#CSYNTH guntrue_1348 costs 6790 cells.
#C period 1348 fullperiod 1348 bbox 97 by 70
#CLL state-numbering golly
x = 97, y = 70, rule = LifeHistory
29.2A$29.A.A$31.A4.2A$27.4A.2A2.A2.A20.2A$27.A2.A.A.A.A.2A12.2A5.A
.A$29.BABABA.A15.A.A4.A$30.B2ABA.A17.A2.2A.4A$31.2B.BA17.2A.A.A.A
2.A$30.3B21.A.ABABAB$21.2A6.4B21.A.AB2AB$22.A6.B2A3B20.AB.2B$22.A.
AB3.B2A3B23.3B$23.2AB.10B21.4B6.2A$25.13B18.3B2AB6.A$25.14B17.3B2A
B3.BA.A$25.15B14.10B.B2A$27.8B2.4B12.6BA6B$27.6B5.4B10.6B2A6B$26.
9B4.4B8.7BABA5B$25.4B4.2A5.4B6.4B2.8B$24.4B5.A7.4B4.4B5.6B$23.4B7.
3A5.4B2.4B4.9B$22.4B10.A6.8B5.2A4.4B16.2A$21.4B19.6B7.A5.4B14.B2A
2B3.2A$20.4B21.4B5.3A7.4B14.4B2.B2AB$19.4B21.6B4.A10.4B9.B.6B3.2B$
18.4B21.8B15.4B6.10B2.2B$17.4B21.4B2.4B10.A4.4B5.11B2A2B$16.4B21.
4B4.4B7.3A5.4B3.12B2A3B.B$15.4B21.4B6.4B5.A9.4B2.18B2A$.2A11.4B21.
4B3.A4.4B4.2A9.4B2.15B.B2A$.A2.A8.4B21.4B3.A.A4.9B10.19B3.B$2.5A5.
4B5.2A14.4B4.A.A5.6B13.18B$7.A4.4B5.A2.A11.4B4.2A.2A5.6B3.B2.2B2.
19B$4.3AB2.7B.BA.A.2A10.4B4.A2.A2.A4.35B$3.A.2B3.7B.B2A.A11.4B5.2A
2.2AB3.27B.7B$3.4A12B3.A10.4B11.14B2A16B2.6B$.2A2.BA3B2A7B3.3A7.4B
13.13B2A17B.7B$A2.3AB.2B2A7B6.A5.4B15.32B.6B$2A.A.B3.10B5.2A4.4B
16.17B.B.2B7.9B$3.A8.8B4.9B18.15B4.3B7.8B$3.2A7.9B5.6B19.15B5.A2B.
2A4.8B$13.3B2.4B2.8B20.13B5.A.A2B.A5.7B7.A$11.5B3.15B20.13B2.A.AB
2.A7.6B5.3A$11.2A7.14B19.8B4.2A.A.A3.A8.7B3.A$12.A8.13B19.6B6.2ABA
2.4A.A6.7B3.2A$9.3A10.10B.B2A17.5B8.B2.A.A3.A.A5.12B$9.A14.3B2AB3.
BA.A16.B.B9.2A.2A2.A2.A.A5.10B$24.3B2AB6.A17.3B9.A.A2.2A3.A6.11B$
26.4B6.2A15.B2AB9.A.A14.10B$26.3B25.2A11.A15.11B$23.AB.2B44.2A8.
12B$22.A.AB2AB42.B2AB6.13B$22.A.ABABAB41.4B5.4B2.4B$19.2A.A.A.A.A
2.A40.2B5.4B3.2B2AB$19.A2.A2.2A.4A32.A7.4B2.4B5.BA2BA$21.2A4.A35.A
.A5.5B.4B6.2B2A.A$27.A.A34.A.14B8.3B.A$28.2A35.14B8.A4.A.2A$65.14B
6.3A3.2A.2A$65.15B4.A$64.3B2A12B3.2A$64.3B2A13B$62.2AB.11B2.4B$61.
A.AB2.8B5.4B$61.A5.10B4.4B$60.2A5.B.B5.2A5.4B$68.3B4.A7.3BA$67.B2A
B5.3A5.3BA$68.2A8.A6.3AB!
