#CSYNTH guntrue_9628 costs 2816 cells.
#C period 9628 fullperiod 9628 bbox 64 by 44
#CLL state-numbering golly
x = 64, y = 44, rule = LifeHistory
15.2A$14.B2AB4.A$15.4B2.A.A$14.4B2.2BAB$14.3B4.2B$12.3BA2B2.3B$11.
4BA7B$12.2BABA4BA3B$8.2A2.9BA4B.B$8.A3.8BABA3B3AB18.A$5.2A.A.8B.6B
5AB16.A.A$5.A2.A.2A5B2.5BABA2BAB16.A.A4.2A$7.2A.A.5B2.6BAB2A2B.B
12.3A.2A4.A$8.A.A.2B.B4.3B3.BA4B2A6.A3.A4.B5.A.2A3.2A$7.A2.AB2A4.
5B3.6B2A4.3A4.3AB2AB4.A.A4.A$8.2A.B2A4.2A4.9B4.A9.A.2AB6.A.3A$9.A.
2AB5.A4.2A2.5B4.2A12.4B2.2A.A$9.A.A4.3A6.A4.B2.6B12.10B$8.2A.A.A2.
A5.3A7.5B10.B2.7B.2B$12.2A8.A8.7B2.B5.13B$30.8B.3B2.16B$29.9B.21B$
28.15BA4B2A10B$27.4B.11B2A2BABA9B$12.2A12.4B2.6BA5BA2BABA7B$11.A2.
A10.4B3.4B3A4BA3B2A6B$9.BA.A.A9.4B3.4BA14BA4B$9.3A.A9.4B4.6B2A3BA
4B3A4B$9.3AB9.4B3.7BABA2BA5BA6B$10.3B8.4B2.9BABA2B2A11B$13.2B5.4B
2.10B2A4BA12B$13.3B3.4B3.21B.6B$13.B2A.5B4.16B2.10B$2A.2A7.BA2BA4B
6.13B5.B.5B$2A.A8.2B2A4B6.2B.7B2.B8.4B$3.A.B3.2A8B6.10B12.2B2AB$3.
2A2B.3BA7B6.A.2A2.4B14.2A$.2A2.A2BAB2A7B4.3A.A6.B2A.A$A2.AB2A12B3.
A4.A.A4.B2AB3A$2A.A.AB3.7B.B2A2.A3.2A.A5.B4.A$.A2.3AB2.7B.BA.2A7.A
4.2A.3A$.A5.A4.2BAB5.A8.2A4.A.A$2.5A5.3BA5.A.A12.A.A$4.A8.3AB5.2A
13.A!
