#CSYNTH guntrue_146 costs 3904 cells.
#C period 146 fullperiod 146 bbox 61 by 64
#CLL state-numbering golly
x = 61, y = 64, rule = LifeHistory
39.2A$20.2A.A.2A11.B2AB$15.A3.A2.2A.A2.A.2A.A4.3B$13.3A2.A.A4.A.2A
.A.2A5.B.B$12.A6.A.5A2.B8.5B$12.2A7.A4.AB2A6.6B$9.5B6.A2.BA.A.2A4.
8B$8.4B7.A.2BA.A2.13B$7.5B7.2A.2BA5.13B$6.6B11.3B3.15B$4.B.6B12.2B
3.15B$3.2AB.6B10.4B.17B$3.2A7B4.29B$4.2B.6B2.16B2A13B$7.6B2.16B2A
14B$.B3.9B.4B3A20B3.B2A$2AB.12BA4BA19B4.A2.A$2A13B2A3BA4B2.2B2.B2.
7B5.2A.A$.13B2A6B13.7B7.A$.14BA2BAB15.8B6.2A$3.13B2AB17.2B2.4B$3.
17B15.2A4.4B$3.17B15.A6.4B$4.10B.3B.B2A14.A6.2B2A$5.9B5.BA.A12.2A
7.BABA$5.8B9.A22.A3B$2.B2.9B8.2A22.4B$.2AB.9B33.4B$.2A10B35.4B$2.B
.8B37.4B$5.8B36.4B$5.7B37.2BA2B$6.5B37.2BABA4B$7.4B37.2BA2BA3B$7.
4B37.4BA4B$8.4B35.10B$9.4B33.10B2A$10.4B22.2A8.9BA2BA$11.4B22.A9.
8BABA$12.4B6.2A13.A.AB4.11BA$13.4B5.A15.2AB.10B3A2B$14.4B6.A15.12B
2A3B$15.4B4.2A15.17B$16.4B2.2B17.17B.B$9.2A6.8B15.19B2A$10.A7.7B
13.19B.B2A$10.A.2A5.7B2.B2.2B2.20B4.B$11.A2.A4.36B$12.2AB3.27B.9B$
13.6BA3BA21B2.7B$14.BA2B2A3BA21B2.7B$15.2BA6BA19B4.6B$15.2BAB2AB2A
8B.B.2B10.7B$16.A8B3A3B4.3B10.6B$16.BAB2A4B2A4B5.A2B.2A6.7B$17.BA
2B3ABA4B5.A.A2B.A7.5B$19.4BA8B2.A.AB2.A8.6B$18.BABA4B4.2A.A.A3.A7.
9B$18.BABA2B6.2ABA2.4A.A5.2A.7B$18.B3AB8.B2.A.A3.A.A5.A5.4B$18.B.B
9.2A.2A2.A2.A.A2.3A7.4B$19.3B9.A.A2.2A3.A3.A10.3BA$18.B2AB9.A.A23.
3BA$19.2A11.A25.3A!
