#CSYNTH guntrue_249 costs 3149 cells.
#C period 249 fullperiod 249 bbox 67 by 47
#CLL state-numbering golly
x = 67, y = 47, rule = LifeHistory
46.2A$47.A11.2A$47.A.AB8.A$15.2A31.2AB.3B.BA.A$16.A11.2A6.2A12.5B.
B2A$16.A.AB8.A7.A3.2A8.7B$17.2AB.3B.BA.A4.BA.A3.A8.7B$19.5B.B2A5.B
2A5.3A5.8B3.B$9.2A8.7B5.3B9.A4.14B2.B$9.A8.7B5.4B10.3B2.13B.3B$10.
3A5.8B3.4B10.9B2A11B2A$12.A4.15B6.2B3.8B2ABA10B2A$13.3B2.14B5.8B2A
4BA2BA9B.B$12.9B2A12B2.8B3AB.B3A8B$7.2B3.8B2ABA20BA2BA4B2A8B$6.8B
2A4BA2BA20BAB2A8B3.2B$6.8B3AB.B3A8B2.12B2A9B$2.B.9BA2BA4B2A8B5.14B
2.3B$.2A10BAB2A8B3.2B6.15B4.A$.2A11B2A9B10.4B3.8B5.3A$2.3B.13B2.3B
10.4B5.7B8.A$3.B2.14B4.A8.4B5.7B8.2A$7.B3.8B5.3A5.4B4.2AB.5B$12.7B
8.A3.4B4.A.AB.3B.B2A$11.7B6.3A3.4B5.A8.BA.A$9.2AB.5B6.A4.ABAB5.2A
11.A$8.A.AB.3B.B2A8.B2AB19.2A$8.A8.BA.A6.3BA$7.2A11.A5.4B$11.A8.2A
3.4B$11.3A10.4B$14.A8.4B$13.2A7.4B$13.5B3.4B$4.2A9.3B2.4B$3.A.A8.
9B$3.A8.B.8B$2A.AB.B3.BA9B$.A.A.2AB.3A9B$.A.A.2A2B2A10B$2A.A2.5BA
9B$A2.4A3BA8B.B2A$.2A2.BAB.BA8B.BA.A$3.2A6.7B5.A$3.A7.2B.3BA5.2A$
5.A9.3BA$4.2A10.3AB!
