#CSYNTH guntrue_2436 costs 4620 cells.
#C period 2436 fullperiod 2436 bbox 84 by 55
#CLL state-numbering golly
x = 84, y = 55, rule = LifeHistory
33.2A$32.A2BAB12.2A$33.2BAB10.BABAB$34.BAB10.3AB$29.A3.ABAB10.2AB$
12.A2BA12.A2B.A.AB11.BABA3.B$12.3BAB11.A4BA14.BA.A.B2A12.4B$11.A4B
A12.4AB16.A2BABA11.2A3B$11.2AB.A.AB10.4B17.B4A12.2A2B2A$12.B3.AB2A
6.2B7.2A14.B2AB10.2A.A.B2A$17.3B5.5B5.A11.2A7.2B6.B3A3.B$16.4B5.6B
.BA.A12.A5.5B5.3B$15.BA2BA2.5BA3B.B2A13.A.AB.6B5.4B$16.2A2.7B2ABA
2B16.2AB.3B2A4B2.2B2AB$20.6BA4BAB18.4B2ABA5B2.2A$13.A6.11BAB18.3BA
3BA5B$11.3A6.10BA2B18.4B3A6B6.A$10.A8.13B19.5BA7B6.3A$10.2A6.14B2.
A17.13B8.A$7.5B5.7B.7B2.3A15.14B6.2A$6.4B6.7B2.7B5.A14.7B.7B5.5B$
6.5B4.7B4.5B5.2A10.2A2.7B2.7B6.4B$5.7B2.7B5.5B5.5B7.A4.5B4.7B4.5B$
5.7B.7B4.A.5B7.2B2A3.BA.A4.5B5.7B2.7B$5.14B3.A2BA2.4B5.3B2AB2.B2A
5.5B.B4.7B.7B$5.13B4.A2BA3.4B4.10B5.4B2.3AB3.14B$4.13B6.A6.4B2.10B
5.4B3.B3A4.13B$4.B2A10B14.4B2.9B4.4B6.B6.13B$4.B2A10B15.13B4.4B14.
10B2AB$4.13B2.2A12.12B3.4B15.10B2AB$2.2AB.9B2.2B2AB12.10B3.4B12.2A
2.13B$.A.AB.6B5.2B2A14.7B2.B.4B12.A2BAB2.9B.B2A$.A5.5B5.2BA16.13B
14.2BAB5.6B.BA.A$2A7.2B6.BABA3.B12.11B16.BAB5.5B5.A$4.4B10.BA.A.3A
11.10B12.A3.ABAB6.2B7.2A$3.2A3B12.AB4A12.9B11.A2B.A.AB10.4B$3.2A2B
2A11.BA3B6.2A6.9B10.A4BA12.3B2A$.2A.A.B2A12.4B5.B2AB4.9B12.4AB11.
2ABA2B$B3A3.B22.4B5.7B13.4B12.2AB.A.BA$3B28.2B5.8B30.B3.ABAB$4B19.
A7.4B2.9B35.A2B$2B2AB17.A.A5.5B.10B34.4B$2.2A19.A.14B3.3B34.B2A2B$
24.14B42.2A$24.14B$24.15B$23.3B2A12B$23.3B2A13B$21.2AB.11B2.4B$20.
A.AB2.8B5.4B$20.A5.10B4.4B$19.2A5.B.B5.2A5.4B$27.3B4.A7.3BA$26.B2A
B5.3A5.3BA$27.2A8.A6.3AB!
