#CSYNTH guntrue_3210 costs 6177 cells.
#C period 3210 fullperiod 3210 bbox 71 by 87
#CLL state-numbering golly
x = 71, y = 87, rule = LifeHistory
28.2A13.A$27.A.A11.3A$21.2A3.A13.A$21.A.A.A.2A11.2A4.2A$23.A.A.B.A
B6.5B3.A.2BA$22.2A.A3BAB4.BA3B6.A4B2.2A$21.BABA2B.BA5BABA3B6.ABABA
2.A$20.B2A2BA2B2AB.2BA2BA4B6.BA2B2A$20.2A3BA2.2A2.3B2A4B7.B2A$19.B
2AB11.6B8.B5A$19.A.A12.5B10.3B2.A$20.A12.7B9.B.2BA.A$32.4B.4B7.A2B
A.A2.A$31.4B3.4B6.AB3A2.2A$30.4B5.4B6.3AB$29.4B7.4B6.B$28.4B9.4B3.
3B$19.A7.4B11.4B2.3B$17.3A6.4B13.6BAB$16.A8.4B15.4BABAB$15.A.A6.4B
17.3BA2BA$14.BA.A5.4B17.5B2A2B$13.3BA5.4B17.10B$11.4B6.4B17.4B.6B$
9.6B5.4B17.4B3.3B.B2A$8.7B4.4B17.4B5.B2.BA.A$.B.4B.8B2.4B17.4B12.A
$2AB.17B4.2A11.2A2B13.2A$2A18B5.A2.A8.2B2A$.2B.16B6.5A5.2BAB5.2A$
4.16B11.A4.4B5.A$5.15B8.3AB2.7B.BA.A$6.12B.B2A5.A.2B3.7B.B2A$6.11B
2.BA.A4.4A12B$7.10B5.A2.2A2.BA3B2A7B$7.6B2A2B5.A.A2.3AB.2B2A7B$7.
6B2A3B5.A.A.A.B3.10B$7.10B7.A2.A8.8B$3.A.2AB.8B10.2A7.9B$.3AB2AB3.
7B19.3B2.4B10.A$A4.B6.6B17.5B3.4B9.3A$.3A.2A4.6B18.2A7.4B11.A$3.2A
2.A4.5B19.A8.4B9.2A$6.A.A.8B15.3A10.4B8.4B$2.A.2A.A.A8B8.A6.A13.4B
9.B2A$2.2A.A.BA2B.6B6.3A21.4B7.BA.A$5.A2.2B2.7B4.A25.4B6.B2A$5.2A.
B3.7B4.2A19.2A4.4B5.3B$3.2A2.A.A2.8B.4B4.A15.A5.4B2.4B$2.A2.A2.2A
2.11B4.3A15.A.AB3.9B$3.2A7.12B2.A19.2AB.12B.3B$12.12B2.2A20.16B2A$
13.11B3.B20.16BABA$16.7B4.3B19.16BAB$15.8B3.6B16.19B$14.9B2.10B11.
18B2.B2A$13.23B3.2B2.20B3.BA.A$11.B.16B2A31B7.A$10.2A17B2A22B.7B8.
2A$10.2A41B2.6B$11.42B3.5B$9.5B2.36B5.3B$9.2A6.5B5.13B.4B10.7B$10.
A7.2B.3B3.7B.B4.4B11.2A.B.2A$7.3A12.2A15.4B13.A3.A$7.A14.A3.A11.5B
10.3A5.3A$23.4A10.5B7.B3.A9.A$36.7B5.BAB$25.2A8.4B.4B4.3A$24.B2AB
6.4B3.3A3.5B$24.4B5.4B3.AB2AB2.5B$25.2B5.4B4.A3BA.2B3A2B$17.A7.4B
2.4B6.A2BA.7B$16.A.A5.5B.4B7.3B.3BABA3B$17.A.14B8.3B.3BABA3B$18.
14B9.A2BA.7B$18.14B8.A3BA.2B3A2B$18.15B7.AB2AB2.5B$17.3B2A12B7.3A
3.5B$17.3B2A13B6.3B4.3A$15.2AB.11B2.4B6.B5.BAB$14.A.AB2.8B5.4B12.B
$14.A5.10B4.4B$13.2A5.B.B5.2A5.4B$21.3B4.A7.3BA$20.B2AB5.3A5.3BA$
21.2A8.A6.3AB!
