#CSYNTH guntrue_660 costs 1680 cells.
#C period 660 fullperiod 660 bbox 42 by 40
#CLL state-numbering golly
x = 42, y = 40, rule = LifeHistory
25.2A$23.3A.A$16.A5.A4.3A$15.A.A4.A.2A4.A$15.A.A3.2A.A.4A$14.2A.2A
.2B2.A.A$13.A4.3B6A.4A$14.3ABA2B.B.4BA2.A$16.A.AB3A5B$19.2B2A.3BA$
25.A6.2A$24.B5.BAB.A$10.2A11.4B3.B2A.A$11.A5.2A9B2.B.B.2A$11.A.AB.
A2BA3BA3B2.2B2A3.A$5.A6.2AB.BA6BA3B.BA2.3A$2A.3AB7.10BA4BAB2A$A.3A
B8.6BABA7BA2.A$.2AB10.16B2.2A$2.3B11.BA5BA6B$3.BA.2A8.5B2AB2A3B$2.
B2ABA.A9.6BA2B$.AB.3BAB9.BAB2ABA2B$2.2A.A2B3.2B5.ABA2BA3B6.2B$2.B
4AB2.3B6.A2BA3B5.6B$3.6B2A3B4.2BABA3B3.10B$2.A5.3A3BA3.3BA3B2.3B8A
3B$.A.A4.3A12B3.4BAB4ABA4B$2.A5.B2A8B.2B5.3B8A3B$6.B.2B2A8B9.10B$
5.2A4BA4B.4B10.6B$5.A.7B4.4B11.2B$3.2A2.AB2.B7.4B7.A2B2.2BA$2.A2.
3AB.4B6.4B4.4BA2BA4B$2.2A6.A.2A7.5B.5BA2BA5B$7.4AB2A8.10BA2BA4B$7.
A4.B10.6B.AB4.BA$8.3A.2A10.3BA$10.2A2.A10.3BA$13.2A11.3AB!
