#CSYNTH guntrue_500 costs 2028 cells.
#C period 500 fullperiod 500 bbox 52 by 39
#CLL state-numbering golly
x = 52, y = 39, rule = LifeHistory
11.2A5.2B19.2A4.2A$.ABA4BA6BA2B3A2.2A14.A.A2.A.A$BA.4ABABA2BABABAB
2AB.2A2.2A5.2A5.A2BA$2A2B.2A2.B4AB4.B3A5.A4.A2.A2.BA4BAB$2B.2B2AB
3.2B8.BAB3.A5.3A3.BA4BAB$4.A.A4.2B9.A4.2A2.2A7.A4BA$5.A6.B12.2A3.A
.A.4A4.2A6.2A$11.2AB10.A2.A.2A.ABA2.A5.B6.A$2.2A6.A2BAB5.2A2.3A3.
2B2A9.2B2.BA.A$3.A4.3B2A3B4.A6.4ABAB7.2B2AB.B2A$3.A.AB.8B.BA.A3.2A
.A.BA4B2.6BABA2B$4.2AB.8B.B2A3.A.A.2B2AB.5B2A5BA2B$6.12B4.A2.A.2B
2A2.4B2ABA2B3A2B.2A$6.12B3.A3.2A2.B3.5BA2B2A4B.A.A$6.6B3A3B2.A11.
9B2A5.BA$8.4BA5B3.3A7.4B3.2BAB7.2B$10.3BA3B7.A5.4B14.BA2B$10.8B5.
2A4.4B14.4A$9.5B.4B4.9B14.BA.2B$9.6B.4B5.7B14.2BAB$8.6B3.4B2.8B7.
2A2.2A.2B2AB$4.B2.3BA3B4.15B5.A2.A.3AB2A$2.7BABA2B5.15B5.A.A.3BA.
2A$2.7BABA2B6.14B6.A2.2AB.A.A$.9BA3B7.10B3.B2A4.2A.4BA$.11B.B2A7.
3B2AB5.3AB5.A3B$2.9B2.BA.A6.3B2AB4.A.2AB3.2AB.6A$2.7B7.A8.4B3.A.A.
2B2.A2.2A2B.A2.A$3.6B7.2A7.3B4.A2.A5.A.B2.B.2B2A$4.4B14.AB.2B6.2A
5.2A.2A4B$5.4B12.A.AB2AB10.A2.A.A.3B4A$6.4B11.A.ABABAB9.2A3.A.3A3.
A$7.4B7.2A.A.A.A.A2.A12.2A4BA$8.4B6.A2.A2.2A.4A10.2A2.BAB.2A$9.4B
7.2A4.A13.A2.2ABA2B2.A$10.4B12.A.A11.2A.A2.B.A.2A$11.3BA12.2A14.A
2.B2A.A$12.3BA27.2A2.A2.A$13.3AB31.2A!
