#CSYNTH guntrue_693 costs 4692 cells.
#C period 693 fullperiod 693 bbox 68 by 69
#CLL state-numbering golly
x = 68, y = 69, rule = LifeHistory
16.2A5.BA15.2A.A.2A$15.A2.A.2B2A.A7.A.2A.A2.A.2A2.A$15.2A.5A.2A7.
2A.A.2A.A4.A.A$16.A.A2.A2.6B8.B2.5A.A$15.AB.A2BA4.5B6.2ABA4.A$14.
3BA.BA5.7B4.2A.A.AB2.A$14.2A2B8.13B2.A.A2B.A$12.A2B.A7.13B5.A2B.2A
4.A$11.A3BA7.15B3.3B8.3A$12.A.A8.15B3.2B12.A$22.17B.4B10.2A$22.22B
A6B3.4B2A$21.13B2A7B2A7B4.2B2A$20.14B2A7BABA6B2.7B$19.2AB3.27B.7B$
18.A2.A4.27B3A5B$17.A.2A5.7B2.B2.2B2.8BABABABA4B4.B$17.A7.7B13.4B
2ABA3BA6B.B2A$16.2A6.8B15.3BABA2B2A8B2A$23.4B2.2B17.A5BA9B.B$22.4B
4.2A15.B2ABA2BA8B$7.2A12.4B6.A15.3B2ABA10B$6.B2AB10.4B6.A14.2AB.
15B$7.2B10.4B7.2A12.A.AB3.15B$8.2B8.4B22.A5.4B2.6B2.2A$A6.4B6.4B
22.2A4.4B4.5B2.A$3A3.6B4.4B28.4B4.6B3.3A$3.A2.5B4.4B4.2A22.4B6.4B
6.A$2.2A2.6B2.4B5.A22.4B8.2B$2.15B3.BA.A12.2A7.4B10.2B$4.15B.B2A
14.A6.4B10.B2AB$4.10BAB2A3B15.A6.4B12.2A$5.8BA2BAB2AB15.2A4.4B$2.B
.9BA5BA17.2B2.4B$.2A8B2A2BABA3B15.8B6.2A$.2AB.6BA3BAB2A4B13.7B7.A$
2.B4.4BABABABA8B2.2B2.B2.7B5.2A.A$7.5B3A27B4.A2.A$8.7B.27B3.B2A$7.
7B2.6BABA7B2A14B$8.2A2B4.7B2A7B2A13B$8.2A4B3.6BA22B$12.2A10.2B.B.
17B$12.A10.3B4.15B3.A$13.3A3.2A.2BA5.15B2.A.A$15.A3.A.2BA.A5.13B3.
A.A$20.A2.BA.A2.13B4.2A.A.2A$21.A3.A.A.2A4.8B.AB3.A2.A$19.A.4A2.AB
2A6.6BA2B3A.A$18.A.A3.A.A2.B7.4B2.4B.A.2A$18.A2.A.A2.2A.2A5.4B3.2B
.BAB.A$19.3A.2A2.A.A5.4B4.BABA.A.A$23.B3.A.A4.4B4.A.A.A.2A$18.A.2A
B2A3.A4.4B3.3A.A2.A$18.2A.A.2A7.4B3.A5.A.A$23.5B3.4B4.2A5.A$14.2A
9.3B2.4B$13.A.A8.9B$13.A8.B.8B$10.2A.AB.B3.BA9B$11.A.A.2AB.3A9B$
11.A.A.2A2B2A10B$10.2A.A2.5BA9B$10.A2.4A3BA8B.B2A$11.2A2.BAB.BA8B.
BA.A$13.2A6.7B5.A$13.A7.2B.3BA5.2A$15.A9.3BA$14.2A10.3AB!
