#CSYNTH guntrue_1375 costs 3192 cells.
#C period 1375 fullperiod 1375 bbox 57 by 56
#CLL state-numbering golly
x = 57, y = 56, rule = LifeHistory
31.2B$15.A13.6B$15.3A11.7B$6.A11.A9.9B$5.A.A9.2A10.9B$4.A2.A9.5B7.
10B$4.4A.2A8.3B6.12B$8.A.A5.7B4.9B.4B$.2A3.A.B7.7B2.4B2A3B4.4B$.A
2.3AB2A5.A12BA2BA2B5.4B$2.2A3.BA.A2B.ABA12B2A2B7.4B$4.A4B3A2BABA
15B9.4B$2.4A.2BAB3.BA18B8.4B$.A2.2B2.B6.10B.B5.2A9.4B$.2A13.10B6.A
11.4B$19.8B6.3A9.4B$17.6B.4B7.A4.A5.4B$17.2A4.2BA3B.2B6.BABA5.4B$
18.A3.2BABA6B4.BA2BAB5.4B$15.3A3.3BABA6B4.BA5B5.4B$15.A6.3BA8B3.BA
B3AB6.4B$21.13B3.BA3B2A7.4B$21.24B7.4B$21.22B3A7.3BA$18.20B2A3B3A
8.ABA$16.16B.4BA3B2ABAB9.2A$16.12B6.7B3AB11.B$16.6B4.B3.2BAB2A3BA
3BA2B$15.8B.4B.2B6A3B3A2B$15.14B2A7BAB3A2B$15.14B2A11BA2B$14.15B2A
3BA2BA7B$13.2A16B2A2B2A5BA2B$12.ABA13B.3B3A2B.4BA2B$11.3BAB.6B3.2B
2.2B3AB6.4B$11.4B3.3B6.B5.B8.4B$10.5B12.2A13.5B$10.6B9.A4BA10.2BA
3B$2A.2A5.2BA3B8.BA4BAB9.BAB2AB5.2B.2A$A2.3B4.3B2AB8.BA4BAB9.BA3BA
4.3A2.A$.2A2BA3.B2ABA2B10.A2BA11.4BABA3.3B2A$2.3A2B2.B2ABAB9.A.A2.
A.A10.3BABA2.A4B$2.3A5B2ABA5.2A3.2A4.2A4.2A5.7BA4B$.2A2BA2.6B4.A2.
A13.A2.A4.6B2.3B2A$A2.3B3.5B4.A.2A13.2A.A4.5B3.3A2.A$2A.2A5.4B3.2A
19.2A3.4B5.2B.2A$8.5B3.B2.3A13.3A2.A3.5B$8.2A3.AB.B2A3.A.2A5.2A.A
3.B2A.BA3.2A$9.A2.A.2AB2ABABA.A2.A.A2.A.2A3B2ABA.A2.A$6.3A4.4AB.2B
.A.A.2A.2A.A.B.2A.BA2BA4.3A$6.A7.B.3AB.AB2A7.AB2A.B2AB.B7.A$18.A.A
3.A7.A3.A.A$18.A.4A9.4A.A$19.A17.A$21.A13.A$20.2A13.2A!
