#CSYNTH guntrue_1182 costs 6510 cells.
#C period 1182 fullperiod 1182 bbox 93 by 70
#CLL state-numbering golly
x = 93, y = 70, rule = LifeHistory
23.2A5.2A15.2A.A.2A$22.A2.A.ABAB.A7.A.2A.A2.A.2A2.A$22.2A.ABA2B.2A
7.2A.A.2A.A4.A.A$23.A.A2.B2.6B8.B2.5A.A$22.BA.4A4.5B6.2ABA4.A$21.
3AB.2B5.7B4.2A.A.AB2.A$21.B2AB8.13B2.A.A2B.A15.2A$19.2BA.A7.13B5.A
2B.2A15.A$18.3ABA7.15B3.3B16.BA.A$19.B.B8.15B3.2B14.2A.B2A$29.17B.
4B12.B2A2B$29.29B6.4B$28.13B2A16B3.6B21.A$27.14B2A16B2.6B20.3A$26.
2AB3.27B.7B19.A$25.A2.A4.35B11.A6.2A$24.A.2A5.6B3.B2.2B2.20B9.A.A
3.4B$24.A7.6B14.18B9.A.5B$23.2A6.9B14.16B10.7B$30.4B4.2A15.14B11.
4B2A4B.B$29.4B5.A15.16B10.4B2A3B.B2A$28.4B7.3A12.14B.B2A8.11B2A$
27.4B10.A10.2AB.3B3.6B.BA.A7.9B.2B$26.4B21.A.AB7.6B4.A2.2B2.10B$
25.4B22.A9.7B4.A.2A13B$24.4B22.2A4.2A2.8B3.2A.2A13B$23.4B27.A2.A
12B5.2B.11B$11.2A9.4B19.2A7.2A3.11B8.9B.B2A$11.A9.4B12.2A5.A.A12.
4B2A5B10.7B.BA.A$8.BA.A8.4B13.A.A4.A15.3B2A5B9.7B5.A$6.B.B2A8.4B
16.A2.2A.4A11.10B8.8B5.2A$5.B2AB9.4B16.2A.A.A.A2.A12.9B7.4B2.4B$3.
B2A.AB8.4B18.A.ABABAB14.9B6.4B4.4B$2.2A.AB9.4B19.A.AB2AB15.8B6.4B
6.4B$2.2B.2BA7.4B21.AB.2B17.8B4.4B8.4B$2.AB.2B7.4B25.3B17.6B4.4B
10.4B$.BAB3A6.4B26.4B6.2A8.6B3.4B12.4B$2A2B.B.B4.4B25.3B2AB6.A9.6B
2.4B14.3BA$.BA2.3B3.4B26.3B2AB3.BA.A8.7B.4B16.ABA$5.3B2.4B25.10B.B
2A9.6B.4B18.2A$5.BA6B25.13B12.9B20.B$4.BABA4B25.14B12.8B$4.A2BA3B
25.15B11.8B$3.2B2A5B23.4B2.8B4.A8.7B$3.10B21.4B5.6B4.3A6.6B$3.6B.
4B19.ABAB4.9B6.A4.7B$.2AB.3B3.4B17.B2AB5.2A4.4B4.2A4.7B$A.AB2.B5.
4B15.3BA7.A5.4B3.4B.8B$AB11.4B13.4B5.3A7.4B4.11B$.AB6.2A3.4B11.4B
6.A10.4B2.12B$.3BAB2.A2.A3.4B9.4B19.4B.12B$.2A.A.AB.2A5.4B7.4B21.
15B$2.B.A.A2B8.4B5.4B23.11B7.2A$.3A2.A.B9.4B3.4B25.11B6.A$A5.A.2A
9.4B.4B27.11B2.BA.A$2A5.A2.A9.7B18.2A8.12B.B2A$8.2A11.5B20.A7.15B$
21.6B19.A.AB4.16B$11.2A2.B2.4B2A4B19.2AB.18B$10.B4ABAB.2BA2BA4B20.
2B2A14B.B2A$11.A.A2B3A3BABA3B21.BA.AB2.8B4.BA.A$17.B4.BA3B23.2A5.
6B8.A$14.2B3A5.5B27.6B9.2A$10.2A.A.3A.A7.2A27.B2A2B$10.A.2A.A.2B.A
6.A28.BABAB$14.3A2.2A7.3A27.A4B$11.3A3.A12.A30.2A$11.A2.3A44.A$14.
A47.3A$64.A!
