#CSYNTH guntrue_1030 costs 4760 cells.
#C period 1030 fullperiod 1030 bbox 70 by 68
#CLL state-numbering golly
x = 70, y = 68, rule = LifeHistory
41.A11.2A$40.A.A9.B2AB$32.A3.2A2.A.A9.3B$28.A2.A.A2.A2.2A.2A9.B.B$
19.2A5.3A2.A.A3.A.A2.B8.5B$18.B2AB3.A6.A.4A2.AB2A6.6B$19.2B4.2A7.A
3.A.A.2A4.8B$20.7B6.A2.BA.A2.13B$19.6B7.A.2BA.A5.13B$18.8B6.2A.2BA
5.15B$17.9B10.3B4.15B$15.12B10.2B.B.17B$14.12B4.29B$15.12B2.16B2A
13B$2A13.12B2.16B2A14B$.A12.14B.27B3.B2A$.A.AB2.B5.42B4.A2.A$2.2AB
.3B3.4B2.21B2.2B2.B3.6B5.2A.A$4.6B.4B4.17B14.6B7.A$4.10B4.16B14.9B
6.2A$4.2B2A5B5.15B15.2A4.4B$5.A2BA3B5.17B15.A5.4B$5.BABA4B5.8B.7B
12.3A7.4B$6.BA6B5.6B4.3B.B2A10.A10.4B$6.3B2.4B5.4B9.BA.A21.4B$6.3B
3.4B4.6B10.A21.4B$6.B6.4B4.B.B2A.A8.2A20.5B$4.4B6.4B5.B2AB3A27.9B$
2A2.5A6.4B6.B4.A26.9B$A2.A.2B2A7.4B4.2A.3A27.9B$.A.A2B.B9.4B4.A.A
28.10B$2.A2.3B10.4B3.A.A27.12B$3.3AB2A10.4B3.A18.2A8.13B$6.A2B11.
4B22.A9.11B$3.3A3B12.4B21.A.AB4.12B$2.A2.3A2B12.4B10.A10.2AB.15B$
2.2A2.B4A12.4B7.3A12.17B$7.B2A.A12.4B5.A15.17B$9.BA14.4B4.2A15.17B
.B$18.2A6.9B14.19B2A$19.A7.6B14.19B.B2A$19.A.2A5.6B3.B2.2B2.20B4.B
$20.A2.A4.19B2A15B$21.2AB3.19B2AB2A3B.9B$22.14B2A8B2AB2A3B2.7B$23.
13B2A10B3A3B2.7B$18.2A4.29B4.6B$18.A.A3.17B.B.2B10.7B$21.A3.15B4.
3B10.6B$15.AB2.2A.A2.15B5.A2B.2A6.7B$14.A4B.A.A3.13B5.A.A2B.A6.8B$
14.A3B3A.2A4.13B2.A.AB2.A6.9B$15.AB.2A.AB.AB.8B4.2A.A.A3.A8.7B$21.
3A9B6.2ABA2.4A.A8.4B$15.AB.2A.AB.AB3.4B7.B2.A.A3.A.A6.B2A2B$14.A3B
3A.2A6.4B4.A.4A.A2.A2.A7.2A$14.A4B.A.A8.4B3.2A5.A.A3.2A$15.AB2.2A.
A9.4B5.2A.A2.4A2.A$21.A11.4B5.A.2A5.A.A$18.A.A13.4B3.A4.2A2.2A.2A$
18.2A15.4B3.3A.A.A3.A2.A$36.4B4.ABA.2A.A2.A$37.4B4.BA2B3.2A$38.4B
3.2AB4A$39.11B.A.3A$40.3BA2B.A2BAB.A2.A$41.3BA3.2A2B.A.A$42.3AB3.B
2.2A.2A!
