#CSYNTH guntrue_4960 costs 2679 cells.
#C period 4960 fullperiod 4960 bbox 47 by 57
#CLL state-numbering golly
x = 47, y = 57, rule = LifeHistory
23.A$21.3A$20.A$20.2A$18.4B$15.5B12.2A$15.4BA2B10.A$13.5B2A3B10.A$
13.4BA10B4.2A$13.4BAB2A10B.B$14.4B3A14BA$15.19BABA$15.12B2A3B.A2BA
B$14.12BA7B2A2B$14.12B3A7B.B2A$13.6B2A5BA7B3.BA.A$12.7B2A12B7.A$
12.12B.7B8.2A$12.3B.10B.3B$2A8.7B.12B$.A7.12B2A7B$.A.AB3.7BA5B2A6B
$2.2AB.7B3A12B$4.2B2A7BA12B$4.BA2BA.3B2A12B$5.ABA19B$6.A14B3A4B8.A
$9.B.10B2ABA4B5.3A$8.2A4.10BA4B4.A$8.A10.3B2A5B4.2A$9.A10.2BA4B2.
6B$8.2A12.5B.B2A2B$20.4B3.2B2A3B$20.2A4.8B$21.A3.9B$9.B2A6.3A3.10B
$9.3AB5.A4.4B.8B$8.A.2AB9.4B2.8B$7.A.A.2B8.4B3.4B3A2B$7.A2.A2.2B5.
4B3.10B5.AB.2A$8.2A3.3B3.4B5.2BA5BA2B2.B2A2.A$13.B2A.5B5.3BA5BA2B
2.5A$3.2A7.BA2BA4B6.2BA6BA8B$3.A8.2B2A4B7.B2A9B.5B$2A.A.B3.10B7.4B
AB3A4B2.5A$A2.3AB.2B2A7B7.2B2A8B3.B2A2.A$.2A2.BA3B2A7B5.2AB.B2.6B
5.AB.2A$3.4A12B4.A.AB6.5B2A$3.A.2B3.7B.B2A2.A9.2B2.3B$4.3AB2.7B.BA
.A.A13.A3BA$7.A4.4B5.A.2A11.A4BA$2.5A5.4B5.A13.A.ABAB$2.A10.4B3.2A
11.BABA.A$4.A9.4B14.A4BA$3.2A10.3BA13.A3BA$16.3BA14.3B$17.3AB13.2A!
