#CSYNTH guntrue_2952 costs 2911 cells.
#C period 2952 fullperiod 2952 bbox 71 by 41
#CLL state-numbering golly
x = 71, y = 41, rule = LifeHistory
28.2A2.A$27.A.4A$27.A$25.2A.7A$23.A2.A.A3.B2.A30.A2BA$23.2A2.BA.2A
2.2A29.BA3B$27.2AB2AB32.A4BA$27.5B31.BA.A.B2A$28.3B31.2ABA3.B$27.
5B30.3B$27.BA4B23.3B3.4B$25.2BABA3B6.2A14.4B3.A2BAB$25.2BABA4B5.A
9.4B.8B2.2A$11.B2A12.2BA4B3.BA.A6.2A14B$11.3AB10.10B.B2A6.B2A14B$
10.A.2AB9.13B8.5B2A8B$9.A.A.2B8.14B3.2A2.5BABA8B$9.A2.A2.2B5.15B2.
B2AB.5B2A10B$10.2A3.3B3.4B2.8B4.3B2.18B$4.2A9.B2A.5B5.6B.2B2.B4.7B
A10B$3.A.A8.BA2BA4B4.16B.6B2AB2A9B$3.A8.B.2B2A4B5.2A3.11B2.5B2A12B
$2A.AB.B3.11B7.A3.24BA9B$.A.A.2AB.12B4.3A4.18BA5BA9B$.A.A.2A14B4.A
4.2AB.23BA9B$2A.A2.5B2A8B8.A.AB4.10BAB2ABA2B2A10B$A2.4A3BA2BA5B.B
2A6.A8.9B2A3BABA3B.8B$.2A2.BAB.2B2A6B.BA.A4.2A9.5BA7BABA4B.5B.B2A$
3.2A6.7B5.A16.5BABA5BA4B3.4B.BA.A$3.A7.2B.4B5.2A16.18B2.3B5.A$5.A
9.4B23.17B3.2B5.2A$4.2A10.4B23.16B$17.4B12.2A.2A5.15B$18.4B12.A.2A
B2.17B$19.4B11.A.3B2.16B$20.4B7.2A.A.3AB.8B.4B$21.4B7.A.A.3A2B3.4B
$22.4B6.A.2A.B.A4.3B$23.3BA6.A3.2A$24.3BA6.3A$25.3AB7.A!
