#CSYNTH guntrue_1879 costs 11330 cells.
#C period 1879 fullperiod 1879 bbox 110 by 103
#CLL state-numbering golly
x = 110, y = 103, rule = LifeHistory
38.2A$37.A.A$31.2A4.A$29.A2.A2.2A.4A$29.2A.A.A.A.A2.A4.2A$32.A.ABA
BAB7.A$32.A.AB2AB6.A$33.AB.2B7.5A$36.3B10.A$36.4B3.4AB$34.3B2AB3.A
2.AB$34.3B2AB4.4B$32.15B3.2A$31.14B2A.A2.A$30.15B2A.2A$29.15B.B$
28.4B2.9B$12.2A13.4B5.7B$12.A13.4B4.9B$7.2A5.A10.4B5.2A4.4B$7.A5.
2A9.4B7.A5.4B$4.2A.A.3B11.4B5.3A7.4B$4.A2.A.2A2B2A7.4B6.A10.4B$6.
2A.A.2B2AB5.4B19.4B$9.A.4B5.4B21.4B$9.2A.4B3.4B23.4B$12.3BA6B25.4B
$3.2A7.2BABA4B27.4B25.A11.2A$3.A8.3BA4B29.4B23.A.A9.B2AB$2A.A.B3.
10B14.2A15.4B10.A3.A3.2A2.A.A9.3B$A2.3AB.2B2A7B14.A.A15.4B7.3A2.A.
A2.A2.2A.2A9.B.B$.2A2.BA3B2A7B16.A4.2A10.4B5.A5.A.A3.A.A2.B8.5B$3.
4A12B12.4A.2A2.A2.A9.7B.2A5.A.4A2.AB2A6.6B$3.A.2B3.7B.B2A10.A2.A.A
.A.A.2A10.9B7.A3.A.A.2A4.8B$4.3AB2.7B.BA.A11.BABABA.A14.6B8.A2.BA.
A2.13B$7.A4.4B5.A12.B2ABA.A15.5B7.A.2BA.A5.13B$2.5A5.4B5.2A12.2B.B
A15.7B6.2A.2BA5.15B$2.A10.4B17.3B19.6B10.3B4.15B$4.A9.4B7.2A6.4B
19.7B10.2B.B.17B$3.2A10.4B7.A6.B2A3B17.6B4.29B$16.4B6.A.AB3.B2A3B
17.7B2.16B2A13B$17.4B6.2AB.10B15.7B2.16B2A14B$18.4B7.13B13.9B.27B
3.B2A$19.4B6.14B12.36B4.A2.A$20.4B5.15B6.B4.20B2.2B2.B3.6B5.2A.A$
21.4B6.8B2.4B4.2AB.19B14.6B7.A$22.4B5.6B5.4B3.2A19B14.9B6.2A$23.4B
3.9B4.4B3.B.17B15.2A4.4B$24.4B.4B4.2A5.4B5.17B15.A5.4B10.2A$25.7B
5.A3.A3.4B4.17B12.3A7.4B9.A$26.5B7.4A4.4B3.15B.B2A10.A10.4B10.A$
26.5B16.4B2.12B4.BA.A14.2A5.4B5.5A$25.7B4.4A8.15B9.A15.A5.4B4.A$
24.4B.4B3.A2.3A7.15B8.2A14.A.AB.7B2.B3A$23.4B3.4B8.A7.14B25.2AB.7B
3.2B.A$22.4B5.4B6.A.A7.12B28.12B4A$21.4B7.4B5.A.AB7.10B29.7B2A3BAB
2.2A$20.4B9.4B5.A3B7.9B29.7B2A2B.B3A2.A$19.4B11.4B6.4B5.9B29.10B3.
B.A.2A$18.4B13.4B5.6B5.6B29.8B8.A$17.4B15.4B4.7B.2B2.5B28.9B7.2A$
4.2A10.4B17.4B2.8B.9B27.4B2.3B$5.A9.4B19.24B25.4B3.5B$3.A10.4B21.
24B23.4B7.2A$3.5A5.4B5.2A15.19B2.4B21.4B8.A$8.A4.4B5.A11.2A2.19B4.
4B19.4B10.3A$5.3AB2.7B.BA.A11.A2.A17B7.4B10.A6.4B13.A$4.A.2B3.7B.B
2A14.2A.15B9.4B7.3A5.4B$4.4A12B21.12B11.4B5.A7.4B$2.2A2.BA3B2A7B
22.10B3.2A8.4B4.2A5.4B$.A2.3AB.2B2A7B22.2B2A6B3.A10.9B4.4B$.2A.A.B
3.10B21.3B2A6B4.A10.6B5.4B$4.A8.8B21.10B3.2A10.8B2.4B$4.2A7.9B20.
8B.B2A11.15B$14.3B2.4B18.7B3.B2AB2A8.14B$12.5B3.4B17.6B6.B.A9.13B$
12.2A7.4B17.6B4.2A3.A5.2AB.10B$13.A8.4B16.8B.A2.4A4.A.AB3.B2A3B$
10.3A10.4B14.9BA.A.A7.A6.B2A3B$10.A13.4B4.A8.7B.2BAB.A.2A3.2A6.4B$
25.4B3.3A6.6B3.2B2.A.A13.3B$26.4B5.A4.7B4.B.2A2.A13.2B.BA$27.4B3.
2A4.7B3.A.A2.A.A12.B2ABA.A$28.4B2.4B.8B3.2A2.A.A12.BABABA.A$29.2B
2A3.11B8.A11.A2.A.A.A.A.2A$30.BABA.12B20.4A.2A2.A2.A$31.A15B24.A4.
2A$32.14B10.A12.A.A$33.10B11.3A12.2A$32.12B9.A$31.16B6.2A$24.A6.
24B$24.3A3.23B$27.A2.24B$26.A.B.24B$26.2A27B$24.2A2.A22B.4B$23.A2.
3A3B3.2B3.B7.2B3.4B$24.A4.2B3.4B.3B5.BA2B3.4B$25.4A5.B2AB.B2AB4.A.
A5.4B$27.A7.2A3.2A6.A7.3BA$29.A27.3BA$28.2A28.3AB!
