#CSYNTH guntrue_9998 costs 14145 cells.
#C period 9998 fullperiod 9998 bbox 123 by 115
#CLL state-numbering golly
x = 123, y = 115, rule = LifeHistory
55.A$55.3A$58.A$57.2A$57.4B14.A$59.5B9.3A$56.B.9B5.A$55.13B4.2A$
54.14B.5B$50.B2.19B$49.2AB.18B2A$49.A.A19B2A$50.A19B.B$51.7BA11B$
49.4B.2BA2BA9B$49.2A2.9BA5B$50.A2.B2A5BA5B$47.3A3.B3A13B16.A11.2A$
47.A6.3B2AB2A9B14.A.A9.B2AB$54.2B2A2B2A9B6.A3.2A2.A.A9.3B$53.2BA4B
A10B5.A.A2.A2.2A.2A9.B.B$53.B3A3BAB.8B5.A.A3.A.A2.B8.5B$53.3A5B3.
7B6.A.4A2.AB2A6.6B$53.2A2B3AB3.7B8.A3.A.A.2A4.8B$53.BA2B2A2B4.6B7.
A2.BA.A2.13B$52.3B3A3B4.7B5.A.2BA.A5.13B$51.5BA3B5.8B4.2A.2BA5.15B
$50.8B8.8B7.3B4.15B$49.4B.4B8.9B7.2B.B.17B$48.4B3.2B8.6B.32B$47.4B
10.2A2.7B.17B2A13B$46.4B10.B2AB2.6B2.16B2A14B$45.4B12.3B2.7B.27B3.
B2A$44.4B8.B3.3B2.35B4.A2.A$43.4B8.2AB.B2A2B.19B2.2B2.B3.6B5.2A.A$
42.4B9.2A2BA2BA18B14.6B7.A$41.4B11.B.BABA18B13.9B6.2A$40.4B15.BA
18B14.2A4.4B$39.4B18.18B15.A5.4B$38.4B17.3B.8B.7B12.3A7.4B$37.4B
18.2A3.6B.6B.B2A10.A10.4B$36.4B20.A4.9B4.BA.A21.4B$35.4B18.3A5.8B
8.A22.4B$34.4B17.3A6.8B9.2A22.2B2A9.A$33.4B17.A9.7B35.2A2B6.3A$32.
4B19.3A6.6B37.BA2B4.A$31.4B23.A4.7B28.2A8.4B3.2A$30.4B23.2A4.7B28.
A.A8.8B$14.2A13.4B24.4B.8B30.A2.2A5.5B4.2A$14.A13.4B27.11B29.2A.A.
A6.5B.BAB.A$9.2A5.A10.4B27.12B27.A2.A.2A6.5B2.B2A.A$9.A5.2A9.4B28.
12B27.2A2.B.3B3.5B3.B.B.2A$6.2A.A.3B11.4B18.2A9.11B33.4B3.5B2.2B2A
2.A$6.A2.A.2A2B2A7.4B19.A.A9.7B12.2A20.B.13B.BA2.2A$8.2A.A.2B2AB5.
4B22.A9.8B11.A20.2AB.13BAB2A$11.A.4B5.4B23.2AB2.2B3.10B.B4.BA.A20.
2A10BA5BA2.2A$11.2A.4B3.4B26.22B2.B2A22.2B.7BABA4B2.A2.A$4.2A8.3BA
6B23.4A25B27.7BABA4B3.2A$3.A.A8.2BABA4B24.A2.A26B27.7BA4B$3.A8.B.
3BA4B26.A2.26B23.2A3.9B$2A.AB.B3.11B18.A5.3A4.25B23.A2.B.10B.B$.A.
A.2AB.12B18.3A3.A6.24B25.3A12B2A$.A.A.2A14B21.A8.BA2B5.7B5.B30.AB.
8B.B2A$2A.A2.5B2A8B20.2A7.2A2B4.3B.2B37.2A4.6B3.B$A2.4A3BA2BA5B.B
2A18.5B3.2B2A5.2A9.2A11.A18.A6.4B$.2A2.BAB.2B2A6B.BA.A19.3B2.4B7.A
8.B2AB9.A.A18.A4.4B$3.2A6.7B5.A6.2A.2A7.9B5.3A10.3B9.A.A2.2A3.A3.A
5.2A3.4B$3.A7.2B.4B5.2A5.2A.A8.8B6.A11.B.B9.2A.2A2.A2.A.A2.3A7.4B$
5.A9.4B14.A.B3.10B19.5B8.B2.A.A3.A.A5.A5.4B$4.2A10.4B13.3AB.2B2A7B
19.6B6.2ABA2.4A.A5.2A.7B$17.4B10.2A2.BA3B2A7B19.8B4.2A.A.A3.A7.9B$
18.4B8.A2.4A12B20.13B2.A.AB2.A8.6B$19.4B7.2A.A.2B3.7B.B2A16.13B5.A
.A2B.A7.5B$20.4B7.A2.3AB2.7B.BA.A14.15B5.A2B.2A6.7B$21.4B6.A5.A4.
4B5.A14.15B4.3B10.6B$22.4B6.5A5.4B5.2A12.17B.B.2B10.7B$23.4B7.A8.
4B18.29B2.8B$24.4B16.4B16.13B2A25B$25.4B16.4B14.14B2A25B$26.4B16.
4B12.2AB3.37B$27.4B16.4B10.A2.A4.36B$28.4B16.4B8.A.2A5.6B3.B2.2B2.
20B4.B$29.4B16.4B7.A7.6B12.21B.B2A$30.4B16.4B5.2A6.9B9.24B2A$31.4B
16.4B11.4B4.2A9.23B.B$32.4B16.4B9.4B5.A8.7B2A15B$33.4B16.4B7.4B7.
3A4.8B2A15B$34.4B16.4B5.4B10.A4.25B$35.4B16.4B3.4B17.8B4.12B$36.4B
16.4B.4B18.8B6.11B$37.4B16.7B18.4B.3B6.13B$38.4B10.A5.5B18.4B11.
12B$39.4B7.3A5.5B10.A6.4B13.10B$40.4B5.A7.7B7.3A5.4B15.9B$41.4B4.
2A5.4B.4B5.A7.4B16.9B$42.9B4.4B3.4B4.2A5.4B11.2A4.9B$42.7B5.4B5.9B
4.4B11.B2AB4.5B$42.BA7B2.4B7.6B5.4B12.4B4.4B$39.B.BABA11B8.8B2.4B
14.2B5.4B$35.2A.2A3BA11B7.15B7.A7.4B2.4B$33.A2.A.2A14B8.14B7.A.A5.
5B.4B$33.2A3.15B9.13B9.A.14B$37.4B4.B2A3B9.2AB.10B11.14B$37.BA2.A
3.B2A3B8.A.AB3.B2A3B13.14B$37.B4A3.4B10.A6.B2A3B13.15B$35.A10.3B9.
2A6.4B14.3B2A12B$35.5A7.2B.BA15.3B14.3B2A13B$39.A6.B2ABA.A15.2B.BA
9.2AB.11B2.4B$37.A7.BABABA.A14.B2ABA.A7.A.AB2.8B5.4B$37.2A4.A2.A.A
.A.2A12.BABABA.A7.A5.10B4.4B$43.4A.2A2.A11.A2.A.A.A.A.2A3.2A5.B.B
5.2A5.4B$47.A4.A11.4A.2A2.A2.A11.3B4.A7.4B$43.2A2.A.3A16.A4.2A12.B
2AB5.3A5.3BA$43.2A3.2A16.A.A19.2A8.A6.3BA$66.2A38.3AB!
