#CSYNTH guntrue_4999 costs 14145 cells.
#C period 4999 fullperiod 4999 bbox 123 by 115
#CLL state-numbering golly
x = 123, y = 115, rule = LifeHistory
67.A$65.3A$64.A$64.BA$47.A14.A2BA$47.3A9.2BA2B$50.A5.9B.B$49.2A4.
10BA2B$49.5B.5B3ABA3BA$51.8BA3BA3B2AB2.A$50.2A6BA3BA4BA2B.ABA$50.
2A7BABA3BA2BA3B.A$51.B.7BA2B3A2BA3BA$53.11BA2BAB3A$54.11B3AB.4B$
55.11BA3B2.2A$56.14B2.A$23.2A11.A16.17B3.3A$22.B2AB9.A.A14.17B6.A$
23.3B9.A.A2.2A3.A6.17B$22.B.B9.2A.2A2.A2.A.A5.9B2A7B$22.5B8.B2.A.A
3.A.A5.8B.2A7B$22.6B6.2ABA2.4A.A6.7B3.8B$22.8B4.2A.A.A3.A8.7B3.8B$
23.13B2.A.AB2.A7.6B4.8B$21.13B5.A.A2B.A5.7B4.9B$20.15B5.A2B.2A4.8B
5.9B$20.15B4.3B7.8B8.8B$19.17B.B.2B7.9B8.4B.4B$19.32B.6B8.2B3.4B$
18.13B2A17B.7B2.2A10.4B$17.14B2A13BA2B2.6B2.B2AB10.4B$16.2AB3.22B
2A3B.7B2.3B12.4B$15.A2.A4.22B2A11B2.3B3.B8.4B$14.A.2A5.7B2.B2.2B2.
19B.2B2AB.B2A8.4B$14.A7.7B13.18BA2BA2B2A9.4B$13.2A6.8B14.3B2A13BAB
AB.B11.4B$20.4B2.2B16.2BABA13BAB15.4B$19.4B4.2A15.2BA15B18.4B$18.
4B6.A15.7B.8B.3B17.4B$17.4B5.A15.2AB.6B.6B3.2A18.4B$16.4B6.2A13.A.
AB4.9B4.A20.4B$15.4B22.A8.8B5.3A18.4B$4.A9.4B22.2A9.8B6.3A17.4B$4.
3A6.4B35.7B9.A17.4B$7.A4.4B37.6B6.3A19.4B$6.2A3.4B8.2A28.7B4.A23.
4B$6.8B8.A.A28.7B4.2A23.4B$2.2A4.2BA2B5.2A2.A30.8B.4B24.4B13.2A$.A
.BAB.2B2AB6.A.A.2A29.11B27.4B13.A$.A.2AB2.BABAB6.2A.A2.A27.12B27.
4B10.A5.2A$2A.B.B3.5B3.3B.B2.2A27.12B28.4B9.2A5.A$A2.2A2B2.2BA2B3.
4B33.11B9.2A18.4B11.3B.A.2A$.2A2.AB.3B2A3B3A2B.B20.2A12.7B9.A.A19.
4B7.2A2B2A.A2.A$3.2ABA4B2A3BAB2A.B2A20.A11.8B9.A22.4B5.B2A2B.A.2A$
.2A2.A14BAB2A20.A.AB4.B.3B2A5B3.2B2.B2A23.4B5.4B.A$A2.A2.12B2A.2B
22.2AB2.B2A3BAB2A9BABA26.4B3.4B.2A$.2A3.7BA4BAB27.2B6AB2AB2A3BABAB
A3B4A23.6BA3B8.2A$7.5B3A4B27.2B4ABAB3AB2A2BA3B2A3BA2.A24.4BABA2B8.
A.A$9.2B2AB2A2B3.2A23.BA4B3ABA6BA8B2.A26.4BA3B.B8.A$6.B.2B2A2B3AB.
B2.A23.B2A3B2A10B4A3B4.3A5.A18.11B3.B.BA.2A$5.2A3B2A2B2A3B3A25.4BA
15BA2BA6.A3.3A18.12B.B2A.A.A$5.2AB.B3A4B.BA30.B5.7B5.A3B8.A21.14B
2A.A.A$6.B3.B2A3B4.2A37.2B.3B4.4B7.2A20.8B2A5B2.A.2A$11.4B6.A18.A
11.2A9.2A5.4B3.5B18.2AB.5BA2BA3B4A2.A$12.4B4.A18.A.A9.B2AB8.A7.4B
2.3B19.A.AB.6B2A2B.BAB2.2A$13.4B3.2A5.A3.A3.2A2.A.A9.3B10.3A5.9B7.
2A9.A5.7B6.2A$14.4B7.3A2.A.A2.A2.2A.2A9.B.B11.A6.8B8.A8.2A5.4B.2B
7.A$15.4B5.A5.A.A3.A.A2.B8.5B19.10B3.B.A.2A11.4B9.A$16.7B.2A5.A.4A
2.AB2A6.6B19.7B2A2B.B3A2.A10.4B10.2A$17.9B7.A3.A.A.2A4.8B19.7B2A3B
AB2.2A10.4B$18.6B8.A2.BA.A2.13B20.12B4A11.4B$19.5B7.A.2BA.A5.13B
16.2AB.7B3.2B.A10.4B$18.7B6.2A.2BA5.15B14.A.AB.7B2.B3A10.4B$19.6B
10.3B4.15B14.A5.4B4.A12.4B$19.7B10.2B.B.17B12.2A5.4B5.5A6.4B$19.8B
2.29B18.4B8.A2.A4.4B$19.25B2A13B16.4B11.2A3.4B$19.25B2A14B14.4B16.
4B$18.37B3.B2A12.4B16.4B$18.36B4.A2.A10.4B16.4B$13.B4.20B2.2B2.B2.
7B5.2A.A8.4B16.4B$12.2AB.21B11.7B7.A7.4B16.4B$12.2A24B10.8B6.2A5.
4B16.4B$13.B.23B11.2B2.4B11.4B16.4B$16.15B2A7B8.2A4.4B9.4B16.4B$
16.15B2A8B7.A6.4B7.4B16.4B$16.25B8.A6.4B5.4B16.4B$16.12B4.8B8.2A7.
4B3.4B16.4B$15.11B6.8B18.4B.4B16.4B$14.13B6.3B.4B18.7B16.4B$15.12B
11.4B18.5B5.A10.4B$16.10B13.4B6.A10.5B5.3A7.4B$16.9B15.4B5.3A7.7B
7.A5.4B$16.9B16.4B7.A5.4B.4B5.2A4.4B$16.9B17.4B5.2A4.4B3.4B4.9B$
19.5B19.4B4.9B5.4B5.7B$20.4B20.4B5.6B7.4B2.7BAB$20.4B21.4B2.8B8.
11BABAB.B$21.4B21.15B7.11BA3B2A.2A$22.4B21.14B8.14B2A.A2.A$23.4B
21.13B9.15B3.2A$24.4B21.10B.B2A9.3B2AB4.4B$25.4B22.3B2AB3.BA.A8.3B
2AB3.A2.AB$26.4B21.3B2AB6.A10.4B3.4AB$27.4B22.4B6.2A9.3B10.A$28.4B
21.3B15.AB.2B7.5A$29.4B17.AB.2B15.A.AB2AB6.A$30.4B15.A.AB2AB14.A.A
BABAB7.A$31.4B14.A.ABABAB10.2A.A.A.A.A2.A4.2A$32.4B10.2A.A.A.A.A2.
A8.A2.A2.2A.4A$33.4B9.A2.A2.2A.4A10.2A4.A$34.3BA10.2A4.A20.A.A$35.
3BA15.A.A19.2A$36.3AB15.2A!
