#CSYNTH guntrue_680 costs 1881 cells.
#C period 680 fullperiod 680 bbox 57 by 33
#CLL state-numbering golly
x = 57, y = 33, rule = LifeHistory
28.2A5.A$28.A6.3A$25.BA.A9.A$22.2A.B2A9.2A$5.A15.B2A2B11.4B7.3B$2A
.2BAB10.2A3.4B13.2B2.9B$A.3BA8.2A2.A3.4B10.9B2A5B$.2AB8.3A.2A3.11B
.B.17B$2.3B6.A4.B4.6B2A13B2A3BA3B$3.2A.2A4.3AB2A3.B3A2B2A5B.8BA3BA
5B2.2A$2.B2ABA.A5.A.2A3.BA2B4A5B.5B4A2BAB3.2A.A.A$.2B.B3AB7.5BA3BA
8B.5B2A2B3AB3.2ABA$2.2A.A2B3.2B5.3BA3B2A13B2A6B4.B2.A$2.2AB2AB2.3A
4.17B.B.11B3.2A.2A$3.3A7BA3.5B2A9B10.4B5.A.A$2.A5.BA3BAB2.9B2.2B
13.4B5.A.A$.A.A4.BA4B2A5B7.4B11.2B2AB5.A$2.A5.3B4ABA2B11.2A9.2AB.
2A$6.B.3B3A2BA3B10.A9.A.AB$5.2A8BA.4B10.3A6.A$5.A.7B4.4B11.A5.2A$
3.2A2.AB2.B7.4B$2.A2.3AB.4B6.4B$2.2A6.A.2A7.4B$7.4AB2A8.4B$7.A4.B
9.5B$8.3A.2A9.5B$10.A.A7.3B2.4B$12.A2.B2.BA3B3.4B$12.A.3AB2A2B2A3.
4B$11.2A.4A4B2A4.3BA$15.3B2A2.B6.3BA$15.3B12.3AB!
