#CSYNTH guntrue_1547 costs 5200 cells.
#C period 1547 fullperiod 1547 bbox 104 by 50
#CLL state-numbering golly
x = 104, y = 50, rule = LifeHistory
98.A$96.5A$95.A5.A$84.2A9.B3A2.A$85.A10.2B.A.2A$2.2A3.ABA12.2A61.A
.2A7.2B2A3.A$BA2BA2.A2BA6.2A2.A.A56.A5.A2B.4B.2BA2.A.A$BA2B2.2B.2B
A3B2.A3.A58.3A5.2BA5B2AB2A.2A$BA2BA4B4A2B3.3A.4A57.A4.3BA4BAB$B2A
3B4A3B2AB4.A.A2.A56.2A4.ABA5B2AB2A.2A$.2B4A4BA2BAB4.4B58.6B2.4B.2B
A2.A.A$.3BA2B.2B2.2BAB5.2B61.5B7.2B2A3.A$5.A2BA2.A2BAB4.5B16.2A.2B
AB35.7B6.2B.A.2A$6.ABA3.2A2.9B15.A.2B4AB34.8B4.B3A2.A$16.5B3AB15.A
.A5BA34.9B3.A5.A$16.9B.5B8.2A.4BA2BA32.11B3.5A$15.6BABA8B5.A2B.2AB
A.4B33.6B.4B4.A$13.6BA5BA8B2.4B2A3.2A3B33.5B3.4B$10.2B.5B3ABAB3A
14B.AB2A.2BA17.A12.8B4.4B$9.2A3B3ABA7BAB3A5B.A2BA4B.2A19.3A8.10B5.
4B$9.2AB.ABA4BABABA4BABA4B2.A5BA.A23.A6.12B5.4B$10.B.8BABABA10B3.B
4A2B.A10.2A10.2A6.13B5.4B$13.B4A2B5A2B4A5B3.BA2B.2A12.A10.5B3.12B
7.4B$14.B2A4BABA4B2A7B21.A.AB9.2B2A2.13B7.4B$14.B5A5B5A8B10.A10.2A
B.3B4.20B8.4B$15.2B3A5B3AB.B4.4B7.3A12.7B.ABA3BA16B7.4B$15.14B7.4B
5.A15.9BA4B2A12BA4B6.3BA$15.13B9.4B4.2A15.12BA2BA10BABA4B6.ABA$13.
11B6.2A6.9B14.14BABA10BABA4B7.2A$12.13B6.A7.6B14.17BA12BA4B9.B$12.
14B5.A.2A5.2B3AB3.B2.2B2.19B.B3.B.2B3.5B$12.14B6.A2.A4.BA3BA27B6.
3B7.B$10.2AB.14B5.2AB3.BA3B2A20B.6B6.B2AB5.3B$9.A.AB.15B5.5BA26B2.
B.5B5.2A6.B2AB$9.A5.13B7.4BA2BA23B7.2A14.2A$8.2A6.12B8.3BA25B8.A$
16.11B9.4BA3B2A7B.B.2B16.3A$18.9B10.4BA3BA6B4.3B17.A$19.7B11.5B3A
7B5.A2B.2A$19.8B11.13B5.A.A2B.A$19.5B2A14.13B2.A.AB2.A$20.4B2AB12.
8B4.2A.A.A3.A$21.5B13.6B6.2ABA2.4A.A$22.4B13.5B8.B2.A.A3.A.A$21.2B
.2B.A11.B.B9.2A.2A2.A2.A.A$20.A2.AB.A.A11.3B9.A.A2.2A3.A$20.4A3.A
11.B2AB9.A.A$40.2A11.A$22.2A$22.2A!
