#CSYNTH guntrue_7560 costs 3036 cells.
#C period 7560 fullperiod 7560 bbox 69 by 44
#CLL state-numbering golly
x = 69, y = 44, rule = LifeHistory
51.B$44.B5.BAB$43.3B4.3A$18.A24.BAB3.ABABA$18.3A21.2ABAB2.ABABA$
21.A20.2ABAB.2B3A2B$8.AB10.AB21.B3A.3BA3B$7.B.2A9.A2BA19.3B.9B$7.
2A.B11.2B19.3B.9B$8.BA3.3B4.2BABA3B15.B3A.3BA3B$11.4BA2B.2BA3B2A3B
3.2A7.2ABAB.2B3A2B$9.5B2A4BABA2BABA2B2.B2AB6.2ABAB2.ABABA9.2A$4.9B
2A2BA7BAB2AB3.3B7.BAB3.ABABA8.A2.A$3.9BA4BA2BA2BA3BA2B4.B2.2B4.3B
4.3A10.A.A$4.9BA4BA22B.3B5.BAB7.3A.2A.2A$5.8BA3BA5BA2BA18B6.B7.A3.
A2.A.A$6.10B2A5B3A20B13.3AB3A$4.23B3A17B15.2B.3A$2A2.12B3.22B3.4B
9.4A.A2B3.A$A2.AB2A8B3.16B.B9.4B7.A3.4A.4A$.3ABABA11.5B.6B15.4B6.
2A4.BA.A$5.A.A9.4B3.7B8.A7.4B.6B4.2A.A.2A$3.2A.A10.2A6.4B.B2A6.3A
6.8B7.B.A.BA$2.A.A.A.A9.A7.B3.BA.A8.A6.10B5.B3A$3.A3.2A6.3A7.BAB5.
A7.2A5.B.10B5.A$15.A9.BAB5.2A6.18BAB3.3B$26.A16.15BABA2B3AB$42.2B
2A12BABA.2B2A2B$41.2BA2BA12BA5.A.BA$26.2B13.3B2A4B2.2BA4B4.A.A.2A$
24.6B6.2B.9B4.BABA3B3.A.2A$22.10B.14B6.ABAB5.A3.3A$20.BA2BAB2ABA2B
A13B7.BAB7.3A2.A$19.2B4AB2AB4A13B8.B10.A$20.BA2BAB2ABA2BAB.12B$22.
10B4.10B$24.6B6.10B$26.2B9.7B$34.3B2.4B$29.B2.BA3B3.4B$28.3AB2A2B
2A3.4B$28.4A4B2A4.3BA$29.3B2A2.B6.3BA$29.3B12.3AB!
