#CSYNTH guntrue_656 costs 3913 cells.
#C period 656 fullperiod 656 bbox 91 by 43
#CLL state-numbering golly
x = 91, y = 43, rule = LifeHistory
4.A24.2A9.A2B$3.A.A23.A9.BA5B$3.BA2B23.A8.BA5B21.A2.2A$4.2B23.2A9.
7B20.4A.A$.7B21.B11.3BA3B5.A18.A$.7B19.3B10.3B3A3B3.A.A10.7A.2A$2A
7B16.6B9.2B5A6BAB9.A2.B3.A.A2.A4.2B$2A9B11.10B2.B3.3B2A3B2A6B10.2A
2.2A.AB2.2A4.BAB$.B.11B2.2B3.7B3A11B5A8B12.B2AB2A6.2BABA$4.39B3A8B
AB12.5B6.BA3BA$4.22B2A16BA5B3.A.A13.3B8.BA2B.A$4.22BA4BA7B3A8B2.A.
A6.2A5.5B9.A.2BAB$4.22BA11BA3BA7B2.2A6.A2.A3.4BAB10.A3BAB$5.22BA2B
A7BA3BA7B8.BA.A.A3.3BABA2B9.ABA2B$12.3BA.12BA5.3BA3BA7B8.3A.A3.4BA
BA2B9.BAB$13.ABAB4.B.7B5.4B3A5B.2B2A.A4.3AB5.4BA2B11.2B$14.2A2B17.
B2A8B3.B2AB3A3.3B3.10B5.AB3.B.2AB$15.4B16.2A8B6.B4.A5.14B3.A.A3B5A
$16.4B16.BA6B6.2A.3A6.15B3.A4B2ABABA$17.4B16.4B10.A.A9.15B3.B.BA2B
AB2A$18.4B16.4B9.A.A11.8B2.4B3.BA2B2A.B$9.A9.4B16.4B9.A11.7B5.4B3.
B4A$8.A.A9.4B16.4B20.9B4.5B.2BA$8.A.A10.4B16.4B18.4B4.2A5.5B$6.3A.
2A6.8B16.4B16.4B5.A7.4B$5.A4.B6.10B16.4B14.4B7.3A5.4B$6.3AB2AB3.
11B17.4B12.4B10.A6.4B$8.A.2A2B.12B5.7B.B4.4B10.4B19.4B$12.15B5.13B
.4B8.4B21.4B$12.6B3A40B23.4B$8.2A2.5BA3BA30B3A5B7.2A16.4B$7.A.A2.
9BA28B2AB2A5B6.A.A17.4B$6.A.A3.5B2AB2A12B2A14B2AB2A7B4.A20.3BA$6.B
A11BA14B2A15B2A11B.2A21.ABA$7.34B3.2B2.13B2A2B24.2A$8.16B3.B2.10B
11.10BABAB25.B$7.BA13B9.6B16.7B.2BAB$7.A.A3.9B10.3B18.7B2.A3.A$8.A
5.7B11.B20.7B3.4A$15.7B9.2A18.2AB.B.3B$16.7B8.A18.A.AB9.2A$16.4B3A
9.A17.A12.2A$19.3B9.2A16.2A!
