#CSYNTH guntrue_209 costs 3996 cells.
#C period 209 fullperiod 209 bbox 74 by 54
#CLL state-numbering golly
x = 74, y = 54, rule = LifeHistory
24.2A11.A$23.B2AB9.A.A$24.3B9.A.A2.2A3.A$23.B.B9.2A.2A2.A2.A.A$23.
5B8.B2.A.A3.A.A$23.6B6.2ABA2.4A.A$23.8B4.2A.A.A3.A$24.13B2.A.AB2.A
15.2A$22.13B5.A.A2B.A14.A$21.15B5.A2B.2A11.BA.A$21.15B4.3B12.2A.B
2A$20.17B.B.2B12.B2A2B$20.29B6.4B$19.13B2A16B3.6B14.A$18.14B2A16B
2.6B7.B5.3A$17.2AB3.27B.7B6.2AB3.A$16.A2.A4.35B6.2A3.2A$15.A.2A5.A
6B2.B2.2B2.20B5.2A5B$15.A7.B2A4B13.21B2.2A2B$14.2A6.BABA4B15.21B2A
4B$21.4B2.2B17.25BABA$11.2A7.4B4.2A15.28BA$10.B2AB5.4B6.A15.21BA6B
A$10.3B5.4B5.A15.2AB.3B2.14BA2BA2BAB$11.B.B3.4B6.2A13.A.AB6.19B$9.
6B.4B22.A8.12B2.4B$2A7.10B22.2A7.12B3.2B2AB$.A7.9B7.2A22.10B8.2A$.
A.AB2.10B8.A22.4B.6B$2.2AB.10B6.BA.A12.2A7.4B3.B.B$4.12B2.3B.B2A
14.A6.4B5.3B$4.19B15.A6.4B5.B2AB$4.19B15.2A4.4B7.2A$4.18B17.2B2.4B
$5.18B15.4BABAB6.2A$6.19B13.4B2AB7.A$7.21B2.2B2.B2.6BA5.2A.A$9.35B
4.A2.A$10.7B.27B3.B2A$10.6B2.16B2A14B$9.6B3.16B2A13B$9.4B6.29B$9.
2B2AB12.2B.B.17B$7.2AB.2A12.3B4.15B$6.A.AB11.2A.2BA5.15B$6.A14.A.
2BA.A5.13B$5.2A15.A2.BA.A2.13B$23.A3.A.A.2A4.8B$21.A.4A2.AB2A6.6B$
20.A.A3.A.A2.B8.5B$20.A.A2.A2.2A.2A9.B.B$21.A3.2A2.A.A9.3B$29.A.A
9.B2AB$30.A11.2A!
