#CSYNTH guntrue_1010 costs 5254 cells.
#C period 1010 fullperiod 1010 bbox 71 by 74
#CLL state-numbering golly
x = 71, y = 74, rule = LifeHistory
20.2A$20.A2.A.A$10.A11.2A.3A$10.3A10.B4.A$13.A7.B2AB3A12.A11.2A$
12.2A2.4B.B2A.A13.A.A9.B2AB$12.10B17.A.A9.3B$14.8B15.3A.2A9.B.B$
11.11B14.A4.B8.5B$10.12B2.4B9.3AB2A6.6B$10.18B11.A.2A4.8B$10.19B
12.13B$12.17B14.13B$12.17B13.15B$11.18B2.B10.15B$7.B3.23B5.B.17B$
6.2AB.48B$6.2A21B2A13B2A13B$7.22B2A13B2A14B$2A5.3B.44B3.B2A$.A9.
43B4.A2.A$.A.AB2.B4.26B2.2B2.B3.6B5.2A.A$2.2AB.3B3.8B3.7B2.4B13.6B
7.A$4.6B.5B8.6B17.9B6.2A$4.10B11.3B19.2A4.4B$4.2B2A5B13.B21.A5.4B$
5.A2BA3B33.3A7.4B$5.BABA4B32.A10.4B$6.BA6B43.4B$6.3B2.4B43.4B$6.3B
3.4B43.4B$6.B6.4B42.4B$4.4B6.4B41.5B$2A2.2A2BA6.4B39.9B$A2.A.AB2A
7.4B38.9B$.A.3A.A9.4B37.9B$2.A2.3A10.4B35.10B$3.3AB2A10.4B33.12B$
6.3B11.4B22.2A8.13B$3.3A3B12.4B22.A9.11B$2.A2.BA3B12.4B21.A.AB4.
12B$2.2A2.B2ABA12.4B10.A10.2AB.15B$7.2BA.A12.4B7.3A12.17B$9.BA14.
4B5.A15.17B$26.4B4.2A15.17B.B$19.2A6.9B14.19B2A$20.A7.6B14.19B.B2A
$20.A.2A5.6B3.B2.2B2.20B4.B$21.A2.A4.19B2A15B$22.2AB3.19B2AB2A3B.
9B$23.14B2A8B2AB2A3B2.7B$24.13B2A10B3A3B2.7B$19.2A4.29B4.6B$19.A.A
3.17B.B.2B10.7B$22.A3.15B4.3B10.6B$16.AB2.2A.A2.15B5.A2B.2A6.7B$
15.A4B.A.A3.13B5.A.A2B.A6.8B$15.A3B3A.2A4.13B2.A.AB2.A6.9B$16.AB.
2A.AB.AB.8B4.2A.A.A3.A8.7B$22.3A9B6.2ABA2.4A.A8.4B$16.AB.2A.AB.AB
3.4B7.B2.A.A3.A.A6.B2A2B$15.A3B3A.2A6.4B4.A.4A.A2.A2.A7.2A$15.A4B.
A.A8.4B3.2A5.A.A3.2A$16.AB2.2A.A9.4B5.2A.A2.4A2.A$22.A11.4B5.A.2A
5.A.A$19.A.A13.4B3.A4.2A2.2A.2A$19.2A15.4B3.3A.A.A3.A2.A$37.4B4.AB
A.2A.A2.A$38.4B4.BA2B3.2A$39.4B3.2AB4A$40.11B.A.3A$41.3BA2B.A2BAB.
A2.A$42.3BA3.2A2B.A.A$43.3AB3.B2.2A.2A!
