#CSYNTH guntrue_861 costs 3009 cells.
#C period 861 fullperiod 861 bbox 51 by 59
#CLL state-numbering golly
x = 51, y = 59, rule = LifeHistory
4.2A.A2B.AB.A3.3B$3.A.AB5A3BA5B23.2A$3.5A.A.A.2BA6B13.2A7.A.A$.2A
4.A.BAB2.A.6B14.A9.A$2.A.4A2BA6.6B11.A5.2A3.BA.2A$.A2.A3.AB6.6B3.A
8.2A4.A3.B.A.2A$A3.A.2A8.7B2.3A9.2A.A2.2A.A$A.A.A.A10.6B5.A5.2A.A.
A3.BA.4A$.2A.A2.3A7.6B4.2A5.AB.A6.2A4.A$4.A4.A7.2B2A2B4.4B4.B2A2B
6.4A$4.2A3.A.AB4.2B2A3B5.3B4.4B5.BA.B$10.2AB.10B3.6B2.BA4B4.BA.2A$
4.4A4.13B.7B2.3A4B4.A3B$4.A2.AB3.23BAB2A3B6.BA$5.4B2.5BAB2A15BA5B
8.BA$6.2B3.5BA2BA15BA2BAB.3B3.BA.A$4.13BA20BA7B.B2A$3.16B2A15BA11B
$3.22B.22B$3.11BA15B2A16B$.2AB.7BA20BA13B$A.AB3.3B.BA2BA15BA2BA5B
3.2B$AB8.5BA15B2ABA5B2.4B$.AB6.3B2ABA23B3.BA2.A$.3BA4.4B3A2.7B.13B
4.4A$.2A.AB4.4BAB2.6B3.10B.B2A$2.B.AB5.4B4.3B5.3B2A2B4.BA.A3.2A$.
4A6.2B2AB4.4B4.2B2A2B7.A3.2A$A4.2A6.A.BA5.2A4.6B7.2A$.4A.AB3.A.A.
2A5.A5.6B$4.A.2A2.A.2A9.3A2.7B4.A$.2A.A.B3.A4.2A8.A3.6B3.A.A$.2A.A
B3.2A5.A11.6B4.A.A$4.A9.A6.A7.5B3.2A.2A$4.A.A7.2A4.A.A6.8B4.A$5.2A
13.A.A6.8B4A$18.3A.2A5.7BAB$17.A4.B6.7BABA$18.3AB2A6.3B3.B2AB$20.A
.2A5.4B4.3B$22.5B2.4B6.B2A$24.10B5.BA.A$22.3B2A3B.4B7.A$20.4BA2BA
8B6.2A$20.4BABA10B$20.4B3A5B2.4B$18.2AB.9B4.4B$17.A.AB2.8B5.4B$17.
A7.4B8.4B$16.2A5.A14.4B$22.A2B5.B.BA.A3.4B$22.A3BA.2AB2A.2A4.4B$
24.A.4AB.A3.2A3.4B$25.A2.2B2.AB2A2.A3.4B$25.BAB5.B2.3A4.4B$25.3B3.
B.ABA8.4B$23.2AB2A2B4A2.A8.3BA$22.A.B4.3A3.2A9.3BA$22.2A6.B16.3AB!
