#CSYNTH guntrue_512 costs 1980 cells.
#C period 512 fullperiod 512 bbox 44 by 45
#CLL state-numbering golly
x = 44, y = 45, rule = LifeHistory
3.A2BA4B$2.A4BA4B19.4BA2BA$2.A5BA3B11.2A5.4BA4BA$.4B2AB2A3B9.B2AB
4.3BA5BA$2BA7BA3B9.4B2.3B2AB2A4B$.BA.AB3AB.AB9.4B2.3BA7BA2B$3.2ABA
B3A7.2B2.3B4.BA.B3ABA.AB$18.8B5.3ABAB2A$3.2ABAB3A5.10B$.BA.AB3AB.A
B3.11B4.3ABAB2A$2BA7BA3B2.7B2A2B2.BA.B3ABA.AB$.4B2AB2A3B.3B3A3B2AB
2.3BA7BA2B$2.A5BA3B.15B.3B2AB2A4B$2.A4BA4B2.3BABA9B.3BA5BA$3.A2BA
4B5.2BA9B2.4BA4BA$15.11B5.4BA2BA$15.11B$12.2B.11B$11.BAB2.BABA4B$
11.ABA5BAB.2B$10.A3BAB2.2A2B8.2A$9.A.2BAB4.4B6.B2AB$7.BA2B.A7.4B5.
4B$6.BA3BA9.4B5.2B$6.2BABA11.4B2.4B7.A$8.BAB12.4B.5B5.A.A$8.2B2.B
2A9.14B.A$12.3AB9.14B$11.A.2AB9.14B$10.A.A.2B8.9B2A4B$10.A2.A2.2B
5.10B2A5B$11.2A3.3B3.18B$5.2A9.B2A.5B2.11B.B2A$4.A.A8.BA2BA4B5.8B
2.BA.A$4.A8.B.2B2A4B4.10B5.A$.2A.AB.B3.BA9B5.2A5.B.B5.2A$2.A.A.2AB
.3A9B6.A4.3B$2.A.A.2A2B2A10B3.3A5.B2AB$.2A.A2.5BA9B3.A8.2A$.A2.4A
3BA8B.B2A.A$2.2A2.BAB.BA8B.BA.A.2A$4.2A6.7B5.A2.A$4.A7.2B.3BA5.2A$
6.A9.3BA$5.2A10.3AB!
