#CSYNTH guntrue_1490 costs 7000 cells.
#C period 1490 fullperiod 1490 bbox 100 by 70
#CLL state-numbering golly
x = 100, y = 70, rule = LifeHistory
69.2A$46.2A21.A.A$45.A.A23.A4.2A$39.2A4.A21.4A.2A2.A2.A$37.A2.A2.
2A.4A17.A2.A.A.A.A.2A$37.2A.A.A.A.A2.A19.BABABA.A$40.A.ABABAB22.B
2ABA.A$40.A.AB2AB24.2B.BA$41.AB.2B24.3B7.A$44.3B14.2A6.4B7.3A$44.
4B6.2A6.A6.B2A3B8.A$42.3B2AB6.A7.A.AB3.B2A3B7.A.A$33.A8.3B2AB3.BA.
A8.2AB.10B5.A.AB$31.3A6.10B.B2A11.13B5.A3B$30.A8.13B13.14B6.4B$29.
A.A6.14B13.15B5.6B$28.BA.A5.15B15.8B2.4B4.7B$27.3BA5.4B2.8B17.6B5.
4B2.8B.4B.B$25.4B6.4B5.6B16.9B4.17B.B2A$23.6B5.4B4.9B14.4B4.2A5.
18B2A$22.7B4.4B5.2A4.4B12.4B5.A6.16B.2B$15.B.4B.8B2.4B7.A5.4B10.4B
7.3A3.16B$14.2AB.17B5.3A7.4B8.4B10.A3.15B$14.2A18B6.A10.4B6.4B11.A
.2AB.12B$15.2B.16B18.4B4.4B10.2A.A.AB2.11B$18.16B19.4B2.4B11.A2.A
5.10B$19.15B20.8B14.2A5.2B2A6B$20.12B.B2A19.6B21.3B2A6B$20.11B2.BA
.A19.4B23.10B$21.10B5.A18.6B22.8B.B2A.A$21.6B2A2B5.2A16.8B20.7B3.B
2AB3A$21.6B2A3B21.3AB2.4B19.6B6.B4.A$21.10B21.3BA4.4B19.6B4.2A.3A$
17.A.2AB.8B20.3BA6.4B18.5B4.A2.2A$15.3AB2AB3.7B18.4B8.4B16.8B.A.A$
14.A4.B6.6B17.4B10.4B6.A8.8BA.A.2A.A$15.3A.2A4.6B17.4B12.4B5.3A6.
6B.2BAB.A.2A$17.2A2.A4.5B16.4B14.4B7.A4.7B2.2B2.A$20.A.A.8B14.4B
16.4B5.2A4.7B3.B.2A$17.3A.A.A8B8.A4.4B18.4B4.4B.8B2.A.A2.2A$16.A2.
A.BA2B.6B6.3A3.4B20.4B5.11B2.2A2.A2.A$15.A.A.A2.2B2.7B4.A5.4B22.4B
3.12B7.2A$14.A.A2.2A.B3.7B4.2A3.4B24.4B2.12B$14.A.A.A2.A.A2.8B.4B
2.4B26.4B.11B$15.2A.2A2.2A2.11B3.4B27.5B.7B7.2A$26.12B.4B27.15B6.A
$26.16B28.16B2.BA.A$16.A10.14B29.17B.B2A$16.3A11.10B30.19B$19.A9.
12B29.19B$18.2A6.16B28.18B$12.2A4.24B6.A22.19B$11.B2AB5.23B3.3A20.
17B2.2A$11.4B4.24B2.A23.2A.B.11B3.A$12.2B5.24B.B.A23.A2.10B6.3A$3.
2A7.4B2.27B2A20.3A3.8B10.A$3.A.A5.5B.4B.22BA2.2A18.A5.7B$4.A.14B3.
2B7.B3.2B3.3B3A2.A23.8B$5.14B3.2BAB5.3B.4B3.2B4.A24.9B$5.14B4.A.A
4.B2AB.B2AB5.4A27.6B$5.15B4.A6.2A3.2A7.A28.5B$4.3B2A12B22.A28.2AB.
3B$4.3B2A13B21.2A26.A.AB2.B$2.2AB.11B2.4B48.A$.A.AB2.8B5.4B46.2A$.
A5.10B4.4B$2A5.B.B5.2A5.4B$8.3B4.A7.3BA$7.B2AB5.3A5.3BA$8.2A8.A6.
3AB!
