#CSYNTH guntrue_164 costs 3225 cells.
#C period 164 fullperiod 164 bbox 75 by 43
#CLL state-numbering golly
x = 75, y = 43, rule = LifeHistory
4.A24.2A9.A2B$3.A.A23.A9.BA5B$3.BA2B23.A8.BA5B$4.2B23.2A9.7B$.7B
21.B11.7B5.A$.7B19.3B10.9B3.A.A$2A7B16.6B9.13BAB$2A9B11.10B2.B3.
16B$.B.11B2.2B3.34B16.A$4.5BA16B2A26BAB13.3A$4.4BAB2A14B2A13B3A6B
3.A.A12.A$4.3B2ABA29B2AB2A5B2.A.A6.A6.2A$4.4BA31BA2B2A5B2.2A6.A.A
3.4B$5.36B2A7B11.A.5B$12.4B.13B5.15B12.7B$13.4B4.B.7B5.12B.2B2A.A
2.A5.4B2A4B.B$14.4B17.11B3.B2AB4A5.4B2A3B.B2A$15.4B16.10B6.B10.11B
2A$16.4B16.8B6.2A.2A7.9B.2B$17.4B16.4B10.A.A3.2B2.10B$18.4B16.4B9.
A.A2.2A13B$19.4B16.4B9.A3.2A13B$12.2A6.4B16.4B13.2B.11B$8.A.A2.A7.
4B16.4B15.9B.B2A$6.3A.2A6.7BA16.4B16.7B.BA.A$5.A4.B6.6BABAB16.4B
14.7B5.A$6.3AB2AB3.8B2AB17.3BA12.8B5.2A$8.A.2A2B.6BA5B5.7B.B4.B2AB
10.2A2B2.4B$12.8B3A4B5.13B.ABAB8.ABAB4.4B$12.7B2AB2A7B3A26BA6.4B$
8.2A2.8B3A8B4A25B8.4B$7.A.A2.9BA8B2A2B2A24B9.4B$6.A.A3.19B2ABA27B
4.A3.4B$6.BA8B3A12B3A30B.A.A3.3BA$7.8BA3BA12BA8B3.2B2.13B2A2B.A.A
3.ABA$8.6BA5BA3B3.B2.10B11.10BABAB3.A4.2A$7.BA6BA3BA2B9.6B16.7B.2B
AB.B2ABA3.B$7.A.A3.3B3A3B10.3B18.7B2.A3.2A.2B$8.A5.7B11.B20.7B3.4A
2.A.A$15.7B9.2A18.2AB.B.3B6.2B6A$16.7B8.A18.A.AB8.A.2A2.A5.A$16.4B
3A10.A16.A11.2A.A5.3A$19.3B10.2A15.2A20.A!
