#CSYNTH guntrue_1287 costs 3128 cells.
#C period 1287 fullperiod 1287 bbox 68 by 46
#CLL state-numbering golly
x = 68, y = 46, rule = LifeHistory
51.B.B$50.B2A3B$50.A2BA2B10.2A$49.2B2A4B2.2B5.A$38.2A9.13B.BA.A$
34.2A3.A6.16B.B2A$34.A2.A7.14BA4B$32.2A2.3A5.14BABA4B$31.A2.2A3.2B
3.15BA4B$31.A.A2.3A2B3.18B.B2A$29.2A.A.2AB.A23B.BA.A$27.3A2.A3.2A
19B2.2B5.A$26.A4.A.2A21B10.2A$26.A.4A.A.B.19B$11.2A14.A6.A5.16B$7.
A4.A15.3A.2A6.10B3.4B.2A$6.A.A.A19.A.A8.8B3.B2A3B.A$5.A2.A.5A9.2A
7.A6.9B4.2AB2.A$5.2ABA5.A8.B2AB4.3A5.10B8.A$3.2A3.4AB10.3B4.A7.10B
5.5A.A$2.A2.ABAB.BAB11.B.B3.2A5.7BA3B5.A4.A.A$3.2A2.4A3B5.13B4.7BA
BA2B7.A2.A.A$5.2AB.A4B4.12B5.8BABA2B6.2A3.A$5.A3.4B5.14B2.10BA3B$
3.A.A2.B2A2B.6B2A24B.B2A$3.2A4.2A2.5B2AB2AB2A19B2.BA.A$13.6BA5BA9B
.7B7.A$13.3BA2B2ABA2BA8B3.6B7.2A$10.3B.BAB3A3B2A7B6.4B$8.9B2A14B.B
4.4B$5.2B.5BA3BA5B3A6B.B2A4.4B$4.2A28B2A5.4B$4.2AB.6B3A5BA3BA5B.2B
7.4B$5.B.14B2A9B11.4B$8.7B2A3B3ABAB.3B14.4B$6.8BA2BAB2A2BA3B18.4B$
5.9BA5BA6B4.2B13.4B$4.10B2AB2AB2A5B3.4B13.4B$4.14B2A6B.2B2A2B2A2B
11.4B$2.4B2.14B5.2B2A2B2A2B12.4B$2.2A6.12B4.A.A.A2BA.A.A12.4B$3.A
4.13B3.3A.A.A2.A.A.3A11.4B$3A5.2A3.B.B7.A3.2A.4A.2A3.A11.4B$A8.A4.
3B7.2A3.A4.A3.2A13.3BA$6.3A4.B2AB9.2A2.A2.A2.2A16.3BA$6.A7.2A10.A.
2A4.2A.A17.3AB!
