#CSYNTH guntrue_3456 costs 2601 cells.
#C period 3456 fullperiod 3456 bbox 51 by 51
#CLL state-numbering golly
x = 51, y = 51, rule = LifeHistory
2.A9.A$2.3A5.3A34.2A$5.A3.A36.A2BAB$4.2A.B.2A36.2BAB$4.7B36.2BAB$
6.3B30.2A5.2ABA$4.7B27.B2AB4.2A2B$3.4BA4B8.2A17.3B3.4B$3.3BABA3B3.
2A2.A2.A10.B.3B2.2B3.4B$4.3BA3B4.A.A2.A.A8.6B2A4B2.2B2AB$4.7B5.B.
2A.A9.2BA2B3A6B2.2A$3.9B3.2B2.A10.B3ABAB2A6B$.17B.A9.B2A3B2A8B$.
15B2A.2A8.6A9B$2BA13B2A.A5.2A2.5A9B$.ABA8BA2B.B4.A2.B2A2B2.2A11B$B
ABA7BABAB5.2A3.4B4.12B3.2A$.BA8B2A3B4.A4.4B4.12B2.A2.A$3.13B.BA.A
3.AB2A5.12BA2.2A$5.11B.B2A4.ABAB3.2AB.9BAB2A$5.2B2A9B5.2BAB3.A.AB.
8B.BA2.2A$5.BA2BA8B5.2B2A3.A6.5B2.2B2A2.A$6.B2A9B5.2B2AB.2A6.5B3.B
.B.2A$7.11B7.2A11.5B2.B2A.A$10.8B21.5B.BAB.A$10.9B19.5B4.2A$9.5B2.
4B6.A10.A7B$9.6B2.4B5.3A7.BABA3.2A$8.6B4.4B7.A5.2B2A4.A$4.B2.3BA3B
5.4B5.2A4.4B6.3A$2.7BABA2B6.4B4.9B9.A$2.7BABA2B7.4B5.7B$.9BA3B8.4B
2.8B$.11B.B2A7.15B$2.9B2.BA.A7.15B$2.7B7.A8.14B$3.6B7.2A8.10B3.3B$
4.4B19.7B5.B3A$5.4B17.9B3.A.3A$6.4B16.4B2A2B3.A.A.AB$7.4B17.2B2A2B
3.A2.A$8.4B16.5B5.2A$9.4B16.3B$10.4B14.5B$11.4B13.2AB2AB$12.4B8.2A
2.BA.2A2.2A$13.4B7.A2.A.A3.B2.A$14.4B8.2A.7A$15.3BA9.A$16.3BA8.A.
4A$17.3AB8.2A2.A!
