#CSYNTH guntrue_5670 costs 3174 cells.
#C period 5670 fullperiod 5670 bbox 69 by 46
#CLL state-numbering golly
x = 69, y = 46, rule = LifeHistory
51.B$44.B5.BAB$43.3B4.3A$18.A24.BAB3.ABABA$18.3A21.2ABAB2.ABABA$
21.A20.2ABAB.2B3A2B$8.AB10.2A21.B3A.3BA3B$7.B.2A9.4B19.3B.9B$7.2A.
B11.2B19.3B.9B$8.BA3.3B4.8B15.B3A.3BA3B$11.7B.11B3.2A7.2ABAB.2B3A
2B$9.21B2.B2AB6.2ABAB2.ABABA$4.19BA6B3.3B7.BAB3.ABABA$3.19B3A5B4.B
2.2B4.3B4.3A$4.17B2AB2A15B.3B5.BAB4.A$5.17B3A16BA3B6.B3.3A$6.17BA
3B2A13B2A2B8.A$4.23BABA17B7.2A$2A2.12B3.2A7BA12B3.4B3.5B$A2.AB2A8B
3.B2A13B.B9.4B2.3B9.2A$.3ABABA11.5B.6B15.9B8.A.A$5.A.A9.4B3.7B16.
8B.B8.A$3.2A.A10.2A6.4B.B2A15.11B3.B.BA.2A$2.A.A.A.A9.A7.B3.BA.A
14.12B.B2A.A.A$3.A3.2A6.3A7.BAB5.A14.14B2A.A.A$15.A9.BAB5.2A13.8B
2A5B2.A.2A$26.A19.2AB.5BA2BA3B4A2.A$45.A.AB.6B2A2B.BAB2.2A$38.A6.A
5.7B6.2A$38.3A3.2A5.4B.2B7.A$41.A8.4B9.A$40.2A7.4B10.2A$40.5B3.4B$
31.2A9.3B2.4B$30.A.A8.9B$30.A8.B.8B$27.2A.AB.B3.BA9B$28.A.A.2AB.3A
9B$28.A.A.2A2B2A10B$27.2A.A2.5BA9B$27.A2.4A3BA8B.B2A$28.2A2.BAB.BA
8B.BA.A$30.2A6.7B5.A$30.A7.2B.3BA5.2A$32.A9.3BA$31.2A10.3AB!
