#CSYNTH guntrue_8418 costs 5494 cells.
#C period 8418 fullperiod 8418 bbox 82 by 67
#CLL state-numbering golly
x = 82, y = 67, rule = LifeHistory
55.A$53.3A$45.2A5.A24.2A$43.3A.A4.2A23.A.A$42.A4.A2.4B24.AB$30.A
12.3A.A.2AB5.4B3.B.2A7B2.2B$30.3A5.2A5.A.A2BAB5.4B.2B5A12B$33.A3.B
2AB5.2B2AB5.2A5BA4BA11B2A$32.2A4.3B5.4B6.2A5BA2B3A11B2A$32.5B2.B2.
2B2.4B7.B.4B2A2BA11B.B$34.16B9.6B2A11B$33.2A17B4.3B.B.3B$10.2A21.
2A3B2A14B2.9B2A11B$9.B2AB11.2A.A.2A3.B.2B2A23B2A2BA11B.B$10.3B4.A.
2A.A2.A.2A2.A4.14B2.11BA2B3A11B2A$9.B.B5.2A.A.2A.A4.A.A5.7B8.10BA
4BA11B2A$9.5B8.B2.5A.A6.6B10.10B5A12B$9.6B6.2ABA4.A7.8B10.4B.B.3B.
2A7B2.2B$9.8B4.2A.A.AB2.A7.6B12.4B18.AB$10.13B2.A.A2B.A6.6B13.4B
16.A.A$8.13B5.A2B.2A7.6B13.4B15.2A$7.15B3.3B11.7B13.4B$7.15B3.2B
12.6B15.4B$6.17B.4B10.11B12.4B$6.29B3.12B12.4B$5.13B2A16B.13B13.4B
$4.14B2A16B2.11B15.4B$3.2AB3.27B.12B16.4B$2.A2.A4.39B17.4B$.A.2A5.
6B3.B2.2B2.22B2.B16.4B$.A7.6B14.19B.B2A16.4B$2A6.9B14.19B2A17.4B$
7.4B4.2A15.17B.B19.4B$7.4B4.A15.18B22.4B$6.5B5.3A12.18B23.4B$5.7B
6.A10.2AB.17B23.4B$5.8B15.A.AB4.14B24.4B$2.B.8B16.A9.12B25.4B$.2A
10B14.2A8.13B26.4B$.2AB.9B23.12B28.4B$2.B2.9B8.2A14.10B30.3BA$5.8B
9.A16.9B31.ABA$5.2B3A4B5.BA.A16.9B32.2A$4.2BA2BA4B.3B.B2A10.A6.9B
33.B$3.7BA9B12.3A5.5B$3.2BA3B2A9B15.A4.4B$3.B2ABA11B15.2A4.4B$.4BA
3BA10B14.9B6.2A$.4BA2BA13B14.6B7.A$2A4BABA16B2.2B2.B3.6B5.2A.A$2AB
.37B4.A2.A$.B3.5B2A2B.27B3.B2A$7.B2ABAB2.16B2A14B$4.2B.A3BAB2.16B
2A13B$3.2A2BA2B2A4.29B$3.2AB.B3A2B10.2B.B.17B$4.B.3BA2B10.3B4.15B$
6.6B6.2A.2BA5.15B$7.5B6.A.2BA.A5.13B$8.4B7.A2.BA.A2.13B$9.5B6.A3.A
.A.2A4.8B$12.2A4.A.4A2.AB2A6.6B$12.A5.2A3.A.A2.B8.5B$13.3A5.A.A.2A
.2A9.B.B$15.A2.3A.A3.A.A9.3B$18.A2.A4.A.A9.B2AB$19.2A6.A11.2A!
