#CSYNTH guntrue_4450 costs 6174 cells.
#C period 4450 fullperiod 4450 bbox 98 by 63
#CLL state-numbering golly
x = 98, y = 63, rule = LifeHistory
2A$.A26.A$A25.3A$2A23.A$.B23.2A$3B20.4B2.A$5B9.B3.B.5B4.3A10.2A43.
2A$6B2.B.7B2A7B6.A5.2A2.A44.A2.2A$2.14BA2BA7B4.2A5.A.A.A45.2A.3A$.
15BABA8B4.5B3.B.A47.B4.A$.16B3A8B5.3B2.2B40.B6.B2AB3A$.10BABA4BA2B
A9B.9B38.2AB.3B.B2A.A$2.8BA2BA4BA3BA20B8.2A26.2A9B$3.27BA7BAB3A8.A
28.B.7B$6.3BA3BA5BA3BA2B2A2B2A5B2A2BABA4.BA.A23.A6.7B$6.2B2A17BA
18BA.B2A22.A3BA3.4B2A3B$4.3B3A17BABAB2A3B2A2B2A4BA2B23.BA11B2A2B$
4.B2A4B2A7BA6B2A4BABA4B2A.2AB.AB23.BA4BA5BA3B2.B2A3.A$4.A5B4A5B3AB
2A4B3A5B5AB3.2A22.B.2B2ABA7B2A4B2AB.A.A$4.4BA15B2A5BA3B.B3A22.A6.
2A3B3A4.4B2A4B.BAB.A$4.5BA2BA7BABA3BA6B.5B7.2A14.3A4.2A6B5.9B3AB$
2.A2B.2A3B2A7B3ABABA6B.4B6.A2.A17.A4.9B4.8BA2BA$.A.2A.BA17BA6B2.4B
6.2A.A.2A.A11.2A4.5B2.2A4.7B.B2A$.A7.23B2.5B6.B.A.A.2A11.6B2.B4.A
6.3B5.B$2A6.23B2.8B2.B2ABA18.5B7.3A3.4B$9.5B2AB2A11B2.10B.B2A2.A
17.6B8.A3.B3A$9.5BA3BA4B3.3B2.4B3A6B3.2A16.8B13.B$4.2A3.6B3A4B2.3B
3.4BA3BA5B15.A.2A2.9B$4.A2.2AB.10B2.11B2AB2A5B15.2A.A12B$5.AB2AB2.
8B2.23B6.2A11.12B$2A.A.A.B6.5B2.23B7.A12.13B$A.2A.A.2A6.4B2.6BA17B
AB.2A.A12.9B.4B$5.A2.A6.4B.6BABAB3A7B2A3B2A.2BA13.9B2.4B$5.2A7.5B.
6BA3BABA7BA2BA5B14.11B2.4B$13.3AB.3BA5B2A15BA4B14.11B3.4B$5.2A3.B
5A5B3A4B2AB3A5B4A5BA14.12B3.4B$4.BA.B2A.2A4BABA4B2A6BA7B2A4B2AB8.B
4.5BA8B3.4B$4.2BA4B2A2B2A3B2ABABA17B3A3B7.3B3.4B2A4B.4B3.4B$2.2AB.
A18BA17B2A2B7.6B2.3BA2BA8B4.4B$.A.AB4.ABA2B2A5B2A2B2A2BA3BA5BA3BA
3B.4B2.7B.3B2A8B.B2A3.4B$.A8.3ABA7BA52B.BA.A3.4B$2A8.20BA3BA4BA2BA
32B4.A4.4B$12.9B.9BA2BA4BABA28BA4B4.2A4.4B$13.2B2.3B5.8B3A17B2A14B
3A4B10.4B$11.A.B3.5B4.8BABA16B2A14BAB2A3B11.4B$10.A.A.A5.2A4.7BA2B
A32B2A6B11.4B$10.A2.2A5.A6.7B2A7B.B3.10B6A5B2A5B13.4B$9.2A10.3A4.
5B.B3.B10.4B2.2BA2B4A8B2AB15.4B$23.A2.4B20.8B4A3B3A3B2AB.A.A13.4B$
26.2A23.14BA5BAB4ABA13.4B$27.A24.14BAB6AB2ABA14.4B$24.3A22.B3.2B.
5B2.BA5B3A2B.BA16.3BA$24.A23.2AB.3B.4B3.8B2A3B19.ABA$48.2A3BA11.
11B.B18.2A$49.B.BA.A10.2B3A7B2A18.B$52.BA.A9.2B3A5B.B2A$55.A7.2AB.
6B4.B$55.2A5.A.AB.4B$62.A5.5B$61.2A8.2A$71.A$72.3A$74.A!
