#CSYNTH guntrue_438 costs 3315 cells.
#C period 438 fullperiod 438 bbox 65 by 51
#CLL state-numbering golly
x = 65, y = 51, rule = LifeHistory
21.2A.A.2A15.2A5.2A$20.A2.2A.A2.A.2A.A7.A.2BAB.A2.A$19.A.A4.A.2A.A
.2A7.2A.BA2BA.2A$20.A.5A2.B8.6B2.A2.A.A$22.A4.AB2A6.5B4.B3A.AB$21.
A2.BA.A.2A4.7B5.2A.3BA$20.A.2BA.A2.13B8.A3B$15.A4.2A.2BA5.13B7.A.
3A$13.3A8.3B3.15B7.4AB$12.A12.2B3.15B8.B.A$12.2A10.4B.17B$8.2A4B3.
29B$8.2A2B4.16B2A13B$7.7B2.16B2A14B$8.7B.27B3.B2A$7.35B4.A2.A$2.B
4.19B2.2B2.B2.7B5.2A.A$.2AB.18B13.7B7.A$.2A18B15.8B6.2A4.2A$2.B.
16B17.2B2.4B10.B2AB$5.16B15.2A4.4B10.2B$4.17B15.A6.4B8.2B$4.15B.B
2A14.A6.4B6.4B6.A$2.15B3.BA.A12.2A7.4B4.6B3.3A$2.2A2.6B2.4B5.A16.
2A4.4B4.5B2.A$3.A2.5B4.4B4.2A16.A5.4B2.6B2.2A$3A3.6B4.4B7.2A12.A.A
B3.15B$A6.4B6.4B6.A14.2AB.15B$8.2B8.4B6.A15.17B$7.2B10.4B4.2A15.
16B$6.B2AB10.4B2.2B17.16B.B$7.2A4.2A6.8B15.18B2A$14.A7.7B13.18B.B
2A$14.A.2A5.7B2.B2.2B2.19B4.B$15.A2.A4.35B$16.2AB3.27B.7B$11.2A4.
32B2.7B$12.A5.31B4.2B2A$12.A.2A3.12B3A14B3.4B2A$13.2A.A2.9B2A2BA3B
.B.2B10.2A$15.AB3.8BABA4B4.3B10.A$14.BA4.15B5.A2B.2A3.3A$15.2AB3.
13B5.A.A2B.A3.A$13.A.A.2A4.13B2.A.AB2.A$11.3A.2A.3B.8B4.2A.A.A3.A$
10.A3.A.2B2A8B6.2ABA2.4A.A$11.2A.A.A.2AB3.4B7.B2.A.A3.A.A$13.A.A.A
B6.4B5.2A.2A2.A2.A.A$13.A.A10.3BA5.A.A2.2A3.A$14.2A11.3BA4.A.A$28.
3AB4.A!
