#CSYNTH guntrue_8976 costs 3476 cells.
#C period 8976 fullperiod 8976 bbox 79 by 44
#CLL state-numbering golly
x = 79, y = 44, rule = LifeHistory
15.2A$16.A45.B.B$16.A.2A3.2A36.B2A3B$17.A.A4.A36.A2BA2B10.2A$6.2A
11.A.3A10.2A.2A21.2B2A4B2.2B5.A$7.A5.B2A2.BA.A11.A.A.A11.2A9.13B.B
A.A$7.A.AB.BA5BA2B10.2B.A2.A6.2A3.A6.16B.B2A$8.2AB.A5B.2B11.A2BAB
2A6.A2.A7.BA12BA4B$10.BA3BA3BA.2B8.B2A.B6.A4.3A5.BABA10BABA4B$10.B
A2BABA2BA4B.2B5.3AB3A3.5A3.2B3.BABA11BA4B$11.A3BA3BA8B4.BA.A2.A8.
3A2B3.2BA15B.B2A$10.2BA5BA11B3.B.A.A6.3AB.A23B.BA.A$9.3BA5BA16BA.
2A4.A3.2A19B2.2B5.A$7.5B2A4BA4BA8B2.A2.A2.A.A.2A21B10.2A$2A5.4B3A
5BA2B3A7B3.2A2.2A.A.A.B.19B$.A5.3B2A3BA2BA5B2A5B11.A2.A5.16B$.A.AB
.3B3A3BA4BA3B3A5B6.A.2A.2A6.10B3.4B.2A$2.2AB.4B2A5BA2BA3B2A7B5.2A.
A.A8.8B3.B2A3B.A$3.8B3A2BA5B3A4B.4B10.A6.9B4.2AB2.A$4.8BA4BA4B2A5B
2.4B7.3A5.10B8.A$4.13BA5BA3B5.4B5.A7.10B5.5A.A$6.11BA5BA2B7.3BA4.
2A5.7BA3B5.A4.A.A$8.8BA3BA3BA9.3BA5B4.7BABA2B7.A2.A.A$9.2B2.3BA2BA
BA2BAB9.3A3B5.8BABA2B6.2A3.A$13.2B.A3BA3BAB3.2A4.8B2.10BA3B$15.2B.
5BA.B2A2.A2.24B.B2A$14.2BA5BAB.BA.2A3.23B2.BA.A$14.A.AB2.2AB5.A4.
13B.7B7.A$12.3A.A11.A2.2AB.10B3.6B7.2A$11.A4.A.A8.2A.A.AB3.B2A4B5.
4B12.2A$11.2A3.2A.A7.A2.A5.2B2A5B5.4B10.B2A2B$19.A9.2A6.8B6.4B10.
2A2B2.2B$19.2A16.6B9.4B7.B3A2B2.3B$38.5B10.4B6.BABAB.2B2AB$39.3B
12.4B4.BA2BA4B2ABA$38.5B12.4B3.BABA2B2.4B.A$37.B2AB2A2.2A8.6B.2BA
3B4.A.4B$34.2A2.2A.AB2.A10.6B2.B.2B5.AB2A2B$34.A2.B3.A.A.A7.3B2.4B
3.2BAB5.B2A2B$35.7A.2A3.B2.BA3B3.4B3.A.A5.3B$42.A4.3AB2A2B2A3.4B3.
A7.2B$37.4A.A4.4A4B2A4.3BA$37.A2.2A6.3B2A2.B6.3BA$48.3B12.3AB!
