#CSYNTH guntrue_1164 costs 5621 cells.
#C period 1164 fullperiod 1164 bbox 77 by 73
#CLL state-numbering golly
x = 77, y = 73, rule = LifeHistory
31.2A$30.A.A$24.2A4.A$22.A2.A2.2A.4A$22.2A.A.A.B.A2.A$25.A.ABABAB$
25.A.AB2AB$26.AB.2B$29.3B$29.4B6.2A$27.3BA2B6.A$27.3B2AB3.BA.A$25.
10B.B2A$24.A12B$9.A13.A13B$9.3A10.B3A11B$12.A8.4B2.8B$11.2A7.4B5.
6B$11.5B3.4B4.9B$13.3B2.4B5.2A4.4B$3.2A7.9B7.A5.4B$3.A8.8B5.3A7.4B
18.A$2A.A.B3.10B6.A10.4B11.2A3.A.A$A2.3AB.2B2A7B18.4B11.A3.A2.A$.
2A2.BA3B2A7B19.4B10.A.2A.A.A$3.4A12B20.4B10.A.A.A.2A$3.A.2B3.7B.B
2A19.4B10.2B2A.A2.A$4.3AB2.7B.BA.A19.4B10.4B2.2A$7.A4.4B5.A20.4B6.
7B$2.5A5.4B5.2A20.4B3.8B$2.A10.4B22.2A3.4B.8B$4.A9.4B22.A4.12B$3.
2A10.4B6.2A13.A.AB2.11B.2B$16.4B5.A15.2AB.14B2A$17.4B6.A15.16B2A$
18.4B4.2A15.14B.2B$19.4B2.2B17.13B$12.2A6.8B15.14B.2B$13.A7.7B13.
18B2A$13.A.2A5.7B2.B2.2B2.BA17B.B2A$14.A2.A4.17B3A15B2.B$15.2AB3.
18B3A6B.8B$16.14B2A6BA3BA5B2.7B$17.13B2A6B4A6B2.7B$18.20BAB2A5B3.
7B$18.17B.4B11.6B.BA$19.15B3.2B12.7BA.A$19.15B3.3B11.8BA$20.13B5.A
2B.2A.2A4.6B.B4.2A$22.13B2.A.A2B.A.A5.5B6.B2AB$21.8B4.2A.A.AB2.A2.
A5.6B5.4B$21.6B6.2ABA4.A3.2A2.2AB.5B5.2B$21.5B8.B2.5A.A.A2.A.AB3.
4B2.4B7.2A$21.B.B5.2A.A.2A.A4.2A3.2A7.4B.5B5.A.A$22.3B4.A.2A.A2.A.
2A3.A3.A8.14B.A$21.B2AB11.2A.A.3A2.A11.14B$22.2A20.4A10.14B$43.A4.
A8.15B$43.2A2.2A7.12B2A3B$47.5B3.13B2A3B$38.2A9.3B2.4B2.11B.B2A$
37.A.A8.9B5.8B2.BA.A$37.A8.B.8B4.10B5.A$34.2A.AB.B3.BA9B5.2A5.B.B
5.2A$35.A.A.2AB.3A9B6.A4.3B$35.A.A.2A2B2A10B3.3A5.B2AB$34.2A.A2.5B
A9B3.A8.2A$34.A2.4A3BA8B.B2A.A$35.2A2.BAB.BA8B.BA.A.2A$37.2A6.7B5.
A2.A$37.A7.2B.3BA5.2A$39.A9.3BA$38.2A10.3AB!
