#CSYNTH guntrue_2260 costs 3042 cells.
#C period 2260 fullperiod 2260 bbox 78 by 39
#CLL state-numbering golly
x = 78, y = 39, rule = LifeHistory
11.2A5.2B11.2A$.ABA4BA6BA2B3A2.2A7.A4.3B$BA.4ABABA2BABABAB2AB.2A7.
A.A5B$2A2B.2A2.B4AB4.B3A10.2A6B$2B.2B2AB3.2B8.BAB11.6B$4.A.A4.2B9.
A13.6B$5.A6.B22.8B$11.2AB21.10B$2.2A6.A2BAB5.2A14.12B$3.A4.3B2A3B
4.A10.B4.13B$3.A.AB.8B.BA.A9.2AB.5BA6B2A2B$4.2AB.8B.B2A10.2A6B3A4B
ABA2B8.2A4.2A$6.12B13.6BA2B2A9B6.B2AB2.B2AB$6.12B15.3B2A3BA7B2AB5.
3B3.4B9.2A$6.12B3.A10.5B2A9BA2BAB5.B5.2B10.A$8.10B3.3A7.7B2AB2A6B
2A3B2.2B2AB2.5B9.A$10.7B7.A5.4B3.3B3A12B.2B2A2B.5B8.2A$10.8B5.2A4.
4B4.4B2A13B.13B6.B$9.5B.4B4.9B5.16B.16B5.3B$9.6B.4B5.7B5.13B.13B2A
4B4.4B$8.6B3.4B2.8B8.5B.2B2A2B.12B3A3B3.5B$4.B2.3BA3B4.15B6.5B2.B
2A2B2.3B2A6B2AB2A8B$2.7BABA2B5.15B7.2B5.B5.BA2BA9B2A6B$2.7BABA2B6.
14B6.4B3.3B5.B2A7BA3B2A3B$.9BA3B7.10B3.B2A3.B2AB2.B2AB6.9B2A2BA6B$
.11B.B2A6.2BA4B5.3AB3.2A4.2A8.2BABA4B3A6B2A$2.9B2.BA.A4.2BABA4B3.A
.2AB19.2B2A6BA5B.B2A$2.7B7.A4.2BABA3B3.A.A.2B20.13B4.B$3.6B7.2A5.B
A4B3.A2.A23.12B$4.4B15.5B5.2A27.10B$5.4B15.3B37.8B$6.4B13.5B37.6B$
7.4B12.2AB2AB37.6B$8.4B11.BA.2A2.2A34.6B2A$9.4B6.2A.A.A3.B2.A35.5B
A.A$10.4B5.A.2A.7A36.3B4.A$11.3BA8.A50.2A$12.3BA7.A.4A$13.3AB7.2A
2.A!
