#CSYNTH guntrue_176 costs 1247 cells.
#C period 176 fullperiod 176 bbox 43 by 29
#CLL state-numbering golly
x = 43, y = 29, rule = LifeHistory
14.A$6.2A6.3A$7.A2.A6.A$5.A4.3A3.2A$5.2A6.A2.4B$6.B5.2A4.2B3.BA$5.
3B4.9B.BA.A$5.4B5.4B2A4BA$5.5B2.2B3A5B.B$6.4BAB2A2BA4BAB$7.2B5A4BA
2BAB$9.2AB4A2BA2BAB$2A8.B2A5B2A3B$.A7.4B2AB2AB.B.B2A$.A.AB2.6BABAB
A2B2.BA.A$2.2AB.B.10B7.A$4.10B3A8.2A2.2A$4.14B10.B2A2B$4.15B10.4B
2.2B$4.5B2A9B7.6B2.3B$3.B.4B2A4B2.4B6.5B.2B2AB$2.A10B5.4B4.3B3A3B
2ABA$.A.AB.9B4.4B3.3B3A2.4B.A$2.AB3.2B4.2A5.5B.3B2AB4.A.4B$7.4B2.A
7.5B2.B.2B5.AB2A2B$9.2A3.3A5.4B3.2BAB5.B2A2B$9.A6.A6.3BA3.A.A5.3B$
10.3A11.3BA3.A7.2B$12.A12.3AB!
