#CSYNTH guntrue_8466 costs 3234 cells.
#C period 8466 fullperiod 8466 bbox 66 by 49
#CLL state-numbering golly
x = 66, y = 49, rule = LifeHistory
39.2A$35.2A2.A$31.A3.A.A.A$29.3A4.B.A$28.A5.A2B$27.B2A3.BA2BA3.2A$
25.5B2.B2A2BA.BAB.A$25.3B4.3BAB2.B2A.A$16.5B4.3AB2.5B3.B.B.2A$16.
3B2AB3.4B2.5B2.2B2A3.A$15.3BABA2B.2BA10B.BA2.3A$15.2BA2BA2B.3B2AB
2A6BAB2A$15.2BA2BA7B4A7BA2.A$13.3B2ABA2B.4BA4BA6B2.2A7.A$12.6BAB2A
3B.3B2ABA6B10.A.A$8.2A2.6BA4BA4B.2BAB2A3B11.A.A4.2A$8.A2.A7B4A7BA
2BA2B11.3A.2A4.A$9.2ABA6B2AB2A3B.2BA2BA2B6.A3.A4.B5.A.2A3.2A$6.3A
2.AB.10BA2B.2BABA3B4.3A4.3AB2AB4.A.A4.A$5.A3.2A2B2.5B2.4B3.B2A3B4.
A9.A.2AB6.A.3A$6.2A.B.B3.5B2.B3A4.5B4.2A12.4B2.2A.A$7.A.2AB2.BA3B
4.3B9.6B12.10B$7.A.BAB.A2B2AB2.5B8.5B10.B2.7B.2B$8.2A3.A2BAB3.2AB
9.7B2.B5.13B$14.2BA5.A9.8B.3B2.16B$12.A.B4.3A9.9B.10B2A9B$11.A.A.A
3.A10.18BA3BA9B$11.A2.2A13.4B.14BA3BA8B$10.2A16.4B2.5B2A9B2A7B$27.
4B3.5BABA6B2A7B$26.4B3.6BAB2A4B2ABA6B$11.A13.4B4.7B2A6BABA5B$11.3A
10.4B3.7B2A9B2A5B$14.A8.4B2.8BA3BA14B$13.2A7.4B2.9BA3BA15B$13.5B3.
4B3.9B2A10B.6B$4.2A9.3B2.4B4.16B2.10B$3.A.A8.9B6.13B5.B.5B$3.A8.B.
8B6.2B.7B2.B8.4B$2A.AB.B3.BA9B6.10B12.2B2AB$.A.A.2AB.3A9B6.A.2A2.
4B14.2A$.A.A.2A2B2A10B4.3A.A6.B2A.A$2A.A2.5BA9B3.A4.A.A4.B2AB3A$A
2.4A3BA8B.B2A2.A3.2A.A5.B4.A$.2A2.BAB.BA8B.BA.2A7.A4.2A.3A$3.2A6.
7B5.A8.2A4.A.A$3.A7.2B.3BA5.A.A12.A.A$5.A9.3BA5.2A13.A$4.2A10.3AB!
