#CSYNTH guntrue_4606 costs 5850 cells.
#C period 4606 fullperiod 4606 bbox 75 by 78
#CLL state-numbering golly
x = 75, y = 78, rule = LifeHistory
48.A3.2A$47.A.A2.A$47.A.A4.A$48.A.5A$50.A$20.2A3.A23.A2.B2A5.2A$
21.A2.A.A21.A.3B2AB4.A$19.A4.A.A21.2A.5B.BA.A$19.5A.A26.3B2.B2A6.A
$23.A27.8B5.3A$12.2A5.2AB2.A25.8B5.A$13.A4.B2A3B.A22.10B5.2A$13.A.
AB.5B.2A19.2B.10B3.4B$7.A6.2AB2.3B22.2A11B3.3B$7.3A5.8B21.2AB.15B$
10.A5.8B21.B.15B5.2A$9.2A5.10B22.14B5.A$9.4B3.10B.2B19.5B3A7B.BA.A
$11.2BA3.11B2A18.5BABA7B.B2A$11.B2A12B.B2A16.2AB.2BA2BA5BA3B$5.2A
5.ABA12B.B16.A.AB.2BABA6B2A2B$6.A5.14B19.A5.2BA6BAB3A$6.A.AB.15B
16.2A.A5.10B4AB.B$7.2AB.5BABA7B14.3A.A5.11BA3B.B2A$9.6BA3B2A3B.B2A
11.A9.4B3.12BA$9.6BABABA4B.BA.A10.2A7.4B3.3B4A3B.BA$9.7B3A4B5.A7.
5B6.4B4.2BA7B$6.B.9BA5B5.A.AB3.2A2B7.4B5.2BA5B$5.2AB.2B3A10B5.2AB
2.B2A3B5.4B5.4B2A2B$5.2A4BA2B2A2B3.4B5.10B4.4B5.2AB2.3B$6.2B.2B2A
2BA3B3.4B5.10B2.4B5.A.AB.5B.2A$9.4B3A3B4.4B4.9B2.4B6.A4.B2A3B.A$
11.8B5.4B4.13B6.2A5.2AB2.A$12.8B5.4B3.12B18.A$13.3B2.B2A5.4B3.10B
15.5A.A$9.2A.5B.BA.A5.4B.B2.B3A3B16.A4.A.A$9.A.3B2AB4.A6.8BA2BAB
19.A2.A.A$10.A2.B2A5.2A6.10BA19.2A3.A$11.A18.BA3B2A3B$9.A.5A14.ABA
2B3AB$8.A.A4.A13.BA2BA4B$8.A.A2.A16.B2A6B$9.A3.2A16.7B$31.8B$31.2B
3A4B2.2B$31.14B$32.3B3.8B$39.8B6.2A$37.2B.9B4.A$36.2A12B4.A$36.2AB
.9B4.2A$.2A34.B2.7B5.2B$2.A37.8B2.5B6.3B5.2A$.A39.B2A12B4.4B5.A$.
2A6.2BAB13.B.7B5.BA2BA.10B4.5B.BA.A$3.A2B2.2BABAB6.B.13B4.3B2A13B
3.5B.B2A$.3A5BABA45B3.7B$A2.B.4B2A45B3.8B$2A3.50B3.8B4.2A$6.25B2A
33B3.A.A$6.25B2A33B3.A$5.4B.B.11B3.41B.2A$6.4B2.10B5.10B2.B3.B2.B
3.18B$6.2B2AB4.2B2.4B7.6B14.18B3.2A$8.2A10.4B8.3B13.5B3.12B.B2.A$
21.4B9.B13.2A7.12B3A$22.4B8.2A13.A8.9B.BA$23.4B8.A10.3A4.2A3.9B3.
2A$24.4B6.A11.A6.A4.9B4.A$25.4B5.2A14.2A.A4.2B2A3B.B2A2.A.2A$26.4B
20.A2.3A.2BA2BA2B.BA.A.A.2A$27.4B20.2A2.BA3BABAB5.A.A$28.4B21.4A4B
A4B3.A.A$29.4B20.A.4B5.2A4.A$30.4B17.A.A.2A7.A$31.3BA16.2A2.A9.3A$
32.3BA19.A.A9.A$33.3AB19.2A!
