#CSYNTH guntrue_1598 costs 5307 cells.
#C period 1598 fullperiod 1598 bbox 87 by 61
#CLL state-numbering golly
x = 87, y = 61, rule = LifeHistory
52.2A$23.2A7.A20.A2.2A$22.B2AB4.3A20.A.A.A3.A$22.3B4.A8.A15.A.B4.
3A$11.2A10.B.B3.2A5.3A17.3B5.A$10.A2.A2.2A3.10B4.A14.2A3.5B3.ABA$
11.2A2.A.A3.8B6.2A12.A.BAB.6B2.5A$13.2A.B3.11B2.4B12.A.2AB2.5B4.3A
$13.A2.2B.2A14B7.A5.2A.B.B3.5B2.4B4.5B$10.2A.A.B6A13B5.3A4.A3.2A2B
2.5B2.4B3.6B$10.A2.A.ABABAB2A11B5.A8.3A2.AB.3BA9B.8B$12.2A.AB2AB2A
12B4.B2A10.2ABA3B3A6BAB.8B$16.AB.BA11BAB.6B9.A2.A3B5A3BABA7BA2B$
19.13B2A5B11.2A2.2B2A3B2A3B2A2B.3B3A3B$17.6B.8BABA4B.2B12.3B5A5B.
5B5A3B3.2A$17.2AB4.8B3A6B2A.2A9.3B3A3B.2B2A3B2A3B2A2B2.A2.A$18.A5.
6B2AB2A6B2A.A2.A9.2BA7BABA3B5A3BA2.2A$9.A5.3A5.6BA2BA10B.A.2A2.A6.
8B.BA6B3A3BAB2A$9.3A3.A6.7BABA7B.2B2.A5.3A4.8B.9BA3B.BA2.2A$12.A8.
4B2.3BA7B3.B.2A8.A4.6B3.4B2.5B2.2B2A2.A$11.2A7.4B5.8B3.A.A2.2A5.2A
4.5B4.4B2.5B3.B.B.2A$11.5B3.4B4.10B3.2A2.A2.A4.6B9.3A4.5B2.B2A.A$
13.3B2.4B5.2A3.B.B10.2A7.5B8.5A2.6B.BAB.A$3.2A7.9B7.A4.3B18.6B9.AB
A3.5B3.2A$3.A8.8B5.3A4.B2AB17.8B9.A5.3B$2A.A.B3.10B6.A7.2A12.A.2A
2.9B9.3A4.B.A$A2.3AB.3BA7B28.2A.A12B10.A3.A.A.A$.2A2.BA3B2A7B33.
12B13.2A2.A$3.AB2A12B33.13B16.2A$3.A.2B3.7B.B2A2.2A27.9B.4B$4.3AB
2.7B.BA.A2.A27.9B2.4B$7.A4.4B5.2A28.11B2.4B$2.5A5.3BA5.A29.11B3.4B
$2.A10.ABAB6.A27.12B3.4B$4.A9.2A2B4.2A21.B4.14B3.4B$3.2A10.4B2.2B
21.3B3.10B.4B3.4B$8.2A6.8B18.6B2.15B4.4B$9.A7.7B12.4B2.7B.5BA7B.B
2A3.4B$9.A.2A5.7B2.B2.2B2.20B3A6B.BA.A3.4B$10.A2.A4.9BA25B2ABA6B4.
A4.4B$11.2AB3.8B2AB2A20B2AB3A7B4.2A4.4B$12.17BA11B2A6BAB5A8B10.4B$
13.12BA3BA11B2A6BAB3A4BA5B11.4B$14.10B5A21B2ABA2B3A6B11.4B$14.9B2A
6B.B5.8B2A3B2A3BABA5B13.4B$15.8B2A5B10.B2.2BA2BA2BA11B15.4B$15.15B
12.4B2A4BA6BA2B.B.B13.4B$16.13B12.11B2A2BA2B2A4B2A13.4B$18.13B10.
10B3ABABAB3A3B2A14.4B$17.8B4.2A.A6.2AB2.5B2.B2A2BA2B2A2B.2B16.4B$
17.6B6.2AB3A3.A.AB2.4B3.2BA5BA4B19.3BA$17.5B8.B4.A2.A14.B5A5B.B18.
ABA$17.B.B9.2A.3A2.2A14.2B3A7B2A18.2A$18.3B9.A.A20.3BA6B.B2A19.B$
17.B2AB9.A.A18.2AB.6B4.B$18.2A11.A18.A.AB.4B$50.A5.5B$49.2A8.2A$
59.A$60.3A$62.A!
