#CSYNTH guntrue_4720 costs 3168 cells.
#C period 4720 fullperiod 4720 bbox 66 by 48
#CLL state-numbering golly
x = 66, y = 48, rule = LifeHistory
31.2A3.A$29.3A.A.A.A$28.A4.A.A.A$13.A14.ABABA.A.A$12.A.A8.2A4.2A.A
.A$12.A.A9.A4.4BABA9.2A$10.3A.2A8.A.AB4.2BA3B6.B2A2B$9.A4.B4.2A4.
2AB.B4.5B6.4B$10.3AB2A3B2AB5.4B2.6B.9B$12.A.2A.4B6.21B$17.3B7.11B
3A4BA2B$17.B2AB5.12B3A3B3AB3.2A$17.A2BAB3.A3B.7BA2BABA3BA2BA2.A$
14.A2.BABAB2.A3B3.5BA2BA2B3A2B2.2A2.2A$13.A.A.2BA4B3A6.2BA4BABABAB
8.A$14.A2.2B.6B5.3BA2BAB2A5B6.A$17.8B5.A3BAB2AB2A5B6.2A$10.A5.B2A
5B5.ABA3BA4B2A5BA5.B3.3B$10.3A4.2A4B5.B2A8B.3B2.BABA4.7B$13.A4.4B
7.10B6.A2BA3.7B2A$12.2A4.6B8.7B7.2A11B2A$12.6B2.B.2A10.4B10.10B.B$
14.2B2AB3.A9.6B10.10B$13.3B2A2B3.3A6.2A13.11B$13.8B4.A7.A13.11B$
13.9B8.3A14.7BA3B$13.10B7.A17.5B3AB$11.8B.4B21.7B5A2B$11.8B2.4B18.
8B2A3B2A2B3.2A$10.9B3.4B17.7B3A3B3AB2.A2.A$2A.2A5.2B3A5B3.4B16.8B
2A3B3ABA2.2A$A2.3B2.3BA3BA3B5.4B15.9B5A2BAB2A$.2A2BA2.3BA3BA4B5.4B
12.2AB.8B3A2B.BA2.2A$2.3A6BA3BA4B6.4B10.A.AB.6B.2BA2B2.2B2A2.A$2.
3A2B.4B3A5B7.4B9.A5.5B.5B3.B.B.2A$.2A2BA2.9B2A2B7.4B7.2A5.4B3.5B2.
B2A.A$A2.3B3.8B2A2B8.4B13.3B5.5B.BAB.A$2A.2A5.6B2.B.B2A7.4B13.B6.
5B3.2A$7.7B6.BA.A7.4B21.2B$7.BAB2.2B9.A8.4B19.2B$5.2BABA13.2A8.4B
17.B2AB$5.BA3BA23.4B17.2A$6.BA2B.A23.4B$8.A.2BAB22.4B$9.A3BAB22.4B
$10.ABA2B23.3BA$10.BAB26.3BA$11.2B27.3AB!
