#CSYNTH guntrue_608 costs 2695 cells.
#C period 608 fullperiod 608 bbox 49 by 55
#CLL state-numbering golly
x = 49, y = 55, rule = LifeHistory
26.A$17.2A5.3A$9.2A5.B2AB3.A$10.A5.3B4.2A$10.A.AB3.B2.5B$11.2AB.8B
$13.9B2A$13.9B2A$13.3B3A2B.B$2A10.4B3A2B$.A8.4B.B3AB$.A.AB3.6BA5BA
B5.2A$2.2AB.6B3A5B3A4.A.A$4.4B3A6BA7B4.A$4.4BA7B3A9B2A.2A.A$.AB2.
3B3A2BAB2AB2ABA8B.A.2A$BA.A2.7B4AB4A5B4.A$A.AB.6B2AB2A3B2ABA3B4.2A
$.BA3.22B$7.5B2A7B2A6B$9.B.2B2A5B2A13B$11.3BA5BA2B.2BA5BA3B7.2A$
12.13B2A5B2A2B.B4.A2B$18.6B2A7B2A5B3.2BA$19.22B2.2A$15.2A4.3BAB2A
3B2AB2A6B3.3A$15.A4.5B4AB4A7B3.B3AB$12.2A.A.8BAB2AB2ABA2B3A3B.2A3B
$12.A.2A.2A9B3A7BA4B.A2BA$17.A4.7BA6B3A5BA3BA$17.A.A4.3A5B3A6B2.BA
3B$18.2A5.BA5BA6B4.BA2BA$24.4B3AB.4B8.A$24.4B3A4B8.A.A.A$23.2A3B3A
3B7.3A.2A.A$23.2A9B3.2B.A7.A$16.B2A5.B.8B.BA3B5A.2A$16.3AB6.6B2.3A
B.B2A2.A.A$15.A.2AB7.5B3.BA3B4A2.A$14.A.A.2B7.4B6.2B.A3.2A$14.A2.A
2.2B5.4B10.3A$15.2A3.3B3.5B12.A$9.2A9.B2A.6B$8.A.A8.BA2BA4B2.3B$8.
A8.B.2B2A4B3.3B2A2.B$5.2A.AB.B3.BA9B3.4A4B2A$6.A.A.2AB.3A9B3.3AB2A
2B2A$6.A.A.2A2B2A10B4.B2.BA3B$5.2A.A2.5BA9B9.3B$5.A2.4A3BA8B.B2A$
6.2A2.BAB.BA8B.BA.A$8.2A6.7B5.A$8.A7.2B.3BA5.2A$10.A9.3BA$9.2A10.
3AB!
