#CSYNTH guntrue_2840 costs 4600 cells.
#C period 2840 fullperiod 2840 bbox 92 by 50
#CLL state-numbering golly
x = 92, y = 50, rule = LifeHistory
25.2A3.A45.A2.2A$23.3A.A.A.A44.4A.A$22.A4.A.A.A49.A$22.ABABA.A.A
43.7A.2A.A$17.2A4.2A.A.A44.A2.B3.A.A.2A$18.A4.4BABA5.2A36.2A2.2A.A
B$18.A.AB4.2BA3B2.B2AB38.B2AB2A6.2A$19.2AB.B4.5B2.2B40.5B5.B2A2B$
21.4B2.6B.2B42.3B7.2A2B$21.16B33.2A5.5B6.BA2B$21.9B2A6B31.A2.A3.4B
AB5.BABA$20.9BA2BA6B28.BA.A.A3.3BABA2B3.2ABA$19.4B.6B2A8B27.3A.A3.
4BABA2B2.4B$18.4B3.16B26.3AB5.4BA2B3.4B$2.2A13.4B6.15B26.3B3.11B.
2B2AB$3.A12.4B7.11B.4B28.3BA11B2.2A$3.A.AB2.B5.4B8.10B3.4B21.2A4.
2BABA10B$4.2AB.3B3.4B3.A3.11B5.4B7.2A12.A5.BABA11B$6.6B.4B3.A.A.9B
2.2B5.4B5.B2AB9.A9.A7B2.4B$6.6BABAB3.A.A2.A7B2.B2A6.4B5.3B4.2A2.A.
4A4.7B5.4B$6.2B2AB3AB4.A2.3A3B.B5.A.A.2A3.4B3.B.B5.A3.A4.A4.9B4.4B
$7.A2B2ABA6.2A3.B2.3B2.A.A.2A.A4.4B.6B4.3A.ABA5.4B4.2A5.4B$7.BABA
4B8.2A2.B2AB2.2A.A9.10B6.A.A.2A3.4B5.A7.3BA$8.BA6B4.2A.A4.2A6.A.2A
7.12B3.BAB.B3.4B7.3A5.ABA$2.2A5.2B2.4B3.A2.A12.A2.A8.12B2.11B10.A
6.2A$.A2.A4.2B3.4B3.2A3.4A5.2A2.A.AB6.13B.9B19.B$.A.A2.2A.B5.4B6.A
3.A10.2AB.3B2.22B$2A.2AB5A5.4B6.A15.29B$A5.B.3A6.4B4.2A15.29B$.4AB
2A.B3.A4.4B2.2B17.28B$4.B.2A4.A.A4.8B15.27B.B2A$3.A2.AB4.A.A5.7B
13.21B.6B2.BA.A$3.3A3.2A.A.2A5.7B2.B2.2B2.20B5.4B7.A$6.4A.A.A2.A4.
35B6.2B2AB6.2A$3.3A5.A2.2AB3.27B.7B9.2A$3.A2.4A.A3.14B2A16B2.6B$6.
A2.2A5.13B2A16B3.6B$17.29B6.4B$17.17B.B.2B12.B2A2B$18.15B4.3B12.2A
.B2A$18.15B5.A2B.2A11.BA.A$19.13B5.A.A2B.A14.A$21.13B2.A.AB2.A15.
2A$20.8B4.2A.A.A3.A$20.6B6.2ABA2.4A.A$20.5B8.B2.A.A3.A.A$20.B.B9.
2A.2A2.A2.A.A$21.3B9.A.A2.2A3.A$20.B2AB9.A.A$21.2A11.A!
