#CSYNTH guntrue_3863 costs 12360 cells.
#C period 3863 fullperiod 3863 bbox 120 by 103
#CLL state-numbering golly
x = 120, y = 103, rule = LifeHistory
40.2A$39.A.A$33.2A4.A$31.A2.A2.2A.4A$31.2A.A.A.A.A2.A4.2A$34.A.ABA
BAB7.A$34.A.AB2AB6.A$35.AB.2B7.5A$38.3B10.A$38.4B3.4AB$36.3B2AB3.A
2.AB$36.3B2AB4.4B$34.15B$33.14B2A.A.2A$32.11BA3B2A.2A.A$31.11BABAB
.B$30.4B2.7BAB$14.2A13.4B5.7B$14.A13.4B4.9B$9.2A5.A10.4B5.2A4.4B$
9.A5.2A9.4B7.A5.2B2A$6.2A.A.3B11.4B5.3A7.BABA$6.A2.A.2A2B2A7.4B6.A
10.A3B$8.2A.A.2B2AB5.4B19.4B$11.A.4B5.4B21.4B$11.2A.4B3.4B23.4B$4.
2A8.3BA6B8.2A15.4B25.A11.2A$3.A.A8.2BABA4B9.A.A15.4B23.A.A9.B2AB$
3.A8.B.3BA4B12.A4.2A10.4B10.A3.A3.2A2.A.A9.3B$2A.AB.B3.11B9.4A.2A
2.A2.A9.4B7.3A2.A.A2.A2.2A.2A9.B.B$.A.A.2AB.12B9.A2.A.A.A.A.2A10.
4B5.A5.A.A3.A.A2.B8.5B$.A.A.2A14B11.BABABA.A14.7B.2A5.A.4A2.AB2A6.
6B$2A.A2.5B2A8B12.B2ABA.A15.9B7.A3.A.A.2A4.8B$A2.4A3BA2BA5B.B2A11.
2B.BA17.6B8.A2.BA.A2.13B$.2A2.BAB.2B2A6B.BA.A.2A6.3B21.5B7.A.2BA.A
5.13B$3.2A6.7B5.A.A6.4B20.7B6.2A.2BA5.15B$3.A7.2B.4B5.A.A6.B2A3B
19.6B10.3B4.15B$5.A9.4B3.2A.A.AB3.B2A3B19.7B10.2B.B.17B$4.2A10.4B
6.2AB.10B17.6B4.29B$17.4B7.13B16.7B2.16B2A13B$18.4B6.14B15.7B2.16B
2A14B$19.4B5.15B13.9B.27B3.B2A$20.4B6.8B2.4B12.36B4.A2.A$21.4B5.6B
5.4B6.B4.20B2.2B2.B2.7B5.2A.A$22.4B3.9B4.4B4.2AB.19B13.7B7.A$23.4B
.4B4.2A5.4B3.2A19B15.8B6.2A$24.7B5.A7.4B3.B.17B17.2B2.4B$25.5B7.3A
5.4B5.17B15.2A4.4B$25.5B9.A6.4B4.17B15.A6.4B$24.7B16.4B3.15B.B2A
14.A6.4B$23.4B.4B16.4B2.12B4.BA.A12.2A7.4B$22.4B3.4B7.A8.15B9.A22.
4B$21.4B5.4B6.3A7.15B8.2A22.4B$20.4B7.4B8.A7.14B33.4B$19.4B9.4B6.A
.A7.12B35.4B$18.4B11.4B5.A.AB7.10B37.4B$17.4B13.4B5.A3B7.9B38.4B
10.2A$16.4B15.4B6.4B5.9B39.4B9.A$15.4B17.4B5.6B5.6B41.4B10.A$4.A9.
4B19.4B4.7B.2B2.5B35.2A5.4B5.5A$4.3A6.4B21.4B2.8B.9B36.A5.4B4.A$7.
A4.4B23.24B35.A.AB.7B2.B3A$6.2A3.4B8.2A15.24B35.2AB.7B3.2B.A$6.8B
8.A.A15.19B2.4B36.12B4A$2.2A4.5B5.2A2.A12.2A2.19B4.4B35.7B2A3BAB2.
2A$.A.BAB.5B6.A.A.2A11.A2.A17B7.4B34.7B2A2B.B3A2.A$.A.2AB2.5B6.2A.
A2.A11.2A.15B9.4B33.10B3.B.A.2A$2A.B.B3.5B3.3B.B2.2A16.12B11.4B31.
8B8.A$A2.2A2B2.5B3.4B22.10B13.4B29.9B7.2A$.2A2.AB.13B.B20.2B2A6B
14.4B27.4B2.3B$3.2ABA13B.B2A18.3B2A6B15.4B25.4B3.5B$.2A2.A5BA10B2A
19.10B16.4B23.4B7.2A$A2.A2.4BABA7B.2B20.8B.B2A.A13.4B21.4B8.A$.2A
3.4BABA7B22.7B3.B2AB3A12.4B19.4B10.3A$7.4BA7B23.6B6.B4.A12.4B10.A
6.4B13.A$9.9B3.2A20.6B4.2A.3A14.4B7.3A5.4B$6.B.10B.B2.A20.5B4.A2.
2A17.4B5.A7.4B$5.2A12B3A20.8B.A.A21.4B4.2A5.4B$5.2AB.8B.BA13.A8.8B
A.A.2A.A18.9B4.4B$6.B3.6B4.2A11.3A6.6B.2BAB.A.2A19.6B5.4B$11.4B6.A
14.A4.7B2.2B2.A22.8B2.4B$12.4B4.A14.2A4.7B3.B.2A20.15B$13.4B3.2A
13.4B.8B2.A.A2.2A18.14B$14.4B19.11B2.2A2.A2.A17.13B$15.4B17.12B7.
2A16.2AB.10B$16.4B16.12B24.A.AB3.B2A3B$17.2B2A15.11B25.A6.B2A3B$
18.BABA13.9B12.2A13.2A6.4B$19.A3B9.2B.10B11.A23.3B$20.4B7.16B.B4.B
A.A24.2B.BA$21.4B3.23B2.B2A24.B2ABA.A$22.32B25.BABABA.A$23.32B22.A
2.A.A.A.A.2A$24.3BABA25B22.4A.2A2.A2.A$25.3B2A6BA18B26.A4.2A$27.B
2A5BA19B24.A.A$28.17B5.B.4B23.2A$28.5BA8B11.4B$28.4BA2BA6B12.4B$
32.ABA4.2B14.4B$33.A6.2B14.3BA$39.B2AB14.3BA$40.2A16.3AB!
