#CSYNTH guntrue_2007 costs 6068 cells.
#C period 2007 fullperiod 2007 bbox 74 by 82
#CLL state-numbering golly
x = 74, y = 82, rule = LifeHistory
39.2A$20.2A.A.2A11.B2AB$15.A3.A2.2A.A2.A.2A.A4.3B$13.3A2.A.A4.A.2A
.A.2A5.B.B$12.A6.A.5A2.B8.2BA2B$12.2A7.A4.AB2A6.2B3AB$9.5B6.A2.BA.
A.2A4.3BA2BAB$8.4B7.A.2BA.A2.13B$7.5B7.2A.2BA5.4B2ABA5B$6.6B11.3B
3.4BA3B2AB3AB$4.B.6B12.2B3.3BA4B2A2B2AB$3.2AB.6B10.4B.5BAB2A2BA2BA
2B$3.2A7B4.23BA2BABA$4.2B.6B2.21B6A2BAB$7.6B2.22B2A5BABA$.B3.9B.
27B3.BAB$2AB.37B4.A2.A$2A23B2.2B2.B3.6B5.2A.A$.21B14.6B7.A$.19B14.
9B6.2A$3.16B15.2A4.4B$3.17B15.A5.4B$3.17B12.3A7.4B$4.10B.3B.B2A10.
A10.4B$5.9B5.BA.A21.4B$5.8B9.A22.4B$2.B2.9B8.2A22.4B$.2AB.9B33.4B$
.2A10B35.4B$2.B.8B37.4B$5.8B37.4B$5.7B38.4B$6.5B39.5B$7.4B38.9B$7.
4B38.9B$8.4B37.9B$9.4B35.10B$10.4B33.12B$11.4B22.2A8.13B$12.4B22.A
9.11B$13.4B21.A.AB4.12B$14.4B10.A10.2AB.15B$15.4B7.3A12.17B$16.4B
5.A15.17B$17.4B4.2A15.17B.B$10.2A6.9B14.19B2A$11.A7.6B14.19B.B2A$
11.A.2A5.6B3.B2.2B2.20B4.B$12.A2.A4.36B$13.BAB3.27B.9B$14.ABA5B2A
22B2.7B7.A$15.BA2B6A21B2.7B5.3A$16.ABA2BA23B4.6B4.A$16.2BA2BA2B2AB
A5B.B.2B10.7B4.2A$17.B2A2B2A4BA3B4.3B10.6B.5B$17.B3AB2A3BA4B5.A2B.
2A6.10B9.2A$18.5BAB2A4B5.A.A2B.A7.10B8.A.A$20.13B2.A.AB2.A8.10B.B
8.A$19.BA2BA3B4.2A.A.A3.A7.16B3.B.BA.2A$19.B3A2B6.2ABA2.4A.A5.2A.
14B.B2A.A.A$19.2BA2B8.B2.A.A3.A.A5.A3.14B2A.A.A$19.B.B9.2A.2A2.A2.
A.A2.3A4.8B2A5B2.A.2A$20.3B9.A.A2.2A3.A3.A4.2AB.5BA2BA3B4A2.A$19.B
2AB9.A.A15.A.AB.6B2A2B.BAB2.2A$20.2A11.A9.A6.A5.7B6.2A$43.3A3.2A5.
4B.2B7.A$46.A8.4B9.A$45.2A7.4B10.2A$45.5B3.4B$36.2A9.3B2.4B$35.A.A
8.9B$35.A8.B.8B$32.2A.AB.B3.BA9B$33.A.A.2AB.3A9B$33.A.A.2A2B2A10B$
32.2A.A2.5BA9B$32.A2.4A3BA8B.B2A$33.2A2.BAB.BA8B.BA.A$35.2A6.7B5.A
$35.A7.2B.3BA5.2A$37.A9.3BA$36.2A10.3AB!
