#CSYNTH guntrue_1029 costs 4209 cells.
#C period 1029 fullperiod 1029 bbox 69 by 61
#CLL state-numbering golly
x = 69, y = 61, rule = LifeHistory
20.A11.A$20.3A7.3A$23.A5.A$22.2A5.2A15.A$22.5B3.B13.3A$24.4B2.4B9.
A$22.15B6.2A$21.17B2.5B$20.23B$20.22B2A$20.22B2A15.A2.2A$18.2AB.
12B3A4B.B16.4A.A$17.A.AB2.11BA2BA3B23.A$17.A6.8B2A2B2A2B17.7A.2A$
16.2A6.7BA5BAB17.A2.B3.A.A2.A$26.8B3AB18.2A2.2A.AB2.2A$26.5B2A8B
18.B2AB2A$26.5BA2B3A5B18.5B$25.4B.2BA2BA6B7.2A2.2A6.3B$24.4B3.B2A
8B2.2A2.A2.A2.A5.2A3B$9.A13.4B2.4B.8B2.A.A2.A.A.A5.B2AB2A$9.3A10.
4B3.2A4.7B3.B.2A.2A.2A4.2ABA4B$12.A8.4B5.A4.4BA2B2.2B2.A4.B4.9B$
11.2A7.4B3.3A6.4B2A.2BAB.A.2AB2AB3.7B$11.5B3.4B4.A8.3B2A3BA.A.2A.A
.2AB.10B$13.3B2.4B14.8B.A.A7.13B$3.2A7.9B16.5B4.A2.2A4.13BA$3.A8.
8B17.6B4.2A.3A2.11BABA$2A.A.B3.10B17.6B6.B4.A3.8B2.2A$A2.3AB.2B2A
7B17.7B3.B2AB3A4.6B5.B$.2A2.BA3B2A7B18.8B.B2A.A5.9B$3.4A12B18.10B
8.4B4.2A$3.A.2B3.7B.B2A15.3B2A6B7.4B5.A$4.3AB2.7B.BA.A8.2A5.2B2A6B
6.4B7.3A$7.A4.4B5.A9.A5.10B5.4B10.A$2.5A5.4B5.2A8.A.AB2.11B3.4B$2.
A10.4B15.2AB.12B2.4B$4.A9.4B16.19B$3.2A10.4B10.A4.18B$16.4B7.3A4.
17B3.2A$17.4B5.A7.16B3.A.A$18.4B4.2A5.16B4.A$19.9B4.4B2.8B.2B3.2A$
20.6B5.4B4.7B2.A3B$20.8B2.4B5.6B2.A3B3A$18.15B6.4B4.3B.B2.A$18.14B
5.A3B5.A.A2B2A2.A$18.13B5.A.AB4.3A.A.A2.2A$16.2AB.10B6.A.A4.A4.2AB
2A$15.A.AB3.B2A3B9.A6.4A4.A$15.A6.B2A3B6.3A11.4A$14.2A6.4B8.A11.A
2.A$23.3B20.2A$24.2B.BA$23.B2ABA.A$22.BABABA.A$20.A2.A.A.A.A.2A$
20.4A.2A2.A2.A$24.A4.2A$22.A.A$22.2A!
