#CSYNTH guntrue_2339 costs 13932 cells.
#C period 2339 fullperiod 2339 bbox 129 by 108
#CLL state-numbering golly
x = 129, y = 108, rule = LifeHistory
35.2A3.2A$33.3A.A2.2A$32.A4.A$32.A2.2A.4A$31.2A.A.A.A2.A4.2A$32.A.
ABABAB7.A$32.A.AB2AB6.A$33.AB.2B7.5A$36.3B10.A$36.4B3.4AB$34.3B2AB
3.A2.AB$34.3B2AB4.4B$32.15B3.2A$31.14B2A.A2.A$30.11BA3B2A.2A$29.
11BABAB.B$28.4B2.7BAB$12.2A13.4B5.7B$12.A13.4B4.9B$7.2A5.A10.4B5.
2A4.4B$7.A5.2A9.4B7.A5.4B$4.2A.A.3B11.4B5.3A7.4B$4.A2.A.2A2B2A7.4B
6.A10.4B$6.2A.A.2B2AB5.4B19.4B$9.A.4B5.4B21.4B$9.2A.4B3.4B23.4B$
12.3BA6B25.4B25.A11.2A$2A.2A7.2BABA4B27.4B23.A.A9.B2AB$2A.A8.3BA4B
12.2A15.4B10.A3.A3.2A2.A.A9.3B$3.A.B3.10B13.A.A15.4B7.3A2.A.A2.A2.
2A.2A9.B.B$3.3AB.2B2A7B15.A4.2A10.4B5.A5.A.A3.A.A2.B8.5B$.2A2.BA3B
2A7B11.4A.2A2.A2.A9.7B.2A5.A.4A2.AB2A6.6B$A2.4A12B11.A2.A.A.A.A.2A
10.9B7.A3.A.A.2A4.8B$2A.A.2B3.7B.B2A11.BABABA.A14.6B8.A2.BA.A2.13B
$.A2.3AB2.7B.BA.A11.B2ABA.A15.5B7.A.2BA.A5.13B$.A5.A4.4B5.A12.2B.B
A15.7B6.2A.2BA5.15B$2.5A5.4B5.2A10.3B19.3BA2B10.3B4.15B$4.A8.4B7.
2A6.4B19.2B3A2B10.2B.B.17B$14.4B7.A6.B2A3B17.BA2B2A4.29B$15.4B6.A.
AB3.B2A3B17.BA3BAB2.16B2A13B$16.4B6.2AB.10B15.2B2ABAB2.16B2A14B$
17.4B7.13B13.5B2A2B.27B3.B2A$18.4B6.14B12.36B4.A2.A$19.4B5.15B6.B
4.BABA16B2.2B2.B3.6B5.2A.A$20.4B6.8B2.4B4.2AB.2BA2BA13B14.6B7.A$
21.4B5.6B5.4B3.2A4BA3BA10B14.9B6.2A$22.4B3.9B4.4B3.B.2B2ABA11B15.
2A4.4B$23.4B.4B4.2A5.4B5.2BA3B2A9B15.A5.4B$24.7B5.A3.A3.4B4.7BA9B
12.3A7.4B$25.5B7.4A4.4B3.3BA2BA8B.B2A10.A10.4B$25.5B16.4B2.4B3A5B
4.BA.A21.4B$24.7B4.4A8.15B9.A22.4B$23.4B.4B3.A2.3A7.15B8.2A22.4B$
22.4B3.4B8.A7.14B33.4B$21.4B5.4B6.A.A7.12B35.4B$20.4B7.4B5.A.AB7.
10B37.4B$19.4B9.4B5.A3B7.9B38.4B$18.4B11.4B6.4B5.9B39.4B$17.4B13.
4B5.6B5.6B41.4B$16.4B15.4B4.7B.2B2.5B42.4B$15.4B17.4B2.8B.9B43.4B$
4.A9.4B19.18B2A4B43.4B$4.3A6.4B21.16BA2BA4B43.4B$7.A4.4B22.17B2A2.
4B43.4B$6.2A3.4B8.2A13.18B4.4B43.4B$6.8B8.A.A13.16B7.4B43.4B$2.2A
4.5B5.2A2.A13.2AB.13B9.4B43.4B$.A.BAB.5B6.A.A.2A11.A.AB2.11B11.4B
43.4B10.2A$.A.2AB2.5B6.2A.A2.A9.A5.10B13.4B43.4B9.A$2A.B.B3.5B3.3B
.B2.2A8.2A5.2B2A6B14.4B43.4B10.A$A2.2A2B2.5B3.4B19.3B2A6B15.4B36.
2A5.4B5.5A$.2A2.AB.13B.B18.10B16.4B36.A5.4B4.A$3.2ABA13B.B2A17.8B.
B2A.A13.4B35.A.AB.7B2.B3A$.2A2.A5BA10B2A16.7B3.B2AB3A12.4B35.2AB.
7B3.2B.A$A2.A2.4BABA7B.2B17.6B6.B4.A12.4B36.12B4A$.2A3.4BABA7B21.
6B4.2A.3A14.4B35.7B2A3BAB2.2A$7.4BA7B22.5B4.A2.2A17.4B34.7B2A2B.B
3A2.A$9.9B3.2A17.8B.A.A21.4B33.10B3.B.A.2A$6.B.10B.B2.A8.A8.8BA.A.
2A.A18.4B31.8B8.A$5.2A12B3A9.3A6.6B.2BAB.A.2A19.4B29.9B7.2A$5.2AB.
8B.BA14.A4.7B2.2B2.A23.4B27.4B2.3B$6.B3.2B2A2B4.2A11.2A4.7B3.B.2A
24.4B25.4B3.5B$11.BABA6.A11.4B.8B2.A.A2.2A23.4B23.4B7.2A$12.A3B4.A
14.11B2.2A2.A2.A23.4B21.4B8.A$13.4B3.2A12.12B7.2A25.4B19.4B10.3A$
14.4B16.12B35.4B10.A6.4B13.A$15.4B15.11B37.4B7.3A5.4B$16.4B13.9B
12.2A27.4B5.A7.4B$17.4B9.2B.10B11.A29.4B4.2A5.4B$18.4B7.16B.B4.BA.
A30.9B4.4B$19.4B3.23B2.B2A32.6B5.4B$20.32B34.8B2.4B$21.32B31.15B$
22.31B31.14B$23.30B31.13B$25.28B29.2AB.10B$26.17B5.B.4B27.A.AB3.B
2A3B$26.14B11.4B26.A6.B2A3B$26.14B12.4B24.2A6.4B$30.3B4.2B14.4B32.
3B$31.B6.2B14.4B32.2B.BA$37.B2AB14.4B30.B2ABA.A$38.2A16.4B28.BABAB
A.A$57.4B25.A2.A.A.A.A.2A$58.4B24.4A.2A2.A2.A$59.3BA27.A4.2A$60.3B
A24.A.A$61.3AB23.2A!
