#CSYNTH guntrue_3182 costs 6612 cells.
#C period 3182 fullperiod 3182 bbox 116 by 57
#CLL state-numbering golly
x = 116, y = 57, rule = LifeHistory
104.4B$102.4B2A$7.A33.A60.3BA2BAB$A6.3A29.3A6.A52.3B2ABA2B$3A7.A
27.A7.3A29.2A7.2B10.6B2A4B$3.A5.2A27.2A5.A31.A.A7.3B9.5BABA3B$2.2A
5.5B21.5B5.2A26.2A2.A7.5B6.B2.5B3A3B$2.4B5.6B15.6B5.4B26.A.A.2A5.A
7B3.8BA3BA2B$4.3B2.8B3.BA5.AB3.8B2.3B30.A.A.B2.2B2A2BA3B.6BA5BAB2A
B$4.11B2A3BA.A3.A.A3B2A11B29.2A.ABABA4BA2BA8BA2B2A6B2AB2.2A$5.10B
2A4BA5.A4B2A10B28.A2.A.A3B3A5BA8BA5B3A3BA.A2.A$6.5B3A5B.B7.B.6BA6B
29.2A2.B2A6B2A2BA8BA2BA4BABABA.2A$2A2.B2.B2A4BA3B13.4BABA4B2.A2.2A
29.B2ABA5BA6B.3BA2B2A2B2.B.A.A$A2.2ABA7BAB17.BA3BAB2A3BA2.A29.2BA
3BA8B3.7BA5.2A.A.A$.2ABABA7BAB17.2BABA2B2A4B2A30.3B3A5B2.B6.5B7.A
2.2A$4.5B5A2B17.3BA6B2A25.A7.3BABA5B9.3B7.A.A$.3A.2BA9B4.A5.A4.8B
2A2B.3A22.3A4.4B2A6B10.2B7.2A$.A2.A2.ABA6BA3.A.A3.A.A3.7B3A2.A2.A
25.A4.2BAB2A3B$2.A.A3.A6BABA2.A2.A.A2.A2.3A7B3.A.A25.2A4.BA2BA3B$
3.A4.9BA2B.3A.3A.2B2A8B4.A26.6B2.2A4B$9.2B5A5B3.A3.2A6BA3B34.5B.4B
$9.BA7BABABA.A.A4B2A2BABA2B33.7B$9.BA7BAB2A.A.A.A3B2ABA3BAB33.8B$
7.3BA4B2AB2.B2.A.A2.A2.4BABA4B31.9B$4.B.5B3A5B4.A.A4.6BA6B.B27.11B
$3.A4B2A10B4.A4.10B2A4BA27.6B.4B$2.A.A3B2A11B7.11B2A3BA.A26.5B3.4B
$3.AB3.8B2.3BA5.A3B2.8B3.BA11.A12.8B4.4B$8.6B5.3BA4BABA2B3.6B16.3A
8.10B5.4B$11.5B4.3A4B2A2B2.5B22.A6.12B5.4B$14.2A5.8B4.2A12.2A10.2A
6.13B5.4B$14.A7.6B6.A13.A10.5B3.8BA3B7.4B$15.3A5.4B4.3A14.A.AB9.4B
2.A6B3A3B7.4B$17.A6.4B3.A6.A10.2AB.3B4.7BA3B2ABA2BA2B8.4B$25.4B7.
3A12.7B.6BABA3BA3BABA4B7.4B$26.4B5.A15.12B2A5BA2BA2B3A5B6.4B$27.4B
4.2A15.11B2A6B2A4BA7B6.4B$20.2A6.9B14.20BA13B7.4B$21.A7.2BA3B14.
35B9.4B$21.A.2A5.2B2A2B3.B2.2B2.19B.B3.B.2B3.5B12.4B$22.A2.A4.B2A
8B2A3BA16B6.3B7.B15.4B$23.2AB3.10B3A4B2A8B.6B6.B2AB5.3B15.4B$24.
14BA8B2A7B2.B.5B5.2A6.B2AB15.4B$25.13BABA2B5A8B7.2A14.2A17.4B$26.
13BA3B3A9B8.A35.4B$26.17B.B.2B16.3A33.4B$27.15B4.3B17.A34.4B$27.
15B5.A2B.2A49.4B$28.13B5.A.A2B.A50.4B$30.13B2.A.AB2.A52.4B$29.8B4.
2A.A.A3.A54.4B$29.6B6.2ABA2.4A.A53.4B$29.5B8.B2.A.A3.A.A53.4B$29.B
.B9.2A.2A2.A2.A.A54.4B$30.3B9.A.A2.2A3.A56.3BA$29.B2AB9.A.A65.3BA$
30.2A11.A67.3AB!
