#CSYNTH guntrue_1261 costs 9486 cells.
#C period 1261 fullperiod 1261 bbox 153 by 62
#CLL state-numbering golly
x = 153, y = 62, rule = LifeHistory
29.2A68.2A$28.A.A23.2A42.A.A21.2A$22.2A4.A25.A.A35.2A4.A23.A.A$20.
A2.A2.2A.4A23.A4.2A27.A2.A2.2A.4A21.A4.2A$20.2A.A.A.A.A2.A19.4A.2A
2.A2.A25.2A.A.A.A.A2.A17.4A.2A2.A2.A$23.A.ABABAB21.A2.A.A.A.A.2A
28.A.ABABAB19.A2.A.A.A.A.2A$23.A.AB2AB24.BABABA.A31.A.AB2AB22.BABA
BA.A$24.AB.2B26.B2ABA.A32.AB.2B24.B2ABA.A$19.A7.3B26.2B.BA36.3B24.
2B.BA$17.3A7.4B6.2A16.3B39.4B6.2A14.3B7.A$16.A8.3B2AB6.A8.2A6.4B
37.3B2AB6.A6.2A6.4B7.3A$15.A.A7.3B2AB3.BA.A9.A6.B2A3B35.3B2AB3.BA.
A7.A6.B2A3B8.A$14.BA.A5.10B.B2A10.A.AB3.B2A3B33.10B.B2A8.A.AB3.B2A
3B7.A.A$13.3BA5.13B13.2AB.10B30.13B11.2AB.10B5.A.AB$11.4B6.14B15.
13B28.14B13.13B5.A3B$9.6B5.15B15.14B26.15B13.14B6.4B$8.7B4.4B2.8B
17.15B24.4B2.8B15.15B5.6B$.B.4B.8B2.4B5.6B19.8B2.4B22.4B5.6B17.8B
2.4B4.7B$2AB.17B4.9B18.6B5.4B20.4B4.9B16.6B5.4B2.8B.4B.B$2A18B5.2A
4.4B16.9B4.4B18.4B5.2A4.4B14.9B4.17B.B2A$.2B.16B6.A5.4B14.4B4.2A5.
4B16.4B7.A5.4B12.4B4.2A5.18B2A$4.17B2.3A7.4B12.4B5.A7.4B14.4B5.3A
7.4B10.4B5.A6.16B.2B$5.16BA2.A9.4B10.4B7.3A5.4B12.4B6.A10.4B8.4B7.
3A2.17B$6.14B.2A3.A8.4B8.4B10.A6.4B10.4B19.4B6.4B9.A2.A16B$6.12B7.
2A9.4B6.4B19.4B8.4B21.4B4.4B8.A3.2A.14B$7.10B20.4B4.4B21.4B6.4B23.
4B2.4B9.2A7.12B$7.6B2A2B21.4B2.4B23.4B4.4B25.8B20.10B3.2A$7.6B2A3B
21.8B25.4B2.4B27.6B21.2B2A6B3.A$7.10B23.6B27.8B29.4B21.3B2A6B4.A$
3.A.2AB.8B24.4B29.6B29.6B21.10B3.2A$.3AB2AB3.7B22.6B29.4B29.8B20.
8B.B2A$A4.B6.6B21.8B27.6B27.4B2.4B18.7B3.B2AB2A$.3A.2A4.6B21.4B2.
4B25.8B25.4B4.4B17.6B6.B.A$3.2A2.A4.5B20.4B4.4B23.4B2.4B23.4B6.4B
17.6B4.2A3.A$6.A.A.8B18.4B6.4B21.4B4.4B21.4B8.4B16.8B.A2.4A$2.A.2A
.A.A8B8.A8.4B8.4B19.4B6.4B19.4B10.4B14.9BA.A.A$2.2A.A.BA2B.6B6.3A
7.4B10.4B6.A10.4B8.4B10.A6.4B12.4B4.A8.7B.2BAB.A.2A$5.A2.2B2.7B4.A
9.4B12.4B5.3A7.4B10.4B7.3A5.4B14.4B3.3A6.6B3.2B2.A.A$5.2A.B3.7B4.
2A7.4B14.4B7.A5.4B12.4B5.A7.4B16.4B5.A4.7B4.B.2A2.A$3.2A2.A.A2.8B.
4B6.4B16.4B5.2A4.4B14.4B4.2A5.4B18.4B3.2A4.7B3.A.A2.A.A$2.A2.A2.2A
2.11B7.4B18.4B4.9B16.9B4.4B20.4B2.4B.8B3.2A2.A.A$3.2A7.12B5.4B20.
4B5.6B18.6B5.4B22.4B3.11B8.A$12.12B4.4B22.4B2.8B18.8B2.4B24.4B.12B
$13.11B3.4B24.15B14.15B26.B3A12B$16.7B3.4B26.14B14.14B28.A13B10.A$
15.8B2.4B28.13B14.13B30.A9B11.3A$14.14B30.10B.B2A10.2AB.10B30.12B
9.A$13.16B31.3B2AB3.BA.A8.A.AB3.B2A3B31.16B6.2A$11.B.17B.B28.3B2AB
6.A8.A6.B2A3B24.A6.24B$10.2A17B.B2A29.4B6.2A6.2A6.4B26.3A3.23B$10.
2A19B2A29.3B24.3B29.A2.24B$11.18B.2B27.AB.2B26.2B.BA25.A.B.24B$9.
5B2.13B29.A.AB2AB24.B2ABA.A24.2A27B$9.2A6.9B32.A.ABABAB22.BABABA.A
22.2A2.A22B.4B$10.A6.9B29.2A.A.A.A.A2.A18.A2.A.A.A.A.2A18.A2.3A3B
3.2B3.B7.2B3.4B$7.3A8.7B30.A2.A2.2A.4A18.4A.2A2.A2.A19.A4.2B3.4B.
3B5.BA2B3.4B$7.A11.5B33.2A4.A26.A4.2A22.4A5.B2AB.B2AB4.A.A5.3BA$
20.6B37.A.A22.A.A30.A7.2A3.2A6.A7.ABA$24.2A38.2A22.2A33.A27.2A$24.
A97.2A28.B$25.3A$27.A!
