#CSYNTH guntrue_648 costs 1978 cells.
#C period 648 fullperiod 648 bbox 43 by 46
#CLL state-numbering golly
x = 43, y = 46, rule = LifeHistory
33.A$31.3A$30.A7.2A$16.A13.A2.3A.A2.A$15.A.A2.2A5.2A.A.A2.A.2A2.A$
15.A.A3.A5.A2.AB2AB.A2.2A$13.2A.A.3A8.A3.2AB3A$12.A.A.B.A11.2ABA.B
2.A$11.A2.B.2AB8.3A2.2ABA.A$12.4ABA2.B5.A3.A3.BA.4A$15.A.2AB2A3.A
2.A.5A.A4.A$12.2A.ABA2B2A4.3A4.B.BA.3A$10.A2.A.2A4B9.2A.4B.A$10.2A
.A.6B7.2A.A4B2AB$13.A3.5B6.A3.5AB$13.2A4.4B2.BA.A3.4B$19.B3AB.B2A
3.4B6.2A$17.2BA3BA3B3.A6B4.A$17.2BA3BA2B3.A9BA.A$18.BA3BA2B.2B3A7B
2A$19.B3AB2.13B$20.3B3.4B.9B$11.A9.B3.4B.10B$11.3A10.4B.10B$14.A8.
4B.12B$13.2A7.4B2.13B$13.5B3.4B3.4B3A5B2A$4.2A9.3B2.4B4.3B2AB2A2B.
B2A$3.A.A8.9B6.BABAB2AB3.B$3.A8.B.8B7.BA3BA$2A.AB.B3.11B9.BA2BA$.A
.A.2AB.12B7.B.B3A$.A.A.2A14B5.B3A2.4B$2A.A2.5B2A8B5.3AB4.2A$A2.4A
3BA2BA5B.B2A4.B6.A$.2A2.BAB.2B2A6B.BA.A11.3A$3.2A6.7B5.A13.A$3.A7.
2B.4B5.2A$5.A8.5B$4.2A9.5B$12.3B2.4B$7.B2.BA3B3.4B$6.3AB2A2B2A3.4B
$6.4A4B2A4.3BA$7.3B2A2.B6.3BA$7.3B12.3AB!
