#CSYNTH guntrue_2120 costs 4216 cells.
#C period 2120 fullperiod 2120 bbox 62 by 68
#CLL state-numbering golly
x = 62, y = 68, rule = LifeHistory
35.2A$34.A2.A$33.A.2A.A2.2A$33.A.A2.A3.A$32.2A.2BA.3A$32.A2.A.A.A$
33.3A3BA$35.4B$29.2A2.4A2BA7.2A$29.A2.A2.4BA6.2BA$30.A.2A2.B2AB4.A
2BA$27.3A.A5.A2B3.B2AB$26.A4.A7.B2A3BA2B$24.3A.2A.2A6.B2A2.B.AB$
23.A3.A.2A.2BA4.2B4.2A$22.A2.A5.A3B2.BAB$22.A.3A4BA3BA.ABAB$20.A.A
4.A2BA.6B2AB.2A$20.2A.ABABA.3ABA.7B2A$23.A.B.A.A2.2B2.7B$18.A4.A.A
.A2.2A4.7B3.2A$18.3A3.A.A.A.A5.6B3.B2A2B3.2A$11.2A8.A3.A2.A.A4.8B
3.4B2.B2AB$12.A5.2A.A6.2A4.4B2.10B3.2B$11.A5.A.A.2A10.4B3.2B3A5B2.
2B$11.2A4.A2.B11.4B4.2BA8B2A2B$14.2A.2A2B10.4B4.4BA7B2A3B.B$9.5A.A
.A.2AB8.4B5.18B2A$8.A2.B3.B.A.A.AB6.4B7.15B.B2A$8.2A.2B4A.2AB2A5.
4B7.15B3.B$12.A.B.2BA3BAB3.4B6.17B$11.2B2A3.4BA9B2.19B$11.2B2A3.4B
A30B$12.A.B.2BA3BA31B$8.2A.2B4A.2AB2A.2B2A28B$8.A2.B3.B.A.A.AB3.2A
28B$9.5A.A.A.2AB5.31B$14.2A.2A2B7.3B.4B3.19B$11.2A4.A2.B10.4B4.19B
$11.A5.A.A.2A7.4B3.2AB.16B$8.2A.A6.2A.A7.4B3.A.AB.15B$8.A.A10.A6.
4B4.A5.16B2.2A$18.3A6.4B4.2A3.14B.B2A.A.A$11.B2A4.A7.4B3.A2.A.A.2A
12B.B2ABA$11.3AB10.4B4.2A2.2AB2AB2.8B4.B2.A$10.A.2AB9.4B12.B5.6B4.
2A.2A$9.A.A.2B8.4B10.2A.2A4.5B6.A.A$9.A2.A2.2B5.4B12.A.A3.9B4.A.A$
10.2A3.3B3.4B13.A.A3.2AB4.2A5.A$4.2A9.B2A.5B15.A5.A5.A$3.A.A8.BA2B
A4B19.3A7.3A$3.A8.B.2B2A4B20.A11.A$2A.AB.B3.11B$.A.A.2AB.12B$.A.A.
2A14B$2A.A2.5B2A8B$A2.4A3BA2BA5B.B2A$.2A2.BAB.2B2A6B.BA.A$3.2A6.7B
5.A$3.A7.2B.4B5.2A$5.A8.5B$4.2A9.5B$12.3B2.4B$7.B2.BA3B3.4B$6.3AB
2A2B2A3.4B$6.4A4B2A4.3BA$7.3B2A2.B6.3BA$7.3B12.3AB!
