#CSYNTH guntrue_1464 costs 4221 cells.
#C period 1464 fullperiod 1464 bbox 63 by 67
#CLL state-numbering golly
x = 63, y = 67, rule = LifeHistory
22.2A$21.B2AB11.2A.A.2A$22.3B4.A.2A.A2.A.2A2.A3.A$21.B.B5.2A.A.2A.
A4.A.A2.3A$21.5B8.B2.5A.A6.A$21.6B6.2ABA4.A7.2A$21.8B4.2A.A.AB2.A
6.5B$22.13B2.A.A2B.A7.4B$20.13B5.A2B.2A7.5B$19.15B3.3B11.6B$19.15B
3.2B12.6B.B$18.15B2A.4B10.6B.B2A$18.14B5A10B4.7B2A$17.15BA4BA10B2.
6B.2B$16.16B3A2BA10B2.6B$15.2AB3.12BA2B2A10B.9B3.B$14.A2.A4.12B2A
23B.B2A$13.A.2A5.6B3.B2.2B2.23B2A$13.A7.6B14.21B$12.2A6.9B14.19B$
19.4B4.2A15.16B$19.4B4.A15.17B$18.5B5.3A12.17B$15.9B6.A10.2AB.3B.
10B$15.9B16.A.AB5.9B$15.9B16.A9.8B$15.10B14.2A8.9B2.B$14.12B23.9B.
B2A$13.13B8.2A14.10B2A$14.11B9.A16.8B.B$15.12B4.BA.A15.8B$15.15B.B
2A10.A6.7B$15.17B12.3A5.5B$15.17B15.A4.4B$12.B.17B15.2A4.4B$11.2A
19B14.9B6.2A$11.2AB.19B14.6B7.A$12.B4.20B2.2B2.B3.6B5.2A.A$17.36B
4.A2.A$17.9B.27B3.B2A$18.7B2.16B2A14B$18.7B2.16B2A13B$12.2A4.6B4.
29B$11.B2AB3.7B10.4B.17B$11.4B3.6B12.2B3.15B$12.2B3.7B11.3B3.15B$
3.2A7.4B2.5B8.2A.2BA5.13B$3.A.A5.5B.6B8.A.2BA.A2.13B$4.A.19B7.A2.B
A.A.2A4.8B$5.17B.2A8.A4.AB2A6.6B$5.14B4.A7.A.5A2.B8.5B$5.15B4.3A3.
A.A4.A.2A.A.2A5.B.B$4.3B2A12B5.A4.A2.2A.A2.A.2A.A4.3B$4.3B2A13B10.
2A.A.3A10.B2AB$2.2AB.11B2.4B28.2A$.A.AB2.8B5.4B12.2A$.A5.10B4.4B
10.B2A2B$2A5.B.B5.2A5.4B10.4B$8.3B4.A7.4B9.4B$7.B2AB5.3A5.4B7.B3A$
8.2A8.A6.4B6.2B2A$26.4B4.2A2B$27.4B3.3AB$28.5B.BABAB$29.3BAB2.2A$
30.3BA$31.3AB!
