#CSYNTH guntrue_4888 costs 4560 cells.
#C period 4888 fullperiod 4888 bbox 76 by 60
#CLL state-numbering golly
x = 76, y = 60, rule = LifeHistory
25.2A7.A$24.B2AB4.3A$24.3B4.A$13.2A10.B.B3.2A4.3B.2A.A$12.A2.A2.2A
3.10B3.5BA.2A$13.2A2.A.A3.8B4.5B$15.2A.B3.11B2.4B$15.A2.2B.17B6.A$
12.2A.A.12B3A5B5.3A$12.A2.A.2A9B3A5B5.A$14.2A.2A7B2A8B4.B2A27.A$
18.2B.6B2A7B.6B25.5A$21.7B5A8B26.A5.A$19.6B.3B5A7B.2B12.2A9.B3A2.A
$19.2AB4.4B4A4B2A3B2A.2A9.A10.2B.A.2A$11.3B6.A5.6BA2BA2B3A2B2A.A2.
A7.A.2A7.2B2A3.A$11.B3A2.3A5.8BA4B2A5B.A.2A2.A5.A2B.4B.2BA2.A.A$
10.A.3A2.A6.17B.2B2.A5.3A5.2BA5B2AB2A.2A$9.A.A.AB8.4B2.11B3.B.2A8.
A4.3BA4BAB$9.A2.A2.2B5.A3B5.8B3.A.A2.2A5.2A4.ABA5B2AB2A.2A$10.2A3.
3B3.BABA4.10B3.2A2.A2.A4.6B2.4B.2BA2.A.A$4.2A9.3B.3B2A5.2A3.B.B10.
2A7.5B7.2B2A3.A$3.A.A8.9B7.A4.3B18.6B6.2B.A.2A$3.A8.B.8B5.3A4.B2AB
17.8B4.B3A2.A$2A.AB.B3.11B6.A7.2A12.A.2A2.9B3.A5.A$.A.A.2AB.3B2A7B
28.2A.A12B3.5A$.A.A.2A5B2A7B33.12B4.A$2A.A2.15B33.13B$A2.4A12B.B2A
2.2A27.9B.4B$.2A2.BAB.10B.BA.A2.A27.9B2.4B$3.2A6.7B5.2A28.11B2.4B$
3.A7.2B.4B5.A29.11B3.4B$5.A9.4B6.A27.12B3.4B$4.2A10.4B4.2A21.B4.
14B3.4B$17.4B2.2B21.3B3.10B.4B3.4B$10.2A6.8B18.6B2.15B4.4B$11.A7.
7B12.4B2.7B.13B.B2A3.3BA$11.A.2A5.7B2.B2.2B2.29B.BA.A3.ABA$12.A2.A
4.45B4.A4.2A$13.2AB3.46B4.2A4.B$14.14B2A13B2A21B$15.13B2A13B2A21B$
16.51B$16.17B.B5.26B$17.15B10.B2.20B$17.15B12.20B.B.B$18.13B12.24B
2A$20.13B10.24B2A$19.8B4.2A.A6.2AB2.5B2.12B.2B$19.6B6.2AB3A3.A.AB
2.4B3.13B$19.5B8.B4.A2.A14.11B.B$19.B.B9.2A.3A2.2A14.12B2A$20.3B9.
A.A20.10B.B2A$19.B2AB9.A.A18.2AB.6B4.B$20.2A11.A18.A.AB.4B$52.A5.
5B$51.2A8.2A$61.A$62.3A$64.A!
