#CSYNTH guntrue_2444 costs 4440 cells.
#C period 2444 fullperiod 2444 bbox 74 by 60
#CLL state-numbering golly
x = 74, y = 60, rule = LifeHistory
23.2A7.A$22.B2AB4.3A$22.3B4.A$11.2A10.B.B3.2A4.3B.2A.A$10.A2.A2.2A
3.10B3.5BA.2A$11.2A2.A.A3.8B4.5B$13.2A.B3.11B2.4B$13.A2.2B.17B6.A$
10.2A.A.12B3A5B5.3A$10.A2.A.2A9B3A5B5.A$12.2A.2A7B2A8B4.B2A27.A$
16.2B.6B2A7B.6B25.5A$19.7B5A8B26.A5.A$17.6B.3B5A7B.2B12.2A9.B3A2.A
$17.2AB4.4B4A4B2A3B2A.2A9.A10.2B.A.2A$9.3B6.A5.6BA2BA2B3A2B2A.A2.A
7.A.2A7.2B2A3.A$9.B3A2.3A5.8BA4B2A5B.A.2A2.A5.A2B.4B.2BA2.A.A$8.A.
3A2.A6.17B.2B2.A5.3A5.2BA5B2AB2A.2A$7.A.A.AB8.4B2.11B3.B.2A8.A4.3B
A4BAB$7.A2.A2.2B5.A3B5.8B3.A.A2.2A5.2A4.ABA5B2AB2A.2A$8.2A3.3B3.BA
BA4.10B3.2A2.A2.A4.6B2.4B.2BA2.A.A$13.3B.3B2A5.2A3.B.B10.2A7.5B7.
2B2A3.A$3.2A7.9B7.A4.3B18.6B6.2B.A.2A$3.A8.8B5.3A4.B2AB17.8B4.B3A
2.A$2A.A.B3.10B6.A7.2A12.A.2A2.9B3.A5.A$A2.3AB.2B2A7B28.2A.A12B3.
5A$.2A2.BA3B2A7B33.12B4.A$3.4A12B33.13B$3.A.2B3.7B.B2A2.2A27.9B.4B
$4.3AB2.7B.BA.A2.A27.9B2.4B$7.A4.4B5.2A28.11B2.4B$2.5A5.4B5.A29.
11B3.4B$2.A10.4B6.A27.12B3.4B$4.A9.4B4.2A21.B4.14B3.4B$3.2A10.4B2.
2B21.3B3.10B.4B3.4B$8.2A6.8B18.6B2.15B4.4B$9.A7.7B12.4B2.7B.13B.B
2A3.3BA$9.A.2A5.7B2.B2.2B2.29B.BA.A3.ABA$10.A2.A4.27B3A15B4.A4.2A$
11.2AB3.18B3A7BA2BA14B4.2A4.B$12.14B2A7BABA2B2A3B5A14B$13.13B2A8B
2A2B2A5BAB2A13B$14.33BABA15B$14.17B.B5.9B2A15B$15.15B10.B2.20B$15.
15B12.20B.B.B$16.13B12.24B2A$18.13B10.24B2A$17.8B4.2A.A6.2AB2.5B2.
12B.2B$17.6B6.2AB3A3.A.AB2.4B3.13B$17.5B8.B4.A2.A14.11B.B$17.B.B9.
2A.3A2.2A14.12B2A$18.3B9.A.A20.10B.B2A$17.B2AB9.A.A18.2AB.6B4.B$
18.2A11.A18.A.AB.4B$50.A5.5B$49.2A8.2A$59.A$60.3A$62.A!
