#CSYNTH guntrue_405 costs 2400 cells.
#C period 405 fullperiod 405 bbox 48 by 50
#CLL state-numbering golly
x = 48, y = 50, rule = LifeHistory
24.B$23.3B$23.3B$22.2BA2B$10.2B10.B3AB$8.6B7.B2AB2AB$6.10B5.3AB3A$
4.3B8A3B2.B3AB3AB$3.4BAB4ABA4B.B3AB3AB$4.3B8A3B3.3AB3A$6.10B5.B2AB
2AB$8.6B8.B3AB$2A8.2B.2B7.2BA2B$A.A7.BA3B8.3B$.AB2.BA5BA5B.B.5B4.
2A$2.3B2A2BA2BA5BABA4B4.A2.A$2.2BA5B2A6BA2BA4B.BA.A.A$.4BA4BA7B2AB
3AB.B3A.A$.20B2AB3.B.A6.A$24B4.2AB3.3A$5B.2B2.B2.2B2.2B2.4B3.2A3.A
$2.2B5.3B10.4B7.2A$8.B2AB11.4B3.5B$9.2A13.4B2.3B9.2A$25.9B8.A.A$
26.8B.B8.A$27.11B3.B.BA.2A$27.4BA7B.B2A.A.A$27.2BABA4B2A3B2A.A.A$
27.3B2A4B2A4B2.A.2A$25.2AB.12B4A2.A$24.A.AB.10B.BAB2.2A$17.A6.A5.
7B6.2A$17.3A3.2A5.4B.2B7.A$20.A8.4B9.A$19.2A7.4B10.2A$19.5B3.4B$
10.2A9.3B2.4B$9.A.A8.9B$9.A8.B.8B$6.2A.AB.B3.BA9B$7.A.A.2AB.3A9B$
7.A.A.2A2B2A10B$6.2A.A2.5BA9B$6.A2.4A3BA8B.B2A$7.2A2.BAB.BA8B.BA.A
$9.2A6.7B5.A$9.A7.2B.3BA5.2A$11.A9.3BA$10.2A10.3AB!
