#CSYNTH guntrue_678 costs 2730 cells.
#C period 678 fullperiod 678 bbox 65 by 42
#CLL state-numbering golly
x = 65, y = 42, rule = LifeHistory
8.A2.A3.2A$8.6A2.A$6.2A6.2A$5.A2.B4AB2.3A$4.A.2AB.2B.B2A2.A$4.A.A
2.4B2.A.A43.2A$3.2A.B8AB.2A35.3B4.A$4.A.A2.4A2.A.A36.5BA.A$4.A.A3.
2B3.A.A35.6B2A$5.A4.2B4.A36.6B$11.B40.6B$10.2AB38.8B$9.A2BAB5.2A
28.10B$7.3B2A3B4.A26.12B$7.8B.BA.A25.13B4.B$6.9B.B2A25.2BA13B.B2A$
5.B2A9B11.2A4.2A8.2AB2A13B2A$4.BA2BA8B10.B2AB2.B2AB6.2BA2BA14B$5.B
2A9B10.4B3.3B5.4B2A13B$7.10B11.2B5.B5.A19B$9.7B10.5B2.B2A2B2.A22B$
9.8B9.5B.2B2A2B.B3A14B4.2A$8.5B.2B2A6.13B.10B2A7B4.A$8.6B.2A2B5.7B
2A7B.7B2A7B5.3A$7.6B3.BA2B4.7B2A10B.13B7.A$3.B2.3BA3B4.4B3.14B3AB.
2B2A2B.5B$.7BABA2B5.22BA2.2B2AB2.5B$.7BABA2B6.20BA5.B5.2B$9BA3B7.
13B2A4B5.3B3.4B$11B.B2A3.14BA2BA2B6.B2AB2.B2AB$.9B2.BA.A.2A13B2AB
2A8.2A4.2A$.7B7.A.2AB.13BA2B$2.6B7.A2.B4.13B$3.4B7.2A7.12B$4.4B14.
10B$5.4B13.8B$6.4B13.6B$7.4B11.6B$8.4B8.2A6B$9.3BA6.A.A5B$10.3BA5.
A4.3B$11.3AB3.2A!
