#CSYNTH guntrue_1831 costs 10800 cells.
#C period 1831 fullperiod 1831 bbox 108 by 100
#CLL state-numbering golly
x = 108, y = 100, rule = LifeHistory
40.2A$39.A.A$33.2A4.A$31.A2.A2.2A.4A$31.2A.A.A.A.A2.A$34.A.ABABAB$
34.A.AB2AB$35.AB.2B$38.3B$38.4B6.2A$36.3B2AB6.A$36.3B2AB3.BA.A$34.
10B.B2A$33.13B$32.14B$31.15B$30.4B2.8B$14.2A13.4B5.6B$14.A13.4B4.
9B$9.2A5.A10.BA2B5.2A4.4B$9.A5.2A9.2A2B7.A5.4B$6.2A.A.3B11.2B2A5.
3A7.4B$6.A2.A.2A2B2A7.4B6.A10.4B$8.2A.A.2B2AB5.4B19.4B$11.A.4B5.4B
21.4B25.A11.2A$11.2A.4B3.4B23.4B23.A.A9.B2AB$4.2A8.3BA6B8.2A15.4B
10.A3.A3.2A2.A.A9.3B$3.A.A8.2BABA4B9.A.A15.4B7.3A2.A.A2.A2.2A.2A9.
B.B$3.A8.B.3BA4B12.A4.2A10.4B5.A5.A.A3.A.A2.B8.5B$2A.AB.B3.11B9.4A
.2A2.A2.A9.7B.2A5.A.4A2.AB2A6.6B$.A.A.2AB.12B9.A2.A.A.A.A.2A10.9B
7.A3.A.A.2A4.8B$.A.A.2A14B11.BABABA.A14.6B8.A2.BA.A2.13B$2A.A2.5B
2A8B12.B2ABA.A15.5B7.A.2BA.A5.13B$A2.4A3BA2BA5B.B2A11.2B.BA15.7B6.
2A.2BA5.15B$.2A2.BAB.2B2A6B.BA.A.2A6.3B19.6B10.3B4.15B$3.2A6.7B5.A
.A6.4B19.7B10.2B.B.17B$3.A7.2B.4B5.A.A6.B2A3B17.6B4.29B$5.A9.4B3.
2A.A.AB3.B2A3B17.7B2.16B2A13B$4.2A10.4B6.2AB.10B15.7B2.16B2A14B$
17.4B7.13B13.9B.27B3.B2A$18.4B6.14B12.36B4.A2.A$19.4B5.15B6.B4.20B
2.2B2.B2.7B5.2A.A$20.4B6.8B2.4B4.2AB.19B13.7B7.A$21.4B5.6B5.4B3.2A
19B15.8B6.2A$22.4B3.9B4.4B3.B.17B17.2B2.4B10.2A$23.4B.4B4.2A5.4B5.
17B15.2A4.4B9.A$24.7B5.A3.A3.4B4.17B15.A6.4B10.A$25.5B7.4A4.4B3.
15B.B2A15.A5.4B5.5A$25.5B16.4B2.12B4.BA.A13.2A5.4B4.A$24.7B6.2A8.
15B9.A11.A2.A.AB.7B2.B3A$23.4B.4B5.A2.A7.15B8.2A10.2A2.2AB.7B3.2B.
A$22.4B3.4B5.2A.A7.14B26.12B4A$21.4B5.4B6.A.A7.12B27.7B2A3BAB2.2A$
20.4B7.4B5.A.AB7.10B28.7B2A2B.B3A2.A$19.4B9.4B5.A3B7.9B28.10B3.B.A
.2A$18.4B11.4B6.4B5.9B27.8B8.A$17.4B13.4B5.6B5.6B27.9B7.2A$16.4B
15.4B4.7B.2B2.5B26.4B2.3B$3.2A10.4B17.4B2.8B.9B25.4B3.5B$4.A9.4B
19.24B23.4B7.2A$2.A10.4B21.24B21.4B8.A$2.5A5.4B5.2A15.19B2.4B19.4B
10.3A$7.A4.4B5.A11.2A2.19B4.4B10.A6.4B13.A$4.3AB2.7B.BA.A11.A2.A
17B7.4B7.3A5.4B$3.A.2B3.7B.B2A14.2A.15B9.4B5.A7.4B$3.4A12B21.12B
11.4B4.2A5.4B$.2A2.BA3B2A7B22.10B13.9B4.4B$A2.3AB.2B2A7B22.2B2A6B
14.6B5.4B$2A.A.B3.10B21.3B2A6B14.8B2.4B$3.A8.8B21.10B3.2A.2A4.15B$
3.2A7.9B20.8B.B2A2.A.A5.14B$13.3B2.4B18.7B3.B2ABA2.A5.13B$11.5B3.
4B17.6B6.B.A.A4.2AB.10B$11.2A7.4B17.6B4.2A2.A4.A.AB3.B2A3B$12.A8.
4B16.8B.A2.2A5.A6.B2A3B$9.3A10.4B14.9BA.A.A5.2A6.4B$9.A13.4B4.A8.
7B.2BAB.A14.3B$24.4B3.3A6.6B3.2B2.A.2A12.2B.BA$25.4B5.A4.7B4.B.2A
2.A11.B2ABA.A$26.4B3.2A4.7B3.A.A2.A12.BABABA.A$27.4B2.4B.8B3.2A2.A
11.A2.A.A.A.A.2A$28.2B2A3.11B8.3A8.4A.2A2.A2.A$29.BABA.12B10.A12.A
4.2A$30.A15B21.A.A$31.14B10.A11.2A$32.10B11.3A$31.12B9.A$30.16B6.
2A$23.A6.24B$23.3A3.23B$26.A2.24B$25.A.B.24B$25.2A27B$23.2A2.A22B.
4B$22.A2.3A3B3.2B3.B7.2B3.4B$23.A4.2B3.4B.3B5.BA2B3.4B$24.4A5.B2AB
.B2AB4.A.A5.4B$26.A7.2A3.2A6.A7.3BA$28.A27.3BA$27.2A28.3AB!
