#CSYNTH guntrue_5791 costs 12240 cells.
#C period 5791 fullperiod 5791 bbox 120 by 102
#CLL state-numbering golly
x = 120, y = 102, rule = LifeHistory
37.2A.2A$36.A.A.2A$36.A$34.2A.7A$32.A2.A.A3.B2.A$32.2A2.BA.2A2.2A$
36.2AB2AB6.2A$36.5B8.A$37.3B7.A$36.5B6.5A$36.BA4B9.A$34.2BABA3B3.
4AB$34.2BABA4B2.A2.AB$35.2BA4B4.4B$34.15B3.2A$33.14B2A.A2.A$32.11B
A3B2A.2A$31.11BABAB.B$30.4B2.7BAB$29.4B5.7B$28.4B4.9B$27.4B5.2A4.
4B$26.4B7.A5.4B$11.A13.4B5.3A7.4B$11.3A10.4B6.A10.4B$14.A8.4B19.4B
$13.2A7.4B21.4B25.A11.2A$13.5B3.4B23.2B2A23.A.A9.B2AB$4.2A9.3B2.4B
8.2A15.2A2B10.A3.A3.2A2.A.A9.3B$3.A.A8.9B9.A.A15.BA2B7.3A2.A.A2.A
2.2A.2A9.B.B$3.A8.B.8B12.A4.2A10.4B5.A5.A.A3.A.A2.B8.5B$2A.AB.B3.
11B9.4A.2A2.A2.A9.7B.2A5.A.4A2.AB2A6.6B$.A.A.2AB.12B9.A2.A.A.A.A.
2A10.9B7.A3.A.A.2A4.8B$.A.A.2A14B11.BABABA.A14.6B8.A2.BA.A2.13B$2A
.A2.5B2A8B12.B2ABA.A15.5B7.A.2BA.A5.13B$A2.4A3BA2BA5B.B2A11.2B.BA
15.7B6.2A.2BA5.15B$.2A2.BAB.2B2A6B.BA.A.2A6.3B19.6B10.3B4.15B$3.2A
6.7B5.A.A6.4B19.7B10.2B.B.17B$3.A7.2B.4B5.A.A6.B2A3B17.6B4.29B$5.A
9.4B3.2A.A.AB3.B2A3B17.7B2.16B2A13B$4.2A10.4B6.2AB.10B15.7B2.16B2A
14B$17.4B7.13B13.2B3A4B.27B3.B2A$18.4B6.14B12.B5A30B4.A2.A$19.4B5.
15B6.B4.2A3BA14B2.2B2.B2.7B5.2A.A$20.4B6.8B2.4B4.2AB.2B5A12B13.7B
7.A$21.4B5.6B5.4B3.2A3B4A12B15.8B6.2A$22.4B3.9B4.4B3.B.B3A13B17.2B
2.4B$23.4B.4B4.2A5.4B5.2A15B15.2A4.4B$24.7B5.A3.A3.4B4.B2A14B15.A
6.4B$25.5B7.4A4.4B3.2BABA10B.B2A15.A5.4B$25.5B16.4B2.2B3A7B4.BA.A
13.2A6.4B$24.7B6.2A8.6BAB2A5B9.A22.4B$23.4B.4B5.A2.A7.5B2A4BA3B8.
2A22.4B$22.4B3.4B5.2A.A7.6BA3B2A2B33.4B$21.4B5.4B6.A.A7.4B3A3B2A
35.4B$20.4B7.4B5.A.AB7.2B2ABABA2B37.4B$19.4B9.4B5.A3B7.2A2BABA2B
38.4B$18.4B11.4B6.4B5.2A4BA2B39.4B$17.4B13.4B5.6B5.3BA2B41.4B10.2A
$16.4B15.4B4.7B.2B2.5B42.4B9.A$3.2A10.4B17.4B2.8B.9B43.4B10.A$4.A
9.4B19.24B36.2A5.4B5.5A$2.A10.4B21.24B36.A5.4B4.A$2.5A5.4B5.2A15.
19B2.4B35.A.AB.7B2.B3A$7.A4.4B5.A15.19B4.4B35.2AB.7B3.2B.A$4.3AB2.
7B.BA.A11.2A.A17B7.4B36.12B4A$3.A.2B3.7B.B2A12.A.2A.15B9.4B35.7B2A
3BAB2.2A$3.4A12B21.12B11.4B34.7B2A2B.B3A2.A$.2A2.BA3B2A7B22.10B13.
4B33.10B3.B.A.2A$A2.3AB.2B2A7B22.2B2A6B14.4B31.8B8.A$2A.A.B3.10B
21.3B2A6B15.4B29.9B7.2A$3.A8.8B21.10B3.2A.2A8.4B27.4B2.3B$3.2A7.9B
20.8B.B2A2.A.A10.4B25.4B3.5B$13.3B2.4B18.7B3.B2ABA2.A11.4B23.4B7.
2A$11.5B3.4B17.6B6.B.A.A13.4B21.4B8.A$11.2A7.4B17.6B4.2A2.A15.4B
19.4B10.3A$12.A8.4B16.8B.A2.2A17.4B10.A6.4B13.A$9.3A10.4B14.9BA.A.
A19.4B7.3A5.4B$9.A13.4B4.A8.7B.2BAB.A20.4B5.A7.4B$24.4B3.3A6.6B3.
2B2.A.2A18.4B4.2A5.4B$25.4B5.A4.7B4.B.2A2.A19.9B4.4B$26.4B3.2A4.7B
3.A.A2.A22.6B5.4B$27.4B2.4B.8B3.2A2.A23.8B2.4B$28.2B2A3.11B8.3A18.
15B$29.BABA.12B10.A18.14B$30.A15B29.13B$31.14B10.A17.2AB.10B$32.
10B11.3A16.A.AB3.B2A3B$31.12B9.A19.A6.B2A3B$30.16B6.2A17.2A6.4B$
23.A6.24B26.3B$23.3A3.23B29.2B.BA$26.A2.24B27.B2ABA.A$25.A.B.24B
26.BABABA.A$25.2A27B23.A2.A.A.A.A.2A$23.2A2.A22B.4B22.4A.2A2.A2.A$
22.A2.3A3B3.2B3.B7.2B3.4B25.A4.2A$23.A4.2B3.4B.3B5.BA2B3.4B22.A.A$
24.4A5.B2AB.B2AB4.A.A5.4B21.2A$26.A7.2A3.2A6.A7.3BA$28.A27.3BA$27.
2A28.3AB!
