#CSYNTH guntrue_1352 costs 4350 cells.
#C period 1352 fullperiod 1352 bbox 75 by 58
#CLL state-numbering golly
x = 75, y = 58, rule = LifeHistory
8.2A8.2A$6.2B2AB8.A7.A$6.4B9.A.AB3.A.A12.3B$6.4B10.2AB2.2BAB11.3AB
$7.3AB5.2A4.3B.2B12.3A.A$7.2A2B4.B2AB3.4B.4B2.3B4.BA.A.A$8.2B2A3.
3B4.16B.B2.A2.A$8.B3A2.B.B5.18B3.2A$7.BABAB.19BA3B3A2B9.2A$8.2A2.
19BABA2B3A2B7.3A2.A$12.19BA9B3.2A.A4.2A$12.14BA5B3A4BAB.A5BAB2A$
12.12BABA12BA.BA2B.2BA2.A$8.2A3.12B2A4B5.B.A3.A5BABA$7.A2.A2.B.16B
4.3B6.2A.A3.3A$7.A.A.AB4.3B2.4B.4B3.BABA10.3A2.A$8.A.3A12.2B.4B3.
2A13.A$9.B3A11.BA2B.4B10.2A$9.3B12.A.A3.4B9.A2.2A$25.A5.4B2.2B5.2A
.3A$32.8B5.B4.A$33.8B2.B2AB3A$34.8B.B2A.A$32.2B.11B$31.2A11B7.2A$
31.2AB.10B6.A$32.B2.10B3.BA.A$35.12B.B2A4.2A$36.13B5.A.A$35.9B2A3B
5.A$36.7BABA3B4.2A$.2A35.5B2A2B5.2B$2.A37.8B2.5B6.3B5.2A$.A38.16B
4.4B5.A$.2A6.2BAB13.B.7B5.2B2AB.10B4.5B.BA.A$3.A2B2.2BABAB6.B.13B
4.3B2A13B3.5B.B2A$.3A5BABA45B3.7B$A2.B.4B2A45B3.8B$2A3.50B3.8B4.2A
$6.25B2A33B3.A.A$6.25B2A33B3.A$5.4B.B.11B3.41B.2A$6.4B2.10B5.10B2.
B3.B2.B3.18B$6.2B2AB4.2B2.4B7.6B14.18B3.2A$8.2A10.4B8.3B13.5B3.12B
.B2.A$21.4B9.B13.2A7.12B3A$22.4B8.2A13.A8.9B.BA$23.4B8.A10.3A4.2A
3.9B3.2A$24.4B6.A11.A6.A4.9B4.A$25.4B5.2A14.2A.A4.2B2A3B.B2A2.A.2A
$26.4B20.A2.3A.2BA2BA2B.BA.A.A.2A$27.4B20.2A2.BA3BABAB5.A.A$28.4B
21.4A4BA4B3.A.A$29.4B20.A.4B5.2A4.A$30.4B17.A.A.2A7.A$31.3BA16.2A
2.A9.3A$32.3BA19.A.A9.A$33.3AB19.2A!
