#CSYNTH guntrue_1177 costs 7968 cells.
#C period 1177 fullperiod 1177 bbox 96 by 83
#CLL state-numbering golly
x = 96, y = 83, rule = LifeHistory
79.B.B$78.B2A3B$78.A2BA2B10.2A$77.2B2A4B2.2B5.A$66.2A9.13B.BA.A$
62.2A3.A6.16B.B2A$59.A2.A2.A7.14BA4B$59.3A2.3A5.14BABA4B$62.2A3.2B
3.15BA4B$61.A2.3A2B3.18B.B2A$60.A.2AB.A23B.BA.A$60.A3.2A19B2.2B5.A
$58.2A.2A21B10.2A$59.A.A.B.19B$59.A2.A5.16B$60.2A6.10B3.4B.2A$69.
8B3.B2A3B.A$68.9B4.2AB2.A$67.10B8.A$66.10B5.5A.A$65.7BA3B5.A4.A.A$
27.2A11.A6.2A15.7BABA2B7.A2.A.A$26.B2AB9.A.A4.A2.A13.8BABA2B6.2A3.
A$27.3B9.A.A3.A.3A2.2A8.3A7BA3B$26.B.B9.2A.2A.A.A6.A7.3BA9B.B2A$
26.5B8.B2.A.A3.2A3.A.AB3.3BA9B2.BA.A$26.6B6.2ABA2.4A.A4.2AB.5B.7B
7.A$26.8B4.2A.A.A3.A8.6B3.6B7.2A$27.13B2.A.AB2.A7.5B5.4B$25.13B5.A
.A2B.A6.6B.B3.4B$24.15B5.A2B.2A6.8BA3.4B$24.9B2A4B4.3B10.7BA.A3.4B
$23.9B3A5B.B.2B11.6B.BA5.4B$23.15BA13B3.7B9.4B$22.10B3A3B2A13B2.7B
10.4B$21.18B2A12B2.7B11.4B$20.2AB3.12B2A13B.8B12.4B$19.A2.A4.35B2.
B10.4B$18.A.2A5.6B3.B2.2B2.19B.B2A10.4B$18.A7.6B14.18B2A11.4B$17.
2A6.9B14.14B.2B13.4B$24.4B4.2A15.13B17.4B$23.4B5.A15.14B.2B15.4B$
22.4B7.3A12.5BA10B2A15.4B$21.4B10.A10.2AB.3BABA8B2A16.4B$20.3AB21.
A.AB2.2B2A7B.2B18.4B$19.3BA22.A4.12B22.4B$18.3BA22.2A3.4B.8B23.4B$
17.4B27.4B3.8B23.4B$16.4B27.4B6.7B23.4B$3.2A10.4B27.4B10.4B2.2A20.
4B$4.A9.4B27.4B10.2B2A.A2.A21.4B$2.A10.4B27.4B10.A.A.A.2A24.4B$2.
5A5.4B5.2A20.4B10.A.2A.A.A26.4B$7.A4.4B5.A20.4B11.A3.A2.A27.3BA$4.
3AB2.7B.BA.A19.4B11.2A3.A.A29.ABA$3.A.2B3.7B.B2A19.4B18.A31.2A$3.
4A12B20.4B52.B$.2A2.BA3B2A7B19.4B$A2.3AB.2B2A7B18.4B$2A.A.B3.10B6.
A10.4B$3.A8.8B5.3A7.4B$3.2A7.9B7.A5.4B$13.3B2.4B5.2A4.4B$11.5B3.4B
4.9B$11.2A7.4B5.BA4B$12.A8.4B2.2B3A3B$9.3A10.6B5A4B$9.A13.4B2A3B2A
3B$24.4B5A4B$25.4B3A3B.B2A$27.3BA2B3.BA.A$27.6B6.A$29.4B6.2A$29.3B
$26.AB.2B$25.A.AB2AB$25.A.ABABAB$22.2A.A.A.A.A2.A$22.A2.A2.2A.4A$
24.2A4.A$30.A.A$31.2A!
