#CSYNTH guntrue_2033 costs 10593 cells.
#C period 2033 fullperiod 2033 bbox 107 by 99
#CLL state-numbering golly
x = 107, y = 99, rule = LifeHistory
31.2A$30.A.A$24.2A4.A$22.A2.A2.2A.4A$22.2A.A.A.A.A2.A$25.A.ABABAB$
25.A.AB2AB$26.AB.2B$29.3B$29.4B6.2A$27.3B2AB6.A$27.3B2AB3.BA.A$25.
10B.B2A$24.13B$9.A13.14B$9.3A10.15B$12.A8.4B2.8B$11.2A7.4B5.6B$11.
5B3.4B4.7B2A$13.3B2.4B5.2A4.BABA$3.2A7.9B7.A5.A3B$3.A8.8B5.3A7.4B$
2A.A.A3.10B6.A10.4B$A2.ABAB.2A9B18.4B$.2A2.BA2B2A8B19.4B$3.7A2B2A
5B20.4B$3.A.BA3.3A4B.B2A19.4B18.A$4.4A2.3A4B.BA.A19.4B11.2A3.A.A$
7.A4.2A2B5.A20.4B11.A3.A2.A$2.5A5.B2AB5.2A20.4B10.A.2A.A.A$2.A10.B
A2B27.4B10.A.A.A.2A$4.A9.4B27.4B10.2B2A.A2.A$3.2A10.4B27.4B10.4B2.
2A$16.4B27.4B6.7B$17.4B27.4B3.3B2A3B$18.4B22.2A3.4B.3BA4B$19.4B22.
A4.6BA3BAB$20.4B7.2A12.A.AB2.5BA2B3A.2B$21.4B6.A14.2AB.7B2AB6A$22.
4B6.A15.9B3A3B3A$23.4B4.2A15.10BA2BA.2B$24.4B2.2B17.9B2A2B$17.2A6.
8B15.10B2A2B.2B$18.A7.7B13.13BA4B2A$18.A.2A5.7B2.B2.2B2.14BA4B.B2A
$19.A2.A4.28B2A5B2.B$20.2AB3.27B.BA2BA3B$21.5B2A25B2.B2ABA2B$22.4B
2A3B2A20B2.BA2BA2B$23.B2A2BABABA19B3.2BABA2B$23.B3A4B4A5B.4B11.BA
4B.BA$24.2A3BA2B2ABA3B3.2B12.3BA3BA.A$24.B6A4BA3B3.3B11.3B2A3BA8.A
$25.B6AB2A3B5.A2B.2A7.BA2BAB.B8.A.A$27.B2AB2A7B2.A.A2B.A7.B3AB11.A
.A$26.4BA3B4.2A.A.AB2.A8.2BA3B2.2B5.2A.2A$26.2AB2AB6.2ABA4.A7.2AB.
9B5.B$26.BABAB8.B2.5A.A4.A.AB3.8B2.B2AB4A$26.B.A8.A.2A.A4.A.A3.A7.
8B.B2A.A2.A$27.3B7.2A2.A3.A3.A2.2A5.2B.11B4.A.A$26.B2AB10.A4.2A2.
2A7.2A11B5.2A.3A$27.2A8.3A18.2AB.10B5.B4.A$37.A21.B2.10B3.B2AB3A$
62.12B.B2A.A$63.15B$62.14B7.2A$63.14B6.A$65.12B3.BA.A$67.12B.B2A4.
2A$67.14B5.A.A$67.9B2A3B5.A$68.7BABA3B4.2A$33.2A34.6B2A2B5.2B$34.A
37.8B2.5B6.3B5.2A$33.A38.16B4.4B5.A$33.2A6.2BAB13.B.7B5.2B2AB.10B
4.5B.BA.A$35.A2B2.2BABAB6.B.13B4.3B2A13B3.5B.B2A$33.3A5BABA45B3.7B
$32.A2.B.4B2A45B3.8B$32.2A3.50B3.8B4.2A$38.25B2A33B3.A.A$38.25B2A
33B3.A$37.4B.B.11B3.41B.2A$38.4B2.10B5.10B2.B3.B2.B3.18B$38.2B2AB
4.2B2.4B7.6B14.18B3.2A$40.2A10.4B8.3B13.5B3.12B.B2.A$53.4B9.B13.2A
7.12B3A$54.4B8.2A13.A8.9B.BA$55.4B8.A10.3A4.2A3.9B3.2A$56.4B6.A11.
A6.A4.9B4.A$57.4B5.2A14.2A.A4.2B2A3B.B2A2.A.2A$58.4B20.A2.3A.2BA2B
A2B.BA.A.A.2A$59.4B20.2A2.BA3BABAB5.A.A$60.4B21.4A4BA4B3.A.A$61.4B
20.A.4B5.2A4.A$62.4B17.A.A.2A7.A$63.3BA16.2A2.A9.3A$64.3BA19.A.A9.
A$65.3AB19.2A!
