#CSYNTH guntrue_426 costs 3417 cells.
#C period 426 fullperiod 426 bbox 67 by 51
#CLL state-numbering golly
x = 67, y = 51, rule = LifeHistory
23.2A.A.2A15.2A5.2A$22.A2.2A.A2.A.2A.A7.A.2BAB.A2.A$21.A.A4.A.2A.A
.2A7.2A.BA2BA.2A$22.A.5A2.B8.6B2.A2.A.A$24.A4.AB2A6.5B4.B3A.AB$23.
A2.BA.A.2A4.7B5.2A.3BA$7.A9.A4.A.2BA.A2.13B8.A3B$7.3A5.3A4.2A.2BA
5.13B7.A.3A$10.A3.A11.3B3.15B7.4AB$9.2A.B.2A11.2B3.15B8.B.A$9.7B
10.4B.17B$11.3B5.29B$10.5B3.16B2A13B$10.6B2.16B2A14B$2A8.7B.27B3.B
2A$.A7.35B4.A2.A$.A.AB3.20B2.2B2.B2.7B5.2A.A$2.2AB2.18B13.7B7.A$4.
19B15.8B6.2A4.2A$4.BA16B17.2B2.4B10.B2AB$4.ABA16B15.2A4.4B10.2B$5.
2A16B15.A6.4B8.2B$5.3B.12B.B2A14.A6.4B6.4B6.A$10.9B3.BA.A12.2A7.4B
4.6B3.3A$10.4B2.4B5.A16.2A4.4B4.5B2.A$9.3B5.4B4.2A16.A5.4B2.6B2.2A
$9.2AB6.4B7.2A12.A.AB3.15B$8.A.AB7.4B6.A14.2AB.15B$8.2AB9.4B6.A15.
17B$9.4B8.4B4.2A15.16B$11.2A3.2A4.4B2.2B17.16B.B$11.A4.A6.8B15.18B
2A$12.3A.A7.7B13.18B.B2A$14.A.A.2A5.7B2.B2.2B2.19B4.B$17.A2.A4.35B
$18.2AB3.27B.7B$13.2A4.32B2.7B$14.A5.31B4.2B2A$14.A.2A3.12B3A14B3.
4B2A$15.2A.A2.9B2A2BA3B.B.2B10.2A$17.AB3.8BABA4B4.3B10.A$16.BA4.
15B5.A2B.2A3.3A$17.2AB3.13B5.A.A2B.A3.A$15.A.A.2A4.13B2.A.AB2.A$
13.3A.2A.3B.8B4.2A.A.A3.A$12.A3.A.2B2A8B6.2ABA2.4A.A$13.2A.A.A.2AB
3.4B7.B2.A.A3.A.A$15.A.A.AB6.4B5.2A.2A2.A2.A.A$15.A.A10.3BA5.A.A2.
2A3.A$16.2A11.3BA4.A.A$30.3AB4.A!
