#CSYNTH guntrue_6779 costs 15390 cells.
#C period 6779 fullperiod 6779 bbox 135 by 114
#CLL state-numbering golly
x = 135, y = 114, rule = LifeHistory
37.2A2.A$36.A.4A$36.A$34.2A.7A$32.A2.A.A3.B2.A$32.2A2.BA.2A2.2A$
36.2AB2AB6.2A$36.5B8.A$37.3B7.A$36.5B6.5A$36.BA4B9.A$34.2BABA3B3.
4AB$34.2BABA4B2.A2.AB$35.2BA4B4.4B$34.15B3.2A$33.14B2A.A2.A$32.11B
A3B2A.2A$31.11BABAB.B$30.4B2.7BAB$29.4B5.7B$28.4B4.9B$27.4B5.2A4.
4B$26.4B7.A5.4B$11.A13.4B5.3A7.4B$11.3A10.4B6.A10.4B$14.A8.4B19.4B
$13.2A7.4B21.4B$13.5B3.4B23.4B$4.2A9.3B2.4B25.4B$3.A.A8.9B27.4B$3.
A8.B.8B29.4B25.A11.2A$2A.AB.B3.11B31.4B23.A.A9.B2AB$.A.A.2AB.12B
15.2A15.4B10.A3.A3.2A2.A.A9.3B$.A.A.2A14B15.A.A15.4B7.3A2.A.A2.A2.
2A.2A9.B.B$2A.A2.5B2A8B17.A4.2A10.4B5.A5.A.A3.A.A2.B8.5B$A2.4A3BA
2BA5B.B2A11.4A.2A2.A2.A9.7B.2A5.A.4A2.AB2A6.6B$.2A2.BAB.2B2A6B.BA.
A10.A2.A.A.A.A.2A10.5B3AB7.A3.A.A.2A4.8B$3.2A6.7B5.A12.BABABA.A14.
3B3A8.A2.BA.A2.13B$3.A7.2B.4B5.2A12.B2ABA.A15.BA2BA7.A.2BA.A5.13B$
5.A9.4B19.2B.BA15.2B2A3B6.2A.2BA5.15B$4.2A10.4B17.3B19.2BA3B10.3B
4.15B$17.4B7.2A6.4B19.7B10.2B.B.17B$18.4B7.A6.B2A3B17.3B3A4.29B$
19.4B6.A.AB3.B2A3B17.B2AB2AB2.16B2A13B$20.4B6.2AB.10B15.B2ABA2B2.
16B2A14B$21.4B7.13B13.2B2A5B.27B3.B2A$22.4B6.14B12.6BA29B4.A2.A$
23.4B5.15B6.B4.3BA2BA13B2.2B2.B2.7B5.2A.A$24.4B6.8B2.4B4.2AB.6BA
12B13.7B7.A$25.4B5.6B5.4B3.2A7BA11B15.8B6.2A$26.4B3.9B4.4B3.B.2B2A
3BA9B17.2B2.4B$27.4B.4B4.2A5.4B5.BA4BA10B15.2A4.4B$28.7B5.A3.A3.4B
4.2A3BA11B15.A6.4B$29.5B7.4A4.4B3.2BA12B.B2A14.A6.4B$29.5B16.4B2.
2BAB2A6B4.BA.A12.2A7.4B$28.7B4.4A8.9BAB2A2B9.A22.4B$27.4B.4B3.A2.
3A7.8BA2BA3B8.2A22.4B$26.4B3.4B8.A7.7BABA4B33.4B$25.4B5.4B6.A.A7.
6B3A3B35.4B$24.4B7.4B5.A.AB7.10B37.4B$23.4B9.4B5.A3B7.9B38.4B$22.
4B11.4B6.4B5.9B39.4B$21.4B13.4B5.6B5.6B41.4B$20.4B15.4B4.7B.2B2.5B
42.4B$19.4B17.4B2.8B.9B43.4B$8.A9.4B19.18B2A4B43.4B$8.3A6.4B21.16B
A2BA4B43.4B$11.A4.4B22.17B2A2.4B43.4B$10.2A3.4B8.2A8.2A2.19B4.4B
43.4B$10.8B8.A.A8.A2.A17B7.4B43.4B$6.2A4.5B5.2A2.A12.2A.15B9.4B43.
4B$5.A.BAB.5B6.A.A.2A16.12B11.4B43.4B$5.A.2AB2.5B6.2A.A2.A15.10B
13.4B43.4B$4.2A.B.B3.5B3.3B.B2.2A15.2B2A6B14.4B43.4B10.2A$3.A3.2A
2B2.5B3.4B19.3B2A6B15.4B43.4B9.A$4.3A2.AB.13B.B18.10B16.4B43.4B10.
A$7.2ABA13B.B2A17.8B.B2A.A13.4B36.2A5.4B5.5A$6.A2.A5BA10B2A16.7B3.
B2AB3A12.4B36.A5.4B4.A$6.2A2.4BABA7B.2B17.6B6.B4.A12.4B35.A.AB.7B
2.B3A$10.4BABA7B21.6B4.2A.3A14.4B35.2AB.7B3.2B.A$11.4BA7B22.5B4.A
2.2A17.4B36.12B4A$13.9B3.2A17.8B.A.A21.4B35.7B2A3BAB2.2A$10.B.10B.
B2.A8.A8.8BA.A.2A.A18.4B34.7B2A2B.B3A2.A$9.2A3B2A7B3A9.3A6.6B.2BAB
.A.2A19.4B33.10B3.B.A.2A$9.2AB.BABA4B.BA14.A4.7B2.2B2.A23.4B31.8B
8.A$10.B3.A5B4.2A11.2A4.7B3.B.2A24.4B29.9B7.2A$15.4B6.A11.4B.8B2.A
.A2.2A23.4B27.4B2.3B$16.4B4.A14.11B2.2A2.A2.A23.4B25.4B3.5B$17.4B
3.2A12.12B7.2A25.4B23.4B7.2A$18.4B16.12B35.4B21.4B8.A$19.4B15.11B
37.4B19.4B10.3A$20.4B13.9B12.2A27.4B10.A6.4B13.A$21.4B9.2B.10B11.A
29.4B7.3A5.4B$22.4B7.16B.B4.BA.A30.4B5.A7.4B$23.4B3.23B2.B2A32.4B
4.2A5.4B$24.32B35.9B4.4B$25.32B35.6B5.4B$26.31B35.8B2.4B$27.30B33.
15B$29.28B33.14B$30.17B5.B.4B32.13B$30.14B11.4B29.2AB.10B$30.14B
12.4B27.A.AB3.B2A3B$34.3B4.2B14.4B26.A6.B2A3B$35.B6.2B14.4B24.2A6.
4B$41.B2AB14.4B32.3B$42.2A16.4B32.2B.BA$61.4B30.B2ABA.A$62.4B28.BA
BABA.A$63.4B25.A2.A.A.A.A.2A$64.4B24.4A.2A2.A2.A$65.3BA27.A4.2A$
66.3BA24.A.A$67.3AB23.2A!
