#CSYNTH guntrue_190 costs 2775 cells.
#C period 190 fullperiod 190 bbox 75 by 37
#CLL state-numbering golly
x = 75, y = 37, rule = LifeHistory
17.A$17.3A$20.A38.2A$19.2A30.2A5.B2A2B$19.7B19.2A5.A6.4B$21.5B19.A
.A.3A6.BA3B$10.A8.9B19.A.A8.3AB$10.3A6.9B5.2A3.2A5.BABAB8.2A.2B$
13.A4.11B4.A3.B2AB3.2B3A4.B.B2A2B2A.A$12.2A4.10B2.BA.A4.3B3.2B2A4.
2AB3A3B2A.A$12.4B.12B.B2A4.B.B4.2B2A4.2A2BA.ABA3.A$14.17B5.6B3.BA
2B4.5B2A.3A$13.18B3.8B2.2B3A2B.4B.B.A.A$12.18B3.14B2A4B.B3.A2.A$6.
4B.12B3A4B2.11BA5BA3B6.2A8.2A$5.17BA2BA4B.12BA7BAB11.2A2.A.A$5.11B
2A3BA20BA5BA3BA2B7.A2.4A$4.18BA2BA22BA8B3.4A5.A$5.5B3A4BA5B3A10B3A
5BA4B3A5B2.A4.2A2.2A$5.8BA22BA2BA18B2.3A.A.A3.2A$7.2BA3BA5BA20BA3B
2A12B4.ABA.2A.A2.A$9.BA7BA12B.4BA2BA19B4.BA2B3.2A$9.3BA5BA11B2.4B
3A12B.8B3.2AB4A$6.2B.4B2A14B3.18B7.11B.A.3A$4.6B.2B3A2B2.8B3.18B9.
6B.A2BAB.A2.A$4.5B5.BAB3.6B5.17B11.4B3.2A2B.A.A$3.2ABAB2A4.B2A5.B.
B4.2AB.12B.4B10.4B3.B2.2A.2A$.3A.ABA.3A4.B4.3B4.A.AB2.10B4.2A11.4B
$A3.5B3.A3.B4.B2AB3.A4.11B4.A13.4B$A.3A.A.4A3.B2A4.2A3.2A5.9B6.3A
11.4B$.A3.3A7.2AB.A14.9B8.A12.4B$3.A.A.A.2A.A3.2B2A16.5B24.4B$2.2A
.ABA.A.2A2.2A3.2A14.7B23.4B$3.A.A2.A6.B4A2.A18.2A24.4B$3.A2.2A9.B.
A.2A18.A26.3BA$2.2A15.A22.3A24.3BA$18.2A24.A25.3AB!
