#CSYNTH guntrue_9521 costs 13640 cells.
#C period 9521 fullperiod 9521 bbox 110 by 124
#CLL state-numbering golly
x = 110, y = 124, rule = LifeHistory
29.3B31.2A11.A$28.5B6.2A21.B2AB9.A.A$27.6B6.A23.3B9.A.A2.2A3.A$10.
2A14.7B8.A20.B.B9.2A.2A2.A2.A.A$10.A2.A8.2A.8B7.2A20.4BA8.B2.A.A3.
A.A$12.2A8.A.9B4.BAB2.2A18.3BABA6.2ABA2.4A.A$8.4A11.A.9B3.B4A2.A
17.2B2ABA2B4.2A.A.A3.A$8.A3.4A4.3A3.14B2.2A19.BA11B2.A.AB2.A15.2A$
10.A.A2.A4.A4.15B2A19.B3A3B3A3B5.A.A2B.A14.A$9.2A2B.B11.13B2.A18.
4BA2BA7B5.A2B.2A11.BA.A$8.A2.A7B7.13B2.A.A16.6B2AB2A4B4.3B12.2A.B
2A$6.A2.ABA8B3.15B4.2A15.5B2AB2A7B.B.2B12.B2A2B$6.2A.A.2A8B.17B20.
2BA2BA23B6.4B$9.A.B.21B2.4B18.B2A4B2A22B3.6B$9.A.2A21B3.4B16.4BA2B
A24B2.6B$8.2A.A.21B4.4B14.2AB3.27B.7B$11.A.B.19B5.4B12.A2.A4.35B$
11.2A2.18B7.4B10.A.2A5.7B2.B2.2B2.20B$15.9B.7B9.4B9.A7.7B13.17B$
14.8B7.B12.4B7.2A6.8B15.15B$14.7B22.4B13.4B2.2B17.15B$13.11B20.4B
11.4B4.2A15.16B3.2A$13.12B20.4B9.4B6.A15.16B3.A$13.12B21.4B7.4B5.A
15.2AB.15BA.A$14.11B22.4B5.4B6.2A13.A.AB2.12B2.2A$12.4B.8B23.4B3.
4B22.A4.13B$12.2A4.7B24.4B.4B22.2A3.15B$13.A4.7B25.7B27.17B$10.3A
6.6B26.5B27.4B3.11B$10.A8.7B25.5B26.4B4.11B$19.8B23.7B24.4B7.7B.B
2A$20.8B21.4B.4B22.4B9.6B.BA.A$20.9B19.4B3.4B20.4B11.4B5.A$19.6B.
4B10.A6.4B5.4B18.4B10.5B6.2A$19.7B.4B7.3A5.4B7.4B16.4B11.2A$3.2A
15.6B2.4B5.A7.4B9.4B14.4B13.A$4.A8.B4.8B3.4B4.2A5.4B11.4B12.4B11.
3A$4.A.AB3.4B.6B2AB5.9B4.4B13.4B10.4B12.A$5.2AB.13B2A2B5.6B5.4B15.
4B8.4B$7.18B6.8B2.4B17.4B6.4B$7.17B5.15B19.4B4.4B$8.13B8.14B21.2BA
B2.4B$10.12B7.13B13.A9.2B2A4B$12.10B5.2AB.10B14.3A8.2A4B$12.11B3.A
.AB3.B2A3B19.A8.4B$13.2B.7B3.A6.B2A3B18.2A7.6B$13.11B.2A6.4B20.5B
3.8B$12.11B11.3B22.3B2.4B2.4B$3.2A7.11B12.2B.BA9.2A7.9B4.4B$2.A2.A
2.2A2.11B11.B2ABA.A8.A8.8B6.4B$3.2A2.A.A2.8B2.B2A8.BABABA.A5.2A.A.
B3.10B8.4B$5.2A.B3.7B3.BA.A5.A2.A.A.A.A.2A2.A2.3AB.2B2A7B9.4B$5.A
2.2B2.7B6.A5.4A.2A2.A2.A3.2A2.BA3B2A7B10.4B$2.2A.A.BA2B.6B7.2A8.A
4.2A7.4A12B11.4B$2.A.2A.A.A8B15.A.A13.A.2B3.7B.B2A10.4B$6.A.A.8B
15.2A15.3AB2.7B.BA.A10.4B$3.2A2.A4.5B36.A4.4B5.A11.4B13.A$.3A.2A4.
6B31.5A5.4B5.2A11.4B10.3A$A4.B6.6B30.A10.4B18.4B8.A$.3AB2AB3.7B32.
A9.4B18.4B7.2A$3.A.2AB.8B32.2A10.4B18.4B3.5B$7.5BA4B45.4B18.4B2.3B
$7.6B2A3B45.4B18.9B7.2A$7.6BA3B47.4B18.8B8.A$7.4BABA3B48.4B18.10B
3.B.A.2A$6.12B48.4B17.7B2A2B.B3A2.A$6.4B3A7B.2A.A42.4B16.7B2A3BAB
2.2A$5.16BA.2A43.4B15.12B4A$4.17B22.A11.2A12.4B12.2AB.7B3.2B.A$.2B
.16B22.A.A9.B2AB12.4B10.A.AB.7B2.B3A$2A18B10.A3.A3.2A2.A.A9.3B14.
4B9.A5.4B4.A$2AB.17B7.3A2.A.A2.A2.2A.2A9.B.B14.4B7.2A5.4B5.5A$.B.
4B.8B2.4B5.A5.A.A3.A.A2.B8.5B15.4B12.4B10.A$8.7B4.7B.2A5.A.4A2.AB
2A6.6B16.4B10.4B9.A$9.6B5.9B7.A3.A.A.2A4.8B17.4B8.4B10.2A$11.4B6.
6B8.A2.BA.A2.13B19.4B6.4B$13.3BA5.5B7.A.2BA.A5.13B18.4B4.4B$14.BA.
A3.7B6.2A.2BA5.15B18.4B2.4B$15.A.A4.6B10.3B4.15B19.8B$16.A5.7B10.
2B.B.17B19.6B$17.3A2.8B2.29B20.4B13.A$19.A2.25B2A13B18.6B10.3A$22.
25B2A14B16.8B8.A$21.37B3.B2A14.4B2.4B7.2A$21.36B4.A2.A12.4B4.4B3.
5B$16.B4.20B2.2B2.B2.7B5.2A.A10.4B6.4B2.3B9.2A$15.2AB.21B11.7B7.A
9.4B8.9B8.A.A$15.2A24B10.8B6.2A7.4B10.8B.B8.A$16.B.23B11.2B2.4B13.
4B12.11B3.B.BA.2A$19.15B2A7B8.2A4.4B11.4B13.12B.B2A.A.A$19.15B2A8B
7.A6.4B9.4B14.14B2A.A.A$19.25B9.A5.4B7.4B15.8B2A5B2.A.2A$19.12B4.
8B9.2A6.4B5.4B14.2AB.5BA2BA3B4A2.A$18.11B6.8B18.4B3.4B14.A.AB.6B2A
2B.BAB2.2A$17.13B6.3B.4B18.4B.4B15.A5.7B6.2A$18.12B11.4B18.7B15.2A
5.4B.2B7.A$19.10B13.4B18.5B22.4B9.A$19.9B15.4B6.A10.5B21.4B10.2A$
19.9B16.4B5.3A7.7B19.4B$19.9B17.4B7.A5.4B.4B6.A10.4B$22.5B19.4B5.
2A4.4B3.4B5.3A7.4B$23.4B20.4B4.9B5.4B7.A5.4B$23.4B21.4B5.6B7.4B5.
2A4.4B$24.4B21.4B2.8B8.4B4.9B$25.4B21.15B7.4B5.7B$26.4B21.14B8.4B
2.7BAB$27.4B21.13B9.11BABAB.B$28.4B21.10B.B2A8.11BA3B2A.2A$29.4B
22.3B2AB3.BA.A8.14B2A.A2.A$30.4B21.3B2AB6.A9.15B3.2A$31.4B22.4B6.
2A9.2BA4B4.4B$32.4B21.3B17.2BABA4B2.A2.AB$33.4B17.AB.2B18.2BABA3B
3.4AB$34.4B15.A.AB2AB19.BA4B9.A$35.4B14.A.ABABAB18.5B6.5A$36.4B10.
2A.A.A.A.A2.A17.3B7.A$37.4B9.A2.A2.2A.4A16.5B8.A$38.4B10.2A4.A20.
2AB2AB6.2A$39.4B15.A.A14.2A2.BA.2A2.2A$40.4B15.2A14.A2.A.A3.B2.A$
41.4B32.2A.7A$42.3BA33.A$43.3BA32.A.4A$44.3AB32.2A2.A!
