#CSYNTH guntrue_1644 costs 5760 cells.
#C period 1644 fullperiod 1644 bbox 80 by 72
#CLL state-numbering golly
x = 80, y = 72, rule = LifeHistory
39.2A$39.A.A$41.A4.2A$37.4A.2A2.A2.A$37.A2.A.A.A.A.2A$39.BABABA.A$
40.B2ABA.A$41.2B.BA$40.3B$31.2A6.4B$32.A6.B2A3B$32.A.AB3.B2A3B$33.
2AB.10B$35.13B$35.14B$35.15B$37.8B2.4B$37.6B5.4B$36.9B4.4B$35.4B4.
2A5.4B$34.2A2B5.A7.4B$33.ABAB7.3A5.4B$32.3BA10.A6.4B13.A$31.4B19.
4B10.3A$30.4B21.4B8.A$29.4B23.4B7.2A$28.4B25.4B3.5B$27.4B27.4B2.3B
$26.4B29.9B7.2A$25.4B31.8B8.A$24.4B33.10B3.B.A.2A$23.4B34.7B2A2B.B
3A2.A$22.4B35.7B2A3BAB2.2A$22.4B35.12B4A$21.5B33.2AB.7B3.2B.A$18.
9B31.A.AB.7B2.B3A$18.9B31.A5.4B4.A$18.9B30.2A5.4B5.5A$18.10B35.4B
10.A$17.12B33.4B9.A$16.13B8.2A22.4B10.2A$17.11B9.A22.4B$18.12B4.BA
.A21.4B$18.15B.B2A10.A10.4B$18.17B12.3A7.4B$18.17B15.A5.4B$15.B.
17B15.2A4.4B$14.2A19B14.9B6.2A$14.2AB.19B14.6B7.A$15.B4.20B2.2B2.B
3.6B5.2A.A$20.36B4.A2.A$20.9B.27B3.B2A$21.7B2.16B2A14B$11.B2A7.7B
2.16B2A13B$11.3AB6.6B4.29B$10.A.2AB6.7B10.2B.B.17B$9.A.A.2B6.6B10.
3B4.15B$9.A2.A2.2B3.7B6.2A.2BA5.15B$10.2A3.3B3.5B7.A.2BA.A5.13B$4.
2A9.B2A.7B8.A2.BA.A2.13B$3.A.A8.BA2BA9B7.A3.A.A.2A4.8B$3.A8.B.2B2A
7B.2A5.A.4A2.AB2A6.6B$2A.AB.B3.BA9B5.A5.A.A3.A.A2.B8.5B$.A.A.2AB.
3A9B6.3A2.A.A2.A2.2A.2A9.B.B$.A.A.2A2B2A10B8.A3.A3.2A2.A.A9.3B$2A.
A2.5BA9B20.A.A9.B2AB$A2.4A3BA8B.B2A19.A11.2A$.2A2.BAB.BA8B.BA.A$3.
2A6.7B5.A$3.A7.2B.3BA5.2A$5.A9.3BA$4.2A10.3AB!
