#CSYNTH guntrue_5264 costs 3904 cells.
#C period 5264 fullperiod 5264 bbox 64 by 61
#CLL state-numbering golly
x = 64, y = 61, rule = LifeHistory
15.2A3.A$16.A2.A.A$14.A4.A.A$14.5A.A$18.A$7.2A5.2AB2.A23.A3.2A$8.A
4.B2A3B.A21.A.A2.A$8.A.AB.5B.2A21.A.A4.A$2.A6.2AB2.3B26.A.5A$2.3A
5.8B27.A$5.A5.8B25.A2.B2A5.2A$4.2A5.10B22.A.3B2AB4.A$4.4B3.3BA6B.
2B19.2A.5B.BA.A$6.3B3.BABA7B2A22.3B2.B2A6.A$6.5BA4BA4B.B2A21.8B5.
3A$2A5.4B2A3BA5B.B21.8B5.A$.A5.5B2ABABA3B22.10B5.2A$.A.AB.9BA2BA2B
19.2B.10B3.4B$2.2AB.10B2A3B18.2A11B3.3B$4.15B.B2A16.2AB.15B$4.15B.
BA.A16.B.15B5.2A$4.14B5.A19.5B3A6B5.A$.B.15B5.A.2A16.4BA3BA6B.BA.A
$2AB.15B5.A.3A14.9BA5B.B2A$2A11B3.4B9.A11.2AB.BA4BA8B$.2B.4B3A3B3.
4B7.2A10.A.AB.B2AB2A3BA5B$4.3BA3BA2B4.4B6.5B7.A5.2BA5BA2BA2B$6.5BA
2B5.4B7.2B2A3.BA.A5.8BA3BA2B.B$7.4BA3B5.4B5.3B2AB2.B2A5.9BA5B.B2A$
8.2BA2.B2A5.4B4.10B5.4B3.11B2A$4.2A.2AB2A.BA.A5.4B2.10B5.4B3.3B2AB
2A2B.2B$4.A.2BA2BA4.A6.4B2.9B4.4B4.3BABA4B$5.A2.B2A5.2A6.13B4.4B5.
3BA4B$6.A18.12B3.4B5.8B$4.A.5A15.10B3.4B5.2AB2.3B$3.A.A4.A16.7B2.B
.4B5.A.AB.5B.2A$3.A.A2.A19.13B6.A4.B2A3B.A$4.A3.2A19.11B6.2A5.2AB
2.A$25.2A2.10B18.A$24.B2AB2.3B3A3B14.5A.A$24.4B3.BA3BA3B13.A4.A.A$
25.2B3.2BA3BA2B16.A2.A.A$17.A7.4B2.BA3BAB16.2A3.A$16.A.A5.5B.3B3A
2B3.2A$17.A.19B2.B2A2B$18.20B3.4B$18.14B2.3B4.4B$18.15B7.B3A$17.3B
2A12B6.2B2A$17.3B2A13B4.2A2B4.2A$15.2AB.11B2.4B3.3AB3.B2A2B$14.A.A
B2.8B5.5B.BABAB3.4B2.2B$14.A5.10B4.5B2.2A2.6B2.3A$13.2A5.B.B5.2A5.
4B6.5B.BA3B$21.3B4.A7.4B4.2A2BA3BA3BA$20.B2AB5.3A5.4B3.5AB2.A2BA.A
$21.2A8.A6.5B.B3A2B4.A.A2BA$39.5B2.B.2B5.A3BAB$40.3BA3.2BAB5.3BAB$
41.3BA3.A.A5.3A$42.3AB3.A7.2B!
