#CSYNTH guntrue_9241 costs 17550 cells.
#C period 9241 fullperiod 9241 bbox 135 by 130
#CLL state-numbering golly
x = 135, y = 130, rule = LifeHistory
58.A11.2A$57.A.A9.B2AB$49.A3.2A2.A.A9.3B$35.A12.A.A2.A2.2A.2A9.B.B
$35.3A10.A.A3.A.A2.B8.5B$38.A10.A.4A2.AB2A6.6B$11.2A24.2A12.A3.A.A
.2A4.8B$12.A24.4B9.A2.BA.A2.13B$6.2A2.A4.A23.3B7.A.2BA.A5.13B$6.A
2.A.5A22.4B7.2A.2BA5.15B$3.2A.A.2A.B16.2A8.5B10.3B4.15B$3.A2.A2.B
3AB4A10.A8.6B11.2B.B.17B$5.A.2A3BA.A2.A7.BA.A8.8B2.4BABA22B$4.2A.A
2.7B4.3B.B2A8.11BA3BABA8B2A13B$7.A.7B3.7B11.16B2A7B2A14B$7.2A.16B
12.7B.7BA19B3.B2A7.2A$10.15B12.10BABABA20B4.A2.A5.B2AB$10.16B11.
10B3ABA2BAB2.2B2.B3.6B5.2A.A5.2B6.B$10.18B8.12BA3BA14.6B7.A6.2B4.
3B$11.20B2.2B.15B14.9B6.2A4.14B$7.2A3.38B15.2A4.4B11.14B$7.A5.7B.
20B.8B16.A5.4B.B5.17B$4.2A.A4.7B2.16B2A2B3.8B11.3A7.28B$4.A.A4.8B
2.16B2A2B5.B3.2A11.A9.30B$5.B5.7B4.18B10.A22.31B$4.3B.B2.8B10.4B.
3B.B12.3A19.32B$3.16B11.4B19.A20.32B$2.17B12.4B37.2AB2.23B3.4B$.
18B13.4B35.A.AB4.18B7.4B$20B13.4B34.A8.13B.2B9.4B$19B15.4B32.2A9.
12B13.4B$19B16.4B42.11B15.4B$.17B18.4B40.12B16.4B$6.11B20.4B30.2A
7.12B17.4B$7.6B25.4B28.A2.A2.2A2.9B2AB18.4B$7.6B26.4B28.2A2.A.A2.
9B2A3B17.4B$7.7B26.4B29.2A.B3.15B17.4B$5.10B26.4B28.A2.2B2.15B18.
4B$5.2A4B.4B26.4B24.2A.A.BA2B.15B19.4B$.2A2.BA2B4.4B26.4B23.A.2A.A
.A16B21.4B$.A2.A.A.A5.4B26.4B26.A.A.8B.8B21.4B$3.2A.A.3A4.4B26.4B
22.2A2.A4.5B4.7B21.4B$5.A.A3.A4.4B26.4B19.3A.2A4.6B4.8B21.4B$5.A.A
2.2A5.4B26.4B17.A4.B6.6B4.2B2.4B21.4B$6.A11.4B26.4B17.3AB2AB3.7B9.
4B21.4B$19.4B26.4B18.A.2AB.8B11.4B21.4B$20.4B26.4B21.10B12.4B21.4B
$21.4B26.4B20.6B2A3B12.4B21.4B$22.4B26.4B19.6B2A2B5.2A7.4B21.4B$
23.4B13.A12.4B18.10B5.A9.4B21.4B$24.4B10.3A13.4B16.11B2.BA.A10.4B
21.4B$25.4B8.A17.4B15.12B.B2A12.4B21.4B$26.4B7.2A17.4B13.15B15.4B
21.4B$27.4B3.5B18.4B11.16B16.4B21.4B$28.4B2.3B21.4B7.2B.16B17.4B
21.4B$29.9B7.2A12.4B5.2A18B18.4B21.3BA$30.8B8.A13.4B4.2AB.17B18.4B
21.ABA$31.10B3.B.A.2A11.4B4.B.4B.8B2.4B18.4B21.2A$31.7B2A2B.B3A2.A
12.4B10.7B4.4B18.4B21.B$31.7B2A3BAB2.2A14.4B10.6B5.4B18.4B$31.12B
4A17.4B11.4B6.4B18.4B$29.2AB.7B3.2B.A18.4B12.3BA5.4B18.4B$28.A.AB.
7B2.B3A20.4B12.BA.A5.4B18.4B$20.2A6.A5.4B4.A24.4B12.A.A6.4B18.4B$
20.A6.2A5.4B5.5A20.4B12.A8.4B18.4B$15.2A5.A10.4B10.A21.4B12.3A6.4B
18.4B10.2A$15.A5.2A9.4B9.A24.4B13.A7.4B18.4B9.A$12.2A.A.3B11.4B10.
2A4.2A18.4B21.4B18.4B10.A$12.A2.A.2A2B2A7.4B17.A.A18.4B21.4B11.2A
5.4B5.5A$14.2A.A.2B2AB5.4B20.A4.2A13.4B21.4B11.A5.4B4.A$17.A.4B5.
4B17.4A.2A2.A2.A12.4B21.4B10.A.AB.7B2.B3A$17.2A.4B3.4B18.A2.A.A.A.
A.2A13.4B21.4B10.2AB.7B3.2B.A$10.2A8.10B21.BABABA.A17.4B21.4B11.
12B4A$9.A.A8.9B23.B2ABA.A18.4B21.4B10.7B2A3BAB2.2A$9.A8.B.8B25.2B.
BA20.4B21.4B9.7B2A2B.B3A2.A$6.2A.AB.B3.11B25.3B24.4B21.4B8.10B3.B.
A.2A$7.A.A.2AB.12B16.2A6.4B25.4B21.4B6.8B8.A$7.A.A.2A14B17.A6.B2A
3B24.4B21.4B4.9B7.2A$6.2A.A2.5B2A8B17.A.AB3.B2A3B25.4B21.4B2.4B2.
3B$6.A2.4A3BA2BA5B.B2A16.2AB.10B24.4B21.8B3.5B$7.2A2.BAB.2B2A6B.BA
.A17.13B24.4B21.2BA3B7.2A$9.2A6.7B5.A17.14B24.4B21.B2AB8.A$9.A7.2B
.4B5.2A16.15B24.4B19.BABA2B8.3A$11.A9.4B24.8B2.4B24.4B10.A6.8B9.A$
10.2A10.4B23.6B5.4B24.4B7.3A5.4B2.4B$23.4B21.9B4.4B24.4B5.A7.4B4.
4B$24.4B19.4B4.2A5.4B24.4B4.2A5.4B6.4B10.2A$25.4B10.A6.4B5.A7.4B
24.9B4.4B8.4B9.A$26.4B7.3A5.4B7.3A5.4B24.6B5.4B10.4B10.A$27.4B5.A
7.4B10.A6.4B23.8B2.4B5.2A5.4B5.5A$28.4B4.2A5.4B19.4B20.15B7.A5.4B
4.A$29.9B4.4B21.4B19.14B8.A.AB.7B2.B3A$30.6B5.4B23.4B18.13B10.2AB.
7B3.2B.A$30.8B2.4B25.4B15.2AB.10B13.12B4A$28.15B27.4B13.A.AB3.B2A
3B15.7B2A3BAB2.2A$28.14B29.4B12.A6.B2A3B15.7B2A2B.B3A2.A$28.13B31.
4B10.2A6.4B17.10B3.B.A.2A$26.2AB.10B33.4B18.3B16.8B8.A$25.A.AB3.4B
A2B35.4B18.2B.BA12.9B7.2A$25.A5.4BABA2B35.4B16.B2ABA.A10.4B2.3B$
24.2A6.3BABA2B36.4B14.BABABA.A9.4B3.5B$32.4BAB39.4B11.A2.A.A.A.A.
2A5.4B7.2A$33.5B40.4B10.4A.2A2.A2.A4.4B8.A$34.3B42.4B13.A4.2A5.4B
10.3A$33.5B42.4B10.A.A10.4B13.A$32.B2AB2A43.4B9.2A10.4B$29.2A2.2A.
AB2.2A40.4B19.4B$29.A2.B3.A.A2.A41.4B10.A6.4B$30.7A.2A44.4B7.3A5.
4B$37.A47.4B5.A7.4B$32.4A.A48.4B4.2A5.4B$32.A2.2A50.9B4.4B$88.6B5.
4B$88.8B2.4B$86.15B$86.14B$86.13B$84.2AB.10B$83.A.AB3.B2A3B$83.A6.
B2A3B$82.2A6.4B$91.3B$92.2B.BA$91.B2ABA.A$90.BABABA.A$88.A2.A.A.A.
A.2A$88.4A.2A2.A2.A$92.A4.2A$90.A.A$90.2A!
