#CSYNTH guntrue_5760 costs 2288 cells.
#C period 5760 fullperiod 5760 bbox 52 by 44
#CLL state-numbering golly
x = 52, y = 44, rule = LifeHistory
36.5BA4.B$29.B4.6BABA6B$28.2AB.7BA3B2A4B$28.2A9BA3B2A3B2A$29.10BA
3B2AB.B2A$29.11BABAB4.B$25.4B2.B4.5BA$23.7B$11.2A9.9B12.2A$.2A6.2B
2AB2.16B10.A.A$2.A6.5B2.4A4BA3B.4B4.2A2.A$.A6.8BA2B2A2BABA2B2.4B3.
A2.A.2A$.2A6.6B2A4BA2BA3B3.4B4.2A.A.A$3.AB.B.7B2AB3A6B5.4B4.B.BAB$
.3A9BA2B4A7B6.4B2.5B5.2A$A2.B.8B4A9B8.9B6.A$2A3.9BA10B10.B2A6B2.BA
.A$8.14B14.2A7B.B2A$9.16B3.2A5.12B$9.16B.B2.A5.12B$7.12BA6B3A6.12B
$5.B.12BA2B.B.BA6.2AB.2B2A5B$4.2A13BAB6.2A3.A.AB2.ABA5B$4.2A16B6.A
3.A5.BA6B$5.9B2.5B6.A3.2A6.7B$5.5B.3B2.B2A2B6.2A11.8B$17.2A21.9B.
2A$25.4A10.9BA2.A$25.A3.A8.4B.B.3B3A$28.2A7.4B.3B2.B$28.5B3.4B2.B
2AB2.3A$19.2A9.3B2.4B4.2A4.A.A$18.A.A8.9B9.A3.A$18.A8.B.8B9.A.3A$
15.2A.AB.B3.BA9B10.A.A$16.A.A.2AB.3A9B11.A$16.A.A.2A2B2A10B$15.2A.
A2.5BA9B$15.A2.4A3BA8B.B2A$16.2A2.BAB.BA8B.BA.A$18.2A6.7B5.A$18.A
7.2B.3BA5.2A$19.A10.3BA$18.2A11.3AB!
