#CSYNTH guntrue_791 costs 5152 cells.
#C period 791 fullperiod 791 bbox 112 by 46
#CLL state-numbering golly
x = 112, y = 46, rule = LifeHistory
65.2A$66.A4.3B$66.A.A5B$67.2A6B$69.6B$70.6B$69.8B$69.10B$70.12B$
45.2A18.B4.7B2A4B$38.3B4.A18.2AB.7B2AB2A4B$38.5BA.A18.2A9BA4BA3B8.
2A4.2A$37.6B2A20.10BA3B3A3B6.B2AB2.B2AB$37.6B24.9B2A4BA3B5.3B3.4B$
36.3BA2B24.14BABA4B5.B5.2B$35.3B3A2B22.15B2A6B2.2B2AB2.5B$33.4BA2B
2AB21.4B3.8B2A8B.2B2A2B.5B$30.7B3A2B21.4B4.7B2A10B.13B7.A$29.13B4.
B15.4B5.7B2A7B.7B2A7B5.3A$28.2B2A12B.B2A.A11.4B6.13B.10B2A7B4.A$
12.2A4.2A8.2B2A14B2A.3A8.ABAB9.5B.2B2A2B.8B2A8B4.2A$11.B2AB2.B2AB
6.11B2A7B5.A6.B2AB4.2A4.5B2.B2A2B2.6B2A15B$11.4B3.3B5.B2A8BABA2BAB
A6.2A5.3BA5.A.A5.2B5.B5.4BABA13B$12.2B5.B5.BA2BA7BA4BABAB5.10B8.A
4.4B3.3B5.3BA4B2A9B$10.5B2.B2A2B2.3B2A6BA2BA4BA5B2.9B9.2A3.B2AB2.B
2AB6.3B3A3BA10B$10.5B.2B2A2B.11BA2BA3B3.16B11.A3.2A4.2A8.3BA4BA9B
2A$A7.13B.12BA3B3A4.14B12.A19.4B2AB2A7B.B2A$3A5.5B2A9B.9B2A5B5.12B
2.6B2.BA.2A19.4B2A7B4.B$3.A4.3A3BA12B.13B6.20B.B2A2.A19.12B$2.2A4.
3BA2BA11B.2B2A2B.5B9.21B3.2A22.10B$2.8BA2BA6B2A3B2.2B2AB2.5B8.22B
29.8B$4.7BA7BA2BAB5.B5.2B10.21B31.6B$4.5BABA8B2AB5.3B3.4B8.22B32.
6B$2.7B2A11B6.B2AB2.B2AB9.11B2.9B31.6B2A$.2A14B2A2B8.2A4.2A11.2B2.
5B3.9B32.5BA.A$.2AB.12B2A2B25.4B3.5B2.9B32.3B4.A$2.B4.13B26.2A3.8B
2.6B.B2A37.2A$7.2B3A7B28.A3.2A3.4B3.4B.BA.A$6.B2A2BA4B28.3A5.A4.4B
2.3B5.A$6.2B3A3B30.A4.3A6.4B9.2A$7.2BA3B36.A9.4B$6.6B48.4B$4.2A6B
49.4B$3.A.A5B51.3BA$3.A4.3B52.3BA$2.2A60.3AB!
