#CSYNTH guntrue_392 costs 3066 cells.
#C period 392 fullperiod 392 bbox 73 by 42
#CLL state-numbering golly
x = 73, y = 42, rule = LifeHistory
55.A$53.3A4.2A$17.A34.A3.2A2.A$11.2A4.3A32.BABA2.A.A9.2A$12.A2.2A
3.A32.ABAB2A.B2A7.A$.2A9.A.A2.BABA33.B2A2.A.A.AB2.BA.A$2.A7.2AB.3A
3B34.2A2B2A.5A.3A$2.A.AB2.AB.A.A2.2BA36.2B.A.5B.2A$3.2AB.BA2BA.3A
2BA41.A5B2A$5.BA.BA2BA.B.BA32.2A10.3B.AB$5.B7A38.A9.2BA$5.BA.3A10.
2A28.A.AB5.3B$9.3B9.A30.2AB.9B$10.3B5.BA.A32.6BA6B$8.9B.B2A34.5B3A
7B.B$6.5B2A6B35.7B.7B.B2A$.B.7BA2BA4B35.ABA4B3A8B2A$2AB.6BA.A6B24.
A8.B2A7BA6B.2B$2A7BA2BA6BA21.3A7.3BA3.11B$.2B.6B2A8BA19.A9.4B6.3B$
4.11B3.3AB6.2A10.2A7.4B6.A2B$10.3B6.4B6.A7.5B6.4B3.BA.3B$11.3B6.4B
5.A.AB3.2A2B7.4B4.2A5BA$12.3A.AB3.4B5.2AB2.B2A3B5.ABAB5.2A.5B.A.2B
$10.7AB4.4B5.10B4.B2AB4.3A.5A.2A2B2A$5.AB.B.A2BAB.AB5.3BA5.10B2.3B
A4.A.AB2.BA.A.A2.2AB$4.A2B3A.A2BAB.B2A4.3BA4.9B2.4B5.A7.2AB.2ABABA
$4.A2B2.A.A.BA2.BA.A4.3AB4.14B4.2A9.A.A2.ABAB$3.3B3A.B2A7.A5.4B3.
13B16.A2.2A3.A$2.ABAB2.A.A9.2A4.5B3.10B2.3B12.2A4.3A$2.A3.2A2.A16.
5B.B2.7B3.3B2A2.A13.A$3.3A4.2A12.3B2.13B3.2A2B2A3BA$5.A13.B2.2A3B
3.11B4.2A7BA$18.2A4B4A3.10B5.B2.B4A$18.2A2B2AB3A3.9B11.3B$19.3BAB
2.B3.9B$19.3B9.9B$32.7B$32.8B$32.8BA$32.9BA$33.3B3.3AB!
