#CSYNTH guntrue_664 costs 2352 cells.
#C period 664 fullperiod 664 bbox 56 by 42
#CLL state-numbering golly
x = 56, y = 42, rule = LifeHistory
3.2A$3.A.A$5.A18.2A$5.2AB17.A$7.2B.3B11.A$3.4A7B10.2A26.2A$3.A2.AB
.5B11.B25.B2A2B$4.A2.8B10.3B9.2A13.2A2B$.3A3.8B9.6B6.B2AB12.BA2B$.
A4.11B3.B2.10B4.3B11.BABA$6.30B2.B2.2B8.2ABA$6.9BABA9B2A16B5.4B$2A
2.8BA2BA2BA8B2A18B3.4B$A.A.2A2.3BA2BA3B2A29B.2B2AB$2.AB2A3.9B2A30B
2.2A$.A2.B4.3BA2BA34B$.2A.2A2.2BABA3BABA2B4.13B.B3.B3.4B$2.A.A4.BA
BA2BA2BA4B2.7B.B8.2B4.4B$2.A.A5.5BABA6B17.3A5.4B$3.A6.5B2A6B18.3B
6.4B$11.11B18.ABA.A6.4B$11.11B18.BAB4A5.3BA$10.6B2A5B6.A5.2A2.AB.
2B3.A5.ABA$9.6BABA5B5.A.A4.A2.A.5B2A.A5.2A$10.4BA2BA2BABAB4.A.A5.
3AB2ABAB.A.A6.B$7.4B.2BABA3BABA2B2.2A.3A6.3BA.A2.A$7.10BA2BA3B4.B
4.A2.3A3B.A.2A$6.2A5B2A9B3.2AB3A2.A2.B.BABA.A$6.2A5B2A3BA2BA3B2.2A
.A5.A.AB.B.B.A$7.B.5BA2BA2BA8B6.2A.A.AB2A.2A$10.5BABA9B9.A.3A.2BA
2.A$10.17B9.A.A2.A4.A$12.B3.11B4.A3.2A.8A$18.8B3.3A5.A$18.8B2.A8.A
.A2.2A$19.5B.BA2.A8.2A2.2A$19.7B4A$20.3B.2B$25.B2A$27.A$27.A.A$28.
2A!
