#CSYNTH guntrue_2916 costs 2856 cells.
#C period 2916 fullperiod 2916 bbox 68 by 42
#CLL state-numbering golly
x = 68, y = 42, rule = LifeHistory
37.2A2.A$4.2A4.2B4.2A18.A.4A$3.A2.A.6B.A2.A17.A$3.3A2.6B2.3A15.2A.
7A$6.10A16.A2.A.A3.B2.A$5.A2.6A2.A15.2A2.BA.2A2.2A$5.2A.B4AB.2A19.
2AB2AB$10.2B24.5B$10.2B25.3B$11.B24.5B$10.2AB23.BA4B$9.A2BAB5.2A
13.2BABA3B6.2A$7.3B2A3B4.A14.2BABA4B5.A4.2A.2A2.2A.A$7.8B.BA.A15.
2BA4B3.BA.A3.A.A.A3.A.2A$6.9B.B2A15.10B.B2A4.A.A.A.A.A3.2A$5.B2A9B
16.13B5.2A.BABA.A.B2A2.A$4.BA2BA8B15.6B3A5B5.A2.A4.A.A.A.A.A$5.B2A
9B3.A10.7BA7B6.2A.4A.A.A2.2A$7.10B3.3A7.4B2.3BA4B9.2BA.A2.A.A.A$9.
7B7.A5.4B5.6B9.B3.4A.2A.2A$9.8B5.2A4.4B4.9B6.AB.BA.A7.A.A$8.5B.4B
4.9B5.2A4.4B5.2A.2A.A.2A.2A.A.A$8.6B.4B5.2BA3B7.A5.4B5.3B3.A.A.A.A
.A$7.6B3.4B2.4BABAB4.3A7.4B4.3B5.A3.A$3.B2.3BA3B4.9B2A4B2.A10.4B3.
3B4.2A.B.2A$.7BABA2B5.14B7.2A5.4B.5B3.7B$.7BABA2B6.13B8.A5.7B2A2B
4.3B$9BA3B7.10B.B2A6.A.AB.8B2A2B3.B3AB$11B.B2A6.2BA4B3.BA.A6.2AB.
12B2.2BABA2B$.9B2.BA.A4.2BABA4B5.A8.6B3A5B2.2B3A2B$.7B7.A4.2BABA3B
6.2A7.5BA2BA9B3A3B$2.6B7.2A5.BA4B15.4B2AB2A9B3A3B$3.4B15.5B17.4B2A
8B.2B3A2B$4.4B15.3B18.13B2.2BABA2B$5.4B13.5B17.6B2.6B2.B3AB$6.4B
12.2AB2AB18.3B3.6B3.3B$7.4B7.2A2.BA.2A2.2A13.5B4.3B3.7B$8.4B6.A2.A
.A3.B2.A13.2A13.2A.B.2A$9.4B7.2A.7A15.A14.A3.A$10.3BA8.A19.3A12.3A
5.3A$11.3BA7.A.4A14.A14.A9.A$12.3AB7.2A2.A!
