#CSYNTH guntrue_973 costs 6960 cells.
#C period 973 fullperiod 973 bbox 116 by 60
#CLL state-numbering golly
x = 116, y = 60, rule = LifeHistory
21.A11.A51.2A$21.3A7.3A51.A.A$24.A5.A21.A34.A4.2A$7.A15.2A5.2A19.A
.A13.A15.4A.2A2.A2.A$7.3A13.B3.5B19.A2.A.2A.A5.3A15.A2.A.A.A.A.2A$
10.A9.4B2.4B19.2A.A.A.A.2A4.A20.BABABA.A$9.2A6.15B16.A.A.A2BA8.2A
20.B2ABA.A$9.5B2.17B15.A.2AB.2B5.5B21.2B.BA$11.23B13.2A.A.A3B3.BA
3B22.3B7.A$10.2A22B14.A.2A7BABA3B12.2A6.4B7.3A$10.2A22B12.A2.A3.AB
.2BA2BA4B12.A6.B2A3B8.A$11.B.19B.B2A10.2A.A.2A3.3B2A4B13.A.AB3.B2A
3B7.A.A$13.18B2.BA.A12.A.A6.6B15.2AB.10B5.A.AB$14.16B6.A12.A.A6.5B
18.13B5.A3B$15.15B6.2A12.A6.7B17.14B6.4B$16.12B28.4B.4B16.15B5.6B$
13.15B27.4B3.4B17.8B2.4B4.7B$12.16B26.4B5.4B16.6B5.4B2.8B.4B.B$3.
2A7.12B.4B24.4B7.4B14.9B4.17B.B2A$2.A2.A2.2A2.11B3.4B22.4B9.4B12.
4B4.2A5.18B2A$3.2A2.A.A2.8B.4B2.4B20.4B11.4B10.4B5.A6.16B.2B$5.2A.
B3.7B4.2A3.4B18.4B13.4B8.4B7.3A2.17B$5.A2.2B2.7B4.A5.4B16.4B15.4B
6.4B9.A2.A16B$2.2A.A.BA2B.6B6.3A3.4B14.4B17.4B4.4B8.A3.2A.14B$2.A.
2A.A.A8B8.A4.4B12.4B19.4B2.4B9.2A7.12B$6.A.A.8B14.4B10.4B21.8B20.
10B3.2A$3.2A2.A4.5B16.4B8.4B23.6B21.2B2A6B3.A$.3A.2A4.6B17.4B6.4B
25.4B21.3B2A6B4.A$A4.B6.6B17.4B4.4B25.6B21.10B3.2A$.3AB2AB3.7B18.
4B2.4B25.8B20.8B.B2A$3.A.2AB.8B20.8B25.4B2.4B18.7B3.B2AB2A$7.10B
21.6B25.4B4.4B17.6B6.B.A$7.6B2A3B21.4B25.4B6.4B17.6B4.2A3.A$7.6B2A
2B21.6B23.4B8.4B16.8B.A2.4A$7.10B20.8B21.4B10.4B14.9BA.A.A$6.12B7.
2A9.4B2.4B19.4B12.4B4.A8.7B.2BAB.A.2A$6.14B.2A3.A8.4B4.4B17.4B14.
4B3.3A6.6B3.2B2.A.A$5.16BA2.A9.4B6.4B15.4B16.4B5.A4.7B4.B.2A2.A$4.
17B2.3A7.4B8.4B13.4B18.4B3.2A4.7B3.A.A2.A.A$.2B.16B6.A5.4B10.4B11.
4B20.4B2.4B.8B3.2A2.A.A$2A18B5.2A4.4B12.4B9.4B22.4B3.11B8.A$2AB.
17B4.9B14.4B7.4B24.4B.12B$.B.4B.8B2.4B5.6B16.4B5.4B26.B3A12B$8.7B
4.4B2.8B17.4B3.4B28.A13B10.A$9.6B5.15B16.4B.4B30.A9B11.3A$11.4B6.
14B17.7B6.A23.12B9.A$13.3BA5.13B18.5B6.A.A21.16B6.2A$14.BA.A5.10B.
B2A15.6B6.A.A14.A6.24B$15.A.A7.3B2AB3.BA.A13.4B2A3B3.2A.A.2A11.3A
3.23B$16.A8.3B2AB6.A12.4BA2BA2B.BA3.A2.A14.A2.24B$17.3A7.4B6.2A12.
3BABA7B2A.A15.A.B.24B$19.A7.3B22.3BAB3.3BA.A.2A14.2A27B$24.AB.2B
21.5B5.2B.B2A.A13.2A2.A22B.4B$23.A.AB2AB20.2A8.A2BA.A.A12.A2.3A3B
3.2B3.B7.2B3.4B$23.A.ABABAB20.A4.2A.A.A.A.2A14.A4.2B3.4B.3B5.BA2B
3.4B$20.2A.A.A.A.A2.A15.3A5.A.2A.A2.A17.4A5.B2AB.B2AB4.A.A5.3BA$
20.A2.A2.2A.4A15.A13.A.A19.A7.2A3.2A6.A7.ABA$22.2A4.A34.A22.A27.2A
$28.A.A54.2A28.B$29.2A!
