#CSYNTH guntrue_1957 costs 10185 cells.
#C period 1957 fullperiod 1957 bbox 105 by 97
#CLL state-numbering golly
x = 105, y = 97, rule = LifeHistory
31.2A$30.A.A$24.2A4.A$22.A2.A2.2A.4A$22.2A.A.A.A.A2.A$25.A.ABABAB$
25.A.AB2AB$26.AB.2B$29.3B$29.4B6.2A$27.3B2AB6.A$27.3B2AB3.BA.A$25.
10B.B2A$24.13B$9.A13.7B2A5B$9.3A10.8BABA4B$12.A8.4B2.3BA4B$11.2A7.
4B5.6B$11.5B3.4B4.9B$13.3B2.4B5.2A4.4B$3.2A7.9B7.A5.4B$3.A8.8B5.3A
7.4B$2A.A.B3.10B6.A10.4B$A2.3AB.2B2A7B18.4B$.2A2.BA3B2A7B19.4B18.A
$3.4A12B20.4B11.2A3.A.A$3.A.2B3.7B.B2A19.4B11.A3.A2.A$4.3AB2.7B.BA
.A19.4B10.A.2A.A.A$7.A4.4B5.A20.4B10.A.A.A.2A$2.5A5.4B5.2A20.4B10.
BABA.A2.A$2.A10.4B27.4B10.B2AB2.2A$4.A9.BABA27.4B6.4BA2B$3.2A10.B
2AB27.4B3.BA3BA2B$16.A3B22.2A3.4B.BAB2ABAB$17.4B22.A4.4B3A5B$18.4B
7.2A12.A.AB2.3BA7B.2B$19.4B6.A14.2AB.5B5A4B2A$20.4B6.A15.7B2A7B2A$
21.4B4.2A15.9B2ABAB.2B$22.4B2.2B17.8BA4B$15.2A6.8B15.8B3A3B.2B$16.
A7.7B13.10BA2BA4B2A$16.A.2A5.7B2.B2.2B2.12BA3BA2B.B2A$17.A2.A4.28B
A4BAB2.B$18.2AB3.27B.5BA2B$19.32B2.B2A4B$20.14BA16B2.7B$21.13BA15B
3.7B$21.9B2ABABA2B.4B11.6B.BA$22.8BA6B3.2B12.7BA.A$22.9BA5B3.3B11.
8BA8.A$23.13B5.A2B.2A7.BABA2B.B8.A.A$25.13B2.A.A2B.A7.2B2AB11.A.A$
24.8B4.2A.A.AB2.A8.2BA3B2.2B5.2A.3A$24.6B6.2ABA4.A7.2AB.9B5.B4.A$
24.5B8.B2.5A.A4.A.AB3.8B2.B2AB3A.A$24.B.B5.2A.A.2A.A4.A.A3.A7.8B.B
2A.A2.A.A$25.3B4.A.2A.A2.A.2A2.A3.2A5.2B.11B4.A.A$24.B2AB11.2A.A.
2A10.2A11B5.2A.3A$25.2A29.2AB.10B5.B4.A$57.B2.10B3.B2AB3A$60.12B.B
2A.A$61.15B$60.14B7.2A$61.14B6.A$63.12B3.BA.A$65.12B.B2A4.2A$65.
14B5.A.A$65.9B2A3B5.A$66.7BABA3B4.2A$31.2A34.6B2A2B5.2B$32.A37.8B
2.5B6.3B5.2A$31.A38.16B4.4B5.A$31.2A6.2BAB13.B.7B5.2B2AB.10B4.5B.B
A.A$33.A2B2.2BABAB6.B.13B4.3B2A13B3.5B.B2A$31.3A5BABA45B3.7B$30.A
2.B.4B2A45B3.8B$30.2A3.50B3.8B4.2A$36.25B2A33B3.A.A$36.25B2A33B3.A
$35.4B.B.11B3.41B.2A$36.4B2.10B5.10B2.B3.B2.B3.18B$36.2B2AB4.2B2.
4B7.6B14.18B3.2A$38.2A10.4B8.3B13.5B3.12B.B2.A$51.4B9.B13.2A7.12B
3A$52.4B8.2A13.A8.9B.BA$53.4B8.A10.3A4.2A3.9B3.2A$54.4B7.A.A8.A6.A
4.9B4.A$55.4B7.2A12.2A.A4.2B2A3B.B2A2.A.2A$56.4B20.A2.3A.2BA2BA2B.
BA.A.A.2A$57.4B20.2A2.BA3BABAB5.A.A$58.4B21.4A4BA4B3.A.A$59.4B20.A
.4B5.2A4.A$60.4B17.A.A.2A7.A$61.3BA16.2A2.A9.3A$62.3BA19.A.A9.A$
63.3AB19.2A!
