#CSYNTH guntrue_2583 costs 3519 cells.
#C period 2583 fullperiod 2583 bbox 69 by 51
#CLL state-numbering golly
x = 69, y = 51, rule = LifeHistory
40.A5.2A13.2A$36.2A.A.A.BA2B.A11.A2.A.A$36.2A.A.A2BAB.2A11.2A2.2A$
39.A.A2.A2.5B14.2A$34.6A.3AB4.4B2.2A.7A.B.A$33.A2.A3.B.2A4.5B.B.A.
A5.A.ABA$33.2A2.BABA7.7B.A4.2A.A.2B$38.AB7.8B2A3.A.A.A3BA$47.6B.2B
4.A2.2A2.2B$36.A7.2B.6B5.3A2.B2AB2A$36.3A4.4B.5B4.A6.BA.B$39.A.3BA
BA8B2.2A6.4A$38.A2.4B2A12B8.AB$38.4A3B2A10B9.2B$34.2A5.A16B7.B2AB$
34.A2.A.A2B.15B8.2A$19.A16.2A.2A4.13B4.2B.3B$19.3A9.A13.5B2A16B$
22.A7.A.A10.5B2A2BA16B$21.2A7.A.A9.6B2AB2A16B$21.5B3.2A.3A6.8B3A
17B$23.3B4.B4.A5.26B$17.BA3.5B.B2AB3A4.2AB.20B.B$10.B2AB3.2AB.3B2A
B.2BA.A5.A.AB.16B$8.A.4A.A3B2.3B2A3B9.A5.13B$7.A3B2.3B.A2.B3ABA3B
8.2A6.5B.5B6.2A$6.A.2BA2.AB.2A2.AB4A3B15.13B5.A$7.2A2.B2.B.A3.A2BA
BA2B14.16B.BA.A$10.B4A.A3.2BA2B3A8.B.20B.B2A$11.2A.2A5.BABABA3B.
29B$21.2B3A.22B3A8B$23.BA23B2AB2A6B$11.A12.24BA2B2A5B$11.3A10.4B3.
18B2A5B$14.A8.4B4.4B2.2B4.13B4.2A.2A$13.2A7.4B5.4B8.15B.2BA.A2.A$
13.5B3.4B5.B2A2B8.16BA5.2A$4.2A9.3B2.4B5.BA2BA.A8.10B2A3B4A$3.A.A
8.9B6.B2A.A.3A4.12B2A4B2.A$3.A8.B.8B5.4B2.A4.A3.2A2.8BABA3B.A$2A.A
B.A3.11B6.2A4.A.3A5.A4.5B.4B4.3A$.A.A.A2B.2A10B7.A5.2A4.3A5.6B.2B
7.A$.A.A.A15B4.3A12.A4.2B.6B$2A.A2.5BA9B4.A18.2A8B7.BA$A2.4AB4A7B.
B2A21.A.7B7.ABAB2.2A$.2A2.BAB.10B.BA.A17.2A.A.B.5B4.2A.B3.A2.A$3.
2A6.7B5.A17.2A.2A2.4B4.B3A.6A$3.A7.2B.4B5.2A24.5B2.A2.A.A$5.A9.3BA
33.2A.BA2BA.A.2A$4.2A10.3BA32.A.2BAB.A.A.2A$17.3AB32.2A5.A!
