#CSYNTH guntrue_768 costs 1680 cells.
#C period 768 fullperiod 768 bbox 56 by 30
#CLL state-numbering golly
x = 56, y = 30, rule = LifeHistory
21.2A.2A$22.A.A3.A.2A$22.A2.5A.A$23.A.A$22.2A2.A2B2A$24.2A2BABA$
24.A.A3B$25.A2B$26.B$27.4B$11.B2A12.7B$11.3AB10.9B9.2A$10.A.2AB9.
16B2.B2A2B6.2A$9.A.A.2B8.4B.12B2.5B6.A$9.A2.A2.2B5.4B2.20B6.A$10.
2A3.3B3.4B3.2B3A5BA6BAB6.2A$4.2A9.B2A.5B5.8B3A5BA2B.B.BA$3.A.A8.BA
2BA4B6.7B2A2BA4BA6B3A$3.A8.B.2B2A4B8.10B2A9B.B2.A$2A.AB.A3.11B10.
4BA3BABA9B3.2A$.A.A.A2B.2A10B13.5B2A7B$.A.A.A15B5.2A3.2BA4B2A7B$2A
.A2.5BA9B5.A2.B.3A3BABA7B$A2.4AB4A7B.B2A4.3A8B2A9B$.2A2.BAB.10B.BA
.A5.AB.B.4BABA8B.B$3.2A6.7B5.A3.2A6.2BA2BA9B2A$3.A7.2B.4B5.2A2.A6.
3B3A10B2A$5.A9.3BA10.A5.4BA2.9B$4.2A10.3BA8.2A5.2B2AB2.3B.5B$17.3A
B16.2A!
