#CSYNTH guntrue_5000 costs 3068 cells.
#C period 5000 fullperiod 5000 bbox 59 by 52
#CLL state-numbering golly
x = 59, y = 52, rule = LifeHistory
23.2A2.2A.2A10.B9.A$21.3A.A2.A.A.A7.BA2B.2A3.3A$20.A4.2A.A.B.A2.2A
.3B2ABA.A2.A$20.A.2AB.B.A2B2A.A.4A.AB.BA3.2A$21.2A.3BA2B2.A.BA.2AB
2A4.5B$22.2B2ABA4BA2B.A4B4.4B5.2B.2A$24.3BA2B.BA4BAB6.BA3B3.3A2.A$
8.2A14.A.A2.A.A.2BABA7.B5A2.3B2A$9.A12.3A.4ABABA.AB2A6.2BA4BA4B$7.
A13.A3.A6.A.A3.A5.BABA2B2.A4B$7.2A5.2A2.2A2.A2.A.A.2A.A.A.2A5.BAB
2A2B3.3B2A$10.2A.A2.A2.A.2A3.2A.A.A3.A7.BABA2B4.3A2.A$5.5A.A.2A.2A
.A16.A.A4.3A3B5.2B.2A$4.A4.B.B2.A.A2.A.2A14.2A4.ABA3B$5.3A.AB4A.A.
2A.BA8.B2A10.4AB2.2A$7.2AB2A.BABAB.A2B9.3AB9.B3A4.A2.A$8.5B2A.4AB
9.A.2AB9.2BAB4.A.A.A$8.5B3A.3AB8.A.A.2B8.6B2.2A.A.A$10.2B.2B3.B10.
A2.A2.2B5.8BAB2.2A$10.2B18.2A3.3B3.4B3.B5A$11.B12.2A9.3B.BA3B3.4B
2.A$10.2AB7.2A.A.A8.5BA3B3.4AB2A$.2A6.A2BAB5.A.A.A8.B.5B3A3.B2ABA.
A$2.A4.3B2A3B4.A3.AB.B3.11B5.2B.A3.A.2A$2.A.AB.8B.BA.A3.A.2AB.12B
5.2B2A.A.2A.A$3.2AB.8B.B2A.2A.A.2A14B4.A4.A.A$5.12B3.A2.A2.5B2A8B
4.4A.A.A$5.12B3.A2.4A3BA2BA5B.B2A5.A.2A4.2A$5.12B4.2A2.BAB.2B2A6B.
BA.A3.A6.A.BA$7.10B6.2A6.7B5.A2.A6.B2A$9.7B7.A7.2B.4B5.A.A4.A3.3A$
9.8B8.A9.4B5.A3.3A4.BAB$8.5B.4B6.2A10.4B7.A7.2B2A$8.6B.4B18.4B6.2A
7.3B$7.6B3.4B10.A7.4B.6B7.2A$3.B2.3BA3B4.4B9.3A6.8B9.2B$.7BABA2B5.
4B11.A6.10B6.BA$.7BABA2B6.4B9.2A5.B.10B4.A2B$9BA3B7.4B8.20B3.2BA$
11B.B2A6.4B9.11B2A3B2A5BAB$.9B2.BA.A6.4B7.2B2A7BA2BA2B2A.4BAB$.7B
7.A7.4B5.2BA2BA6BA2BA3B4.2BA$2.6B7.2A7.4B4.3B2A4B2.2B2A3B5.A2B$3.
4B18.4B.9B4.7B6.AB$4.4B18.12B6.3B7.B.2B$5.4B18.10B5.5B6.A2B2A$6.4B
18.9B5.2A8.A.A3B$7.4B18.9B5.A7.A.AB.2A$8.4B18.7B3.3A8.A2.3AB$9.3BA
18.6B3.A9.2A3.A.A$10.3BA19.2B19.3AB$11.3AB39.B2A!
