#CSYNTH guntrue_2456 costs 5940 cells.
#C period 2456 fullperiod 2456 bbox 90 by 66
#CLL state-numbering golly
x = 90, y = 66, rule = LifeHistory
45.2A11.A27.2A$44.B2AB9.A.A26.A$45.3B9.A.A2.2A3.A15.BA.A$44.B.B9.
2A.2A2.A2.A.A14.B2A$44.5B8.B2.A.A3.A.A12.3B4.2A$44.6B6.2ABA2.4A.A
12.4B4.A$44.8B4.2A.A.A3.A13.4B2.BA.A$45.13B2.A.AB2.A4.A6.6B.B2A$
43.13B5.A.A2B.A3.3A4.8B$42.15B5.A2B.2A6.A3.8B$42.15B4.3B9.2A2.9B$
41.10B2A5B.B.2B10.13B$41.9B4A16B5.11B$40.9B2ABABA16B3.12B$39.11B3A
BA16B2.13B$38.2AB3.8B2A17B.11B$37.A2.A4.7BA29B$36.A.2A5.6B3.B2.2B
2.21B$36.A7.6B14.19B$35.2A6.9B11.19B$42.4B4.2A11.19B$41.4B5.A11.
19B$40.4B7.3A5.2B.12B.8B$39.4B10.A4.2A3B2A8B3.7B$20.2A16.4B16.2AB.
B2A7B5.4B.B2A$21.A6.2A7.6B16.B.10B5.B2A2B.BA.A$21.A.AB.2B2AB5.10B.
B16.6B7.2A6.A$22.2AB.4B5.7B2AB.B2A16.4B16.2A$24.7B3.8B2A3B2A4.A10.
4B$24.8B.12B.2B5.3A7.4B$26.19B11.A5.4B$25.19B11.2A4.4B$25.19B11.9B
6.2A$24.19B14.6B7.A$25.21B2.2B2.B3.6B5.2A.A$25.37B4.A2.A$24.11B.
27B3.B2A$21.13B2.16B2A14B$21.12B3.16B2A13B$21.11B5.29B$21.13B10.2B
.B.17B$21.9B2.2A9.3B4.15B$21.8B3.A6.2A.2BA5.15B$21.8B4.3A3.A.2BA.A
5.13B$19.2AB.6B6.A4.A2.BA.A2.13B$18.A.AB2.4B13.A3.A.A.2A4.8B$18.A
4.4B12.A.4A2.AB2A6.6B$12.2A3.2A3.4B12.A.A3.A.A2.B8.5B$11.B2AB6.4B
13.A.A2.A2.2A.2A9.B.B$11.4B5.4B15.A3.2A2.A.A9.3B$12.2B5.4B3.2A19.A
.A9.B2AB$4.A7.4B2.4B3.B2A2B18.A11.2A$3.A.A5.5B.4B5.4B$4.A.14B6.4B$
5.14B6.B3A$5.14B6.2B2A$5.15B4.2A2B$4.3B2A12B3.3AB$4.3B2A14B.BABAB$
2.2AB.11B2.5B2.2A$.A.AB2.8B5.4B$.A5.10B4.4B$2A5.B.B5.2A5.4B$8.3B4.
A7.3BA$7.B2AB5.3A5.3BA$8.2A8.A6.3AB!
