#CSYNTH guntrue_1134 costs 2808 cells.
#C period 1134 fullperiod 1134 bbox 54 by 52
#CLL state-numbering golly
x = 54, y = 52, rule = LifeHistory
9.A$9.3A$3.2A7.A$2.A2.A.3A2.A$.A2.2A.A2.A.A.2A$2.2A2.B.2BABA2.A$4.
AB3AB3.A$4.A2.A.2B2A$5.A.2B2A$2.4A.AB3.3A29.A$.A4.A.5A2.A26.3A$2.
3A.BA.A4.A26.A7.2A$4.A.A3B.3A27.A2.3A.A2.A$4.B2AB2ABA26.2A.A.A2.A.
2A2.A$5.6A27.A2.AB2AB.A2.2A$7.3AB29.A3.2AB3A$2A6.4B29.2ABA.B2.A$.A
4.7B30.2ABA.A$.A.A10B25.3A3.BA.4A$2.2A11B8.A14.A2.5A.A4.A$4.12B7.
3A12.A5.B.BA.3A$3.9B.BABA9.A9.2A.4A.4B.A$3.10B.B2AB7.2A10.A.A2.A4B
2AB$4.10B.A3B6.5B7.A5.5AB$3.4B2A6B.4B7.2B2A3.BA.A5.4B$2.4BA2BA5B2.
4B5.3B2AB2.B2A5.4B6.2A$.2A6BA5B3.4B4.10B5.7B4.A$.2AB.B3A6B4.4B2.
10B5.10BA.A$2.B3.8B6.4B2.9B4.11B2A$8.6B7.13B4.4B3A5B$8.5B9.12B3.4B
.A2BA5B$9.4B.A8.10B3.4B.5BA4B$7.4B2.A2BA7.7B2.B.4B.4B2A4B$7.2A4.A
2BA8.13B.2B2A2BA5B$8.A6.A3.A6.11B2.3B2A8B$5.3A11.3A4.2BA7B3.4BA7B
2A$5.A16.A4.9B3.10B.B2A$21.2A5.2BABA4B3.8B3.B$21.5B.3B3A3B4.6B$12.
2A9.3B2.2B2A3B6.5B$11.A.A8.13B4.B.4B$11.A8.B.13B2.B3A2.4B$8.2A.AB.
B3.BA15B2.3AB4.2A$9.A.A.2AB.3A9B2.3B4.B6.A$9.A.A.2A2B2A10B17.3A$8.
2A.A2.5BA9B19.A$8.A2.4A3BA8B.B2A$9.2A2.BAB.BA8B.BA.A$11.2A6.7B5.A$
11.A7.2B.3BA5.2A$13.A9.3BA$12.2A10.3AB!
