#CSYNTH guntrue_235 costs 4047 cells.
#C period 235 fullperiod 235 bbox 71 by 57
#CLL state-numbering golly
x = 71, y = 57, rule = LifeHistory
34.A11.2A$33.A.A9.B2AB$25.A3.2A2.A.A9.3B$24.A.A2.A2.2A.2A9.B.B$24.
A.A3.A.A2.B8.5B$25.A.4A2.AB2A6.6B$27.A3.A.A.2A4.8B$26.A2.BA.A2.13B
$25.A.2BA.A5.13B$3.A21.2A.2BA5.15B$2.A.A6.A17.3B4.4BABA8B$2.A.A6.
3A16.2B.B.3BA2B2A9B$.2A.2A8.A8.14B3A12B$4.B8.2A7.31B$.2AB2AB6.5B.B
2.32B$2.A.2AB.B6.6B.27B3.B2A$A5.4B4.34B4.A2.A7.A$2A4.26B2.2B2.B2.
7B5.2A.A4.3A$4.25B13.7B7.A3.A$4.2A21B15.8B6.3A2.5A$4.2A20B17.2B2.
4B8.2A5.A$7.19B16.2A4.4B6.A3.2A.A2.2A$7.11B2.8B14.A6.4B5.A.2A.A.2A
.A$7.10B5.B3.2A16.A5.4B5.A.B.A2.B.A$4.2A2.11B7.A16.2A6.4B5.2AB2ABA
.2A$A3.A3.5B4.2A8.3A22.4B6.BA2B2.A$3A.A.8B3.A11.A23.4B6.A.AB.A$3.
2A.2A7B3.3A33.4B4.2A.A.2A.A$2A3.A.BA3.4B4.A29.A4.4B3.AB.A3.2A$A.2A
.A.2A4.4B33.3A3.7B2A.2A$2.A.BA.A6.4B23.A11.A3.8B.A.3A$2.A2.2BAB6.
4B22.3A8.2A4.5B3.A3.A$.2A.AB2AB2A5.4B7.2A15.A7.11B2.2A$2.A.B2.A.B.
A5.4B6.A15.2A3.B5.10B$2.A.2A.A.2A.A5.4B6.A14.8B2.11B$.2A2.A.2A3.A
6.4B4.2A16.19B$4.A5.2A8.4B2.2B17.20B2A$5.5A2.3A6.8B15.21B2A$10.A3.
A7.7B13.25B$7.3A4.A.2A5.7B2.B2.2B2.26B4.2A$7.A7.A2.A4.34B4.4B5.A$
16.2AB3.27B.6B6.B.B2A.A$17.32B2.B.5B6.B2AB2A$7.2A9.31B7.2A8.B$6.A.
A10.12B3A14B8.A8.2A.2A$6.A7.2A3.9B2A2BA3B.B.2B16.3A6.A.A$7.4A3.A5.
8BABA4B4.3B17.A6.A.A$5.A.A3.A4.A3.15B5.A2B.2A21.A$4.A.A2.B2AB2.2A
4.13B5.A.A2B.A$.A2.A4.2B2ABA2.2A4.13B2.A.AB2.A$A.A.AB3.3BABA2BA.2B
.8B4.2A.A.A3.A$.A2.A.2B.5B.2B2AB2A6B6.2ABA2.4A.A$4.A.2A2.B2ABA2BA.
2B3.4B7.B2.A.A3.A.A$5.A2.A.A.ABA2.2A6.4B5.2A.2A2.A2.A.A$3.A.A2.2A.
A3.2A9.3BA5.A.A2.2A3.A$3.2A6.A.2A2.4A6.3BA4.A.A$11.2A.A2.A2.A7.3AB
4.A!
