#CSYNTH guntrue_1002 costs 5070 cells.
#C period 1002 fullperiod 1002 bbox 78 by 65
#CLL state-numbering golly
x = 78, y = 65, rule = LifeHistory
10.2A$9.B2AB$9.3B$2A8.B.B$.A6.5B$.A.AB2.6B$2.2AB2.11B$4.14B2A$3.
15B2A3B5.2A$4.20B4.A$2.2AB.20BA.A$.A.AB2.19B2A3.2A16.2A$.A5.19B6.A
17.A12.2A$2A5.19B5.A18.A.AB9.2A$5.21B5.2A18.2AB.B.3B$3.23B6.B20.7B
3.4A.2A$2.2B2A20B6.3B18.7B2.A3.A.A2.2A$2.2B2A21B4.6B16.7B.2BAB3.A
3.A$3.25B2.10B11.10BABAB2.A.3A$3.26B.11B3.2B2.13B2A2B2.A.A$5.29B2A
28B.2A.B$5.29B2A26B4.A.AB6.2A$4.56B6.A.2B2A5.A$4.56B7.2A.2BA.3A$4.
57B11.2B.A$4.22B5.14B.4B8.4B10.AB.AB$6.19B7.7B.B4.4B10.4B10.3AB$6.
18B9.4B7.4B12.4B11.2A$6.9B.7B11.4B5.4B14.4B11.AB$7.8B4.6B10.3BA3.
4B16.4B5.B2.BA.A$6.9B8.2A11.B2AB.4B18.4B3.3B.B2A$5.10B8.A13.ABA4B
20.4B.6B$2.B.12B8.3A11.5B22.10B$.2A13B10.A11.5B23.5B2A2B$.2A12B22.
7B23.3BA2BA$2.B2.9B2A20.4B.4B21.4BABAB$4.2B2.5BA2BA2.2A14.4B3.4B
19.6BAB$4.2AB3.2B.ABAB3.A2.A10.4B5.4B17.4B2.3B$2A.A.A8.A4B.A.A.A8.
4B7.4B15.4B3.3B2.BA$A.2A.A.A8.B2A.A2.A8.4B9.4B13.4B4.B.B.ABAB$6.2A
8.BAB.A10.4B11.4B11.4B6.BA3BA$14.A4.A10.4B13.4B9.4B7.2A.2B$14.5A3.
2A5.4B15.4B7.4B7.B2A.2A$22.A5.4B17.4B5.4B9.2A.2B$12.9A.A4.4B9.A9.
4B3.4B8.2A.2BA$12.A6.A.A4.4B10.3A8.4B.4B9.3BA$15.2A8.4B14.A8.7B8.A
2B.A$14.B2AB6.4B14.AB9.5B8.A.2A$14.4B5.4B15.A2BA7.6B7.A$15.2B5.4B
18.BA.B2.4B2A4B5.2A$7.A7.4B2.4B18.AB.3AB.2BA2BA4B$6.A.A5.5B.4B20.A
B4A4BABA3B$7.A.14B22.B3.B4.BA3B$8.14B23.ABA2BA5.5B$8.14B24.BA4B7.
2A$8.15B26.3A7.A$7.3B2A12B26.B9.3A$7.3B2A13B37.A$5.2AB.11B2.4B$4.A
.AB2.8B5.4B$4.A5.10B4.4B$3.2A5.B.B5.2A5.4B$11.3B4.A7.3BA$10.B2AB5.
3A5.3BA$11.2A8.A6.3AB!
