#CSYNTH guntrue_4373 costs 13335 cells.
#C period 4373 fullperiod 4373 bbox 127 by 105
#CLL state-numbering golly
x = 127, y = 105, rule = LifeHistory
43.2A2.A$42.A.4A$42.A$40.2A.7A$38.A2.A.A3.B2.A$38.2A2.BA.2A2.2A$
42.2AB2AB$42.5B$43.3B$42.5B$42.BA4B$40.2BABA3B6.2A$40.2BABA4B5.A$
41.2BA4B3.BA.A$40.10B.B2A$39.13B$38.14B$37.15B$36.4B2.8B$35.4B5.6B
$34.4B4.9B$33.4B5.2A4.4B$32.4B7.A5.4B$17.A13.4B5.3A7.4B$17.3A10.4B
6.A10.2B2A$20.A8.4B19.BABA$19.2A7.4B21.A3B$19.5B3.4B23.4B$10.2A9.
3B2.4B25.4B25.A11.2A$9.A.A8.9B27.4B23.A.A9.B2AB$9.A8.B.8B12.2A15.
4B10.A3.A3.2A2.A.A9.3B$6.2A.AB.B3.11B13.A.A15.4B7.3A2.A.A2.A2.2A.
2A9.B.B$7.A.A.2AB.12B15.A4.2A10.4B5.A5.A.A3.A.A2.B8.5B$7.A.A.2A14B
11.4A.2A2.A2.A9.7B.2A5.A.4A2.AB2A6.6B$6.2A.A2.5B2A8B11.A2.A.A.A.A.
2A10.9B7.A3.A.A.2A4.8B$6.A2.4A3BA2BA5B.B2A11.BABABA.A14.6B8.A2.BA.
A2.13B$7.2A2.BAB.2B2A6B.BA.A11.B2ABA.A15.5B7.A.2BA.A5.13B$9.2A6.7B
5.A12.2B.BA15.7B6.2A.2BA5.15B$9.A7.2B.4B5.2A10.3B19.6B10.3B4.15B$
11.A9.4B7.2A6.4B19.7B10.2B.B.17B$10.2A10.4B7.A6.B2A3B17.6B4.29B$
23.4B6.A.AB3.B2A3B17.7B2.16B2A13B$24.4B6.2AB.10B15.7B2.16B2A14B$
25.4B7.13B13.9B.27B3.B2A$26.4B6.14B12.36B4.A2.A$27.4B5.15B6.B4.20B
2.2B2.B3.6B5.2A.A$28.4B6.8B2.4B4.2AB.19B14.6B7.A$29.4B5.6B5.4B3.2A
19B14.9B6.2A$30.4B3.9B4.4B3.B.17B15.2A4.4B$31.4B.4B4.2A5.4B5.17B
15.A5.4B$32.7B5.A3.A3.4B4.17B12.3A7.4B$33.5B7.4A4.4B3.15B.B2A10.A
10.4B$33.5B16.4B2.12B4.BA.A21.4B$32.7B4.4A8.15B9.A22.4B$31.4B.4B3.
A2.3A7.15B8.2A22.4B$30.4B3.4B8.A7.14B33.4B$29.4B5.4B6.A.A7.12B35.
4B$28.4B7.4B5.A.AB7.10B37.4B$27.4B9.4B5.A3B7.9B38.4B$26.4B11.4B6.
4B5.9B39.4B10.2A$25.4B13.4B5.6B5.6B41.4B9.A$24.4B15.4B4.7B.2B2.5B
42.4B10.A$23.4B17.4B2.8B.9B36.2A5.4B5.5A$22.4B19.24B36.A5.4B4.A$
21.4B21.24B35.A.AB.7B2.B3A$20.4B22.19B2.4B35.2AB.7B3.2B.A$19.4B23.
18B4.4B36.12B4A$18.4B24.16B7.4B35.7B2A3BAB2.2A$17.4B23.2AB.13B9.4B
34.7B2A2B.B3A2.A$16.4B23.A.AB2.11B11.4B33.10B3.B.A.2A$3.2A10.4B24.
A5.10B13.4B31.8B8.A$4.A9.4B24.2A5.2B2A6B14.4B29.9B7.2A$2.A10.4B31.
3B2A6B15.4B27.4B2.3B$2.5A5.4B5.2A26.10B16.4B25.4B3.5B$7.A4.4B5.A
27.8B.B2A.A13.4B23.4B7.2A$4.3AB2.7B.BA.A26.7B3.B2AB3A12.4B21.4B8.A
$3.A.2B3.7B.B2A27.6B6.B4.A12.4B19.4B10.3A$3.4A12B30.6B4.2A.3A14.4B
10.A6.4B13.A$.2A2.BA3B2A7B30.5B4.A2.2A17.4B7.3A5.4B$A2.3AB.2B2A7B
29.8B.A.A21.4B5.A7.4B$2A.A.B3.10B20.A8.8BA.A.2A.A18.4B4.2A5.4B$3.A
8.8B19.3A6.6B.2BAB.A.2A19.9B4.4B$3.2A7.9B21.A4.7B2.2B2.A23.6B5.4B$
13.3B2.4B19.2A4.7B3.B.2A23.8B2.4B$11.5B3.4B18.4B.8B2.A.A2.2A19.15B
$11.2A7.4B19.11B2.2A2.A2.A18.14B$12.A8.4B17.12B7.2A19.13B$9.3A10.
4B16.12B26.2AB.10B$9.A13.2B2A15.11B26.A.AB3.B2A3B$24.BABA13.9B12.
2A15.A6.B2A3B$25.A3B9.2B.10B11.A15.2A6.4B$26.4B7.16B.B4.BA.A24.3B$
27.4B3.23B2.B2A26.2B.BA$28.32B27.B2ABA.A$29.32B25.BABABA.A$30.3BAB
A25B23.A2.A.A.A.A.2A$31.3B2A6BA18B23.4A.2A2.A2.A$33.B2A5BA19B27.A
4.2A$34.17B5.B.4B24.A.A$34.5BA8B11.4B23.2A$34.4BA2BA6B12.4B$38.ABA
4.2B14.4B$39.A6.2B14.3BA$45.B2AB14.3BA$46.2A16.3AB!
