#CSYNTH guntrue_4860 costs 2898 cells.
#C period 4860 fullperiod 4860 bbox 69 by 42
#CLL state-numbering golly
x = 69, y = 42, rule = LifeHistory
31.A2.2A23.A2.2A$31.4A.A22.4A.A$36.A27.A$29.7A.2A18.7A.2A$28.A2.B
3.A.A2.A15.A2.B3.A.A2.A$28.2A2.2A.AB2.2A15.2A2.2A.AB2.2A$31.B2AB2A
22.B2AB2A$32.5B23.5B$33.3B25.3B$10.2B20.5B23.2A3B$8.6B17.4BAB22.B
2AB2A$6.2A6B2A7.2A6.3BABA2B12.2A6.2ABA4B$4.A4BA2BA4BA6.A5.4BABA2B
13.A5.9B$3.BA4BA2BA4BAB5.A.AB3.4BA2B14.A.AB3.7B$4.A4BA2BA4BA7.2AB.
10B14.2AB.10B$6.2A6B2A11.13B15.13B$8.6B13.14B14.13BA$2A8.2B.2B12.
15B10.A2.11BABA$A.A7.2BABA14.8B2.4B7.3A4.8B2.2A$.AB2.6BA2BA3B.B9.
6B5.4B5.A7.6B5.B$2.9BA2BA8B5.9B4.4B4.2A5.9B$2.8BA3BA9B3.4B4.2A5.9B
4.4B4.2A$.8BA3BA11B.4B5.A7.6B5.4B5.A$.9BA14B2A2B7.3A4.8B2.4B7.3A$
24BABAB10.A2.15B10.A$5B.2B2.B2.2B2.2B5.2BA14.14B$2.2B5.3B12.4B7.2A
4.13B$9.B2AB10.5B8.A2.2AB.10B$10.2A10.7B.B2A.A.A.A.AB3.4BA2B$20.9B
.B2AB2A2.A5.4BABA2B$20.6B2A3B.B5.A6.3BABA2B$21.B5A2B.B2A.4A7.4BAB$
22.4A3B3.A.A11.5B$18.AB2.B2A6B.A2.A11.3B$17.A.A3B4.2B2A.A.2A10.5B$
13.B3.2A2BAB3.BA2.A.A12.B2AB2A$12.2AB3.2B2AB4.2A.A.A9.2A2.2A.AB2.
2A$13.2A.B2AB.AB6.A.A10.A2.B3.A.A2.A$13.2A3BA.2AB.A4.A13.7A.2A$14.
2AB.2BAB.A.A2.2A20.A$13.A.A3.A4.A20.4A.A$13.2A30.A2.2A!
