#CSYNTH guntrue_4128 costs 3096 cells.
#C period 4128 fullperiod 4128 bbox 72 by 43
#CLL state-numbering golly
x = 72, y = 43, rule = LifeHistory
8.A2.A3.2A21.2A2.A$8.6A2.A20.A.4A$6.2A6.2A21.A$5.A2.AB2ABA2.3A16.
2A.7A$4.A.2AB.2A.B2A2.A14.A2.A.A3.B2.A$4.A.A2.4A2.A.A15.2A2.BA.2A
2.2A$3.2A.3A4B3A.2A18.2AB2AB$4.A.A2.4B2.A.A19.5B$4.A.A3.2A3.A.A20.
3B$5.A4.2B4.A20.5B5.2A$11.B25.BA4B3.A2.A$10.2AB22.2BABA3B3.A.A.2B$
9.A2BAB5.2A14.2BABA4B3.A.2AB$7.3B2A3B4.A16.2BA4B5.3AB$7.8B.BA.A15.
10B3.B2A$6.9B.B2A15.14B$5.B2A9B16.15B$4.BA2BA8B15.15B$5.B2A9B3.A
10.4B2.8B5.2A$7.10B3.3A7.4B5.7B4.A.A.2A$9.7B7.A5.A3B4.9B6.A.A.A7.A
$9.8B5.2A4.A3B5.2A4.4B4.AB.A2.A5.A.A$8.5B.4B4.9B7.A5.4B2.B2AB.2A5.
2BAB$8.6B.4B5.4BA2B4.3A7.4B2.4B8.2B$7.6B3.4B2.6BAB5.A10.2B2A.4B7.
3A$3.B2.3BA3B4.11BABAB8.2A5.3A6B5.4B$.7BABA2B5.10BABA2B8.A5.BABA7B
3.A4BA$.7BABA2B6.10BA3B8.A.AB.B4A10B3A2BA$9BA3B7.10B3.B2A6.2AB.B3A
B2A6B2A6B$11B.B2A6.2BA4B5.3AB7.2BA2BABA2BA2BA2BA3B2A2B$.9B2.BA.A4.
2BABA4B3.A.2AB7.2BA2BA2BABA2BABA2BA2BA2B$.7B7.A4.2BABA3B3.A.A.2B7.
2B2A3BA2BA2BA2BABA2BA2B$2.6B7.2A5.BA4B3.A2.A10.6B2A6B2AB3AB.B2A$3.
4B15.5B5.2A11.A2B3A10B4AB.BA.A$4.4B15.3B19.A4BA3.7BABAB5.A$5.4B13.
5B20.4B5.6B3A5.2A$6.4B12.2AB2AB19.3A7.4B.2A2B$7.4B11.BA.2A2.2A16.
2B8.4B2.3B$8.4B6.2A.A.A3.B2.A15.BA2B5.2A.B2AB3.B2A$9.4B5.A.2A.7A
16.A.A5.A2.A.BA4.BA.A$10.3BA8.A24.A7.A.A.A8.A$11.3BA7.A.4A28.2A.A.
A6.2A$12.3AB7.2A2.A32.2A!
