#CSYNTH guntrue_1982 costs 9522 cells.
#C period 1982 fullperiod 1982 bbox 138 by 69
#CLL state-numbering golly
x = 138, y = 69, rule = LifeHistory
68.2A$68.A.A47.2A$44.2A24.A4.2A40.B2AB$43.A.A20.4A.2A2.A2.A32.B6.
2B$37.2A4.A22.A2.A.A.A.A.2A31.3B4.2B$35.A2.A2.2A.4A20.BABABA.A30.
14B$35.2A.A.A.A.A2.A21.B2ABA.A30.14B$38.A.ABABAB24.2B.BA31.17B5.B$
38.A.AB2AB24.3B33.25B$39.AB.2B16.2A6.4B31.29B$42.3B16.A6.B2A3B28.
30B.B$33.A8.4B6.2A7.A.AB3.B2A3B27.32B2A$31.3A6.3B2AB6.A9.2AB.10B
24.33B2A$30.A9.3B2AB3.BA.A11.13B22.4B3.28B$29.A.A6.10B.B2A12.14B
20.4B7.16B.B4.3B$28.BA.A5.13B14.15B18.4B9.2B.10B$27.3BA5.14B16.8B
2.4B16.4B13.9B$25.4B6.15B16.6B5.4B14.4B15.11B$23.6B5.4B2.8B17.9B4.
4B12.4B16.12B$22.7B4.4B5.6B16.4B4.2A5.4B10.4B17.12B7.2A$15.B.4B.8B
2.4B4.9B14.4B5.A7.4B8.4B19.11B2.2A2.A2.A$14.2AB.17B5.2A4.4B12.4B7.
3A5.4B6.4B18.4B.8B2.A.A2.2A$14.2A18B7.A5.4B10.4B10.A6.4B4.4B19.2A
4.7B3.B.2A$15.2B.16B4.3A7.4B8.4B19.4B2.4B21.A4.7B2.2B2.A$18.16B4.A
10.4B6.4B21.8B19.3A6.6B.2BAB.A.2A$19.15B16.4B4.4B23.6B20.A8.8BA.A.
2A.A$20.12B.B2A15.4B2.4B25.4B30.8B.A.A$20.11B2.BA.A15.8B25.6B30.5B
4.A2.2A$16.2A3.10B5.A16.6B25.8B29.6B4.2A.3A$17.A3.6B2A2B5.2A16.4B
25.4B2.4B27.6B6.B4.A$16.A4.6B2A3B21.3A3B23.4B4.4B26.7B3.B2AB3A$16.
2A3.10B21.3BA4B21.4B6.4B26.8B.B2A.A$19.2AB.8B20.3BA2.4B19.4B8.4B
25.10B$16.2AB2AB3.7B18.4B4.4B6.A10.4B10.4B23.3B2A6B$17.A.B6.6B17.
4B6.4B5.3A7.4B12.4B16.2A5.2B2A6B$15.A3.2A4.6B17.4B8.4B7.A5.4B14.4B
16.A5.10B$15.4A2.A.8B16.4B10.4B5.2A4.4B16.4B15.A.AB2.11B$18.A.A.A
9B14.4B12.4B4.9B18.4B15.2AB.12B$15.2A.A.BA2B.7B8.A4.4B14.4B5.6B20.
4B16.15B$16.A.A2.2B3.6B6.3A3.4B16.4B2.8B21.4B10.A4.16B$15.A2.2A.B
4.7B4.A5.4B18.15B20.4B7.3A4.16B.2B$15.A.A2.A.A3.7B4.2A3.4B20.14B
21.4B5.A7.18B2A$16.A.A2.2A3.8B.4B2.4B22.13B22.4B4.2A5.17B.B2A$17.A
8.11B3.4B24.10B.B2A21.9B4.4B2.8B.4B.B$26.12B.4B27.3B2AB3.BA.A21.6B
5.4B4.7B$26.16B28.3B2AB6.A21.8B2.4B5.6B$16.A10.14B31.4B6.2A18.15B
6.4B$16.3A11.10B32.3B27.14B5.A3B$19.A9.12B28.AB.2B28.13B5.A.AB$18.
2A6.16B26.A.AB2AB25.2AB.10B6.A.A$12.2A4.24B6.A19.A.ABABAB23.A.AB3.
B2A3B9.A$11.B2AB5.23B3.3A16.2A.A.A.A.A2.A21.A6.B2A3B6.3A$11.4B4.
24B2.A19.A2.A2.2A.4A20.2A6.4B8.A$12.2B5.24B.B.A20.2A4.A33.3B$4.A7.
4B2.27B2A26.A.A32.2B.BA$3.A.A5.5B.4B.22BA2.2A25.2A31.B2ABA.A$4.A.
14B3.2B7.B3.2B3.3B3A2.A56.BABABA.A$5.14B3.2BAB5.3B.4B3.2B4.A55.A2.
A.A.A.A.2A$5.14B4.A.A4.B2AB.B2AB5.4A56.4A.2A2.A2.A$5.15B4.A6.2A3.
2A7.A62.A4.2A$4.3B2A12B22.A62.A.A$4.3B2A13B21.2A61.2A$2.2AB.11B2.
4B$.A.AB2.8B5.4B$.A5.10B4.4B$2A5.B.B5.2A5.4B$8.3B4.A7.3BA$7.B2AB5.
3A5.3BA$8.2A8.A6.3AB!
