#CSYNTH guntrue_4788 costs 3834 cells.
#C period 4788 fullperiod 4788 bbox 71 by 54
#CLL state-numbering golly
x = 71, y = 54, rule = LifeHistory
8.2A.2A2.2A$4.2A.A.A.A2.A2.A$3.A2.2A.A2.3A.2A$2.A.A3.AB2A4.A$2.A2.
3A3.B.2AB2.A$.2A4.B3AB2A2B.4A$7.2A.2B3.2B4.A$.4A4.AB.4A.3A2.A$.A3.
A3.2AB.2B.2B2.2A$3.BA.AB2AB.4B.B2A$3.AB.ABAB7A.2A3.2A9.2A$3.BAB6.
4A.A.3A2.A8.A.A$4.A8.2B3.BA.2A6.2A2.A$13.2B4.A9.A.A.2A$6.B3.A4B5.
3A8.A.B.B$4.4BA3BA3B6.A8.AB2AB$4.9BA2B10.A.2A.A.BAB.5B$.B.3B2A5B2A
2B.B7.2A.A.B2A3BA6B$2A4BA8BA4B9.A.5B3A9B13.A2.2A$2A4BA4BABA7B8.2A
4BA2B2A5B2A2B12.4A.A$.6B3A3BA2BA4B9.B.13B2A2B17.A$.4B2.3B.BA2B2A5B
10.2B2A4B.4B2A2B10.7A.2A$7.5B3A4BA4B8.2B2A13B.B7.A2.B3.A.A2.A$9.4B
A4B3A5B6.2B2A5B2A2BA4B2A6.2A2.2A.AB2.2A$11.5B2A2BAB.3B4.12B3A5B.A
2.A6.B2AB2A$12.4BA2BA3B3A8B3.6BA3B2AB.A.A.A6.5B$12.7BABA4BA8B4.5B.
BAB.A.2A2.A7.3B$13.4BA8BA9B9.B2ABA5.A.2A3.2A3B$14.B.2B2A5B2A4B2.4B
8.B.B.A4.2A.2A2.B2AB2A$17.2BA11B3.4B8.2A.A.A2.A6.2ABA4B$11.2A4.3BA
3BA6B4.4B8.A2.A.A.A5.9B$11.A6.4BA3.2B.2A5.4B5.A.A4.A.A.AB3.7B$5.2A
6.A4.2B9.A7.4B4.2A5.A2.2AB.10B$6.A2.4A.A3.2B10.3A5.4B8.3A4.13B$6.A
.A2.A2.A2.4A6.3A2.A6.4B6.A7.13BA$5.2A.2A.2BAB8A4.A2.2A8.4B5.2A6.
11BABA$5.A2.A.2AB2.B.4B.BAB3.2A11.4B.5B8.8B2.2A$7.2A.A2.ABAB.2B.B
3AB3.A.3A8.2B2A3B10.6B5.B$8.A2.A.A.2B4A.BA.2A2.A.A2.A3.2A3.B2A4B8.
9B$6.A3.2A.A.A2.B2.2B.2B2.2A3.A.A2.A4.7BAB5.4B4.2A$6.2A4.2B4A.3ABA
.2B3.3A2.A4.A.7BABAB3.4B5.A$12.2BA3.5A2.5A5.2A2.2A8B2A3B.4B7.3A$6.
2A2.BAB4A2B.A6.A2.B4A3.A3.16B10.A$6.A.BA.A3.AB.A2B.B5.2A.B3.3A.2A
16B$7.A2B.A4.2B2.4AB3.2B2.ABA2.A.A.AB.12B$9.2A4.ABA4.3AB2.ABA.B.A
5.AB3.10B$16.A7.A4.BAB2A12.9B2.2A$44.5B5.BA2.A$44.2A8.B3A$45.A6.A$
42.3A7.4A$42.A12.A$54.A$54.2A!
