#CSYNTH guntrue_1913 costs 14170 cells.
#C period 1913 fullperiod 1913 bbox 130 by 109
#CLL state-numbering golly
x = 130, y = 109, rule = LifeHistory
55.2A$51.2A.A.A9.A$52.A.A9.3A$52.A.2A7.A$49.2A.A.4B5.2A40.2A$49.A
2.4A4BA4B3.2A34.B2A2B$50.2A2.BA3BABAB5.A.A34.4B$52.3A.2BA2BA2B.BA.
A.3A21.A11.4B3.3B$52.A4.2B2A3B.B2A5.A20.3A8.4B4.5B$50.A.A4.9B6.2A
12.A10.A6.14B$50.2A5.9B6.4B10.3A7.2AB5.14B$57.9B8.3B12.A6.5B3.16B$
56.9B2.B2.3B.4B10.2A8.5B.16B$55.30B3.4B2A4.22B$54.14B2A16B4.2B2A4.
23B$53.15B2A16B2.7B2.24B4.3B$52.34B.7B3.24B.7B$51.4B2.38B2.23B.B2A
5B$50.4B6.B.B.5B3.2B2.19B.25BA2BA5B$49.4B6.2BA2B.B13.43B2A6B$48.4B
7.BABAB17.48B$47.4B3.2A3.BABAB3.2A13.36B.6B.2B$46.4B4.A.BA3BA3BAB.
A12.35B2.8B.B$45.4B6.3AB.3B.B3A13.7B.26B4.6B.B2A$44.4B9.3B.B.3B13.
2AB.3B4.25B8.B3.A.A$43.4B6.7AB.B7A8.A.AB9.25B12.2A$42.4B7.A2.B2.BA
.AB2.B2.A8.A10.5B2.19B4.B$41.4B9.A.A.2A3.2A.A.A8.2A10.2A6.20B.B2A$
40.4B11.2A.A5.A.2A18.A3.A6.22B2A$39.4B17.A.A23.4A6.24B$38.4B17.2A.
2A31.25B$37.4B45.2A6.24B$36.4B45.B2AB4.22B.B$35.4B47.3B3.10B.12B$
34.4B47.B.B3.8B5.11B$33.4B47.14B9.7B$32.4B46.15B9.8B5.2A$31.4B46.
15B9.8B6.A$30.4B45.16B11.8B2.BA.A$29.4B45.16B11.10B.B2A$28.4B45.
16B12.12B$27.4B44.17B2.B10.12B$26.4B44.23B6.2AB2.9B$25.4B44.6B2A
17B4.A.AB2.8B$24.4B43.8B2A16B5.A4.8B2.2B$23.4B35.2A7.27B3.2A4.8B.
4B$22.4B37.A6.28B8.14B$21.4B38.A.AB.28B10.11B2AB$20.4B40.2AB.28B
10.11B2A2B$19.4B43.24B2.B.B12.14B$18.4B44.23B2.3B15.11B$17.4B45.
23B2.B2AB13.13B$16.4B47.21B4.2A13.14B$15.4B49.16B.B.B2A17.14B$4.A
9.4B51.16B2.BA.A9.A7.13B$4.3A6.4B52.11B2.2B6.A9.3A3.14B$7.A4.4B53.
10B11.2A11.A2.9B$6.2A3.4B8.2A45.9B23.A2.10B$6.8B8.A.A46.7B19.2A3.
2A11B$2.2A4.5B5.2A2.A47.4B.B21.A2.2A2.11B$.A.BAB.5B6.A.A.2A45.4B
25.2A2.2A10B$.A.2AB2.5B6.2A.A2.A42.4B28.A.A.B.8B$2A.B.B3.5B3.3B.B
2.2A41.4B29.A2.A3.6B$A2.2A2B2.5B3.4B45.4B31.2A5.4B$.2A2.AB.13B.B
42.4B28.2A8.4B$3.2ABA13B.B2A40.4B28.B2AB6.4B$.2A2.A5BA10B2A39.4B
29.4B5.4B$A2.A2.4BABA7B.2B39.4B31.2B5.4B$.2A3.4BABA7B41.4B24.A7.4B
2.4B$7.4BA7B41.4B24.A.A5.5B.4B$9.9B3.2A36.4B26.A.14B$6.B.10B.B2.A
35.4B28.14B$5.2A12B3A35.4B29.14B$5.2AB.8B.BA36.4B30.15B$6.B3.6B4.
2A33.4B30.3B2A12B$11.4B6.A32.BA2B31.3B2A13B$12.4B4.A32.2A2B30.2AB.
11B2.4B$13.4B3.2A30.2B2A30.A.AB2.8B5.4B$14.4B33.4B31.A5.10B4.4B$
15.4B31.4B31.2A5.B.B5.2A5.4B$16.4B29.4B40.3B4.A7.4B$17.4B27.4B40.B
2AB5.3A5.4B$18.4B25.4B42.2A8.A6.4B$19.4B23.4B61.4B$20.4B21.4B63.4B
$21.4B19.4B65.4B$22.4B6.A10.4B67.4B$23.4B5.3A7.4B69.4B$24.4B7.A5.
4B71.4B$25.4B5.2A4.4B73.4B$26.4B4.9B75.4B$27.4B5.6B77.4B$28.4B2.8B
78.4B$29.15B77.4B$30.14B78.4B$31.13B79.4B$32.10B.B2A78.4B$34.3B2AB
3.BA.A78.4B$34.3B2AB6.A79.3BA$36.4B6.2A79.ABA$36.3B89.2A$33.AB.2B
91.B$32.A.AB2AB$32.A.ABABAB$29.2A.A.A.A.A2.A$29.A2.A2.2A.4A$31.2A
4.A$37.A.A$38.2A!
