#CSYNTH guntrue_3870 costs 3526 cells.
#C period 3870 fullperiod 3870 bbox 86 by 41
#CLL state-numbering golly
x = 86, y = 41, rule = LifeHistory
13.2A5.2B55.B$13.A.A2.B2AB54.3A$14.A8B54.2A$9.A6.7B53.B2ABA$8.BAB
5.6B55.A.3B.2A$8.3B4.B3A2B57.A2B3A.A$7.2BA2B3.B3A3B57.AB4.A$7.BABA
B3.BA5B38.A20.4A$6.7B2.6B2.B36.3A17.2A.B$6.2B3A2B2.2BA3B.B2A38.A
16.2A.2B$5.10B3A5B2A37.2A17.B3A$5.10B2A4B.2B38.4B17.2B$6.2B3A2B.BA
5B43.5B.B3.B9.BA$6.16B23.A9.3B4.17B3.BA.A$7.BABAB.9B21.3A9.3B3.20B
.B2A$7.2BA2B3.6B21.A11.12BA16B$8.3B4.6B21.2A8.14B2A15B$8.BAB4.7B
18.4B8.13BA2BA14B$9.A5.B2A4B18.2B10.14B2A14B$15.2BA3B15.8B4.35B$
16.2BA3B7.2A3.11B2.27B2.6B$16.2BA3B6.B2AB2.20B.17B6.3B$12.2A2.2AB
2AB6.3B3.28B2.6B$11.B2AB2.BA2B4.2B2.B4.27B4.4B$11.4B3.4B.18B2A14B$
12.2B5.21BA2BA13B$4.A7.4B2.23B2A14B$3.A.A5.5B.25BA12B$4.A.14B3.25B
3.3B$5.14B9.B.17B4.3B$5.14B15.5B.5B$5.15B16.B6.4B$4.3B2A12B14.B9.
2A$4.3B2A13B12.BAB8.A$2.2AB.11B2.4B11.2A.2A7.3A$.A.AB2.8B5.4B9.B5A
9.A$.A5.10B4.4B9.2A.B$2A5.B.B5.2A5.4B8.BA$8.3B4.A7.3BA6.2B$7.B2AB
5.3A5.3BA5.ABA$8.2A8.A6.3AB5.A!
