#CSYNTH guntrue_3389 costs 14430 cells.
#C period 3389 fullperiod 3389 bbox 130 by 111
#CLL state-numbering golly
x = 130, y = 111, rule = LifeHistory
35.2A2.A$34.A.4A$34.A$32.2A.7A$30.A2.A.A3.B2.A$30.2A2.BA.2A2.2A$
34.2AB2AB$34.5B$35.3B$34.5B$34.BA4B$32.2BABA3B6.2A$32.2BABA4B5.A$
33.2BA4B3.BA.A$32.10B.B2A$31.13B$30.14B$29.15B$28.4B2.8B$12.2A13.
4B5.6B$12.A13.4B4.9B$7.2A5.A10.4B5.2A4.4B$7.A5.2A9.4B7.A5.4B$4.2A.
A.3B11.4B5.3A7.4B$4.A2.A.2A2B2A7.4B6.A10.4B$6.2A.A.2B2AB5.4B19.4B$
9.A.4B5.4B21.4B$9.2A.4B3.4B23.4B$12.3BA6B25.4B$3.2A7.2BABA4B27.4B$
3.A8.3BA4B29.4B25.A11.2A$2A.A.B3.10B31.4B23.A.A9.B2AB$A2.3AB.2B2A
7B15.2A15.4B10.A3.A3.2A2.A.A9.3B$.2A2.BA3B2A7B15.A.A15.4B7.3A2.A.A
2.A2.2A.2A9.B.B$3.4A12B17.A4.2A10.2B2A5.A5.A.A3.A.A2.B8.5B$3.A.2B
3.7B.B2A11.4A.2A2.A2.A9.2A5B.2A5.A.4A2.AB2A6.6B$4.3AB2.7B.BA.A10.A
2.A.A.A.A.2A10.BA7B7.A3.A.A.2A4.8B$7.A4.4B5.A12.BABABA.A14.6B8.A2.
BA.A2.13B$2.5A5.4B5.2A12.B2ABA.A15.5B7.A.2BA.A5.13B$.A2.A8.4B19.2B
.BA15.7B6.2A.2BA5.15B$.2A11.4B17.3B19.6B10.3B4.15B$15.4B7.2A6.4B
19.7B10.2B.B.17B$16.4B7.A6.B2A3B17.6B4.29B$17.4B6.A.AB3.B2A3B17.7B
2.16B2A13B$18.4B6.2AB.10B15.7B2.16B2A14B$19.4B7.13B13.9B.27B3.B2A$
20.4B6.14B12.36B4.A2.A$21.4B5.15B6.B4.BA18B2.2B2.B2.7B5.2A.A$22.4B
6.8B2.4B4.2AB.A3BA14B13.7B7.A$23.4B5.6B5.4B3.2A2BABABABA10B15.8B6.
2A$24.4B3.9B4.4B3.B.B2A4B2A8B17.2B2.4B$25.4B.4B4.2A5.4B5.2B2ABA11B
15.2A4.4B$26.7B5.A3.A3.4B4.17B15.A6.4B$27.5B7.4A4.4B3.2B2A11B.B2A
15.A5.4B$27.5B16.4B2.2BABA7B4.BA.A13.2A6.4B$26.7B4.4A8.8B2A5B9.A
22.4B$25.4B.4B3.A2.3A7.6B2ABA5B8.2A22.4B$24.4B3.4B8.A7.5B2A7B33.4B
$23.4B5.4B6.A.A7.3B2A2B3A2B35.4B$22.4B7.4B5.A.AB7.3BABABA2B37.4B$
21.4B9.4B5.A3B7.3B4A2B38.4B$20.4B11.4B6.4B5.4BA4B39.4B$19.4B13.4B
5.6B5.6B41.4B$18.4B15.4B4.7B.2B2.5B42.4B$5.2A10.4B17.4B2.8B.9B43.
4B$6.A9.4B19.24B43.4B$4.A10.4B21.24B43.4B$4.5A5.4B5.2A15.19B2.4B
43.4B$9.A4.4B5.A15.19B4.4B43.4B$6.3AB2.7B.BA.A11.2A.A17B7.4B43.4B$
5.A.2B3.7B.B2A12.A.2A.15B9.4B43.4B10.2A$5.4A12B21.12B11.4B43.4B9.A
$3.2A2.BA3B2A7B22.10B3.2A8.4B43.4B10.A$2.A2.3AB.2B2A7B22.2B2A6B3.A
10.4B36.2A5.4B5.5A$2.2A.A.B3.10B21.3B2A6B4.A10.4B36.A5.4B4.A$5.A8.
8B21.10B3.2A11.4B35.A.AB.7B2.B3A$5.2A7.9B20.8B.B2A15.4B35.2AB.7B3.
2B.A$15.3B2.4B18.7B3.B2AB2A13.4B36.12B4A$13.5B3.4B17.6B6.B.A15.4B
35.7B2A3BAB2.2A$13.2A7.4B17.6B4.2A3.A14.4B34.7B2A2B.B3A2.A$14.A8.
4B16.8B.A2.4A15.4B33.10B3.B.A.2A$11.3A10.4B14.9BA.A.A19.4B31.8B8.A
$11.A13.2B2A4.A8.7B.2BAB.A.2A17.4B29.9B7.2A$26.BABA3.3A6.6B3.2B2.A
.A19.4B27.4B2.3B$27.A3B5.A4.7B4.B.2A2.A19.4B25.4B3.5B$28.4B3.2A4.
7B3.A.A2.A.A20.4B23.4B7.2A$29.4B2.4B.8B3.2A2.A.A22.4B21.4B8.A$30.
4B3.11B8.A24.4B19.4B10.3A$31.4B.12B34.4B10.A6.4B13.A$32.16B35.4B7.
3A5.4B$33.14B10.A26.4B5.A7.4B$34.10B11.3A27.4B4.2A5.4B$33.12B9.A
31.9B4.4B$32.16B6.2A31.6B5.4B$25.A6.24B31.8B2.4B$25.3A3.23B31.15B$
28.A2.24B30.14B$27.A.B.24B30.13B$27.2A27B27.2AB.10B$25.2A2.A22B.4B
25.A.AB3.B2A3B$24.A2.3A3B3.2B3.B7.2B3.4B24.A6.B2A3B$25.A4.2B3.4B.
3B5.BA2B3.4B22.2A6.4B$26.4A5.B2AB.B2AB4.A.A5.4B30.3B$28.A7.2A3.2A
6.A7.4B30.2B.BA$30.A27.4B28.B2ABA.A$29.2A28.4B26.BABABA.A$60.4B23.
A2.A.A.A.A.2A$61.4B22.4A.2A2.A2.A$62.3BA25.A4.2A$63.3BA22.A.A$64.
3AB21.2A!
