#CSYNTH guntrue_1325 costs 4968 cells.
#C period 1325 fullperiod 1325 bbox 72 by 69
#CLL state-numbering golly
x = 72, y = 69, rule = LifeHistory
49.2A.2A2.2A5.2A$49.2A.A2.A2.A.2A2.A$52.A.2A.2A.A.2A$49.2A.A2.A.B
2.A.A3.2A$49.2A.2A.A.AB2ABA.A2.A2.A$50.BAB.BA3B.6A2.3A$51.A4B.2BA
4B2.2A$51.BA2B.ABA5B.A2.A$53.A3.AB.2B4.2A$60.2B$60.B$59.B2A$51.2A
5.BA2BA6.2A$52.A4.3B2A3B4.A$52.A.AB.8B.BA.A$28.2A4.2A17.2AB.8B.B2A
$27.A.A4.A.A18.12B$27.A8.A18.12B$22.A.2A.ABA.2B.ABA.2A.A13.12B$22.
2A.A.A.A4BA.A.A.2A13.10B$27.A.A.2A.A.A19.7B$26.A2.2A2B2A2.A17.8B$
26.2ABA4.AB2A16.4B.5B$29.BA2.AB18.4B.6B$24.5A.B2.B.5A12.4B3.6B$20.
2A.A2.B2.6B2.B2.A.2A7.4B4.3BA3B2.B$21.A.2A.2B2A4B2A2B.2A.A7.4B5.2B
ABA7B$17.2A2.A3.3B.6A.3B3.A6.4B6.2BABA7B$18.A3.3A2.2A6B2A2.3A6.4B
7.3BA9B$15.3A6.A3.8B3.A7.4B6.2AB.11B$14.A3.3A9.4B12.4B6.A.AB2.9B$
13.A2.A.A2.A9.4B10.4B7.A7.7B$13.A.2A.B2A.A8.4B9.4B7.2A7.6B$12.2A2.
B.A2.A9.3B2A7.4B3.2A13.4B$11.A2.A.AB3A9.4B2AB5.4B5.A12.4B$11.A.A2.
2B3.3A5.9B3.4B6.A.AB2.B5.4B$8.2A.A.2A.AB2A3.A4.10B2.4B8.2AB.3B3.4B
$8.A.A3.B.3B.3A4.11B.4B11.6B.4B$11.3A.2B.A.A5.4B.6B.4B12.10B$4.2A
3.2A2.A4B2A5.4B3.9B13.2B2A5B$2.3A.A.A.A3.5AB4.4B4.8B3.2A10.A2BA3B$
.A4.A.A5.4B5.4B4.8B5.A10.BABA4B$A.4A2BAB6.3B3.4B5.2BA4B4.A13.BA6B$
A.A.A.3B2A6.8B6.B3A2B3.4A12.3B2.4B$.A2.2A2BABAB3.BA7B6.5BAB2.A4.A.
A9.3B3.4B$2.2A2.B3A2B3.ABA5B7.2B2AB2A2.2A2.2A.3A7.B6.4B$4.2AB.2BA
2BA2B2A5B3.2B.2B2AB2A5B3.B4.A5.4B5.4B$4.A7.3B.15B2AB2A3B3.B2AB3A5.
5A6.4B$2.A.A7.2A4.14BA2BA5B.B2A.A7.2A2B.A6.4B$2.2A8.A4.2A2B.11B3A
9B5.2A3.B.2BA7.4B$11.2A4.2A4.10B2A9B6.A4.3B2.2A6.3BA$10.B3A9.21B3.
BA.A3.2AB3A2.A6.ABA$10.BAB.A6.B.22B2.B2A4.2BA3.3A7.2A$9.A4BA5.2A
27B5.3B3A11.B$8.ABA.BA6.2A26B5.2B3A2.A$8.2A11.27B4.4AB2.2A$21.27B
3.A.2AB$25.23B4.AB$25.2A19B.B2A$22.B.B2A18B2.BA.A$21.2A8B2.11B6.A$
21.2AB.4B5.8B8.2A$22.B3.2B6.10B$27.2B7.4B.B2A.A$26.B2AB6.3B2.B2AB
3A$27.2A14.B4.A$42.2A.3A$41.A2.2A$41.2A!
