#CSYNTH guntrue_8179 costs 14896 cells.
#C period 8179 fullperiod 8179 bbox 133 by 112
#CLL state-numbering golly
x = 133, y = 112, rule = LifeHistory
37.2A2.A$36.A.4A$36.A$34.2A.7A$32.A2.A.A3.B2.A$32.2A2.BA.2A2.2A$
36.2AB2AB6.2A$36.5B8.A$37.3B7.A$36.5B6.5A$36.BA4B9.A$34.2BABA3B3.
4AB$34.2BABA4B2.A2.AB$35.2BA4B4.4B$34.15B3.2A$33.14B2A.A2.A$32.11B
A3B2A.2A$31.11BABAB.B$30.4B2.7BAB$14.2A13.4B5.7B$14.A13.4B4.9B$9.
2A5.A10.4B5.2A4.4B$9.A5.2A9.4B7.A5.4B$6.2A.A.3B11.4B5.3A7.4B$6.A2.
A.2A2B2A7.4B6.A10.4B$8.2A.A.2B2AB5.4B19.2B2A$11.A.4B5.4B21.2A2B$
11.2A.4B3.4B23.BA2B$4.2A8.3BA6B25.4B$3.A.A8.2BABA4B27.4B$3.A8.B.3B
A4B29.4B$2A.AB.B3.11B31.4B$.A.A.2AB.12B32.4B$.A.A.2A14B33.4B$2A.A
2.5B2A8B34.4B$A2.4A3BA2BA5B.B2A33.4B25.A11.2A$.2A2.BAB.2B2A6B.BA.A
33.4B23.A.A9.B2AB$3.2A6.7B5.A17.2A15.4B10.A3.A3.2A2.A.A9.3B$3.A7.
2B.4B5.2A16.A.A15.4B7.3A2.A.A2.A2.2A.2A9.B.B$5.A9.4B24.A4.2A10.4B
5.A5.A.A3.A.A2.B8.5B$4.2A10.4B19.4A.2A2.A2.A9.7B.2A5.A.4A2.AB2A6.
6B$17.4B18.A2.A.A.A.A.2A10.9B7.A3.A.A.2A4.8B$18.4B19.BABABA.A14.6B
8.A2.BA.A2.13B$19.4B19.B2ABA.A15.5B7.A.2BA.A5.13B$20.4B19.2B.BA15.
7B6.2A.2BA5.15B$21.4B17.3B19.6B10.3B4.15B$22.4B7.2A6.4B19.7B10.2B.
B.17B$23.4B7.A6.B2A3B17.6B4.29B$24.4B6.A.AB3.B2A3B17.7B2.16B2A13B$
25.4B6.2AB.10B15.7B2.16B2A14B$26.4B7.13B13.9B.27B3.B2A$27.4B6.14B
12.36B4.A2.A$28.4B5.15B6.B4.20B2.2B2.B2.7B5.2A.A$29.4B6.8B2.4B4.2A
B.19B13.7B7.A$30.4B5.6B5.4B3.2A19B15.8B6.2A$31.4B3.9B4.4B3.B.17B
17.2B2.4B$32.4B.4B4.2A5.4B5.17B15.2A4.4B$33.7B5.A3.A3.4B4.17B15.A
6.4B$34.5B7.4A4.4B3.15B.B2A14.A6.4B$34.5B16.4B2.12B4.BA.A12.2A7.4B
$33.7B4.4A8.15B9.A22.4B$32.4B.4B3.A2.3A7.15B8.2A22.4B$31.4B3.4B8.A
7.14B33.4B$30.4B5.4B6.A.A7.12B35.4B$29.4B7.4B5.A.AB7.10B37.4B$28.
4B9.4B5.A3B7.9B38.4B$27.4B11.4B6.4B5.9B39.4B$26.4B13.4B5.6B5.6B41.
4B$25.4B15.4B4.7B.2B2.5B42.4B$12.2A10.4B17.4B2.8B.9B43.4B$13.A9.4B
19.24B43.4B$11.A10.4B21.24B43.4B10.2A$11.5A5.4B5.2A15.19B2.4B43.4B
9.A$16.A4.4B5.A15.19B4.4B43.4B10.A$13.3AB2.7B.BA.A11.2A.A17B7.4B
36.2A5.4B5.5A$12.A.2B3.7B.B2A12.A.2A.15B9.4B36.A5.4B4.A$12.4A12B
21.12B11.4B35.A.AB.7B2.B3A$10.2A2.BA3B2A7B22.10B3.2A8.4B35.2AB.7B
3.2B.A$9.A2.3AB.2B2A7B22.2B2A6B3.A10.4B36.12B4A$9.2A.A.B3.10B21.3B
2A6B4.A10.4B35.7B2A3BAB2.2A$12.A8.8B21.10B3.2A11.4B34.7B2A2B.B3A2.
A$12.2A7.9B20.8B.B2A15.4B33.10B3.B.A.2A$22.3B2.4B18.7B3.B2AB2A13.
4B31.8B8.A$20.5B3.4B17.6B6.B.A15.4B29.9B7.2A$20.2A7.4B17.6B4.2A3.A
14.4B27.4B2.3B$21.A8.4B16.8B.A2.4A15.4B25.4B3.5B$18.3A10.4B14.9BA.
A.A19.4B23.4B7.2A$18.A13.4B4.A8.7B.2BAB.A.2A17.4B21.4B8.A$33.4B3.
3A6.6B3.2B2.A.A19.4B19.4B10.3A$34.4B5.A4.7B4.B.2A2.A19.4B10.A6.4B
13.A$35.4B3.2A4.7B3.A.A2.A.A20.4B7.3A5.4B$36.2B2A2.4B.8B3.2A2.A.A
22.4B5.A7.4B$37.BABA3.11B8.A24.4B4.2A5.4B$38.A3B.12B34.9B4.4B$39.
16B35.6B5.4B$40.14B10.A25.8B2.4B$41.10B11.3A23.15B$40.12B9.A26.14B
$39.16B6.2A25.13B$32.A6.24B23.2AB.10B$32.3A3.23B24.A.AB3.B2A3B$35.
A2.24B23.A6.B2A3B$34.A.B.24B22.2A6.4B$34.2A27B30.3B$32.2A2.A22B.4B
30.2B.BA$31.A2.3A3B3.2B3.B7.2B3.4B28.B2ABA.A$32.A4.2B3.4B.3B5.BA2B
3.4B26.BABABA.A$33.4A5.B2AB.B2AB4.A.A5.4B23.A2.A.A.A.A.2A$35.A7.2A
3.2A6.A7.4B22.4A.2A2.A2.A$37.A27.3BA25.A4.2A$36.2A28.3BA22.A.A$67.
3AB21.2A!
