#CSYNTH guntrue_1785 costs 4602 cells.
#C period 1785 fullperiod 1785 bbox 59 by 78
#CLL state-numbering golly
x = 59, y = 78, rule = LifeHistory
2.2A3.BAB12.2A$BABAB2.BABA6.2A2.A.A$3AB2.2B.A2BA2B2.A3.A$2A5BABAB
3AB3.3A.4A$B2A3B4A3B2AB4.A.A2.A$.B3ABABA5B2A4.4B$.2BA2BA.2B2.B3A5.
2B$5.ABAB2.BABAB4.3B2A$6.BAB3.2A2.7B2A$16.9B$16.9B.5B8.2A3.3B$15.
2BA14B5.2B2AB2.B2AB$13.4B2A7B6A2B2.5B2.BA.2AB2AB$10.2B.4B2A13BABAB
A5B3ABAB4A$9.2A7BABA3BA9B2A.16B$9.2AB.5BABA3B2A8BAB2.4ABAB3A5B$10.
B.3B2A3BA3B2AB2A3BABA3.B2AB2A.AB2.4B$13.2B3A15BA2B6.B2AB2.B2A2B$
14.3BA14BA4B6.3B3.2A$14.15BA2BA5B$15.14B.A4.4B$15.B3A10B7.4B$15.
13B9.4B13.2A$13.11B14.4B12.A$12.13B14.4B5.B2.BA.A$12.14B14.4B3.3B.
B2A$12.14B15.4B.6B$10.2AB.14B14.10B$9.A.AB.15B14.5B2A2B$9.A5.13B
16.3BA2BA$8.2A6.12B15.4BABAB$16.11B15.6BAB$18.9B14.4B2.2B$19.7B14.
ABAB3.2B$19.8B12.B2AB5.B3.A.2A$19.5B2A12.3BA5.2AB.B3A.A$20.4B2AB
10.4B6.BA3B3A2.A$21.5B10.4B9.B.5B2A$22.4B9.4B11.2BABA$21.2B.2B.A6.
4B11.A.A.B.2A.A$20.A2.AB.A.A4.4B11.A.2A.A.A.2A$20.4A3.A4.4B12.A3.A
.A$31.4B12.2A3.A$3.2A.2A12.2A8.4B17.2A$3.2A.A2B11.2A7.4B3.A$8.3B4.
A12.4B4.3A$3.8A4.3A9.4B8.A12.2A$3.A3.A.2AB6.A7.4B8.2A11.A.3A$5.A2.
B2A6.2A6.4B9.5B8.A4.A$4.6A7.6B.4B7.A4.3BAB5.2A.3A$3.A4.B.A8.8B6.3A
3.3BABAB2.2BA.BA$3.A.6AB4.10B6.A5.4BA2BA5BA$4.2A.AB2AB3.10B.B5.2A
5.4B2A6BA.AB$7.A.2B3.20B6.6B2.2BA.B3AB$4.2AB2A5B2A3B2A11B9.5B4.2A.
B.2A$4.A2.BA4B.2A2BA2BA7B2A2B7.7B4.A.A.ABA$5.ABA3B4.3BA2BA6BA2BA2B
5.4B.4B3.A.2AB2.A$3.A.A2.A2B5.3B2A2B2.4B2A3B4.4B3.4B3.A3.3A$3.2A2.
2A7.7B4.9B.4B5.4B3.3A$8.A.A8.3B6.12B7.4B5.A$6.A2.A.A5.5B7.10B9.4B
3.2A$6.2A.A.A5.2A10.9B10.5B$8.A.A7.A9.9B4.B7.5B$8.A6.3A11.7B4.3B5.
7B$7.2A6.A13.6B5.3A4.4B.4B$31.2B6.A3BA3.BAB3.4B$39.A3BA2.BABAB3.4B
$38.2B3A2B.BAB2A4.3BA$38.7B.2A2B6.ABA$37.9B.3B7.2A$37.9B.3B8.B$38.
7B.2A2B$38.2B3A2B.BAB2A$39.A3BA2.BABAB$39.A3BA3.BAB$40.3A4.3B$40.
3B5.B$41.B!
