#CSYNTH guntrue_9319 costs 13176 cells.
#C period 9319 fullperiod 9319 bbox 108 by 122
#CLL state-numbering golly
x = 108, y = 122, rule = LifeHistory
29.3B$28.5B6.2A$27.BA4B6.A$10.2A14.A2BA3B8.A$10.A2.A8.2A.A4BA2B7.
2A$12.2A8.A.2A5BAB4.BAB2.2A$8.4A11.A.2A7B3.B4A2.A$8.A3.4A4.3A3.BA
2BA3BA5B2.2A29.A$10.A.A2.A4.A4.2B3A3B2A5B2A30.A.A$9.2A2B.B11.13B2.
A30.A.3A$8.A2.A7B7.13B2.A.A25.2A.A4.A$6.A2.ABA8B3.12BABA4.2A25.A.A
.ABABA$6.2A.A.2A8B.14B2AB32.A.A.2A4.2A$9.A.B.21B2.A3B23.2A5.ABA4B
4.A$9.A.2A21B3.4B21.B2AB2.3BA2B4.BA.A$8.2A.A.21B4.4B21.2B2.5B4.B.B
2A$11.A.B.19B5.4B21.2B.6B2.4B$11.2A2.18B7.4B19.16B$15.9B.7B9.4B17.
6B2A9B$14.8B7.B12.4B15.6BA2BA9B$14.7B22.4B13.8B2A6B.4B13.A$13.11B
20.4B11.16B3.4B10.3A$13.12B20.4B9.15B6.4B8.A$13.12B21.4B7.4B.11B7.
4B7.2A$14.11B22.4B5.4B3.10B8.4B3.5B$12.4B.8B23.4B3.4B5.11B7.4B2.3B
$12.2A4.7B24.4B.4B5.2B2.8B.2A5.9B7.2A$13.A4.7B25.7B6.2AB2.7BA.A6.
8B8.A$10.3A6.6B26.5B3.2A.A.A5.B.2B.2A8.10B3.B.A.2A$10.A8.7B25.5B3.
A.2A.A.A2.3B2.B10.7B2A2B.B3A2.A$19.8B23.7B8.2A2.B2AB2.4A6.7B2A3BAB
2.2A$20.8B21.4B.4B12.2A4.A2.A5.12B4A$20.9B19.4B3.4B15.A3.2A3.2AB.
7B3.2B.A$19.6B.4B10.A6.4B5.4B14.2A6.A.AB.7B2.B3A$19.7B.4B7.3A5.4B
7.4B21.A5.4B4.A$3.2A15.6B2.4B5.A7.4B9.4B19.2A5.4B5.5A$4.A8.B4.8B3.
4B4.2A5.4B11.4B24.4B8.A2.A$4.A.AB3.4B.6B2AB5.9B4.2A2B13.4B22.4B11.
2A$5.2AB.13B2A2B5.6B5.ABAB15.4B20.4B$7.18B6.8B2.3BA17.4B18.4B$7.
17B5.15B19.4B16.4B$8.13B8.14B21.4B14.4B$10.12B7.13B23.4B12.4B$12.
10B5.2AB.10B25.4B10.4B$12.11B3.A.AB3.B2A3B28.4B8.4B$13.2B.7B3.A6.B
2A3B29.4B6.4B$13.11B.2A6.4B32.4B4.4B$12.11B11.3B33.4B2.4B$3.2A7.
11B12.2B.BA21.A9.8B$2.A2.A2.2A2.11B11.B2ABA.A20.3A8.6B$3.2A2.A.A2.
8B2.B2A8.BABABA.A23.A8.4B$5.2A.B3.7B3.BA.A5.A2.A.A.A.2A21.2A7.6B$
5.A2.2B2.7B6.A5.4A.2A2.A22.5B3.8B$2.2A.A.BA2B.6B7.2A8.A4.A.A22.3B
2.4B2.4B$2.A.2A.A.A8B15.A.A5.2A12.2A7.9B4.4B$6.A.A.8B15.2A20.A8.8B
6.4B13.A$3.2A2.A4.5B35.2A.A.B3.10B8.4B10.3A$.3A.2A4.6B35.A2.3AB.2B
2A7B9.4B8.A$A4.B6.6B35.2A2.BA3B2A7B10.4B7.2A$.3AB2AB3.7B37.4A12B
11.4B3.5B$3.A.2AB.2A6B38.A.2B3.7B.B2A10.4B2.3B$7.3BA6B39.3AB2.7B.B
A.A10.9B7.2A$7.2B2A7B41.A4.4B5.A11.8B8.A$7.2B2A6B37.5A5.4B5.2A11.
10B3.B.A.2A$7.2BA2BA4B37.A10.4B17.7B2A2B.B3A2.A$6.4BABA5B38.A9.4B
16.7B2A3BAB2.2A$6.5BA8B.2A.A30.2A10.4B15.12B4A$5.16BA.2A43.4B12.2A
B.7B3.2B.A$4.17B22.A11.2A12.4B10.A.AB.7B2.B3A$.2B.16B22.A.A9.B2AB
12.4B9.A5.4B4.A$2A18B10.A3.A3.2A2.A.A9.3B14.4B7.2A5.4B5.5A$2AB.17B
7.3A2.A.A2.A2.2A.2A9.B.B14.4B12.4B10.A$.B.4B.8B2.4B5.A5.A.A3.A.A2.
B8.5B15.4B10.4B9.A$8.7B4.7B.2A5.A.4A2.AB2A6.6B16.4B8.4B10.2A$9.6B
5.9B7.A3.A.A.2A4.8B17.4B6.4B$11.4B6.6B8.A2.BA.A2.13B19.4B4.4B$13.
3BA5.5B7.A.2BA.A5.13B18.4B2.4B$14.BA.A3.7B6.2A.2BA5.15B18.8B$15.A.
A4.6B10.3B4.15B19.6B11.A$16.A5.7B10.2B.B.17B19.4B10.3A$17.3A2.8B2.
29B18.6B8.A$19.A2.25B2A13B16.8B7.2A$22.25B2A14B14.4B2.4B3.5B$21.
37B3.B2A12.4B4.4B2.3B9.2A$21.36B4.A2.A10.4B6.9B8.A.A$16.B4.20B2.2B
2.B2.7B5.2A.A8.4B8.8B.B8.A$15.2AB.21B11.7B7.A7.4B10.11B3.B.BA.2A$
15.2A24B10.8B6.2A5.4B11.12B.B2A.A.A$16.B.23B11.2B2.4B11.4B12.14B2A
.A.A$19.15B2A7B8.2A4.4B9.4B13.8B2A5B2.A.2A$19.15B2A8B7.A6.4B7.4B
12.2AB.5BA2BA3B4A2.A$19.25B9.A5.4B5.4B12.A.AB.6B2A2B.BAB2.2A$19.
12B4.8B9.2A6.4B3.4B13.A5.7B6.2A$18.11B6.8B18.4B.4B13.2A5.4B.2B7.A$
17.13B6.3B.4B18.7B20.4B9.A$18.12B11.4B18.5B20.4B10.2A$19.10B13.4B
6.A10.5B19.4B$19.9B15.4B5.3A7.7B6.A10.4B$19.9B16.4B7.A5.4B.4B5.3A
7.4B$19.9B17.4B5.2A4.4B3.4B7.A5.4B$22.5B19.4B4.9B5.4B5.2A4.4B$23.
4B20.4B5.6B7.4B4.9B$23.4B21.4B2.8B8.4B5.7B$24.4B21.15B7.4B2.7BAB$
25.4B21.14B8.11BABAB.B$26.4B21.13B9.11BA3B2A.2A$27.4B21.10B.B2A8.
14B2A.A2.A$28.4B22.3B2AB3.BA.A8.15B3.2A$29.4B21.3B2AB6.A9.2BA4B4.
4B$30.4B22.4B6.2A7.2BABA4B2.A2.AB$31.4B21.3B16.2BABA3B3.4AB$32.4B
17.AB.2B19.BA4B9.A$33.4B15.A.AB2AB18.5B6.5A$34.4B14.A.ABABAB18.3B
7.A$35.4B10.2A.A.A.A.A2.A15.5B8.A$36.4B9.A2.A2.2A.4A15.2AB2AB6.2A$
37.4B10.2A4.A15.2A2.BA.2A2.2A$38.4B15.A.A13.A2.A.A3.B2.A$39.4B15.
2A15.2A.7A$40.3BA33.A$41.3BA32.A.4A$42.3AB32.2A2.A!
