#CSYNTH guntrue_1441 costs 6161 cells.
#C period 1441 fullperiod 1441 bbox 101 by 61
#CLL state-numbering golly
x = 101, y = 61, rule = LifeHistory
63.A11.2A$62.A.A9.B2AB$54.A3.2A2.A.A9.3B$53.A.A2.A2.2A.2A9.B.B$53.
A.A3.A.A2.B8.5B$54.A.4A2.AB2A6.6B$56.A3.A.A.2A4.A7B$38.2A15.A2.BA.
A2.7BA5B$39.A14.A.2BA.A5.2A11B$39.A.AB11.2A.2BA5.BA4BA8B$40.2AB.2A
12.3B4.BA2BA10B$42.2B2AB12.2B.B.3B3A2BA8B$42.4B6.19BA9B$27.A14.6B
3.21BA9B$27.3A5.B7.6B2.32B$30.A3.3A6.7B.27B3.B2A$29.2A3.2B6.35B4.A
2.A$29.7B5.20B2.2B2.B2.7B5.2A.A$31.4B2.BA19B13.7B7.A$29.8B4AB2A12B
15.8B6.2A$11.2A.2A11.9BA9B2A7B17.2B2.4B$8.2A2.A.A11.9B2ABA4BA4BA7B
15.2A4.4B$7.A2.2A3.A9.11B2A8B2A8B15.A6.4B$7.A.A2.2A.A8.13B7A5B2.3B
.B2A14.A6.4B$5.2A.A.A.A.A8.4B3.11BA2BA4B6.BA.A12.2A7.4B$5.A2.A.A.
2B8.4B6.4B2.4B2A6B8.A22.4B$7.A.ABAB8.6B4.B2A2B3.12B7.2A22.4B10.2A$
6.2A.A.A2B6.8B4.2A8.10B31.4B9.A$4.A2.A.2A3B5.10B13.6B.4B31.4B10.A$
4.2A2.6B4.12B14.B.B3.BABA24.2A5.4B5.5A$8.8B.14B12.3B5.B2AB24.A5.4B
4.A$10.22B11.B2AB5.A3B23.A.AB.7B2.B3A$10.18B.4B11.2A7.4B23.2AB.7B
3.2B.A$10.11B2A3B4.4B20.4B24.12B4A$7.13BA2BA2B5.4B20.4B23.7B2A3BAB
2.2A$6.15B2A2B7.4B20.4B22.B3A3B2A2B.B3A2.A$5.19B9.4B20.4B21.3BA6B
3.B.A.2A$5.21B8.4B20.4B19.3BA4B8.A$5.14B5.2A9.4B20.4B10.A6.9B7.2A$
3.13B8.A11.4B20.4B7.3A5.4B2.3B$.BA12B10.3A9.4B20.4B5.A7.4B3.5B$BAB
A11B12.A10.4B20.4B4.2A5.4B7.2A$.ABA11B.B22.4B20.9B4.4B8.A$2BA13B2A
.2A19.4B20.6B5.4B10.3A$.15B2A.A2.A18.4B19.8B2.4B13.A$.17B.A.2A19.
4B16.15B$3.9B3.2B2.A23.4B15.14B$4.7B5.B.2A24.4B14.13B$4.3BA3B4.A.A
2.2A23.4B11.2AB.10B$3.3BABA3B3.2A2.A2.A23.4B9.A.AB3.B2A3B$3.4BA4B
8.2A25.4B8.A6.B2A3B$4.7B37.4B6.2A6.4B$6.3B40.4B14.3B$4.7B39.4B14.
2B.BA$4.2A.B.2A40.4B12.B2ABA.A$5.A3.A42.4B10.BABABA.A$2.3A5.3A40.
4B7.A2.A.A.A.A.2A$2.A9.A41.4B6.4A.2A2.A2.A$55.3BA9.A4.2A$56.3BA6.A
.A$57.3AB5.2A!
