#CSYNTH guntrue_1533 costs 5850 cells.
#C period 1533 fullperiod 1533 bbox 78 by 75
#CLL state-numbering golly
x = 78, y = 75, rule = LifeHistory
50.A12.A$50.3A9.A.A.2A$53.A8.A.A.2A$52.2A7.2A.A8.2A$52.4B3.BAB2.4A
5.A$54.BAB.2B2ABA3.BA5.A$53.BABA.2BAB.B2AB2A2B2.2A$50.2A.B2A2B3.2A
.B.B2A2BAB2.2A$50.2A7B3.A.AB3A2B2ABA2.A$51.7B4.A.B.A2.A.A2.A.A$51.
7B5.2A.4A.A.A2.2A$52.6B7.A4.A.2A.A$51.8B6.A.2A.A4.A$50.4B2.4B6.2A.
2A4.2A$49.4B4.4B$48.4B6.4B13.2A$47.4B8.4B12.A$46.4B10.4B5.B2.BA.A$
20.2B23.4B12.4B3.3B.B2A$18.2BAB22.4B14.4B.6B$17.2BABAB20.4B16.10B$
17.2BABA2B18.4B18.5B2A2B$17.3BA3B17.4B20.3BA2BA$18.7B15.4B20.4BABA
B$17.7B15.4B20.6BAB$2A9.3B2.7B15.4B20.4B2.3B$.A5.2B.13B14.4B20.4B
3.3B.B$.A.A18B7.A6.4B20.4B6.3BAB$2.2A19B4.3A5.4B20.4B3.B3.3B2A$4.
20B2.A7.4B20.4B3.2AB.6B$4.20B2.2A5.4B20.4B4.2AB3A2BABA$4.24B4.4B
20.4B6.B.BA3B2.A$5.21B5.4B20.4B11.5A$5.22B3.4B20.4B$6.3B.B3.19B9.A
10.4B13.5A$13.15B2A2B10.3A7.4B10.B.BA3B2.A$13.15B2AB14.A5.4B10.2AB
3A2BABA$13.5B2A3B2A5B14.2A4.4B11.2AB.6B$13.4BABA2BABA5B14.9B6.2A5.
B3.3B2A$12.4B2A3B2A9B14.6B7.A10.3BAB$13.4BA2B2A13B2.2B2.B3.6B5.2A.
A12.B$14.4B3A30B4.A2.A$14.5BA32B3.B2A$14.10B.16B2A14B$16.7B2.16B2A
13B4.2A.2A4.2A$16.7B3.29B4.A.2A.A4.A$16.7B10.2B.B.17B4.A4.A.2A.A$
18.4B10.3B4.15B3.2A.4A.A.A2.2A$16.5B7.2A.2AB5.15B2.A.A.A2.B.A2.A.A
$16.2A10.A.2BA.A5.13B3.A.B3A2B2AB2A2.A$17.A11.A2.BA.A2.13B4.2A.A.A
3B2AB2.2A$14.3A13.A3.A.A.2A4.8B.2BA.B2A5B2.2A$14.A13.A.4A2.AB2A6.
11BA3.AB5.A$27.A.A3.A.A2.B7.4B3.2BA2.4A5.A$27.A.A2.A2.2A.2A5.4B6.
2A.A8.2A$28.A3.2A2.A.A5.4B8.A.A.2A$36.A.A4.4B9.A.A.2A$28.A8.A4.4B
11.A$28.3A10.4B$31.A8.4B$30.2A7.4B$30.5B3.4B$21.2A9.3B2.4B$20.A.A
8.9B$20.A8.B.8B$17.2A.AB.B3.BA9B$18.A.A.2AB.3A9B$18.A.A.2A2B2A10B$
17.2A.A2.5BA9B$17.A2.4A3BA8B.B2A$18.2A2.BAB.BA8B.BA.A$20.2A6.7B5.A
$20.A7.2B.3BA5.2A$22.A9.3BA$21.2A10.3AB!
