#CSYNTH guntrue_3927 costs 4320 cells.
#C period 3927 fullperiod 3927 bbox 90 by 48
#CLL state-numbering golly
x = 90, y = 48, rule = LifeHistory
73.B.B$72.B2A3B$72.A2BA2B10.2A$2.2A3.ABA12.2A47.2B2A4B2.2B5.A$BA2B
A2.A2BA6.2A2.A.A36.2A9.13B.BA.A$BA2B2.2B.2BA3B2.A3.A34.2A3.A6.16B.
B2A$BA2BA4B4A2B3.3A.4A30.A2.A7.BA12BA4B$B2A3B4A3B2AB4.A.A2.A28.2A
2.3A5.BABA10BABA4B$.2B4A4BA2BAB4.4B29.A2.2A3.2B3.BABA11BA4B$.3BA2B
.2B2.2BAB5.2B30.A.A2.3A2B3.2BA15B.B2A$5.A2BA2.A2BAB4.5B16.2A.2BAB
6.A.2AB.A23B.BA.A$6.ABA3.2A2.9B15.A.2B4AB3.A.A3.2A19B2.2B5.A$16.9B
15.A.A5BA3.2A.2A21B10.2A$16.9B.5B8.2A.4BA2BA5.A.B.19B$15.17B5.A2B.
2ABA.4B2.2A2.A5.16B$13.21B2.4B2A3.2A3B2.A.2A6.10B3.4B.2A$10.2B.28B
.AB2A.2BA13.8B3.B2A3B.A$9.2A25B.A2BA4B.2A14.9B4.2AB2.A$9.2AB.9BA
13B2.A5BA.A14.10B8.A$10.B.9BABA11B3.B4A2B.A13.10B5.5A.A$13.7B2AB2A
11B3.BA2B.2A13.7BA3B5.A4.A.A$14.23B21.7BABA2B7.A2.A.A$14.24B19.8BA
BA2B6.2A3.A$15.14B.B4.4B10.A6.10BA3B$15.14B7.4B7.3A5.13B.B2A$15.
13B9.4B5.A7.13B2.BA.A$13.11B14.4B4.2A5.4B.7B7.A$12.13B14.9B4.4B3.
6B7.2A$12.14B14.6B5.4B5.4B$12.14B14.4BA3B2.4B7.4B$10.2AB.14B10.4BA
BA8B9.4B$9.A.AB.15B9.5B2A7B11.4B$9.A5.13B10.13B13.4B$8.2A6.8BA3B8.
2AB.10B15.4B$16.8BABA8.A.AB3.7B17.4B$18.9B8.A5.9B17.4B$19.BA5B8.2A
6.2B2A4B18.4B$19.BA6B15.2B2A2B21.4B$19.5B2A17.5B22.4B$20.4B2AB17.
3B24.4B$21.5B17.5B24.4B$22.4B16.B2AB2A25.4B$21.2B.2B.A11.2A2.2A.AB
2.2A22.4B$20.A2.AB.A.A10.A2.B3.A.A2.A23.4B$20.4A3.A12.7A.2A26.4B$
47.A29.3BA$22.2A18.4A.A30.3BA$22.2A18.A2.2A32.3AB!
