#CSYNTH guntrue_1054 costs 6480 cells.
#C period 1054 fullperiod 1054 bbox 72 by 90
#CLL state-numbering golly
x = 72, y = 90, rule = LifeHistory
41.2A$33.2A5.A.A$33.A.A4.A$35.A2.2A.4A$34.2A.A.A.A2.A$35.A.ABABAB$
35.A.AB2AB14.2A7.2A$36.AB.2B14.B2A2B3.2B2AB$39.3B14.4B3.4B$39.4B6.
2A4.6B.6B$37.3B2AB6.A3.8B.8B$37.3B2AB3.BA.A2.9B.9B$35.10B.B2A3.4BA
4B.4BA4B$34.13B5.3BABA3B.3BABA3B$33.14B5.2B2A2BA2B.2BA2B2A2B$32.
15B5.3BABA3B.3BABA3B$31.4B2.8B7.3B3A2B3.2B3A3B$30.4B5.6B6.9B3.9B$
29.4B4.9B5.9B3.9B$28.4B5.2A4.4B5.3B3A2B3.2B3A3B$19.A7.4B7.A5.4B4.
3BABA3B.3BABA3B$17.3A6.4B5.3A7.4B3.2B2A2BA2B.2BA2B2A2B$16.A8.4B6.A
10.4B2.3BABA3B.3BABA3B$15.A.A6.4B19.4B.4BA4B.4BA4B$14.BA.A5.4B21.
13B.9B$13.3BA5.4B23.12B.8B$11.4B6.4B24.4B2.6B.6B$9.6B5.4B24.5B3.4B
3.4B$8.7B4.4B24.4B4.B2A2B3.2B2AB$.B.4B.8B2.4B24.4B6.2A7.2A$2AB.17B
24.2A2B$2A18B24.2B2A$.2B.16B23.2BAB$4.17B2.2A17.4B$5.16BA2.A3.2A
11.4B$6.14B.2A5.A2.A8.4B$6.12B11.5A5.4B5.2A$7.10B17.A4.4B5.A$7.6B
2A2B14.3AB2.7B.BA.A$7.6B2A3B12.A.2B3.7B.B2A6.A$7.10B13.4A12B8.3A$
3.A.2AB.8B11.2A2.BA3B2A7B11.A$.3AB2AB3.7B9.A2.3AB.2B2A7B10.2A$A4.B
6.6B9.2A.A.B3.10B10.5B6.2A$.3A.2A4.6B13.A8.8B11.4B5.A$3.2A2.A4.5B
13.2A7.9B9.6B.BA.A$6.A.A.8B22.3B2.4B7.7B.B2A$2.A.2A.A.A8B8.A11.5B
3.4B4.11B$2.2A.A.BA2B.6B6.3A11.2A7.4B3.11B$5.A2.2B2.7B4.A15.A8.17B
$5.2A.B3.7B4.2A11.3A5.2A3.15B$3.2A2.A.A2.8B.4B4.A6.A8.A4.13B$2.A2.
A2.2A2.11B4.3A15.A.AB2.12B2.2A$3.2A7.12B2.A19.2AB.15BA.A$12.12B2.
2A20.16B3.A$13.11B3.B20.16B3.2A$16.7B4.3B19.15B$15.8B3.6B16.15B$
14.9B2.10B11.17B$13.23B3.2B2.20B$11.B.16B2A31B$10.2A17B2A22B.7B$
10.2A41B2.6B$11.42B3.6B$9.5B2.36B6.4B$9.2A6.5B5.13B.4B12.B2A2B$10.
A7.2B.3B3.7B.B4.4B14.2A.B2A$7.3A12.2A15.4B18.BA.A$7.A14.A3.A11.4B
22.A$23.4A10.4B23.2A$36.4B$25.2A8.4B$24.B2AB6.4B$24.4B5.4B$25.2B5.
4B$17.A7.4B2.4B$16.A.A5.5B.4B$17.A.14B$18.14B$18.14B$18.15B$17.3B
2A12B$17.3B2A13B$15.2AB.11B2.4B$14.A.AB2.8B5.4B$14.A5.10B4.4B$13.
2A5.B.B5.2A5.4B$21.3B4.A7.3BA$20.B2AB5.3A5.3BA$21.2A8.A6.3AB!
