#CSYNTH guntrue_5805 costs 3432 cells.
#C period 5805 fullperiod 5805 bbox 88 by 39
#CLL state-numbering golly
x = 88, y = 39, rule = LifeHistory
15.2A5.2B55.B$15.A.A2.4B54.3A$16.A8B54.2A$11.A6.7B53.B2ABA$10.BAB
5.6B55.A.3B.2A$10.3B4.6B57.A2B3A.A$9.2BA2B3.7B57.AB4.A$9.BABAB3.7B
38.A20.4A$8.7B2.2BA3B2.B36.3A17.2A.B$8.2B3A2B2.BABA2B.B2A38.A16.2A
.2B$7.14BA3B2A37.2A17.B3A$7.11BABA2B.2B38.4B17.2B$8.2B3A2B.3BA3B
43.5B.B3.B9.BA$8.16B23.A9.3B4.17B3.BA.A$9.BABAB.9B21.3A9.3B3.20B.B
2A$9.2BA2B3.6B21.A11.B3A25B$10.3B4.6B21.2A8.3B3A25B$10.BAB4.7B18.
4B8.3BA2B2A23B$11.A5.7B18.2B10.6B2A22B$17.6B15.8B4.7BA2B2A23B$18.
6B7.2A3.11B2.8B3A16B2.6B$11.A6.6B6.B2AB2.18BAB.BA15B6.3B$11.3A4.6B
6.3B3.17B3A8B2.6B$14.A4.4B4.2B2.B4.15B2A2BA7B4.4B$13.2A5.4B.26B2A
6B$13.5B3.30B2A2BA3B$4.2A9.3B2.33B3A3B$3.A.A8.39B3AB$3.A8.B.8B3.
25B3.3B$2A.AB.B3.BA9B9.B.17B4.3B$.A.A.2AB.3A9B15.5B.5B$.A.A.2A2B2A
10B17.B6.4B$2A.A2.5BA9B16.B9.2A$A2.4A3BA8B.B2A13.BAB8.A$.2A2.BAB.B
A8B.BA.A12.2A.2A7.3A$3.2A6.7B5.A11.A.4A9.A$3.A7.2B.3BA5.2A9.A.A2.B
$5.A9.3BA15.A2.A$4.2A10.3AB15.2A!
