#CSYNTH guntrue_9750 costs 4692 cells.
#C period 9750 fullperiod 9750 bbox 68 by 69
#CLL state-numbering golly
x = 68, y = 69, rule = LifeHistory
35.2A12.B$31.2A.A.A11.BAB$31.2A.A13.3A$34.A4BA7.5B$31.2ABA4BA7.5B$
31.A3.BA4B5.2B3A2B$29.A.A4.5B5.7B$29.2A4.7B3.3BABA3B$35.2A3B2A3.3B
ABA3B$35.B5AB4.7B$35.2B3A2B4.2B3A2B$28.2A5.3BA3B5.5B$29.A5.7B5.5B$
23.2A.3A7.5B7.3A$23.2A.A9.5B7.BAB$26.B10.4B4.BA3B$23.4A10.4B3.BAB
2ABA9.2A$22.A2.3B.BA4B3.6B2ABA.ABA8.A$22.2A.2BA2B2A10B.2BA2B2ABAB
4.BA.A$25.6B2A8B.2BA5BA3BAB.B2A$25.6B3A7B.BABA3BA2B4A2B6.A$25.2A4B
2A6B3.BABA3B5AB2AB4.3A$27.3B2A5B5.5B2A3B2ABA2B3.A$29.BA4B8.A2B9A3B
3.2A$43.A6B4A3B.5B$36.2B5.B3A2B2.5B2.3B$34.6B4.BA2B3.4B2.B3AB$8.2A
3.2A17.10B.4B3.4B3.5B$8.A.A.A.A15.BA2BAB2ABA2BA2B4.4B4.5B$10.A.A
16.2B4AB2AB4A2B3.4B5.B3AB$5.2A2.A.ABA16.BA2BAB2ABA2BAB3.4B7.3B$4.A
.A2.A.3B18.10B4.4B3.AB2.5B2.BA$3.A2.A.2A.A22.6B5.4B3.A.A9BA.A$4.3A
2.A3B17.A5.2B6.4B4.A.BAB2AB2ABAB.A$7.3A3BA6.2A8.3A10.4B4.2A.A.A.A.
A.A.A.2A$6.A2.A.2B7.A12.A8.4B6.A2.2A.A.A.2A2.A$6.2A2.3A9.A2.A6.2A
7.4B7.A4.2A.2A4.A$10.2B9.5A6.5B3.4B9.3A7.3A$10.2B4.2A16.3B2.4B12.A
.2A.2A.A$11.B4.A2.4A.2A7.9B14.A.A.A.A$10.2AB4.2A3.A.A8.8B$.2A6.A2B
AB5.A4.A.B3.10B$2.A4.3B2A3B4.A2.A.3AB.2B2A7B$2.A.AB.8B.BA.A.A.A2.B
A3B2A7B$3.2AB.8B.B2A2.A2.4A12B$5.12B4.2A.A.2B3.7B.B2A$5.12B5.A2.3A
B2.7B.BA.A$5.12B5.A5.A4.4B5.A$7.10B6.5A5.4B5.2A5.A$9.7B9.A8.4B9.3A
$9.8B18.4B7.A11.A$8.5B.4B18.4B6.2A9.A.A$8.6B.4B10.A7.4B.6B9.A2.A$
7.6B3.4B9.3A6.8B8.2A.4A$3.B2.3BA3B4.4B11.A6.10B5.A.A$.7BABA2B5.4B
9.2A5.B.10B6.A.A3.2A$.7BABA2B6.4B8.18BAB4.6A2.A$9BA3B7.4B9.15BABA
3BA.2B3.2A$11B.B2A6.4B7.2B2A12BABA.2BA3BABA$.9B2.BA.A6.4B5.2BA2BA
12BA4.A3B.2B2A$.7B7.A7.4B4.3B2A4B2.7B7.A2.BA2.A$2.6B7.2A7.4B.9B4.
7B13.2A$3.4B18.12B6.3B$4.4B18.10B7.5B$5.4B18.9B10.2A$6.4B18.9B9.A$
7.3BA18.7B11.3A$8.3BA18.6B13.A$9.3AB19.2B!
