#CSYNTH guntrue_6691 costs 12075 cells.
#C period 6691 fullperiod 6691 bbox 115 by 105
#CLL state-numbering golly
x = 115, y = 105, rule = LifeHistory
37.2A2.A$36.A.4A$36.A$34.2A.7A$32.A2.A.A3.B2.A$32.2A2.BA.2A2.2A$
36.2AB2AB6.2A$36.5B8.A$37.3B7.A$36.5B6.5A$36.BA4B9.A$34.2BABA3B3.
4AB$34.2BABA4B2.A2.AB$35.2BA4B4.4B$34.15B3.2A$33.14B2A.A2.A$32.15B
2A.2A$31.15B.B$30.4B2.9B$14.2A13.4B5.7B$14.A13.4B4.9B$9.2A5.A10.4B
5.2A4.4B$9.A5.2A9.4B7.A5.4B$6.2A.A.3B11.4B5.3A7.4B$6.A2.A.2A2B2A7.
4B6.A10.4B$8.2A.A.2B2AB5.4B19.4B$11.A.4B5.4B21.4B$11.2A.4B3.4B23.
4B$4.2A8.3BA6B25.4B$3.A.A8.2BABA4B27.4B25.A11.2A$3.A8.B.3BA4B29.4B
23.A.A9.B2AB$2A.AB.B3.11B14.2A15.4B10.A3.A3.2A2.A.A9.3B$.A.A.2AB.
12B14.A.A15.4B7.3A2.A.A2.A2.2A.2A9.B.B$.A.A.2A14B16.A4.2A10.4B5.A
5.A.A3.A.A2.B8.5B$2A.A2.5B2A8B12.4A.2A2.A2.A9.7B.2A5.A.4A2.AB2A6.
6B$A2.4A3BA2BA5B.B2A10.A2.A.A.A.A.2A10.9B7.A3.A.A.2A4.8B$.2A2.BAB.
2B2A6B.BA.A11.BABABA.A14.6B8.A2.BA.A2.13B$3.2A6.7B5.A12.B2ABA.A15.
5B7.A.2BA.A5.13B$3.A7.2B.4B5.2A12.2B.BA15.7B6.2A.2BA5.15B$5.A9.4B
17.3B19.6B10.3B4.15B$4.2A10.4B7.2A6.4B19.7B10.2B.B.17B$17.4B7.A6.B
2A3B17.6B4.29B$18.4B6.A.AB3.B2A3B17.7B2.16B2A13B$19.4B6.2AB.10B15.
7B2.16B2A14B$20.4B7.13B13.9B.27B3.B2A$21.4B6.14B12.36B4.A2.A$22.4B
5.15B6.B4.20B2.2B2.B3.6B5.2A.A$23.4B6.8B2.4B4.2AB.19B14.6B7.A$24.
4B5.6B5.4B3.2A19B14.9B6.2A$25.4B3.9B4.4B3.B.17B15.2A4.4B$26.4B.4B
4.2A5.4B5.17B15.A5.4B$27.7B5.A3.A3.4B4.17B12.3A7.4B$28.5B7.4A4.4B
3.15B.B2A10.A10.4B$28.5B16.4B2.12B4.BA.A21.4B10.2A$27.7B4.4A8.15B
9.A22.4B9.A$26.4B.4B3.A2.3A7.15B8.2A22.4B10.A$25.4B3.4B8.A7.14B26.
2A5.4B5.5A$24.4B5.4B6.A.A7.12B28.A5.4B4.A$23.4B7.4B5.A.AB7.10B29.A
.AB.7B2.B3A$22.4B9.4B5.A3B7.9B30.2AB.7B3.2B.A$21.4B11.4B6.4B5.9B
32.12B4A$20.4B13.4B5.6B5.6B33.7B2A3BAB2.2A$19.4B15.4B4.7B.2B2.5B
33.7B2A2B.B3A2.A$6.2A10.4B17.4B2.8B.9B33.10B3.B.A.2A$7.A9.4B19.24B
31.8B8.A$5.A10.4B21.24B29.9B7.2A$5.5A5.4B5.2A15.19B2.4B27.4B2.3B$
10.A4.4B5.A16.18B4.4B25.4B3.5B$7.3AB2.7B.BA.A16.16B7.4B23.4B7.2A$
6.A.2B3.7B.B2A15.2AB.13B9.4B21.4B8.A$6.4A12B16.A.AB2.11B11.4B19.4B
10.3A$4.2A2.BA3B2A7B16.A5.10B3.2A8.4B10.A6.4B13.A$3.A2.3AB.2B2A7B
15.2A5.2B2A6B3.A10.4B7.3A5.4B$3.2A.A.B3.10B21.3B2A6B4.A10.4B5.A7.
4B$6.A8.8B21.10B3.2A11.4B4.2A5.4B$6.2A7.9B20.8B.B2A15.9B4.4B$16.3B
2.4B18.7B3.B2AB2A13.6B5.4B$14.5B3.4B17.6B6.B.A14.8B2.4B$14.2A7.4B
17.6B4.2A3.A10.15B$15.A8.4B16.8B.A2.4A10.14B$12.3A10.4B14.9BA.A.A
13.13B$12.A13.4B4.A8.7B.2BAB.A.2A8.2AB.10B$27.4B3.3A6.6B3.2B2.A.A
8.A.AB3.B2A3B$28.4B5.A4.7B4.B.2A2.A7.A6.B2A3B$29.4B3.2A4.7B3.A.A2.
A.A6.2A6.4B$30.4B2.4B.8B3.2A2.A.A16.3B$31.2B2A3.11B8.A18.2B.BA$32.
BABA.12B26.B2ABA.A$33.A15B25.BABABA.A$34.14B10.A13.A2.A.A.A.A.2A$
35.10B11.3A13.4A.2A2.A2.A$34.12B9.A20.A4.2A$33.16B6.2A17.A.A$26.A
6.24B17.2A$26.3A3.23B$29.A2.24B$28.A.B.24B$28.2A27B$26.2A2.A22B.4B
$25.A2.3A3B3.2B3.B7.2B3.4B$26.A4.2B3.4B.3B5.BA2B3.4B$27.4A5.B2AB.B
2AB4.A.A5.4B$29.A7.2A3.2A6.A7.3BA$31.A27.3BA$30.2A28.3AB!
