#CSYNTH guntrue_9792 costs 2806 cells.
#C period 9792 fullperiod 9792 bbox 61 by 46
#CLL state-numbering golly
x = 61, y = 46, rule = LifeHistory
36.2A$32.2A2.A$28.A3.A.A.A$26.3A4.B.A$25.A5.3B$24.B2A3.5B3.2A$22.
5B2.6B.BAB.A$22.3B4.2A3B2.B2A.A$13.5B4.4B2.2B2AB3.B.B.2A$13.B2A3B
3.4B2.BA3B2.2B2A3.A$12.BA2BA3B.13B.BA2.3A$12.2BABA3B.4B2A4BA3BAB2A
$12.3B2A7B2A5B2A3BA2.A$10.9B.4BABA9B2.2A$9.10BA2B.2BA10B$5.2A2.9BA
BA4B.9B$5.A2.A3B2A5B2A7B2A3B$6.2ABA3BA4B2A4B.3BABA2B$3.3A2.AB.13B.
3BA2BAB$2.A3.2A2B2.3BAB2.4B3.3B2AB$3.2A.B.B3.B2A2B2.4B4.5B$4.A.2AB
2.3B2A4.3B9.4B$4.A.BAB.6B2.5B8.7B$5.2A3.5B3.2AB9.9B9.2A$11.3B5.A9.
15BA2.B2A2B6.2A$9.A.B4.3A9.4B.7BA3BA2.5B6.A$6.A.A.A.A2.A2.A.A6.4B
2.6BA13B6.A$6.2A2.A.4A3.2A5.4B3.2B3ABA12B6.2A$10.A14.4B5.5B3A11B.B
.BA$11.3A10.4B6.7BA4B2A9B3A$14.A8.4B8.12B2A7B.B2.A$13.2A7.4B10.10B
2A8B3.2A$13.5B3.4B14.14B$4.2A9.3B2.4B7.2A3.16B$3.A.A8.9B8.A2.B.16B
$3.A8.B.8B10.3A6BA12B$2A.AB.B3.BA9B13.AB.B.2BA12B.B$.A.A.2AB.3A9B
11.2A6.BA13B2A$.A.A.2A2B2A10B11.A6.16B2A$2A.A2.5BA9B12.A6.5B2.9B$A
2.4A3BA8B.B2A9.2A6.2B2AB2.3B.5B$.2A2.BAB.BA8B.BA.A18.2A$3.2A6.7B5.
A$3.A7.2B.3BA5.2A$5.A9.3BA$4.2A10.3AB!
