#CSYNTH guntrue_4760 costs 5670 cells.
#C period 4760 fullperiod 4760 bbox 81 by 70
#CLL state-numbering golly
x = 81, y = 70, rule = LifeHistory
10.2A$7.2A2.A$5.3A.2A$4.A4.B$5.3AB2AB$7.A.2AB.3B$11.6B13.2A$12.6B
13.A12.2A$3.A6.7B13.A12.B2AB4.2A7.2A$2.A.A5.8B12.2A11.3B4.B2A2B5.A
$2.A.A4.15B7.B11.2B6.4B2.BA.A$.2A.2A2.17B5.2AB9.4B3.7B.B2A$.A2.B3.
17B5.ABAB8.5B.11B$2.AB2AB.13B2AB6.BA3B7.2BA3B.9B6.2A$A.A.2AB2.12B
2A2B6.5B2.4B2ABA2B.9B6.A$2A4.14BA2BA3B.B3.10B4ABA11B2.BA.A$6.14B2A
BA2BA13B2ABA4BA4BA6B.B2A$7.17BA2BA11BA3BABA4BA11B$5.19BABA13B2ABAB
2A15B$4.32B2A3B3A7BA10B$4.32B2A7BA2B2A11B$4.42B3A10B$2.2AB.40B2AB
5A6B$.A.AB2.26B4.B.9B2ABA8B4.2A$.A6.9B.10B2.4B7.7B2A7B2.B2A.A.A$2A
6.9B.6B7.4B7.7BA4BA3B.B2ABA$7.11B.5B8.4B5.8BA8B3.B2.A$6.2AB.7B3.4B
9.4B4.9BABA5B2.2A.2A$5.A.AB2.4B6.2B11.4B4.9BA5B4.A.A$5.A5.2B2AB4.
3B12.4B9.8B5.A.A$4.2A7.2A4.B2AB12.5B9.7B6.A$20.2A14.5B7.6B$33.2AB
2.4B7.6B$28.B2.2B3A3.4B7.3B.B2A.A$27.2A2BA2BABA3.4B10.B2AB3A$27.2A
2B2A2B2A4.4B11.B4.A$28.3B2A2.B6.4B2.2B5.2A.3A$28.3B12.8B5.A.A$44.
8B4.A.A$45.8B4.A3.2A$43.2B.9B5.A.A$30.A11.2A12B4.A$28.3A11.2AB.9B
4.2A$7.2A18.A15.B2.7B5.2B$8.A18.2A17.8B2.5B6.3B5.2A$7.A39.B2A12B4.
4B5.A$7.2A6.2BAB13.B.7B5.BA2BA.10B4.5B.BA.A$9.A2B2.2BABAB6.B.13B4.
3B2A13B3.5B.B2A$7.3A5BABA45B3.7B$6.A2.B.4B2A45B3.8B$6.2A3.50B3.8B
4.2A$12.25B2A33B3.A.A$12.25B2A33B3.A$11.4B.B.11B3.41B.2A$12.4B2.
10B5.10B2.B3.B2.B3.18B$12.2B2AB4.2B2.4B7.6B14.18B3.2A$14.2A10.4B8.
3B13.5B3.12B.B2.A$27.4B9.B13.2A7.12B3A$28.4B8.2A13.A8.9B.BA$29.4B
8.A10.3A3.A5.9B3.2A$30.4B7.A.A8.A4.A.A4.9B4.A$31.4B7.2A12.A2.A4.2B
2A3B.B2A2.A.2A$32.4B19.A3.3A.2BA2BA2B.BA.A.A.2A$33.4B19.3A2.BA3BAB
AB5.A.A$34.4B21.4A4BA4B3.A.A$35.4B17.2A.A.4B5.2A4.A$36.4B16.A2.A.
2A7.A$37.3BA16.2A2.A9.3A$38.3BA19.A.A9.A$39.3AB19.2A!
