#CSYNTH guntrue_510 costs 1720 cells.
#C period 510 fullperiod 510 bbox 40 by 43
#CLL state-numbering golly
x = 40, y = 43, rule = LifeHistory
35.B$28.B5.3B$27.3B4.3B$27.3B3.B3AB$7.2A17.B3AB2.A3BA$5.BA2BA16.B
3AB.A5BA$5.BA2B18.4B.7B$5.BAB19.ABA.A7BA$5.BABA3.A14.ABA.A7BA$6.BA
.A.2BA13.4B.7B$8.A4BA12.B3AB.A5BA$8.B4A13.B3AB2.A3BA$9.4B7.2B5.3B
3.B3AB$13.2B4.5B3.3B4.3B$12.5B2.6B.3B5.3B$11.18B6.B$8.22B$7.24B$7.
18B3.4B$6.18B5.4B$6.9BA6B8.4B$6.8B3A5B9.4B$6.7BA2B2A5B2.2A5.4B$7.
6B2A7B.2B2AB5.4B$6.8BA7B.2B2A7.4B$5.8BABA4B3.2BA9.4B$2A3.9BABABA2B
2.BABA3.B5.3BA$A.A2.12BAB2A3.BA.A.3A5.ABA$2.A2.12BABAB5.AB4A6.2A$
2.2A.13BA2B5.BA3B8.B$4.16B7.4B$4.16B$4.15B$5.11B$6.2B2.5B$12.2B$
12.B.B6.B$13.4B2.3BA$5.A2BA3.5A2.3A.A$2.AB.A2BA.2B.2B.A2BA.BA$.A.
3A2.5A3.A2BA$2.A3B2.4B$3.B6.B!
