#CSYNTH guntrue_350 costs 2184 cells.
#C period 350 fullperiod 350 bbox 52 by 42
#CLL state-numbering golly
x = 52, y = 42, rule = LifeHistory
35.2A$15.2A19.A$15.A18.A4.A$12.A4.A15.A.5A$12.5A.A11.A2.A.A4.2A$
10.2A4.B.A2.A7.A.A.A.B4A2.A$9.A2.3ABA.A.A.A7.A2.A.A2B2.3A2.A$6.A2.
3A2.3B.A2.A11.2AB2ABA3.3A$6.3A3.ABA3BA15.B.BA.A2.A$9.A2.A.2B.A19.B
A3.2A$8.2A3.2A24.5B$8.B4A25.4B5.AB.2A$2A.2B5.3AB24.5B3.B2A2.A$A2.
2AB3.2A2BA24.6B2.5A$.2ABAB2.BA4B24.B3A8B$2.3BA3B3A2B23.2BA2BA2.5B$
2.3BAB2.2ABA2B21.BA4BA3.5A$.2ABAB3.BAB2A2B17.A2.BA4B4.B2A2.A$A2.2A
B4.2A4B15.3A2.2A4B5.AB.2A$2A.2B5.BAB2AB14.A5.B2ABAB$10.2AB2AB2.2A
10.2A5.2BA2B2.2A$6.2A2.2AB2A4.A7.5B5.4B4.A2.A$3.A2.A4.BA2B4.A.AB3.
2A2B7.4B4.A.A.A$2.A.A.A4.4B5.2AB2.B2A3B5.6B2.2A.A.A$2.A.A.2A2.6B5.
10B4.BA5BA2B2.2A$3.2A2.A9B5.10B2.2A2B3.B5A$5.3A3B3.4B4.9B2.2B2A3.A
3B2.A$5.A2.A3B3.3BA4.13B3.A2BAB2A$6.2ABAB2A3.ABAB3.12B3.BA2BA.A$7.
A.A3BA3.2A2B3.10B5.BA.A3.A.2A$2.2A.A3.A.BA5.4B.B2.7B6.2B2A.A.2A.A$
2.A.2A.A.2A2B6.13B6.A4.A.A$6.A.A4.A6.11B7.4A.A.A$6.A.A.4A7.10B10.A
.2A$7.2A.A10.9B8.3A$11.3A6.9B9.A$13.A7.9B$22.7B$22.8B$22.8BA$22.9B
A$23.3B3.3AB!
