#CSYNTH guntrue_2576 costs 2115 cells.
#C period 2576 fullperiod 2576 bbox 47 by 45
#CLL state-numbering golly
x = 47, y = 45, rule = LifeHistory
5.A$5.3A$8.A32.2A$7.2A32.A.A$7.4B31.AB$9.B2A9.4B3.B.9B2.2B$8.2A.A
9.4B.19B$8.3B9.2A8B3A11B2A$8.2BA9.2A8BA3BA9B2A$7.3B11.B.7BA4BA7B.B
$6.A3B13.8BA3BA6B$4.BA5B9.3B.B.3B$4.5A3BA7.11BA3BA6B$4.A2BA2BA3BA
15BA4BA7B.B$2.B3A8BA15BA3BA9B2A$.B2A2BA3B2A2BA15B3A11B2A$BA2B2A3BA
2B2A31B$BA8B3AB4.5B.B.3B.9B2.2B$.A3BA2BA2BA7.4B19.AB$3.A3B5A8.4B
17.A.A$5.5BAB9.4B8.2A6.2A$6.3BA12.4B6.B2AB$6.3B14.4B5.4B$5.A2B16.
4B5.2B$5.3B10.2A5.4B2.4B7.A$4.A.2A9.A2.A5.4B.5B5.A.A$4.2AB8.BA.A.A
6.14B.A$5.4B6.3A.A8.14B$7.2A6.3AB9.14B$7.A3.A4.3B8.15B$8.4A7.2B5.
12B2A3B$19.3B3.13B2A3B$8.2A9.B2A.5B2.11B.B2A$7.A.A8.BA2BA4B5.8B2.B
A.A$7.A8.B.2B2A4B4.10B5.A$4.2A.AB.B3.BA9B5.2A5.B.B5.2A$5.A.A.2AB.
3A9B6.A4.3B$5.A.A.2A2B2A10B3.3A5.B2AB$4.2A.A2.5BA9B3.A8.2A$4.A2.4A
3BA8B.B2A.A$5.2A2.BAB.BA8B.BA.A.2A$7.2A6.7B5.A2.A$7.A7.2B.3BA5.2A$
8.A10.3BA$7.2A11.3AB!
