#CSYNTH guntrue_3420 costs 4002 cells.
#C period 3420 fullperiod 3420 bbox 58 by 69
#CLL state-numbering golly
x = 58, y = 69, rule = LifeHistory
5.2A$3.2B2AB$3.4B$2.4B3.2A$3.4B3.A$3.4B3.A.AB3.3BA2B$3.B3AB3.2AB.
2B4A4B$3.B3AB5.3B4A7B2.B.5BA4.B$2.BA3BAB4.3BA2BA8B2A5BABA6B$2.7B5.
2B4A5B.8BA3B2A4B$2.2A3B2A6.2B4A3B2ABABA4BA3B2A3B2A$2.7B8.3BA2BA3B
2A5BA3B2AB.B2A$2.7B13.2BA10BABAB4.B$2.7B12.3BA2BA3.5BA$3.5B12.4B$
2.3A3B11.4B$3.3B2A9.5B$3.3B2AB8.A3B21.2A10.2A$2.5B2A7.A6B.B16.B2A
2B6.A2BAB$2.2B.ABAB6.4B.4B2A16.4B6.4B$.4B2A2B4.3BA2BA2B.B2A6.A.A8.
4B4.A3B$.9B.2BA2BA2BA2B2.B6.A3BA6.4B6.4B$10BA3BAB2ABAB9.A.2BA7.4B
6.2A2B$2A3B2A.BA2BABA4B2AB7.2B2A8.5B6.2BA2B$2A3B2A2.2A2B3A2B2A2B4.
AB.A3B8.B3AB6.5B$7B3.4B2A5B4.A2BA.BA8.7B4.7B$2B3A2B4.5B2.5B2.A2.A.
A9.2BABA2B4.2A3B2A$2B3A2B5.4B5.2A.5A.2A8.B5AB4.2A3B2A$.2BA2B7.4B4.
A.2A2B.A2.A8.2A3B2A4.B5AB$.5B8.4B4.AB5.2A9.2A3B2A4.2BABA2B$2.4B9.
4B21.7B4.7B$2.4B9.5B21.5B6.B3AB$3.4B6.13B.5B9.2BA2B6.5B$2.4B6.7BAB
A12B8.2B2A6.4B$.B2A2B7.7B2A14B6.4B6.4B$2.2A10.6BA16B6.3BA2BA5B$14.
24B4.4BA2BABA4B$12.2AB.23B2.BA9B2A3B$11.A.AB2.28BA6B2A3B$11.A6.24B
2A8B2A2B$10.2A6.25B.5BABA2B$19.18B.4B4.3BA2B$19.22B$20.20B$20.5B2A
12B$22.3B2A11B11.2A$25.16B8.A$17.B2A8.11B2AB4.A3.3A$17.3AB7.10BA2B
AB3.4A3.A$16.A.2AB8.10B2A5B3.B.A.A$15.A.A.2B8.19B2AB2A$15.A2.A2.2B
5.4B.15B2A$16.2A3.3B3.4B2.15B3.2A$21.B2A.5B4.3B.10B4.A$11.2A7.BA2B
A4B3.5B2.9B3.A$11.A8.2B2A4B4.2A6.9B2.2A$8.2A.A.B3.10B6.A6.9B$8.A2.
3AB.2B2A7B3.3A7.9B$9.2A2.BA3B2A7B3.A9.2B2A3B.B2A$11.4A12B11.3BA2BA
2B.BA.A$11.A.2B3.7B.B2A8.2A3BABAB5.A$12.3AB2.7B.BA.A3.2A.A.AB.2BA
4B3.2A$15.A4.4B5.A4.A.A.2B6.2A$10.5A5.4B5.2A2.A2.2AB7.A$10.A10.4B
9.2A2.B8.3A$12.A9.4B10.2A11.A$11.2A10.3BA9.A$24.3BA9.A$25.3AB7.2A!
