#CSYNTH guntrue_4374 costs 3276 cells.
#C period 4374 fullperiod 4374 bbox 78 by 42
#CLL state-numbering golly
x = 78, y = 42, rule = LifeHistory
40.A2.2A23.A2.2A$A9.A14.A14.4A.A22.4A.A$3A5.3A12.3A19.A27.A$3.A3.A
14.A15.7A.2A18.7A.2A$2.2A.B.2A13.2A13.A2.B3.A.A2.A15.A2.B3.A.A2.A$
2.7B3.3B4.5B13.2A2.2A.AB2.2A15.2A2.2A.AB2.2A$4.3A3.6B3.3B18.B2AB2A
22.B2AB2A$3.A3BA2.2A3BA2.6B17.5B23.5B$2.A5BA2.13B18.3B25.3B$2.7B.
7BA6B17.5B23.2A3B$.A7BA5BAB2A6B15.4BAB22.B2AB2A$.A7BA4B2ABA7B7.2A
6.3BABA2B12.2A6.2ABA4B$2.7B2.14B8.A5.4BABA2B13.A5.9B$2.A5BA2.BABA
8B.B2A6.A.AB3.4BA2B14.A.AB3.7B$3.A3BA3.2BABA7B.BA.A6.2AB.10B14.2AB
.10B$4.3A4.BA2BA6B5.A8.13B15.13B$2.7B3.5B.4B5.2A7.14B14.13BA$2.2A.
B.2A4.3B3.4B10.A2.15B10.A2.11BABA$3.A3.A5.3B4.4B7.3A4.8B2.4B7.3A4.
8B2.2A$.A.A.A.A.A3.3B5.4B5.A7.3A3B5.4B5.A7.6B5.B$A.A.2A.2A.A.2A.2A
5.4B4.2A5.3BA5B4.4B4.2A5.9B$A.A7.A.AB.BA6.9B4.3BA4.2A5.9B4.4B4.2A$
.2A.2A.4A3.B9.3BA2B5.4B5.A7.6B5.4B5.A$3.A.A.A2.A.A2B9.BABA4B2.4B7.
3A4.8B2.4B7.3A$.2A2.A.A.4A.2A6.4B2A9B10.A2.15B10.A$A.A.A.A.A4.A2.A
5.14B14.14B$.A2.2AB.A.ABAB.2A5.13B15.13B$2.2A3.A.A.A.A.A4.2AB.10B
14.2AB.10B$4.2A.A3.A.A.A3.A.AB3.4BA2B14.A.AB3.4BA2B$4.A.2A2.2A.2A
4.A5.4BABA2B13.A5.4BABA2B$18.2A6.3BABA2B12.2A6.3BABA2B$26.4BAB22.
4BAB$27.5B23.5B$28.3B25.3B$27.5B23.5B$26.B2AB2A22.B2AB2A$23.2A2.2A
.AB2.2A15.2A2.2A.AB2.2A$23.A2.B3.A.A2.A15.A2.B3.A.A2.A$24.7A.2A18.
7A.2A$31.A27.A$26.4A.A22.4A.A$26.A2.2A23.A2.2A!
