#CSYNTH guntrue_6390 costs 4500 cells.
#C period 6390 fullperiod 6390 bbox 90 by 50
#CLL state-numbering golly
x = 90, y = 50, rule = LifeHistory
21.2A11.A$20.B2AB9.A.A$21.3B9.A.A2.2A3.A36.A2.2A$20.B.B9.2A.2A2.A
2.A.A35.4A.A$20.5B8.B2.A.A3.A.A40.A$20.6B6.2ABA2.4A.A34.7A.2A.A$
20.8B4.2A.A.A3.A35.A2.B3.A.A.2A$21.13B2.A.AB2.A15.2A17.2A2.2A.AB$
19.13B5.A.A2B.A14.A21.B2AB2A$18.15B5.A2B.2A11.BA.A22.5B$18.15B4.3B
12.2A.B2A24.3B$17.17B.B.2B12.B2A2B25.2A3B$17.29B6.4B24.B2AB2A$6.A
2.2A5.13B2A16B3.6B16.2A6.2ABA4B$3.A2.4A.A3.14B2A16B2.6B18.A5.9B$3.
3A5.A2.2AB3.27B.7B9.2A7.A.AB3.7B$6.4A.A.A2.A4.35B6.2B2AB7.2AB.10B$
3.3A3.2A.A.2A5.7B2.B2.2B2.20B5.4B3.B6.13B$3.A2.2A4.A.A5.7B13.21B.
6B2A2B4.13BA$4.A.2B4.A.A4.8B15.26B2A2B4.11BABA$.3AB2AB.A3.A4.4B2.
2B17.30B5.8B2.2A$A5.B.2BA6.4B4.2A15.31B5.6B5.B$2A.4A3BA5.4B6.A15.
30B5.9B$.A.A2.AB.A5.4B6.A3.A10.2AB.3B2.22B5.4B4.2A$.A2.A4.2B3.4B3.
2A3.4A5.2A2.A.AB6.22B4.4B5.A$2.2A5.2B2.A3B3.A2.A12.A2.A8.12B3.9B2.
4B7.3A$8.5B2AB4.2A.A4.2A6.A.2A7.12B5.13B5.3A2.A$7.5BABA8.2A2.B2AB
2.2A.A9.10B6.5B3.7B5.A2.A$7.B2A4B6.2A3.B2.3B2.A.A.2A.A4.4B.6B6.2A
7.7B.BA.A2.2A$6.BA2BA4B4.A2.3A3B.B5.A.A.2A3.4B3.B.B9.A5.9B.B2A$6.
2B2A6B3.A.A2.A7B2.B2A6.4B5.3B5.3A3.2B.11B$6.3BA2B.4B3.A.A.9B2.2B5.
4B5.B2AB5.A4.2A13B$4.2AB.3B3.4B3.A3.11B5.4B7.2A11.2A13B$3.A.AB2.B
5.4B8.10B3.4B22.2B2.10B$3.A12.4B7.11B.4B28.9B.2B$2.2A13.4B6.15B29.
11B2A$18.4B3.16B30.4B2A3B.B2A$19.4B.6B2A8B31.4B2A4B.B$20.9BA2BA6B
32.7B$21.9B2A6B32.A.5B$21.16B32.A.A3.4B$21.4B2.6B.2B34.A6.2A$19.2A
B.B4.5B2.2B40.A$18.A.AB4.2BA3B2.B2AB40.3A$18.A4.4BABA5.2A43.A$17.
2A4.2A.A.A$22.ABABA.A.A$22.A4.A.A.A$23.3A.A.A.A$25.2A3.A!
