#CSYNTH guntrue_5680 costs 5150 cells.
#C period 5680 fullperiod 5680 bbox 103 by 50
#CLL state-numbering golly
x = 103, y = 50, rule = LifeHistory
21.2A11.A$20.B2AB9.A.A$21.3B9.A.A2.2A3.A$20.B.B9.2A.2A2.A2.A.A$20.
5B8.B2.A.A3.A.A$20.6B6.2ABA2.4A.A$20.8B4.2A.A.A3.A$21.13B2.A.AB2.A
15.2A$19.13B5.A.A2B.A14.A$18.15B5.A2B.2A11.BA.A40.A$18.15B4.3B12.
2A.B2A39.3A$17.17B.B.2B12.B2A2B40.A$17.29B6.4B33.A6.2A$6.A2.2A5.9B
2A2B2A16B3.6B32.A.A3.4B$3.A2.4A.A3.9BABA2B2A16B2.6B34.A.5B$3.3A5.A
2.2AB3.6BA20B.7B9.2A24.7B$6.4A.A.A2.A4.35B6.2B2AB6.2A15.4B2A4B.B$
3.3A3.2A.A.2A5.7B2.B2.2B2.20B5.4B7.A16.4B2A3B.B2A$3.A2.AB4.A.A5.7B
13.21B.6B2.BA.A16.11B2A$4.B.2A4.A.A4.8B15.27B.B2A17.9B.2B$.4AB2A.B
3.A4.4B2.2B17.28B14.2B2.10B$A5.B.3A6.4B4.2A15.29B13.2A13B$2A.2AB5A
5.4B6.A15.29B13.2A13B$.A.A2.2A.B5.4B6.A3.A10.2AB.3B2.22B14.2B.11B$
.A2.A4.2B3.4B3.2A3.4A5.2A2.A.AB6.13B.9B16.9B.B2A$2.2A5.2B2.4B3.A2.
A12.A2.A8.12B2.11B10.A6.7B.BA.A$8.BA6B4.2A.A4.2A6.A.2A7.12B3.BAB.B
3.4B7.3A5.7B5.A$7.BABA4B8.2A2.B2AB2.2A.A9.10B6.A.A.2A3.4B5.A7.8B5.
2A$7.A2BA3B6.2A3.B2.3B2.A.A.2A.A4.4B.6B4.3A.ABA5.4B4.2A5.4B2.4B$6.
2B2A5B4.A2.3A3B.B5.A.A.2A3.4B3.B.B5.A3.A4.A4.9B4.4B4.4B$6.10B3.A.A
2.A7B2.B2A6.4B5.3B4.2A2.A.4A4.7B5.4B6.4B$6.6B.4B3.A.A.9B2.2B5.4B5.
B2AB9.A9.A7B2.4B8.4B$4.2AB.3B3.4B3.A3.11B5.4B7.2A12.A5.BABA11B10.
4B$3.A.AB2.B5.4B8.10B3.4B21.2A4.2BABA11B2.2A7.4B$3.A12.4B7.11B.4B
28.3BA11B.2B2AB7.3BA$2.2A13.4B6.15B26.2AB3.10B3.4B9.ABA$18.4B3.16B
26.B3A5.4BA2B4.4B10.2A$19.4B.6B2A8B27.B2A.A3.4BABA2B4.3AB10.B$20.
9BA2BA6B28.2B.A.A3.3BABA2B4.2A2B$21.9B2A6B31.A2.A3.4BAB7.2B2A$21.
16B33.2A5.5B7.B3A$21.4B2.6B.2B42.3B7.BABAB$19.2AB.B4.5B2.2B40.5B7.
2A$18.A.AB4.2BA3B2.B2AB38.B2AB2A$18.A4.4BABA5.2A36.2A2.2A.AB2.2A$
17.2A4.2A.A.A44.A2.B3.A.A2.A$22.ABABA.A.A43.7A.2A$22.A4.A.A.A49.A$
23.3A.A.A.A44.4A.A$25.2A3.A45.A2.2A!
