#CSYNTH guntrue_885 costs 3311 cells.
#C period 885 fullperiod 885 bbox 77 by 43
#CLL state-numbering golly
x = 77, y = 43, rule = LifeHistory
7.2A5.2A2.2A.2A20.A$7.A2.2A.A2.A2.A.2A19.A.A$8.2A.A.2A.2A.A20.3A.A
$4.2A3.A.A2.B.A2.A.2A16.A4.A.2A$.A2.A2.A.4ABA.A.2A.BA16.ABABA.A.A$
.3A2.2A4B.B3AB.2BA12.2A4.2A.A.A$4.2A2.6BA.B2A2B14.A4.4BABA9.2A$3.A
2.A.A5BAB.BABA14.A.AB4.2BABAB6.B2A2B$4.2A4.2A.BA3.B17.2AB.B4.A2BAB
6.4B$10.2B26.4B2.5BA.9B$11.B26.6BA5BA8B$10.2AB25.5BA3BA3BA7B$.2A6.
A2BAB5.2A16.6BA2BABA2BA7B3.2A$2.A4.3B2A3B4.A16.4B.2BA3BA3BA8BA2.A$
2.A.AB.8B.BA.A15.4B3.2BA5BA7B2.2A2.2A$3.2AB.8B.B2A15.4B6.BA3BA7B8.
A$5.12B16.4B5.4B3A8B6.A$5.12B15.4B5.16B6.2A$5.12B3.A10.4B5.18BA5.B
3.3B$7.10B3.3A7.BA2B5.11B.3B2.BABA4.7B$9.7B7.A5.2A2B7.10B6.A2BA3.
7B2A$9.8B5.2A4.2B2A11.7B7.2A11B2A$8.5B.4B4.9B14.4B10.3BA6B.B$8.6B.
4B5.6B13.6B10.2BABA5B$7.6B3.4B2.8B13.2A13.2B2AB2A4B$3.B2.3BA3B4.
15B12.A13.BABA2BA4B$.7BABA2B5.14B9.3A14.2B4ABA3B$.7BABA2B6.13B9.A
17.2BA3BA2B$9BA3B7.10B.B2A22.BA5BAB2A3B$11B.B2A6.4B2AB3.BA.A19.2BA
BA5BA6B3.2A$.9B2.BA.A4.5B2A2B5.A19.BA7B2A6B2.A2.A$.7B7.A4.8B6.2A
18.2B3A4B2A6BA2.2A$2.6B7.2A5.6B26.8B2A6BAB2A$3.4B15.5B25.2AB.13B.B
A2.2A$4.4B15.3B25.A.AB.B3A2B.5B2.2B2A2.A$5.4B13.5B24.A5.3A2B.5B3.B
.B.2A$6.4B12.2AB2AB22.2A5.BA2B3.2BA2B2.B2A.A$7.4B7.2A2.BA.2A2.2A
26.3B5.4AB.BAB.A$8.4B6.A2.A.A3.B2.A27.B6.2A3B3.2A$9.4B7.2A.7A37.2B
$10.3BA8.A43.2B$11.3BA7.A.4A37.B2AB$12.3AB7.2A2.A38.2A!
