#CSYNTH guntrue_2772 costs 3619 cells.
#C period 2772 fullperiod 2772 bbox 77 by 47
#CLL state-numbering golly
x = 77, y = 47, rule = LifeHistory
65.2A$64.A.A$62.3A$61.A3.A$61.2A.2A$59.4B.4B$59.2B5.2B$58.3AB.A.B
3A$58.5BA5B2.2A$59.3BABA3B3.A3.2A$59.4BA4B5.A2.A$61.2BA2B6.3A$48.
2A11.5B3.2A$38.AB9.A8.B2.5B2.BA.2A$37.B.2A8.A.AB2.B.10B2.3B.A.2A$
37.2A.B9.2AB.18B.2A.A$38.BA3.B8.21B$32.2A7.7B4.10B3A8B$33.A6.11B.
10B3A8B$33.A.AB2.8B2A3B.10BA8B3.2A$34.2AB2.7BA2BA20B5.A$36.9B3ABAB
A18B2.BA.A$36.9B3ABA3BA9BA7B.B2A$18.A18.8B3A2BA2BA8B3A8B$18.3A17.
7B2A2B2A3BA7B3A8B$21.A14.3B.5B2A3BA3BA18B$8.AB10.2A14.2A2.6BABABA
3BA17B$7.B.2A9.4B9.A3.A3.6BA4B2A2B.13B$7.2A.B11.2B9.4A4.15B2.B2.5B
2.B$8.BA3.3B4.8B13.14B6.5B$11.BA5B.11B3.2A7.8B2.B8.2BA2B.2B$9.4BA
16B2.B2AB6.7B5.AB4.3BA4B2A$4.4B2A20B3.3B7.6B4.B.2A2.3BABA3B2A$3.4B
3A20B4.B2.2B4.5B5.2A.B3.3BA2B.2B$4.4B5A28B.6B6.BA6.BA$5.4BA2BA32B.
B17.B9.B$6.4B3A11B2A20B12.BA4.2B7.B2A$4.20B3A20B6.2A2.BA2BAB.3A4.
2ABA$2A2.12B3.6B2A14B3.4B5.AB.2ABABABA4BA5B.BA$A2.AB2A8B3.7B2AB2A
4B.B9.4B6.4B4.3B.BABABA2.2A$.3ABABA11.5B.2BA3B15.4B4.ABA7.2A4.BA$
5.A.A9.4B3.7B16.4B4.A$3.2A.A10.2A6.4B.B2A15.4B$2.A.A.A.A9.A7.B3.BA
.A15.4B$3.A3.2A6.3A7.BAB5.A16.3BA$15.A9.BAB5.2A16.3BA$26.A25.3AB!
