#CSYNTH guntrue_1180 costs 3192 cells.
#C period 1180 fullperiod 1180 bbox 76 by 42
#CLL state-numbering golly
x = 76, y = 42, rule = LifeHistory
41.2A3.A$11.2A5.2B19.3A.A.A.A$.ABA4BA6BA2B3A2.2A13.A4.A.A.A$BA.4AB
ABA2BABABAB2AB.2A13.ABABA.A.A$2A2B.2A2.B4AB4.B3A10.2A4.2A.A.A$2B.
2B2AB3.2B8.BAB10.A4.4BABA9.2A$4.A.A4.2B9.A11.A.AB4.2BABAB6.B2A2B$
5.A6.B22.2AB.B4.A2BAB6.4B$11.2AB23.4B2.5BA.9B$2.2A6.A2BAB5.2A15.6B
A5BA8B$3.A4.3B2A3B4.A16.5BA3BA3BA7B$3.A.AB.8B.BA.A15.6BA2BABA2BA7B
3.2A$4.2AB.8B.B2A15.4B.2BA3BA3BA8BA2.A$6.12B16.4B3.2BA5BA7B2.2A2.
2A$6.12B15.4B6.BA3BA7B8.A$6.12B3.A10.4B5.4B3A8B6.A$8.10B3.3A7.4B5.
16B6.2A$10.7B7.A5.4B5.18BA5.B3.3B$10.8B5.2A4.BA2B5.11B.3B2.BABA4.
7B$9.5B.4B4.5B2A2B7.10B6.A2BA3.7B2A$9.6B.4B5.4B2AB10.7B7.2A11B2A$
8.6B3.4B2.8B13.4B10.3BA6B.B$4.B2.3BA3B4.15B9.6B10.2BABA5B$2.7BABA
2B5.15B8.2A13.2B2AB2A4B$2.7BABA2B6.14B9.A13.BABA2BA4B$.9BA3B7.10B
3.B2A3.3A14.2B4ABA3B$.11B.B2A6.7B5.3AB2.A17.2BA3BA2B$2.9B2.BA.A4.
9B3.A.2AB17.BA5BAB2A3B$2.7B7.A4.4B2A2B3.A.A.2B15.2BABA5BA6B3.2A$3.
6B7.2A5.2B2A2B3.A2.A17.BA7B2A6B2.A2.A$4.4B15.5B5.2A18.2B3A4B2A6BA
2.2A$5.4B15.3B26.8B2A6BAB2A$6.4B13.5B23.2AB.13B.BA2.2A$7.4B12.2AB
2AB21.A.AB.B3A2B.5B2.2B2A2.A$8.4B11.BA.2A2.2A18.A5.3A2B.5B3.B.B.2A
$9.4B6.2A.A.A3.B2.A17.2A5.BA2B3.2BA2B2.B2A.A$10.4B5.A.2A.7A25.3B5.
4AB.BAB.A$11.4B8.A33.B6.2A3B3.2A$12.4B7.A.4A37.2B$13.3BA7.2A2.A36.
2B$14.3BA46.B2AB$15.3AB46.2A!
