#CSYNTH guntrue_4139 costs 12524 cells.
#C period 4139 fullperiod 4139 bbox 124 by 101
#CLL state-numbering golly
x = 124, y = 101, rule = LifeHistory
40.2A$39.A.A$33.2A4.A$31.A2.A2.2A.4A$31.2A.A.A.A.A2.A4.2A$34.A.ABA
BAB7.A$34.A.AB2AB6.A$35.AB.2B7.5A$38.3B10.A$38.4B3.4AB$36.3B2AB3.A
2.AB$36.3B2AB4.4B$34.15B3.2A$33.14B2A.A2.A$32.11BA3B2A.2A$31.11BAB
AB.B$30.4B2.7BAB$14.2A13.4B5.7B$14.A13.4B4.9B$9.2A5.A10.4B5.2A4.4B
$9.A5.2A9.4B7.A5.4B$6.2A.A.3B11.4B5.3A7.4B$6.A2.A.2A2B2A7.4B6.A10.
4B$8.2A.A.2B2AB5.4B19.4B$11.A.4B5.4B21.4B$11.2A.4B3.4B23.4B25.A11.
2A$4.2A8.3BA6B8.2A15.4B23.A.A9.B2AB$3.A.A8.2BABA4B9.A.A15.4B10.A3.
A3.2A2.A.A9.3B$3.A8.B.3BA4B12.A4.2A10.4B7.3A2.A.A2.A2.2A.2A9.B.B$
2A.AB.B3.11B9.4A.2A2.A2.A9.4B5.A5.A.A3.A.A2.B8.5B$.A.A.2AB.12B9.A
2.A.A.A.A.2A10.2B2A3B.2A5.A.4A2.AB2A6.6B$.A.A.2A14B11.BABABA.A14.
2A7B7.A3.A.A.2A4.8B$2A.A2.5B2A8B12.B2ABA.A15.BA4B8.A2.BA.A2.13B$A
2.4A3BA2BA5B.B2A11.2B.BA17.5B7.A.2BA.A5.13B$.2A2.BAB.2B2A6B.BA.A.
2A6.3B19.7B6.2A.2BA5.15B$3.2A6.7B5.A.A6.4B20.6B10.3B4.15B$3.A7.2B.
4B5.A.A6.B2A3B18.7B10.2B.B.17B$5.A9.4B3.2A.A.AB3.B2A3B18.6B4.29B$
4.2A10.4B6.2AB.10B16.7B2.16B2A13B$17.4B7.13B15.7B2.16B2A14B$18.4B
6.14B13.9B.27B3.B2A$19.4B5.15B12.36B4.A2.A$20.4B6.8B2.4B6.B4.BA5B
2A11B2.2B2.B2.7B5.2A.A$21.4B5.6B5.4B4.2AB.2B2A4B3A8B13.7B7.A$22.4B
3.9B4.4B3.2A3B2A3BA10B15.8B6.2A$23.4B.4B4.2A5.4B3.B.B3A3BA9B17.2B
2.4B$24.7B5.A7.4B5.B2A2BA11B15.2A4.4B$25.5B7.3A5.4B4.B2A14B15.A6.
4B$25.5B9.A6.4B3.2B2A11B.B2A15.A5.4B$24.7B16.4B2.12B4.BA.A13.2A6.
4B$23.4B.4B7.A8.15B9.A22.4B$22.4B3.4B6.3A7.15B8.2A22.4B$21.4B5.4B
8.A7.6B3A5B33.4B$20.4B7.4B6.A.A7.4BA2BA4B35.4B$19.4B9.4B5.A.AB7.3B
ABABA2B37.4B$18.4B11.4B5.A3B7.3BA3BAB38.4B$17.4B13.4B6.4B5.7BAB39.
4B$16.4B15.4B5.6B5.6B41.4B$3.2A10.4B17.4B4.7B.2B2.5B42.4B$4.A9.4B
19.4B2.8B.9B43.4B$2.A10.4B21.24B43.4B10.2A$2.5A5.4B5.2A16.17BA6B
43.4B9.A$7.A4.4B5.A17.17BAB2.4B43.4B10.A$4.3AB2.7B.BA.A16.19B4.4B
36.2A5.4B5.5A$3.A.2B3.7B.B2A13.2A.A17B7.4B36.A5.4B4.A$3.4A12B15.A.
2A.15B9.4B35.A.AB.7B2.B3A$.2A2.BA3B2A7B22.12B11.4B35.2AB.7B3.2B.A$
A2.3AB.2B2A7B23.10B13.4B36.12B4A$2A.A.B3.10B23.2B2A6B14.4B35.7B2A
3BAB2.2A$3.A8.8B21.3B2A6B15.4B34.7B2A2B.B3A2.A$3.2A7.9B21.10B3.2A.
2A8.4B33.10B3.B.A.2A$13.3B2.4B20.8B.B2A2.A.A10.4B31.8B8.A$11.5B3.
4B18.7B3.B2ABA2.A11.4B29.9B7.2A$11.2A7.4B17.6B6.B.A.A13.4B27.4B2.
3B$12.A8.4B17.6B4.2A2.A15.4B25.4B3.5B$9.3A10.4B16.8B.A2.2A17.4B23.
4B7.2A$9.A13.4B14.9BA.A.A19.4B21.4B8.A$24.4B4.A8.7B.2BAB.A20.4B19.
4B10.3A$25.4B3.3A6.6B3.2B2.A.2A18.4B10.A6.4B13.A$26.4B5.A4.7B4.B.
2A2.A19.4B7.3A5.4B$27.4B3.2A4.7B3.A.A2.A22.4B5.A7.4B$28.4B2.4B.8B
3.2A2.A24.4B4.2A5.4B$29.2B2A3.11B8.3A22.9B4.4B$30.BABA.12B10.A23.
6B5.4B$31.A15B34.8B2.4B$32.14B10.A22.15B$33.10B11.3A22.14B$32.12B
9.A25.13B$31.16B6.2A22.2AB.10B$24.A6.24B21.A.AB3.B2A3B$24.3A3.23B
23.A6.B2A3B$27.A2.24B21.2A6.4B$26.A.B.24B30.3B$26.2A27B30.2B.BA$
24.2A2.A22B.4B28.B2ABA.A$23.A2.3A3B3.2B3.B7.2B3.4B26.BABABA.A$24.A
4.2B3.4B.3B5.BA2B3.4B23.A2.A.A.A.A.2A$25.4A5.B2AB.B2AB4.A.A5.4B22.
4A.2A2.A2.A$27.A7.2A3.2A6.A7.3BA25.A4.2A$29.A27.3BA22.A.A$28.2A28.
3AB21.2A!
