#CSYNTH guntrue_849 costs 6262 cells.
#C period 849 fullperiod 849 bbox 101 by 62
#CLL state-numbering golly
x = 101, y = 62, rule = LifeHistory
14.2A4.2A$10.2A3.A4.A$10.A4.A.2A.A49.2A$11.3A.A.A.A50.A.A$13.A.2A
2B53.A4.2A$6.2A6.6B48.4A.2A2.A2.A$6.A.B5.6B2.4B42.A2.A.A.A.A.2A11.
A$3.2A.A.2B5.11B44.BABABA.A13.BAB$3.A2.2A17B2A44.B2ABA.A14.AB$5.A
2.A16B2A28.2A15.2B.BA14.2BABA$6.2AB.14B.B28.A.A14.3B18.A.2AB.2A$8.
16B24.2A4.A7.2A6.4B8.A10.6A.A$6.2AB.14B22.A2.A2.2A.4A4.A6.B2A3B6.
3A9.2B4.A$6.A5.13B21.2A.A.A.A.A2.A4.A.AB3.B2A3B9.A10.4A$4.A.A7.12B
23.A.ABABAB7.2AB.10B6.A.A8.BA.B$4.2A9.7B.4B22.A.AB2AB10.13B5.A.AB
7.BA.2A$12.11B.4B22.AB.2B11.14B5.A3B7.A3B$11.11B3.4B24.3B10.15B6.
4B7.BA$11.11B4.4B23.4B6.2A3.8B2.4B5.6B6.BA$2.A8.11B5.4B20.3B2AB6.A
4.6B5.4B4.7B3.BA.A$.A.A2.2A3.8B2.B2A4.4B19.3B2AB3.BA.A3.9B4.4B2.8B
3.B2A$A.A2.A.A3.7B3.BA.A4.4B16.10B.B2A3.4B4.2A5.17B$A2.2A.B4.7B6.A
5.4B14.13B4.4B5.A7.16B$.A.A2.2B3.6B7.2A5.4B12.14B3.4B7.3A4.16B$2A.
A.BA2B.7B15.4B10.15B2.4B10.A4.16B$3.A.A.A9B16.4B8.4B2.8B3.4B16.15B
$4A2.A.8B18.4B6.4B5.6B2.4B15.2AB.12B$A3.2A4.6B19.4B4.4B4.13B15.A.A
B2.11B$2.A.B6.6B19.4B2.4B5.2A4.6B16.A5.10B3.2A$.2AB2AB3.7B20.8B7.A
5.4B16.2A5.2B2A6B3.A$4.2AB.8B22.6B5.3A5.6B21.3B2A6B4.A$.2A3.10B23.
4B5.A7.8B21.10B3.2A$.A4.6B2A3B21.6B4.2A5.4B2.4B20.8B.B2A$2.A3.6B2A
2B5.2A14.13B4.4B4.4B18.7B3.B2AB2A$.2A3.10B5.A2.A11.4B2.6B5.4B6.4B
17.6B6.B.A$5.11B2.BA.A.2A10.4B3.8B2.4B8.4B17.6B4.2A3.A$5.12B.B2A.A
11.4B2.15B10.4B16.8B.A2.4A$4.15B3.A10.4B3.14B12.4B14.9BA.A.A$3.16B
3.3A7.4B4.13B14.4B4.A8.7B.2BAB.A.2A$3.16B6.A5.4B3.2AB.10B16.4B3.3A
6.6B3.2B2.A.A$3.16B5.2A4.4B3.A.AB3.B2A3B19.4B5.A4.7B4.B.2A2.A$3.
17B4.9B4.A6.B2A3B20.4B3.2A4.7B3.A.A2.A.A$.2AB3.8B2.4B5.6B4.2A6.4B
23.4B2.4B.8B3.2A2.A.A$A.AB3.7B4.4B2.8B13.3B24.4B3.11B8.A$AB6.6B5.
15B12.2B.BA22.4B.12B$.2B7.4B6.14B11.B2ABA.A22.16B$.3AB7.3BA5.13B
10.BABABA.A23.B3A10B10.A$.2B.2A7.BA.A5.10B.B2A6.A2.A.A.A.A.2A21.A
9B11.3A$2.B.2A8.A.A7.3B2AB3.BA.A5.4A.2A2.A2.A20.2BA9B9.A$.4A10.A8.
3B2AB6.A9.A4.2A21.16B6.2A$A4.BA9.3A7.4B6.2A6.A.A20.A6.24B$A.3A2BA
10.A7.3B15.2A21.3A3.23B$.2A.3B.A14.AB.2B42.A2.24B$5.AB2AB12.A.AB2A
B40.A.B.24B$7.2A13.A.ABABAB39.2A27B$7.3A9.2A.A.A.A.A2.A35.2A2.A22B
.4B$8.B10.A2.A2.2A.4A34.A2.3A3B3.2B3.B7.2B3.4B$21.2A4.A39.A4.2B3.
4B.3B5.BA2B3.3BA$27.A.A38.4A5.B2AB.B2AB4.A.A5.ABA$28.2A40.A7.2A3.
2A6.A7.2A$72.A27.B$71.2A!
