#CSYNTH guntrue_159 costs 3128 cells.
#C period 159 fullperiod 159 bbox 68 by 46
#CLL state-numbering golly
x = 68, y = 46, rule = LifeHistory
12.2A3.2A$12.A.A2.A$8.A.2A2.A3.A39.A2.2A$8.2A.A.A.4A5.A33.4A.A$12.
2A.A8.3A10.2A24.A$12.4B.2A8.A9.A18.7A.2A$12.2B.2B.A7.2A6.BA.A17.A
2.B3.A.A2.A$13.4B.A.2A4.7B.B2A18.2A2.2A.AB2.2A$12.B2A2B2A.A2.A4.7B
23.B2AB2A$11.2B2A2B.B.A.2A2.9B24.5B$11.7B2.A5.8B26.3B$10.7B2.2A5.
8B5.B19.2A3B$5.2B2.8B9.9B3.3B17.B2AB2A$4.7B2A3B8.4B3A4B2.5B8.2A6.
2ABA4B$4.12B7.4BA3BA11B8.A5.9B$4.17B2.3BA5BA11B7.A.AB3.7B$4.17B.3B
A3BA3BA10B8.2AB.10B$2.9B2A3B2A7BA7BA10B10.13B$.9BABA3BABA6BABA3BAB
A9B11.13BA$10BA7BA7B2A3B2A9B9.A2.11BABA$10BA3BA3BA3B.17B9.3A4.8B2.
2A$11BA5BA3B2.17B8.A7.6B5.B$.11BA3BA4B7.12B8.2A5.9B$2.5B2.4B3A4B8.
3B2A7B.3B.5B4.A3B4.2A$3.3B3.9B9.8B2.11B5.B2AB5.A$4.B5.8B5.2A2.7B4.
A2BA3B2A3B2.BABA7.3A$10.8B5.A2.7B5.A5BA2BA7B10.A$9.9B2.2A.A.B.2B2A
2B4.5BAB3A7B$9.7B4.A2.A.2A2B2AB5.A4BA2B2A6B$7.2AB.7B4.2A.A.4B6.5BA
9B$6.A.AB6.2A7.A.2B.2B7.ABA8B$6.A9.A8.2A.4B7.BA7BA2B$5.2A10.3A8.A.
2A8.7B3AB$19.A5.4A.A.A.2A.A6.B2A3BAB$25.A3.A2.2A.2A.A5.4B2AB6.A$
26.A2.A.A6.A5.BAB2A3B3.3A$25.2A3.2A6.A.AB3.B3A4B.A$39.2AB.10BA.A$
41.2B2AB2.6B2A$41.BA.AB3.4B$42.2A6.3B.2A$48.4B3.A$48.2A5.A.A$49.A
6.2A$46.3A$46.A!
