#CSYNTH guntrue_2541 costs 6438 cells.
#C period 2541 fullperiod 2541 bbox 87 by 74
#CLL state-numbering golly
x = 87, y = 74, rule = LifeHistory
39.2A$38.A.A$32.2A4.A$30.A2.A2.2A.4A$30.2A.A.A.A.A2.A$33.A.ABABAB$
33.A.AB2AB$34.AB.2B$37.3B$37.4B6.2A$35.3B2AB6.A$35.3B2AB3.BA.A$33.
10B.B2A$32.13B$31.14B$30.15B$29.4B2.8B$28.4B5.6B$27.4B4.9B$26.4B5.
2A4.4B$25.4B7.A5.4B$24.4B5.3A7.4B$9.A13.4B6.A10.4B$9.3A10.4B19.4B$
12.A8.4B21.4B$11.2A7.4B23.4B$11.5B3.4B25.4B$13.3B2.4B26.4B$3.2A7.
9B27.5B$3.A8.8B27.9B$2A.A.B3.10B28.9B$A2.3AB.2B2A7B28.9B$.2A2.BA3B
2A7B27.10B23.4B$3.4A12B26.12B20.BA4B$3.A.2B3.7B.B2A2.2A20.13B18.2A
4B2A$4.3AB2.7B.BA.A2.A21.12B18.2A2B2A.3A$7.A4.4B5.2A21.14B18.BA2B.
2B3.A$2.5A5.4B5.A18.18B18.5B.2ABAB$2.A10.4B6.A15.18B20.ABAB.BABA$
4.A9.4B4.2A14.19B19.BAB2A.5B$3.2A10.4B2.2B16.18B.B17.A3.2B.2BAB$8.
2A6.8B15.19B2A12.A4.3A.2A2B2A$9.A7.7B13.19B.B2A12.3A4.2A4B2A$9.A.
2A5.7B2.B2.2B2.22B2.B16.A4.4BAB$10.A2.A4.39B17.2A4.4B$11.2AB3.9BA
30B17.6B$12.10B2A32B20.5B$13.8B2A33B19.7B$14.8B2A29B.4B17.8B$14.
17B.4B8.9B3.2A17.9B$15.15B3.2B10.8B3.A17.6B.4B$15.15B3.3B10.8B3.3A
14.7B.4B$16.13B5.A2B.2A7.6B6.A13.8B2.3BA$18.13B2.A.A2B.A6.6B12.A8.
10B.ABA$17.8B4.2A.A.AB2.A7.7B11.3A5.13B2A$17.6B6.2ABA4.A7.9B13.A3.
16B$17.5B8.B2.5A.A6.9B11.2A2.15B$17.B.B5.2A.A.2A.A4.A.A5.10B10.18B
$18.3B4.A.2A.A2.A.2A2.A4.19B5.17B$17.B2AB11.2A.A.2A3.B.2B2A16B3.
15BA2B$18.2A21.2A3B2A16B2.16BAB$41.2A21B.17B$42.33B2.5B$40.5B2.B2.
2B2.21B3.4B$40.2A4.3B8.19B3.B.B2A$41.A3.B2AB7.19B6.BA.A$38.3A5.2A
8.19B9.A$38.A16.19B10.2A$52.2B.11B2.8B$51.2A3B2A7B4.7B$51.2AB.B2A
5B7.4B.B2A$52.B.8B7.B2A2B.BA.A$57.4B9.2A6.A$59.2B17.2A!
