#CSYNTH guntrue_2756 costs 6336 cells.
#C period 2756 fullperiod 2756 bbox 99 by 64
#CLL state-numbering golly
x = 99, y = 64, rule = LifeHistory
67.2A$44.2A21.A.A$43.A.A23.A4.2A$37.2A4.A21.4A.2A2.A2.A$35.A2.A2.
2A.4A17.A2.A.A.A.A.2A$35.2A.A.A.A.A2.A19.BABABA.A$38.A.ABABAB22.B
2ABA.A$38.A.AB2AB24.2B.BA$39.AB.2B24.3B$34.A7.3B14.2A6.4B8.A$32.3A
7.4B6.2A6.A6.B2A3B6.3A$31.A8.3B2AB6.A7.A.AB3.B2A3B9.A$30.A.A7.3B2A
B3.BA.A8.2AB.10B6.A.A$29.BA.A5.10B.B2A11.13B5.A.AB$28.3BA5.13B13.
14B5.A3B$26.4B6.14B13.15B6.4B$24.6B5.15B15.8B2.4B5.6B$23.7B4.4B2.
8B17.6B5.4B4.7B$16.B.4B.8B2.4B5.6B16.9B4.4B2.8B.4B.B$15.2AB.17B4.
9B14.4B4.2A5.17B.B2A$15.2A18B5.2A4.4B12.4B5.A7.18B2A$16.2B.16B6.A
5.4B10.4B7.3A4.16B.2B$19.17B2.3A7.4B8.4B10.A4.16B$20.16BA2.A9.4B6.
4B16.15B$21.14B.2A3.A8.4B4.4B15.2AB.12B$21.12B7.2A9.4B2.4B15.A.AB
2.11B$17.2A3.10B20.8B16.A5.10B$18.A3.6B2A2B21.6B16.2A5.2B2A6B$17.A
4.6B2A3B21.4B23.3B2A6B$17.2A3.10B21.6B23.10B$20.2AB.8B20.8B22.8B.B
2A.A$17.2AB2AB3.7B18.4B2.4B20.7B3.B2AB3A$18.A.B6.6B17.4B4.4B19.6B
6.B4.A$16.A3.2A4.6B17.4B6.4B19.6B4.2A.3A$16.4A2.A.8B16.4B8.4B18.5B
4.A2.2A$19.A.A.A9B14.4B10.4B16.8B.A.A$16.2A.A.BA2B.7B8.A4.2A2B12.
4B15.8BA.A.2A.A$17.A.A2.2B3.6B6.3A3.ABAB14.4B5.2A7.6B.2BAB.A.2A$
16.A2.2A.B4.7B4.A5.3BA16.4B5.A6.7B2.2B2.A$16.A.A2.A.A3.7B4.2A3.4B
18.4B4.A.AB3.7B3.B.2A$17.A.A2.2A3.8B.4B2.4B20.4B4.2AB2.8B2.A.A2.2A
$18.A8.11B3.4B22.4B5.11B2.2A2.A2.A$27.12B.4B24.4B4.11B7.2A$27.16B
26.4B3.11B$17.A10.14B28.4B.11B$11.B2A3.3A11.10B30.4B.7B9.2A$11.3AB
5.A9.12B30.12B7.A.A$10.A.2AB4.2A6.16B30.13B5.A$9.A.A.2B4.24B6.A24.
14B.B2A$9.A2.A2.2B4.23B3.3A24.16B$10.2A3.3B2.24B2.A25.B.14B.B2A$4.
2A9.B2A.25B.B.A23.2A16BA2.A$3.A.A8.BA2BA27B2A23.2A17B2A2.A$3.A8.B.
2B2A4B.22BA2.2A22.11B5.2B.A.2A$2A.AB.B3.BA9B3.2B7.B3.2B3.3B3A2.A
21.4B2.6B5.B.A$.A.A.2AB.3A9B2.2BAB5.3B.4B3.2B4.A28.6B6.2A$.A.A.2A
2B2A10B3.A.A4.B2AB.B2AB5.4A30.2B2A.A$2A.A2.5BA9B4.A6.2A3.2A7.A31.A
.A.A.3A$A2.4A3BA8B.B2A21.A32.A.2A.A4.A$.2A2.BAB.BA8B.BA.A20.2A31.A
4.A3.2A$3.2A6.7B5.A52.2A4.2A$3.A7.2B.3BA5.2A$5.A9.3BA$4.2A10.3AB!
