#CSYNTH guntrue_1043 costs 8588 cells.
#C period 1043 fullperiod 1043 bbox 113 by 76
#CLL state-numbering golly
x = 113, y = 76, rule = LifeHistory
79.2A$79.A.A$81.A4.2A$77.4A.2A2.A2.A$77.A2.A.A.A.A.2A$79.BABABA.A$
80.B2ABA.A$81.2B.BA$80.3B$71.2A6.4B$72.A6.B2A3B$72.A.AB3.B2A3B8.A$
73.2AB.10B6.3A$51.2A22.13B8.A$52.A22.14B6.A.A$50.A7.2A3.2A6.A3.4BA
10B5.A.AB$48.4A5.B2AB.B2AB4.A.A4.2B2A4B2.4B5.A3B$47.A4.2B3.4B.3B5.
BA2B3.BABA2B5.4B6.4B$46.A2.3A3B3.2B3.B7.2B3.9B4.4B5.6B$22.2A23.2A
2.A22B.4B4.2A5.4B4.7B$22.A.A24.2A27B5.A7.4B2.8B.4B.B$24.A4.2A18.A.
B.24B7.3A5.17B.B2A$20.4A.2A2.A2.A17.A2.24B9.A6.18B2A$20.A2.A.A.A.A
.2A14.3A3.23B17.16B.2B$22.BABABA.A17.A6.24B10.2A2.17B$23.B2ABA.A
24.16B6.2A10.A2.A16B$24.2B.BA26.3BA8B9.A13.2A.14B$23.3B30.2A8B11.
3A15.12B$14.2A6.4B29.2B2A10B10.A16.10B$15.A6.B2A3B26.16B26.10B$15.
A.AB3.B2A3B25.4B.12B25.11B$16.2AB.10B22.4B3.11B8.A17.2B3A5B$18.13B
20.4B2.4B.8B3.2A2.A.A16.B2AB2A2B.B2A.A$18.14B18.4B3.2A4.7B3.A.A2.A
.A14.BABAB2A3.B2AB3A$18.15B16.4B5.A4.7B4.B.2A2.A14.BA3BA6.B4.A$20.
8B2.4B14.4B3.3A6.6B3.2B2.A.A16.BA2BAB4.2A.3A$20.6B5.4B12.4B4.A8.7B
.2BAB.A.2A15.B3AB4.A2.2A$19.9B4.4B10.4B14.9BA.A.A17.8B.A.A$18.4B4.
2A5.4B8.4B16.8B.A2.4A5.A8.8BA.A.2A.A$17.4B5.A7.4B6.4B17.6B4.2A3.A
5.3A6.6B.2BAB.A.2A$16.4B7.3A5.BABA4.4B17.6B6.B.A10.A4.7B2.2B2.A$3.
2A10.4B10.A6.B2AB2.4B18.7B3.B2AB2A8.2A4.7B3.B.2A$4.A9.4B19.A7B20.
8B.B2A11.4B.8B2.A.A2.2A$2.A10.4B21.6B21.10B3.2A10.11B2.2A2.A2.A$2.
5A5.4B5.2A16.4B21.11B4.A9.12B7.2A$7.A4.4B5.A16.6B21.10B3.A10.12B$
4.3AB2.7B.BA.A15.8B20.6BABAB3.2A9.11B$3.A.2B3.7B.B2A15.4B2.4B9.2A
7.7BABA2B14.7B$3.4A12B16.4B4.4B8.A3.2A.8BA2BA2B7.2A5.8B$.2A2.BA3B
2A7B4.A10.4B6.4B9.A2.A9B3A2B2A7.A6.8B$A2.3AB.2B2A7B4.3A7.4B8.4B7.
3A2.7BA2BA5BA6.A.AB2.8B$2A.A.B3.10B7.A5.4B10.4B5.A6.6BABA4B2AB.2B
4.2AB.10B$3.A8.8B5.2A4.4B12.4B4.2A5.5BAB2AB4A4B2A5.12B$3.2A7.9B4.
9B14.9B4.12BA4B.B2A5.12B$13.3B2.4B5.6B16.6B5.4B2.7BA.4B.B6.9B2.B2A
$11.5B3.B3A2.8B16.8B2.4B4.ABA4B14.8B2.BA.A$11.2A7.A14B12.15B5.BA4B
16.6B6.A$12.A8.A13B12.14B6.BA2B18.7B5.2A$9.3A10.13B12.13B5.A3B16.
10B$9.A13.10B.B2A8.2AB.10B5.A.AB16.11B$25.3B2AB3.BA.A6.A.AB3.B2A3B
7.A.A17.11B.2B$25.3B2AB6.A6.A6.B2A3B8.A5.2A10.14B2A$27.4B6.2A4.2A
6.4B7.3A7.A10.12B.B2A$27.3B22.3B7.A9.A.AB4.B2.13B.B$24.AB.2B24.2B.
BA15.2AB.19B$23.A.AB2AB22.B2ABA.A5.2A2B.BA4.20B$23.A.ABABAB20.BABA
BA.A4.B3AB2A.A3.20B$20.2A.A.A.A.A2.A16.A2.A.A.A.2A3.A6B.A3.20B$20.
A2.A2.2A.4A16.4A.2A2.A3.6B2A.2A2.21B$22.2A4.A24.A4.A3.3BA.2BAB.A2B
.6B3.7B2A2B.2B$28.A.A18.2A2.A.3A4.3BAB3.BA3B2.4B5.B.3BA2BA3B2A$29.
2A18.2A3.2A6.2BA.BA2B.A3B3.4B8.2B2A2B.B2A$64.2A.2A6B4.4B7.6B2.B$
65.A.6BA6.3BA7.4B$65.A.2AB3AB7.3BA6.4B$66.AB.2B2A9.3AB6.2B!
