#CSYNTH guntrue_2300 costs 3015 cells.
#C period 2300 fullperiod 2300 bbox 67 by 45
#CLL state-numbering golly
x = 67, y = 45, rule = LifeHistory
48.2A4.2A$48.A.A2.A.A$36.2A12.4A$37.A4.A2.A2.A2B2A2BA$36.A5.4A2.A
2B2A2BA$36.2A2.2A7.BA2BAB$34.2A3.A.A.2A.A4.2B6.2A$33.A2.A.2A.B2A.
2A5.B6.A2.A$3.2A28.3A3.BA2B9.2B2.BA.A.2A$2.A.A31.4A3B7.5B.B2A.A$2.
BA29.2A.A.6B2.3B2A6B3.A$3.2B2.9B.B3.4B7.A.A.2B2AB.5BA2BA6B3.2A$.
12B4A3B.4B7.A.A.B3A2.5BA2BA6B.2A2.A$2A11BA2B2A6B2A5.2A.2A2.B3.5BAB
A6B.A.B.A.A$2A12BA2B2A5B2A15.ABA4BA3B5.B2ABA.A$.B.11BA2BA5B.B15.B
2AB3.4B7.2ABA.A.2A$4.11B2A6B11.A4.3BA16.5A2.A$17.3B.B.3B6.3A3.4B
16.BA4.A$4.11B2A9B5.A5.4B18.5A$.B.11BA2BA10B3.2A3.4B$2A12BA2B2A14B
2.4B22.A$2A11BA2B2A13B3.4B22.A.A$.12B4A14B2.4B18.A5.A$3.2B2.9B.3B.
B.9B.3B18.A.A$2.BA21.10B20.A$2.A.A19.4B2.4B$3.2A8.2A8.4B4.4B18.5A$
12.B2AB6.4B6.4B16.BA4.A$12.4B5.4B8.4B16.BAB2A2.A$13.2B5.4B10.4B3.
2A2B7.BABA.A.2A$5.A7.4B2.4B12.4BA4BAB5.B2ABA.A$4.A.A5.5B.4B3.2A.2A
2.B3.2BA6BA4B.A.B.A.A$5.A.14B5.A.A.AB2A2.2BA3B2A3B2A2B.2A2.A$6.14B
6.A.A.2B2AB.2BABA2B3A5B3.2A$6.14B7.2A.A.6B2.5BAB2A2B3.A$6.15B9.4A
3B7.2B3A.B2A.A$5.3B2A12B5.3A3.A3B9.2B2.BA.A.2A$5.3B2A13B4.A2.A.2A.
B2A.2A5.A6.A2.A$3.2AB.11B2.4B4.2A3.A.A.2A.A4.2B6.2A$2.A.AB2.8B5.4B
5.2A2.2A7.BA2BAB$2.A5.10B4.4B4.A5.4A2.3A2B3A$.2A5.B.B5.2A5.4B5.A3.
A2.A2.B2A2B2AB$9.3B4.A7.3BA3.2A11.A2BA$8.B2AB5.3A5.3BA13.A.A2.A.A$
9.2A8.A6.3AB12.2A4.2A!
