#CSYNTH guntrue_420 costs 1640 cells.
#C period 420 fullperiod 420 bbox 40 by 41
#CLL state-numbering golly
x = 40, y = 41, rule = LifeHistory
23.2A4.2A$23.A.A2.A.A$25.A2BA$23.B2A2B2AB$23.3A2B3A$24.BA2BAB$17.A
8.2B5.A$15.3A8.B5.A.A$14.A9.2B6.A.A$.2A11.2A5.B2A4B3.2A.A.2A$2.A5.
8B4.A7B.BAB2.A.A$2.A.AB.8B4.BA2BA6BAB3A2.A$3.2AB.10B.2BA2BA9B2.A.A
$5.14B2.3A6B2AB3A.2A$5.6B2A6B3.B3A2B.2BAB4.A$5.6B2A3B2A2B3.B2AB4.B
5A2.A$5.3A8B.4B16.3A$4.2B2A6B4.4B11.B3A$3.3B3A5B.2B2.4B8.2BAB3.2A$
.4B2ABA9B2.4B7.B2AB3A.A$5B2A11B3.4B5.5B2.A$.5B3A10B3.4B5.BAB3A2.A$
2.6BA11B3.4B4.BAB2.A.2A$2.18B4.4B5.2A.A.A$2.11BA6B5.4B5.A.A.A$3.
10B3A5B5.4B4.A.A.2A$4.11B2A5B5.4B4.A$4.9BAB2A4B7.4B$5.2B.5B3A3B10.
4B$8.6B2A2B12.4B$4.B.8B3A14.4B$3.B2A3B2A6B15.4B$3.6B2A6B16.4B$3.
14B17.4B$5.10B.B2A16.4B$7.8B.BA.A16.3BA$6.8B5.A17.ABA$6.2A11.2A17.
2A$7.A31.B$4.3A$4.A!
