#CSYNTH guntrue_3990 costs 5183 cells.
#C period 3990 fullperiod 3990 bbox 73 by 71
#CLL state-numbering golly
x = 73, y = 71, rule = LifeHistory
42.A2.2A$42.4A.A$47.A$40.7A.2A$39.A2.B3.A.A2.A$39.2A2.2A.AB2.2A$
42.B2AB2A$43.5B$44.3B$20.A.A20.5B$17.A2.2A.A18.6B$17.3A3.A10.2A6.
8B$21.2A.2A.A7.A5.2B2A5B$19.2A.B.A.2A7.A.AB3.B2A4B$19.A2.AB12.2AB.
10B$20.4A14.13B8.2A$17.3A2.3B13.14B6.B2AB$8.2A3.2A2.A2.2A3B13.15B
5.4B$8.A.A.A.A3.A.A.4A14.8B2.4B5.2B$10.A.A4.2A.A.3ABA.2A10.6B5.4B
2.4B7.A$5.2A2.A.2BA3.A2.3A2B.A.2A9.9B4.4B.5B5.A.A$4.A.A2.A.3A4.2A
2.B.A.A11.3AB4.2A5.14B.A$3.A2.A.2A.A8.ABABA.4A7.3BA5.A7.14B$4.3A2.
2BAB7.A3.BA4.A5.3BA7.3A4.14B$7.2A2BA2B7.3A.B.3A5.4B10.A3.9B2A4B$6.
A2.A.AB10.ABABA6.4B14.10B2A5B$6.2A2.2AB11.3A6.4B14.18B$10.2B5.2A5.
3B5.4B14.4B2.11B.B2A$10.2B6.A6.B.B3.4B14.4B5.8B2.BA.A$11.B5.A8.8B
14.4B4.10B5.A$10.2AB4.2A5.BA7B14.4B5.2A5.B.B5.2A$.2A6.A2BAB5.A3.BA
BA5B14.4B7.A4.3B$2.A4.3B2A3B4.A3.2B2A5B13.4B5.3A5.B2AB$2.A.AB.8B.B
A.A.2AB.8B4.2A5.4B6.A8.2A$3.2AB.8B.B2A.A.AB3.7B2.B2AB3.4B20.A$5.
12B3.A5.2A2B.4B2.3B2.4B12.2A.7A$5.12B3.A5.2A3.3B2A3B2.4B14.2A9.2A$
5.12B4.2A10.BABA7B13.A4.6A2.A$7.10B5.A10.BA8B13.A.4A6.A.A$9.7B5.A
11.9B14.A.A2.2B5AB.2A$9.8B5.3A7.8B11.A2.A.A.BABABA.AB.A.A$8.5B.4B
7.A5.4B2.3BA10.4A.2ABA3.B.A.2A.A$8.6B.4B5.2A4.4B4.B2AB13.2A3.4A.A.
A2.2A$7.6B3.4B4.9B6.ABAB8.3A.B.3A4.2A.A.A$3.B2.3BA3B4.4B5.7B7.4B6.
A2.ABABA2.3A3.A2.A$.7BABA2B5.4B2.7BAB8.4B5.2A2.3A3.A2.3A3.2A$.7BAB
A2B6.11BABAB.B6.4B8.BAB6.A$9BA3B7.11BA3B2A.2A3.B3A8.B$11B.B2A6.14B
2A.A.A3.A3B3.4B$.9B2.BA.A6.15B3.A4.A7B2A.8B$.7B7.A8.3B2AB4.4B2.2A
4.6BA2BA3B4A3B$2.6B7.2A7.3B2AB3.A2.AB9.4B2A2BA3BA2B2A4B$3.4B19.4B
3.4AB10.4B2A2BA3BA2B2A3B$4.4B18.3B10.A4.2A2.B.3B4A3BA2BA4B$5.4B14.
AB.2B7.5A4.AB.A2B2.8B.2A3B.B2A$6.4B12.A.AB2AB6.A10.3AB11.4B2.BA.A$
7.4B11.A.ABABAB7.A4.4A3BA10.B9.A$8.4B7.2A.A.A.A.A2.A4.2A4.A2.B.3A
8.BA3B7.2A$9.4B6.A2.A2.2A.4A11.8AB6.AB3A3.B$10.4B7.2A4.A17.BA.B.2A
6.5BA.B2A$11.4B12.A.A13.2A5.A6.B2A3BA2B2A$12.4B12.2A13.A7.3A3.A2.
2BA2B.B$13.4B27.A8.A4.4AB$14.4B25.2A$15.4B39.4AB$16.4B37.A2.2BA2B.
B$17.4B36.B2A3BA2B2A$18.4B36.5BA.B2A$19.3BA35.AB3A3.B$20.3BA34.BA
3B$21.3AB35.B!
