#CSYNTH guntrue_5220 costs 3621 cells.
#C period 5220 fullperiod 5220 bbox 71 by 51
#CLL state-numbering golly
x = 71, y = 51, rule = LifeHistory
31.2B$29.6B$2.A9.A14.10B22.A$2.3A5.3A12.4BA4BA4B18.3A4.2A$5.A3.A
14.3B2AB4AB2A3B16.A3.2A2.A2.2A$4.2A.B.2A14.4BA4BA4B18.3A2.A.A.2A.A
$4.7B16.10B22.A.A.A.A4.A$6.3B20.6B24.2BA.A.B.3A$4.7B20.2B27.A2BAB.
2A$3.4BA4B8.2A.A7.2B21.4B.B.2A3B$3.3BABA3B3.2A2.A2.2A8.B20.12B.2A$
4.3BA3B4.A.A2.A10.2AB17.8BAB5.2A$4.7B5.B.2A.3A6.B2A2B5.2A8.8B3A2B$
3.9B3.2B2.A3.A4.8B4.A8.8B2AB2AB.B$.17B.A3.A.AB.8B.BA.A3.AB3.7B2A3B
2AB2A$.15B2A.2A3.2AB.2B2A4B.B2A3.A.A11B2AB2A2B2A$2BA13B2A.A6.3BABA
6B6.A20B$.ABA8BA2B.B4.A4.3B2A7B7.B.18B$BABA7BABAB5.2A4.12B11.13B$.
BA8B2A3B4.A7.10B4.A7.12B$3.13B.BA.A9.7B5.3A5.13B$5.11B.B2A10.8B7.A
5.12B$5.2B2A9B11.5B.4B5.2A3.16B$5.BA2BA8B11.6B.4B8.13B2.2A$6.B2A9B
10.6B3.4B7.13B2.A$7.11B6.B2.3BA3B4.4B8.10B4.3A$10.8B4.7BABA2B5.4B
5.12B6.A$10.9B3.7BABA2B6.4B4.10B$9.5B2.4B.9BA3B7.4B2.13B$9.6B2.15B
.B2A6.2B2A.13B$8.6B4.13B2.BA.A6.2A14B$4.B2.3BA3B5.10B7.A7.BA11B$2.
7BABA2B6.9B7.2A7.13B$2.7BABA2B7.6B19.12B$.9BA3B8.4B20.13B$.11B.B2A
7.A2B17.18B.B$2.9B2.BA.A5.ABAB17.20BA$2.7B7.A5.3B17.2A2B2AB2A11BA.
A$3.6B7.2A3.5B16.2AB2A3B2A7B3.BA$4.4B13.B3AB17.B.B2AB2A8B$5.4B11.
2B3A2B18.2B3A8B$6.4B10.3BA3B13.2A5.BA8B$7.4B8.9B12.2A.12B$8.4B7.9B
14.3B2A.B.4B$9.4B7.3BA3B13.2A.BA2BA$10.4B6.2B3A2B11.3A.B.A.A2B$11.
4B6.B3AB11.A4.A.A.A.A$12.4B5.5B12.A.2A.A.A2.3A$13.3BA5.3B14.2A2.A
2.2A3.A$14.3BA4.ABA17.2A4.3A$15.3AB4.A24.A!
