#CSYNTH guntrue_2014 costs 9471 cells.
#C period 2014 fullperiod 2014 bbox 123 by 77
#CLL state-numbering golly
x = 123, y = 77, rule = LifeHistory
92.2A$21.A11.A58.A.A5.2A$21.3A7.3A30.2A28.A4.A.A$24.A5.A32.A.A24.
4A.2A2.A$7.A15.2A5.2A25.2A4.A26.A2.A.A.A.2A$7.3A13.B3.5B23.A2.A2.
2A.4A24.BABABA.A$10.A9.4B2.4B25.2A.A.A.A.A2.A25.B2ABA.A$9.2A6.15B
26.A.ABABAB28.2B.BA$9.5B2.17B25.A.AB2AB28.3B7.A$11.23B25.AB.2B20.
2A6.4B7.3A$10.2A22B28.3B20.A6.B2A3B8.A$10.2A22B28.4B6.2A11.A.AB3.B
2A3B7.A.A$11.B.19B.B2A24.3B2AB6.A13.2AB.10B5.A.AB$13.18B2.BA.A23.
3B2AB3.BA.A15.13B5.A3B$14.16B6.A21.5B2A3B.B2A16.14B6.4B$15.15B6.2A
19.5B2A6B18.15B5.6B$16.12B28.6BABA5B20.8B2.4B4.7B$13.15B27.7BA7B
20.6B5.4B2.8B.4B.B$12.16B26.4B2.8B21.9B4.17B.B2A$3.2A7.12B.4B24.4B
5.6B20.4B4.2A5.18B2A$2.A2.A2.2A2.11B3.4B22.4B4.9B18.4B5.A6.16B.2B$
3.2A2.A.A2.8B.4B2.4B20.4B5.2A4.4B16.4B7.3A2.17B$5.2A.B3.7B4.2A3.4B
18.4B7.A5.4B14.4B9.A2.A16B$5.A2.2B2.7B4.A5.4B16.4B5.3A7.4B12.4B8.A
3.2A.14B$2.2A.A.BA2B.6B6.3A3.4B14.4B6.A10.4B10.4B9.2A7.12B$2.A.2A.
A.A8B8.A4.4B12.4B19.4B8.4B20.10B$6.A.A.8B14.4B10.4B21.4B6.4B21.2B
2A6B$3.2A2.A4.5B16.4B8.4B23.4B4.4B21.3B2A6B$.3A.2A4.6B17.4B6.4B25.
4B2.4B23.10B$A4.B6.6B17.4B4.4B27.8B24.8B.B2A.A$.3AB2AB3.7B18.4B2.
4B29.6B24.7B3.B2AB3A$3.A.2AB.8B20.8B31.4B25.6B6.B4.A$7.10B21.6B31.
6B25.6B4.2A.3A$7.6B2A3B21.4B31.8B24.5B4.A2.2A$7.6B2A2B21.6B29.4B2.
4B22.8B.A.A$7.10B20.8B27.4B4.4B2.B9.A8.8BA.A.2A.A$6.12B7.2A9.4B2.
4B25.4B6.8B7.3A6.6B.2BAB.A.2A$6.14B.2A3.A8.4B4.4B23.4B8.9B8.A4.7B
2.2B2.A$5.16BA2.A9.4B6.4B21.4B10.8B7.2A4.7B3.B.2A$4.17B2.3A7.4B8.
4B19.4B12.8B6.4B.8B2.A.A2.2A$.2B.16B6.A5.4B10.4B10.A6.4B12.10B7.
11B2.2A2.A2.A$2A18B5.2A4.4B12.4B7.3A5.4B14.9B6.12B7.2A$2AB.17B4.9B
14.4B5.A7.4B16.7B7.12B$.B.4B.8B2.4B5.6B16.4B4.2A5.4B7.A9.9B5.11B$
8.7B4.4B2.8B17.9B4.4B7.A.A6.14B3.7B$9.6B5.15B16.6B5.4B8.A.A5.16B.
9B$11.4B6.14B16.8B2.4B8.2A.2AB4.29B$13.3BA5.13B14.15B8.A2.A2.AB2.
32B$14.BA.A5.10B.B2A12.14B8.A.A.A.ABA35B$15.A.A7.3B2AB3.BA.A11.13B
10.A.A.A.A36B$16.A8.3B2AB6.A9.2AB.10B13.A.A.37B$17.3A7.4B6.2A7.A.A
B3.B2A3B14.A.BAB.2B2.30B.B2A$19.A7.3B16.A6.B2A3B14.B2A2B6.27B3.BA.
A$24.AB.2B16.2A6.4B17.2B7.29B5.A$23.A.AB2AB24.3B18.2B7.12B.14B6.2A
$23.A.ABABAB24.2B.BA14.B2AB7.9B4.12B$22.2A.A.A.A2.A21.B2ABA.A14.2A
8.7B6.B2A4B.4B$23.A2.2A.4A20.BABABA.A23.9B6.2A3B3.2B$21.A.A4.A22.A
2.A.A.A.A.2A11.2A6.10B7.B.2B2.B2AB$21.2A5.A.A20.4A.2A2.A2.A10.B2AB
6.8B7.2A6.2A$29.2A24.A4.2A12.4B5.8B8.A$53.A.A19.2B5.9B9.A$53.2A12.
A7.4B2.8B10.2A$66.A.A5.5B.4B2.B$67.A.14B$68.14B$68.14B$68.15B$67.
3B2A12B$67.3B2A13B$65.2AB.11B2.4B$64.A.AB2.8B5.4B$64.A5.10B4.4B$
63.2A5.B.B5.2A5.4B$71.3B4.A7.3BA$70.B2AB5.3A5.3BA$71.2A8.A6.3AB!
