#CSYNTH guntrue_187 costs 2968 cells.
#C period 187 fullperiod 187 bbox 56 by 53
#CLL state-numbering golly
x = 56, y = 53, rule = LifeHistory
16.2A$15.B2A2B7.2A7.A$16.4B6.B2AB6.3A$11.2A4.6B4.2B10.A$10.B2AB2.
8B4.2B8.A.A$11.3B.13B2ABA6.A.AB$9.2B.B2.18B6.A3B$8.18B2ABA3BAB6.4B
$7.19B3AB4A2B5.6B$6.26BA4B4.7B$6.32B2.8B.4B.B$6.26B3.17B.B2A$4.2AB
4.B.16B.B5.3BA14B2A$3.A.AB8.10B.2B8.4BA11B.2B$3.A12.7B12.3B3A11B$
2.2A9.11B7.2A.A16B$12.12B7.A.2A.14B$12.12B14.12B$3.A8.11B16.10B$2.
A.A2.2A3.8B.4B14.2B2A6B$.A.A2.A.A3.7B4.2A13.3B2A6B$.A2.2A.B4.7B4.A
15.10B$2.A.A2.2B3.6B6.3A12.8B.B2A.A$.2A.A.BA2B.7B8.A11.7B3.B2AB3A$
4.A.A.A9B20.6B6.B4.A$.4A2.A.8B22.6B4.2A.3A$.A3.2A4.6B22.5B4.A2.2A$
3.A.B6.6B20.8B.A.A$2.2AB2AB3.7B11.A8.8BA.A.2A.A$5.2AB.8B12.3A6.6B.
2BAB.A.2A$2.2A3.10B15.A4.7B2.2B2.A$2.A4.6B2A3B13.2A4.7B3.B.2A$3.A
3.6B2A2B14.4B.8B2.A.A2.2A$2.2A3.10B16.11B2.2A2.A2.A$6.12B14.12B7.
2A$6.14B.2A9.12B$5.16BA2.A7.11B$4.11B3A3B2.2A6.9B12.2A$.2B.11BA4B
8.2B.10B11.A$2A14BA3B7.16B.B4.BA.A$2AB.17B3.23B2.B2A$.B.4B.8B2.32B
$8.7B4.5B2A25B$9.6B5.3BA27B$11.4B6.3BABA5B2A17B$13.3BA6.2BA6B2A17B
$14.BA.A6.8BA8B5.B.4B$15.A.A6.5B2A7B11.4B$16.A7.4BA2BA6B12.4B$17.
3A8.ABA4.2B14.4B$19.A9.A6.2B14.3BA$35.B2AB14.ABA$36.2A16.2A!
