#CSYNTH guntrue_1170 costs 2499 cells.
#C period 1170 fullperiod 1170 bbox 49 by 51
#CLL state-numbering golly
x = 49, y = 51, rule = LifeHistory
30.B$29.BAB$29.3A$28.ABABA$28.ABABA$27.2B3A2B$27.3BA3B$26.9B$26.9B
$27.3BA3B$18.A8.2B3A2B$17.A.A8.ABABA$8.2A.2A4.A.A8.ABABA$9.A.A4.2A
.2A8.3A$8.A2.A.A.2B4.B7.BAB$8.3AB4AB5A4.5B$14.3BA2.2B3.2BA4B9.2A$
10.4AB4A3BA4BAB.3B8.A$9.A.A.B2.A.5B.2BABAB3AB4.BA.A$9.A3.4A.A.2BA
2B3A2BA2BA3B.B2A$10.3A4.A.ABA.BA3BAB5A4B6.A$12.A.2A.A.A3.4BA4BAB2A
3B4.3A$13.2A.A2.A3.2BABA4BABA4B3.A$17.2A5.B3A4B2A5B3.2A$24.B3A10B.
5B$17.2B5.6B2.5B2.BAB$15.6B4.4B3.4B2.BABAB$13.2A6B2A.4B3.4B3.A3BA$
11.BA2BA4BA2BA2B4.4B4.A3BA$10.2BA2BA4BA2BA2B3.4B5.BABAB$11.BA2BA4B
A2BAB3.4B7.BAB$13.2A6B2A4.4B3.AB2.5B2.BA$15.6B5.4B3.A.ABABABABABA.
A$11.A5.2B6.4B4.A.ABABABABABA.A$11.3A10.4B4.2A.A.B.A.A.B.A.2A$14.A
8.4B6.A2.2A.A.A.2A2.A$13.2A7.4B7.A4.2A.2A4.A$13.5B3.4B9.3A7.3A$4.
2A9.3B2.4B12.A.2A.2A.A$3.A.A8.9B14.A.A.A.A$3.A8.B.8B$2A.AB.B3.BA9B
$.A.A.2AB.3A9B$.A.A.2A2B2A10B$2A.A2.5BA9B$A2.4A3BA8B.B2A$.2A2.BAB.
BA8B.BA.A$3.2A6.7B5.A$3.A7.2B.3BA5.2A$5.A9.3BA$4.2A10.3AB!
