#CSYNTH guntrue_8460 costs 4752 cells.
#C period 8460 fullperiod 8460 bbox 72 by 66
#CLL state-numbering golly
x = 72, y = 66, rule = LifeHistory
32.B2A3B$25.B4.3B3A4B$24.2AB.7B2ABA3B2.B.BA4B$4.A3.2A14.A5BA4BA2BA
6BABA6B4.B$3.A.A2.A16.4BA5B2ABAB.3BABA9B.B2A$3.A.A4.A10.2A2.A3BA3B
3A7BA2BA11B2A$4.A.5A10.2A4.A4.B2A9BABA12B$6.A30.8BABA11B$5.A2.B2A
5.2A3.4A3.A7.BA5B3.BA4B4.B$4.A.3B2AB4.A3.BAB2.A.2BA5.2A2B$4.2A.5B.
BA.A3.4B2A3BA4.2B2A$8.3B2.B2A5.4B4A4.4B$7.8B5.4B2.3B3.4B$6.8B5.4B
6.B.4B5.B2.BA$4.5B3A2B4.4B7.5B4.B3A3BA$.2B.6B2A2B3.4B8.3BA5B5A.A$
2A7BA3B3.4B9.4BA2B2.B.A$2AB.15B10.2B3A2B3.2AB$.B.15B5.2A4.7B3.2A$
4.4BA9B5.A4.9B$4.3B3A9B.BA.A4.5B.4B$4.2BA2BA9B.B2A4.7B.4B$2.2AB.B
2A12B6.7B2.4B$.A.AB.15B6.2A3B2A3.3BA$.A5.14B6.B5AB4.ABAB$2A5.15B.B
3.B2AB2AB5.2A2B$5.16B.B2A2.B2AB2AB6.4B$4.5B3.11B2A3.B3AB8.4B15.2A$
3.5B3.10B.2B4.5B9.4B14.A$3.4B4.BA8B7.4B10.4B2.5BA3.BA.A$3.3B5.BA6B
9.4B10.10B4A.3A$4.B5.8B9.4B3.B2A3B.10B2ABAB2A$3.2A4.2AB2.3B10.8BA
2BA11B3ABA2BA$3.A4.A.AB.5B.2A7.2B2A7BA5B2A4B2ABABA$4.A3.A4.B2A3B.A
7.BA2BA6BA5B2A5B4A4.A$3.2A2.2A5.2AB2.A10.2A7BA5BA7BA4.3A$18.A13.3B
A2BA10B8.A$14.5A.A13.B2A3B3.7B7.2A$14.A4.A.A25.4B3.5B$16.A2.A.A26.
4B2.3B9.2A$15.2A3.A28.9B8.A.A$50.8B.B8.A$51.11B3.B.BA.2A$51.12B.B
2A.A.A$51.14B2A.A.A$51.8B2A5B2.A.2A$49.2AB.5BA2BA3B4A2.A$48.A.AB.
6B2A2B.BAB2.2A$40.B2A5.A5.7B6.2A$40.3AB3.2A5.4B.2B7.A$39.A.2AB9.4B
9.A$38.A.A.2B8.4B10.2A$38.A2.A2.2B5.4B$39.2A3.3B3.4B$44.B2A.5B$31.
2A.2A7.BA2BA4B$31.2A.A8.2B2A4B$34.A.B3.2A8B$34.2A2B.3BA7B$32.2A2.A
2BAB2A7B$31.A2.AB2A12B$31.2A.A.AB3.7B.B2A$32.A2.3AB2.7B.BA.A$32.A
5.A4.2BAB5.A$33.5A5.3BA5.2A$35.A8.3AB!
