#CSYNTH guntrue_2673 costs 6664 cells.
#C period 2673 fullperiod 2673 bbox 98 by 68
#CLL state-numbering golly
x = 98, y = 68, rule = LifeHistory
38.2A$24.2A3.2A7.A2.A$24.A.A.A.A9.4A$17.2A7.A.A7.4A4.A$18.A6.2A.2A
6.A2.A.BA2.A$18.A.AB2.B.B.B.B2.BA.A2.B2A.3A$10.2A7.2AB.2B2AB2A2B.B
2A4.B.A$11.A9.2B2A5B2A2B5.BA2.A$11.A.AB6.2BA3BA3BA2B5.4A.A$12.2AB
7.BA.2BA2B.AB5.A.B.2A$3.2A9.3B9.3B6.2A.2BA$3.A4.A5.4B9.B6.A.2A.A$
5.A.A.A5.4B9.3B2.A2B.2A3.2A$4.3A2.A5.4B.3B2.7B2.2BA.B2.A2.A$.2A6.A
.AB.19B2.7ABA.A$.A.4A3.2AB.B2A6B2A4BA3B2.4B2AB2.A$3.B3.A4.2BA2BA
10BABA3B6.A.2A$3.B3A5.2B2AB2A8B2AB2A2B5.3AB$2.2A.A6.3BABA10BA2BA2B
4.A3.B$.A2.B2A4B2.3BA4B2A6B2AB.B2A3.4A.A$A.AB7A2.19B.BA.A6.2A$.A2.
A2.B.A2B2.7B2.3B.4B5.A2.3A$2.2A3.2A.2BA2.3B9.4B5.A.A.A$6.A.2A.A6.B
9.4B5.A4.A$5.A2B.2A6.3B9.2BAB8.2A$2.2A.B.A5.BA.2BA2B.AB6.2B2A47.B.
B$.A.4A5.2BA3BA3BA2B6.2A2B45.B2A3B$2.A2.AB5.2B2A5B2A2B7.4B44.A2BA
2B10.2A$3.A.B4.2AB.2B2AB2A2B.B2A6.4B42.2B2A4B2.2B5.A$3A.2AB2.A.AB
2.B.B.B.B2.BA.A6.4B30.2A9.13B.BA.A$A2.AB.A2.A6.2A.2A6.A7.4B25.2A3.
A6.16B.B2A$.A4.4A7.A.A7.2A7.3BAB23.A2.A7.BA12BA4B$2.4A9.A.A.A.A13.
2BABA3B19.2A2.3A5.BABA10BABA4B$6.2A6.A.A.A.A.A10.5B2A3B18.A2.2A3.
2B3.BABA11BA4B$4.A2.A6.A.A.A.A.A10.10B18.A.A2.3A2B3.2BA15B.B2A$2.
4A9.A.A.A.A11.11B18.A.2AB.A23B.BA.A$.A4.4A7.A.A7.2A4.3B2A7B15.A.A
3.2A19B2.2B5.A$A2.2A.A2.A6.2A.2A6.A7.ABA2B2.4B14.2A.2A21B10.2A$3A.
2AB2.A.AB2.B.B.B.B2.BA.A5.4BA5.BABA16.A.B.19B$3.A.A4.2AB.B2A3B2AB.
B2A6.4B7.B2AB12.2A2.A5.16B$2.A2.2A5.2B9A2B7.5B8.A3B11.A.2A6.10B3.
4B.2A$.A.2B2A5.B2A7B2AB6.5B10.4B21.8B3.B2A3B.A$2.2A.B.B5.2B.5B.2B
6.5B12.4B19.9B4.2AB2.A$5.B2A.2A6.3B9.2A2B8.2A5.4B10.A6.10B8.A$6.A.
2B.A6.B9.2B2A5.A4.A6.4B7.3A5.10B5.5A.A$2.2A3.AB.A2B2.3B9.2BAB5.A.A
.A9.4B5.A7.7BA3B5.A4.A.A$.A2.A2.B.BAB2.3BABAB2.BAB.4B5.A2.3A9.4B4.
2A5.7BABA2B7.A2.A.A$A.3A2B4A2.4B2A4BABA6B.BA.A6.2A7.9B4.8BABA2B6.
2A3.A$.A2.4B2AB2.5BA3BA2B2AB2A2B.B2A3.4A.A8.6B5.10BA3B$2.2A.B6.11B
A4B3A3B4.A3.A10.8B2.13B.B2A$3.4A5.3BA2BA8BA2BA3B5.4A8.24B2.BA.A$3.
A3.A4.3B3A4BA11B6.B.2A7.14B.7B7.A$.A.4A3.2AB.2B2AB2A2BA3BA5B2.B2A
4B2.A6.13B3.6B7.2A$.2A6.A.AB.6BABA4B2A4B2.4A2B3A.A3.2AB.10B5.4B$4.
3A2.A5.4B.BAB2.BABA3B2.BAB.B2.A2.A3.A.AB3.B2A4B7.4B$5.A.A.A5.BA2B
9.3B2.2BA.BA3.2A4.A5.2B2A5B7.4B$3.A4.A5.2A2B9.B6.A.2B.A7.2A6.8B8.
4B$3.2A9.3A9.3B6.2A.2AB14.6B11.4B$12.3A7.2B.5B.2B5.B.B.2A12.5B12.
4B$11.A.AB6.B2A7B2AB5.2A2B.A12.3B14.4B$11.A9.2B9A2B5.2A2.A12.5B14.
4B$10.2A7.2AB.B2A3B2AB.B2A4.A.A12.B2AB2A15.4B$18.A.AB2.B.B.B.B2.BA
.A2.B2A.3A6.2A2.2A.AB2.2A12.4B$18.A6.2A.2A6.A2.A.2A2.A6.A2.B3.A.A
2.A13.4B$17.2A7.A.A7.4A4.A8.7A.2A16.4B$24.A.A.A.A9.4A16.A19.3BA$
24.2A3.2A7.A2.A13.4A.A20.3BA$38.2A15.A2.2A22.3AB!
