#CSYNTH guntrue_213 costs 3828 cells.
#C period 213 fullperiod 213 bbox 66 by 58
#CLL state-numbering golly
x = 66, y = 58, rule = LifeHistory
10.2A5.2A15.2A.A.2A$9.A2.A.BA2B.A7.A.2A.A2.A.2A2.A$9.2A.A2BAB.2A7.
2A.A.2A.A4.A.A$10.A.A2.A2.6B8.B2.5A.A14.A$9.BA.3AB4.5B6.2ABA4.A14.
3A$8.A3B.2A5.7B4.2A.A.AB2.A12.A$8.3BA8.13B2.A.A2B.A11.2A$6.3A.A7.
13B5.A2B.2A8.5B$5.B4A7.15B3.3B11.4B$6.A.B8.5B3A7B3.2B12.5B$16.5BA
2BA8B.4B10.6B.B$16.4BA3BA20B3.9B$15.5BA25B2.11B.B$9.2A3.6BA3BA21B
2.12B2A$10.A2.2AB3.2BA2BA21B.13B2A$10.A.A2.A4.2B3A34B.B$8.2A.A.2A
5.6B3.B2.2B2.22B$7.B.A.A.A5.6B14.20B$5.B2A.3A.A4.9B14.20B$3.B2A.AB
2.2A4.4B4.2A15.19B$2.2A.AB9.4B5.A15.19B$2.2B.2BA7.4B7.3A12.17B2ABA
.2A$2.AB.2B7.4B10.A10.2AB.3B.11B2A.2A.A$.BAB3A6.4B21.A.AB6.11B$2A
2B.B.B4.4B22.A8.10B$.BA2.3B3.4B22.2A7.10B$5.3B2.4B32.11B$5.BA6B33.
11B$4.BABA4B33.13B$4.A2BA3B31.2B.13B.2B$3.2B2A5B29.21B$3.10B26.25B
$3.6B.4B25.25B$.2AB.3B3.4B23.27B$A.AB2.B5.4B22.27B$AB11.4B20.29B$.
AB11.4B20.27B$.3BA10.4B19.6B2.11B2.6B$.2A.AB10.4B17.A3B.B3.8B.B4.B
.3BA$2.B.AB11.4B15.BABA7.B.4B10.ABA$.4A13.4B13.2B2A11.3B11.2A$A4.
2B12.4B11.4B12.4B11.B$A.6A12.4B9.4B12.BA3B$.2A.B2A.A12.4B7.4B12.BA
BAB$5.ABA2B12.4B5.4B13.A.A2.2B2.B$7.BA4.A9.4B3.4B12.3A2.3AB.B2A$7.
BAB3.3A8.4B.4B3.A8.A3.2A2.BA2B2A$8.A7.A8.7B3.A.A3.A4.3A2.2A.AB.B$
15.2A9.5B4.A.A2.A.A5.A.A2.AB$15.4B7.6B4.A.2BA.A6.A.A$17.2A.A2.4B2A
4B4.2B2.A8.A$16.BA.3BA.2BA2BA4B3.4A$17.B2A2BA4BABA3B3.B$18.A3.A4.B
A3B4.3A$18.BA4B5.5B2.B2.A$19.AB2ABA7.2A.2BABA$22.BAB7.A.BABA.A.A$
23.A9.2A5.2A!
