#CSYNTH guntrue_6900 costs 3120 cells.
#C period 6900 fullperiod 6900 bbox 60 by 52
#CLL state-numbering golly
x = 60, y = 52, rule = LifeHistory
31.2B$9.2A5.2A11.6B$7.BA2BA3.A2BAB7.2A6B2A$7.BA2B5.2BAB5.BA2BA4BA
2BAB$7.BA2BAB.BA2BAB4.B6A2B6AB$7.B2AB2A.2AB2AB5.BA2BA4BA2BAB$9.3BA
.A3B9.2A6B2A$8.3B2A.2A3B10.6B$8.5B.5B12.2B$7.6B.6B11.2B23.A$8.5B.
5B12.B22.3A$7.6B.6B10.B2A20.A$7.2B3AB.B3A2B2.2A5.BA2BA6.2A4.A6.2A$
7.BA4B.4BAB3.A4.3B2A3B4.A4.A.A3.4B$7.BA3BA.A3BAB3.A.AB.8B.BA.A5.A.
5B$7.2B3AB.B3A2B4.2AB.8B.B2A7.7B$7.3BA2B.2BA3B6.12B9.4B2A4B.B$7.6B
.6B6.12B9.4B2A3B.B2A$7.6B.6B6.12B9.11B2A$7.6B.6B6.10B11.9B.2B$8.5B
.5B8.7B8.2B2.10B$7.13B6.8B7.2A13B$8.12B5.4B.5B6.2A13B$8.12B4.4B.6B
7.2B.11B$9.4B.5B4.4B3.6B9.9B.B2A$7.13B2.4B4.3BA3B2.B7.7B.BA.A$7.6B
.5B2.4B5.2BABA7B4.7B5.A$7.4B2.11B6.2BABA7B3.8B5.2A$7.2B2AB.10B7.3B
A9B.4B2.4B$9.2A2.9B6.2AB.15B4.4B$15.6B6.A.AB2.13B6.4B$15.5B7.A7.
10B8.4B$15.4B7.2A7.9B10.4B$15.3B18.7B12.4B$13.B.4B17.6B14.3BA$10.
6B2AB18.4B16.ABA$9.B3A2BABAB18.3B18.2A$2A.2B3.BA4B2ABAB18.4B18.B$A
2.2AB2.7BA2B20.3B$.2ABAB2.ABA4B2AB19.5B$2.3BA3BA7B20.B3AB$2.3BAB3.
2B.3B20.2BABA2B$.2ABAB7.3B20.2B3A2B$A2.2AB7.2B20.3B3A3B$2A.2B6.6B
18.3B3A3B$9.10B17.2B3A2B$7.BA2BAB2ABA2BAB15.2BABA2B$6.B2A2BA4BA2B
2AB15.B3AB$7.BA2BAB2ABA2BAB16.5B$9.10B19.3B$11.6B21.3B$13.2B24.B!
