#CSYNTH guntrue_3652 costs 2496 cells.
#C period 3652 fullperiod 3652 bbox 64 by 39
#CLL state-numbering golly
x = 64, y = 39, rule = LifeHistory
17.B$16.4B7.B$14.2B3A4B3.3B6.2A$14.2B3A6B.3B6.A$15.BAB2A10B2.BA.A
12.A$14.5BA7BA3B.B2A12.A.A$14.3B2A2BA4B3A4B14.A.A4.2A$14.4B3A4BA2B
2A3B12.3A.2A4.A$12.2AB.3BA7BA5B7.A3.A4.B5.A.2A3.2A$11.A.AB2.10B2AB
AB6.3A4.3AB2AB4.A.A4.A$11.A6.3B.6B3A2B4.A9.A.2AB6.A.3A$10.2A6.3B3.
4B3A3B3.2A12.4B2.2A.A$19.B7.12B12.10B$29.B2.5B10.B2.7B.2B$31.7B2.B
5.13B$30.8B.3B2.16B$29.9B.21B$28.15BA4B2A10B$27.4B.11B2A2BABA9B$
26.4B2.6BA5BA2BABA7B$25.4B3.4B3A4BA3B2A6B$9.B2A12.4B3.4BA14BA4B$9.
3AB10.4B4.6B2A3BA4B3A4B$8.A.2AB9.4B3.7BABA2BA5BA6B$7.A.A.2B8.4B2.
9BABA2B2A11B$7.A2.A2.2B5.4B2.10B2A4BA12B$8.2A3.3B3.4B3.21B.6B$13.B
2A.5B4.16B2.10B$2A.2A7.BA2BA4B6.13B5.B.5B$2A.A8.2B2A4B6.2B.7B2.B8.
4B$3.A.B3.2A8B6.10B12.2B2AB$3.2A2B.3BA7B6.A.2A2.4B14.2A$.2A2.A2BAB
2A7B4.3A.A6.B2A.A$A2.AB2A12B3.A4.A.A4.B2AB3A$2A.A.AB3.7B.B2A2.A3.
2A.A5.B4.A$.A2.3AB2.7B.BA.2A7.A4.2A.3A$.A5.A4.2BAB5.A8.2A2.A2.2A$
2.5A5.3BA5.A.A10.2A$4.A8.3AB5.2A!
