#CSYNTH guntrue_1575 costs 2982 cells.
#C period 1575 fullperiod 1575 bbox 71 by 42
#CLL state-numbering golly
x = 71, y = 42, rule = LifeHistory
19.2B33.2B$17.6B29.6B$15.2A6B2A25.BA6BAB$13.BA2BA4BA2BAB21.2B2A6B
2A2B$12.B6A2B6AB3.2A14.2B3A6B3A2B$13.BA2BA4BA2BAB4.2A15.2B2A6B2A2B
$15.2A6B2A25.BA6BAB$17.6B6.4A19.6B$19.2B8.A2.A18.2B.2B8.2A$20.4B6.
B2.5B13.5B7.A.A$18.2B2A2B2.12B8.B.13B2.BA$4.2A.2BAB6.2BAB2A7B2A7B
4.9BA5BA5B$3.A.4A2BA5.B2AB2A6BA2BA6B3.3B3A3B2A5B2A4B$3.A.AB4AB4.4B
A7B.BABA12BA2BA3BA5BA3B2AB$2.2A.ABA5B3.3BA8B.2BA13B2AB2A11BA2BA$BA
B.2B2A.A3B2.4B2A20B.5B3A11B3A2B$2B3A3.3A3B.4B2A11B.8B6.2B2.2B2.B2.
2B.5B$3BA.2A2B.BAB.28B12.3B5.2B$5BABA.2A2.23B3.4B11.B2AB$.B4ABA.A
3.12B3A7B5.4B11.2A$.A2B4A.A3.11BA3BA6B6.4B$2.BA2B.2A3.12B2AB2A6B2.
2A3.4B12.A$12.21B.BA2.A4.4B9.3A$10.2AB.21B3A6.4B7.A10.B$9.A.AB.21B
10.4B6.2A8.3A$9.A5.12B.4B2.B2A.A7.4B.6B8.3A$8.2A3.12B3.4B4.A.3A6.
8B9.2BA2B$13.2A2.8B4.2B5.A4.A6.10B6.2BA2B$14.A4.5B11.2A3.2A5.B.10B
4.3BA3B$11.3A5.3B18.18BAB3.2BABA2B$11.A8.B21.15BABA11B$23.2B16.2B
2A12BABA.10B$21.6B6.2B5.2BA2BA12BA4.2BABA2B$19.10B.6B4.3B2A4B2.7B
5.3BA3B$17.BA2BA4BA2BA7B.9B4.7B6.2BA2B$16.3A2B6A2B3A14B6.3B9.2BA2B
$17.BA2BA4BA2BAB.13B7.5B8.3A$19.10B4.12B10.2A8.3A$21.6B7.12B9.A10.
B$23.2B10.3BA6B11.3A$36.3BA5B14.A$37.3A3B15.2A!
