#CSYNTH guntrue_2130 costs 4200 cells.
#C period 2130 fullperiod 2130 bbox 84 by 50
#CLL state-numbering golly
x = 84, y = 50, rule = LifeHistory
25.2A3.A$23.3A.A.A.A$22.A4.A.A.A$22.ABABA.A.A$17.2A4.2A.A.A$18.A4.
4BABA5.2A43.A$18.A.AB4.2BA3B2.B2AB40.3A$19.2AB.B4.5B2.2B40.A$21.4B
2.6B.2B34.A6.2A$21.16B32.A.A3.4B$21.9B2A6B32.A.5B$20.9BA2BA6B32.7B
$19.4B.6B2A8B31.4B2A4B.B$18.4B3.16B30.4B2A3B.B2A$2.2A13.4B6.15B29.
11B2A$3.A12.4B7.11B.4B28.9B.2B$3.A.AB2.B5.4B8.10B3.4B22.2B2.10B$4.
2AB.3B3.A3B3.A3.11B5.4B7.2A11.2A13B$6.6B.BABA3.A.A.9B2.2B5.4B5.B2A
B5.A4.2A13B$6.8B2A3.A.A2.A7B2.B2A6.4B5.3B5.3A3.2B.11B$6.2B2A5B4.A
2.3A3B.B5.A.A.2A3.4B3.B.B9.A5.9B.B2A$7.A2BA3B6.2A3.B2.3B2.A.A.2A.A
4.4B.6B6.2A7.7B.BA.A$7.BABA4B8.2A2.B2AB2.2A.A9.10B6.5B3.7B5.A$8.BA
6B4.2A.A4.2A6.A.2A7.12B5.13B5.2A$2.2A5.2B2.4B3.A2.A12.A2.A8.12B3.
9B2.4B$.A2.A4.2B3.4B3.2A3.4A5.2A2.A.AB6.22B4.4B$.A.A2.AB.B5.4B6.A
3.A10.2AB.3B2.22B5.4B$2A.4A2B2A5.4B6.A15.30B5.4B$A5.A.B2A6.4B4.2A
15.31B5.4B$.5A2B.B3.A4.4B2.2B17.30B6.4B$4.B.AB4.A.A4.8B15.26B2A2B
8.3BA$3.A2.AB4.A.A5.7B13.21B.6B2A2B9.ABA$3.3A3.2A.A.2A5.7B2.B2.2B
2.20B5.4B3.B12.2A$6.4A.A.A2.A4.35B6.2B2AB16.B$3.3A5.A2.2AB3.27B.7B
9.2A$3.A2.4A.A3.14B2A16B2.6B$6.A2.2A5.13B2A16B3.6B$17.29B6.4B$17.
17B.B.2B12.B2A2B$18.15B4.3B12.2A.B2A$18.15B5.A2B.2A11.BA.A$19.13B
5.A.A2B.A14.A$21.13B2.A.AB2.A15.2A$20.8B4.2A.A.A3.A$20.6B6.2ABA2.
4A.A$20.5B8.B2.A.A3.A.A$20.B.B9.2A.2A2.A2.A.A$21.3B9.A.A2.2A3.A$
20.B2AB9.A.A$21.2A11.A!
