#CSYNTH guntrue_1924 costs 5695 cells.
#C period 1924 fullperiod 1924 bbox 85 by 67
#CLL state-numbering golly
x = 85, y = 67, rule = LifeHistory
60.2A$56.A.A2.A$54.3A.2A11.A$53.A4.B10.3A$28.2A11.A12.3AB2AB7.A$
27.B2AB9.A.A13.A.2AB.4B2.2A$28.3B9.A.A17.10B$27.B.B9.2A.3A15.8B$
27.5B8.B4.A14.11B$27.6B6.2AB3A9.4B2.12B$27.8B4.2A.A11.18B$28.13B
12.19B$26.13B14.17B$25.15B13.17B$25.15B10.B2.18B$24.8BA8B.B5.23B3.
B$24.7B2A39B.B2A$23.7BA20B2A21B2A$22.9B2A18B2A22B$21.2AB3.5BA38B.
3B5.2A$20.A2.A4.43B9.A$19.A.2A5.6B3.B2.2B2.26B4.B2.BA.A$19.A7.6B
13.4B2.7B3.8B3.3B.B2A$18.2A6.9B17.6B8.5B.6B$25.4B4.2A19.3B11.10B$
24.4B5.A21.B13.5B2A2B$23.4B7.3A33.3BA2BA$22.4B10.A32.4BABAB4.A$22.
4B42.6BAB3.3A$21.5B41.4B2.3B2.A$18.9B39.4B3.3B2.2A$18.9B38.4B6.5B$
18.9B37.4B7.3B$18.10B35.4B7.2BA2B$17.12B33.4B8.2BA2B$16.13B8.2A22.
4B8.2BABA2B$17.11B9.A22.4B9.3BA3B$18.12B4.BA.A21.4B10.3BA3B$18.15B
.B2A10.A10.4B11.3BA3B$18.17B12.3A7.4B13.2BA2B$18.17B15.A5.4B15.BAB
$15.B.17B15.2A4.4B11.AB2.5B2.BA$14.2A19B14.9B6.2A3.A.A9BA.A$14.2AB
.19B14.6B7.A4.A.5AB5A.A$15.B4.20B2.2B2.B3.6B5.2A.A3.2A.A.B.A.A.B.A
.2A$20.36B4.A2.A5.A2.2A.A.A.2A2.A$20.9B.27B3.B2A6.A4.2A.2A4.A$21.
7B2.16B2A14B8.3A7.3A$11.B2A7.7B2.16B2A13B11.A.2A.2A.A$11.3AB6.6B4.
29B13.A.A.A.A$10.A.2AB6.7B10.2B.B.17B$9.A.A.2B6.6B10.3B4.15B$9.A2.
A2.2B3.7B6.2A.2BA5.15B$10.2A3.3B3.5B7.A.2BA.A5.13B$4.2A9.B2A.7B8.A
2.BA.A2.13B$3.A.A8.BA2BA9B7.A3.A.A.2A4.8B$3.A8.B.2B2A7B.2A5.A.4A2.
AB2A6.6B$2A.AB.B3.BA9B5.A5.A.A3.A.A2.B8.5B$.A.A.2AB.3A9B6.3A2.A.A
2.A2.2A.2A9.B.B$.A.A.2A2B2A10B8.A3.A3.2A2.A.A9.3B$2A.A2.5BA9B20.A.
A9.B2AB$A2.4A3BA8B.B2A19.A11.2A$.2A2.BAB.BA8B.BA.A$3.2A6.7B5.A$3.A
7.2B.3BA5.2A$5.A9.3BA$4.2A10.3AB!
