#CSYNTH guntrue_6599 costs 12528 cells.
#C period 6599 fullperiod 6599 bbox 116 by 108
#CLL state-numbering golly
x = 116, y = 108, rule = LifeHistory
37.2A2.A$36.A.4A$36.A$34.2A.7A$32.A2.A.A3.B2.A$32.2A2.BA.2A2.2A$
36.2AB2AB6.2A$36.5B8.A$37.3B7.A$36.5B6.5A$36.BA4B9.A$34.2BABA3B3.
4AB$34.2BABA4B2.A2.AB$35.2BA4B4.4B$34.15B3.2A$33.14B2A.A2.A$32.15B
2A.2A$31.15B.B$30.4B2.9B$14.2A13.4B5.7B$14.A13.4B4.9B$9.2A5.A10.4B
5.2A4.4B$9.A5.2A9.4B7.A5.4B$6.2A.A.3B11.4B5.3A7.4B$6.A2.A.2A2B2A7.
4B6.A10.4B$8.2A.A.2B2AB5.4B19.4B$11.A.4B5.4B21.4B$11.2A.4B3.4B23.
4B$4.2A8.3BA6B25.4B$3.A.A8.2BABA4B27.4B$3.A8.B.3BA4B12.2A15.4B$2A.
AB.B3.11B13.A.A15.4B25.A11.2A$.A.A.2AB.12B15.A4.2A10.4B23.A.A9.B2A
B$.A.A.2A14B11.4A.2A2.A2.A9.4B10.A3.A3.2A2.A.A9.3B$2A.A2.5B2A8B11.
A2.A.A.A.A.2A10.4B7.3A2.A.A2.A2.2A.2A9.B.B$A2.4A3BA2BA5B.B2A11.BAB
ABA.A14.4B5.A5.A.A3.A.A2.B8.5B$.2A2.BAB.2B2A6B.BA.A11.B2ABA.A15.7B
.2A5.A.4A2.AB2A6.6B$3.2A6.7B5.A12.2B.BA17.9B7.A3.A.A.2A4.8B$3.A7.
2B.4B5.2A10.3B21.6B8.A2.BA.A2.13B$5.A9.4B7.2A6.4B22.5B7.A.2BA.A5.
13B$4.2A10.4B7.A6.B2A3B19.7B6.2A.2BA5.15B$17.4B6.A.AB3.B2A3B20.6B
10.3B4.15B$18.4B6.2AB.10B18.7B10.2B.B.17B$19.4B7.13B17.6B4.29B$20.
4B6.14B16.7B2.16B2A13B$21.4B5.15B15.7B2.16B2A14B$22.4B6.8B2.4B13.
9B.27B3.B2A$23.4B5.6B5.4B12.36B4.A2.A$24.4B3.9B4.4B6.B4.20B2.2B2.B
3.6B5.2A.A$25.4B.4B4.2A5.4B4.2AB.19B14.6B7.A$26.7B5.A7.4B3.2A19B
14.9B6.2A$27.5B7.3A5.4B3.B.17B15.2A4.4B$27.5B9.A6.4B5.17B15.A5.4B$
26.7B16.4B4.17B12.3A7.4B$25.4B.4B16.4B3.15B.B2A10.A10.4B10.2A$24.
4B3.4B16.4B2.12B4.BA.A21.4B9.A$23.4B5.4B7.A8.15B9.A22.4B10.A$22.4B
7.4B6.3A7.15B8.2A15.2A5.4B5.5A$21.4B9.4B8.A7.14B26.A5.4B4.A$20.4B
11.4B6.A.A7.12B27.A.AB.7B2.B3A$19.4B13.4B5.A.AB7.10B29.2AB.7B3.2B.
A$18.4B15.4B5.A3B7.9B31.12B4A$17.4B17.4B6.4B5.9B31.7B2A3BAB2.2A$6.
A9.4B19.4B5.6B5.6B32.7B2A2B.B3A2.A$6.3A6.4B21.4B4.7B.2B2.5B32.10B
3.B.A.2A$9.A4.4B23.4B2.8B.9B31.8B8.A$8.2A3.4B8.2A15.24B29.9B7.2A$
8.8B8.A.A16.24B27.4B2.3B$4.2A4.5B5.2A2.A18.19B2.4B25.4B3.5B$3.A.BA
B.5B6.A.A.2A17.18B4.4B23.4B7.2A$3.A.2AB2.5B6.2A.A2.A15.16B7.4B21.
4B8.A$2.2A.B.B3.5B3.3B.B2.2A13.2AB.13B9.4B19.4B10.3A$.A3.2A2B2.5B
3.4B17.A.AB2.11B11.4B10.A6.4B13.A$2.3A2.AB.13B.B15.A5.10B13.4B7.3A
5.4B$5.2ABA13B.B2A13.2A5.2B2A6B14.4B5.A7.4B$4.A2.A5BA10B2A19.3B2A
6B15.4B4.2A5.4B$4.2A2.4BABA7B.2B21.10B16.9B4.4B$8.4BABA7B24.8B.B2A
.A13.6B5.4B$9.4BA7B24.7B3.B2AB3A11.8B2.4B$11.9B3.2A20.6B6.B4.A8.
15B$8.B.10B.B2.A21.6B4.2A.3A9.14B$7.2A12B3A22.5B4.A2.2A11.13B$7.2A
B.8B.BA23.8B.A.A12.2AB.10B$8.B3.6B4.2A12.A8.8BA.A.2A.A7.A.AB3.B2A
3B$13.4B6.A12.3A6.6B.2BAB.A.2A7.A6.B2A3B$14.4B4.A16.A4.7B2.2B2.A9.
2A6.4B$15.4B3.2A14.2A4.7B3.B.2A18.3B$16.4B18.4B.8B2.A.A2.2A17.2B.B
A$17.4B19.11B2.2A2.A2.A15.B2ABA.A$18.4B17.12B7.2A15.BABABA.A$19.4B
16.12B22.A2.A.A.A.A.2A$20.2B2A15.11B23.4A.2A2.A2.A$21.BABA13.9B12.
2A16.A4.2A$22.A3B9.2B.10B11.A15.A.A$23.4B7.16B.B4.BA.A15.2A$24.4B
3.23B2.B2A$25.32B$26.32B$27.3BABA25B$28.3B2A6BA18B$30.B2A5BA19B$
31.17B5.B.4B$31.5BA8B11.4B$31.4BA2BA6B12.4B$35.ABA4.2B14.4B$36.A6.
2B14.3BA$42.B2AB14.3BA$43.2A16.3AB!
