#CSYNTH guntrue_1843 costs 9588 cells.
#C period 1843 fullperiod 1843 bbox 102 by 94
#CLL state-numbering golly
x = 102, y = 94, rule = LifeHistory
31.2A$30.A.A$24.2A4.A$22.A2.A2.2A.4A$22.2A.A.A.A.A2.A$25.A.A3B2A$
25.A.2ABAB$26.AB.BA$29.3B$29.3AB6.2A$27.BABABA6.A$27.2A4B3.BA.A$
25.A2BA5BA.B2A$24.BA4BA3BA2B$9.A13.B2A4BA6B$9.3A10.11BA3B$12.A8.4B
2.2BA2BA2B$11.2A7.4B5.BA4B$11.5B3.4B4.9B$13.3B2.4B5.2A4.4B$3.2A7.
9B7.A5.4B$3.A8.8B5.3A7.4B18.A$2A.A.B3.10B6.A10.4B11.2A3.A.A$A2.3AB
.2B2A7B18.4B11.A3.A2.A$.2A2.BA3B2A7B19.4B10.A.2A.A.A$3.4A12B20.4B
10.A.A.A.2A$3.A.2B3.7B.B2A19.4B10.2B2A.A2.A$4.3AB2.7B.BA.A19.4B10.
4B2.2A$7.A4.4B5.A20.4B6.7B$2.5A5.4B5.2A20.4B3.8B$2.A10.4B22.2A3.4B
.8B$4.A9.4B22.A4.12B$3.2A10.4B7.2A12.A.AB2.3BA7B.2B$16.4B6.A14.2AB
.3B2A9B2A$17.4B6.A15.5BABA8B2A$18.2BAB4.2A15.14B.2B$19.2B2A2.2B17.
13B$12.2A6.2A6B15.14B.2B$13.A7.7B13.18B2A$13.A.2A5.7B2.B2.2A2.19B.
B2A$14.A2.A4.15BA19B2.B$15.2AB3.11B2A4B2A8B.8B$16.15B2A6BA8B2.7B$
17.13B3A2B2A2BA8B2.7B$18.17B2ABA8B3.7B$18.17B.4B11.6B.BA$19.15B3.
2B12.7BA.A$19.15B3.3B11.8BA8.A$20.13B5.A2B.2A7.6B.B8.A.A$22.13B2.A
.A2B.A7.5B11.A.A$21.8B4.2A.A.AB2.A8.6B2.2B5.2A.3A$21.6B6.2ABA4.A7.
2AB.9B5.B4.A$21.5B8.B2.5A.A4.A.AB3.2BA5B2.B2AB3A.A$21.B.B5.2A.A.2A
.A4.A.A3.A7.2B2A4B.B2A.A2.A.A$22.3B4.A.2A.A2.A.2A2.A3.2A5.2B.2A9B
4.A.A$21.B2AB11.2A.A.2A10.2A11B5.2A.3A$22.2A29.2AB.10B5.B4.A$54.B
2.10B3.B2AB3A$57.12B.B2A.A$58.15B$57.14B7.2A$58.14B6.A$60.12B3.BA.
A$62.12B.B2A4.2A$62.14B5.A.A$62.9B2A3B5.A$63.7BABA3B4.2A$28.2A34.
6B2A2B5.2B$29.A37.8B2.5B6.3B5.2A$28.A38.16B4.4B5.A$28.2A6.2BAB13.B
.7B5.2B2AB.10B4.5B.BA.A$30.A2B2.2BABAB6.B.13B4.3B2A13B3.5B.B2A$28.
3A5BABA45B3.7B$27.A2.B.4B2A45B3.8B$27.2A3.50B3.8B4.2A$33.25B2A33B
3.A.A$33.25B2A33B3.A$32.4B.B.11B3.41B.2A$33.4B2.10B5.10B2.B3.B2.B
3.18B$33.2B2AB4.2B2.4B7.6B14.18B3.2A$35.2A10.4B8.3B13.5B3.12B.B2.A
$48.4B9.B13.2A7.12B3A$49.4B8.2A13.A8.9B.BA$50.4B8.A10.3A4.2A3.9B3.
2A$51.4B7.A.A8.A6.A4.9B4.A$52.4B7.2A12.2A.A4.2B2A3B.B2A2.A.2A$53.
4B20.A2.3A.2BA2BA2B.BA.A.A.2A$54.4B20.2A2.BA3BABAB5.A.A$55.4B21.4A
4BA4B3.A.A$56.4B20.A.4B5.2A4.A$57.4B17.A.A.2A7.A$58.3BA16.2A2.A9.
3A$59.3BA19.A.A9.A$60.3AB19.2A!
