#CSYNTH guntrue_237 costs 4608 cells.
#C period 237 fullperiod 237 bbox 72 by 64
#CLL state-numbering golly
x = 72, y = 64, rule = LifeHistory
16.2A5.2A15.2A.A.2A$15.A2.A.BA2B.A7.A.2A.A2.A.2A2.A$15.2A.A2BAB.2A
7.2A.A.2A.A4.A.A$16.A.A2.A2.6B8.B2.5A.A14.A$15.BA.3AB4.5B6.2ABA4.A
14.3A$14.A3B.2A5.7B4.2A.A.AB2.A12.A$14.3BA8.13B2.A.A2B.A11.2A$12.
3A.A7.13B5.A2B.2A8.5B$11.B4A7.15B3.3B11.4B$12.A.B8.15B3.2B12.5B$
22.17B.4B10.6B.B$22.29B3.9B$21.13B2A16B2.11B.B$20.14B2A16B2.12B2A$
19.2AB3.3BA23B.13B2A$18.A2.A4.2B2A35B.B$17.A.2A5.BABA3B2.B2.2B2.
22B$17.A7.7B13.20B$16.2A6.8B15.20B$23.4B2.2B17.19B$11.2A9.4B4.2A
15.19B$11.A9.4B6.A15.17B2ABA.2A$8.BA.A8.4B5.A15.2AB.3B.11B2A.2A.A$
6.B.B2A8.4B6.2A13.A.AB6.11B$5.B2AB9.4B22.A8.10B$3.B2A.AB8.4B22.2A
7.10B$2.2A.AB9.4B32.11B$2.2B.2BA7.4B33.11B$2.AB.2B7.4B33.13B$.BAB
3A6.4B31.2B.13B.2B$2A2B.B.B4.4B31.21B$.BA2.3B3.4B30.25B$5.3B2.4B
31.25B$5.BA6B31.27B$4.BABA4B32.27B$4.A2BA3B32.29B$3.2B2A5B32.27B$
3.10B31.6B2.11B2.6B$3.6B.4B29.A3B.B3.8B.B4.B.3BA$.2AB.3B3.4B27.BAB
A7.B.4B10.ABA$A.AB2.B5.4B25.2B2A11.3B11.2A$AB11.4B23.4B12.4B11.B$.
AB11.4B21.4B12.BA3B$.3BA10.4B19.4B12.BABAB$.2A.AB10.4B17.4B13.A.A
2.2B2.B$2.B.AB11.4B15.4B12.3A2.3AB.B2A$.4A13.4B13.4B12.A3.2A2.BA2B
2A$A4.2B12.4B11.4B14.3A2.2A.AB.B$A.6A12.4B9.4B17.A.A2.AB$.2A.B2A.A
12.4B7.4B19.A.A$5.ABA2B12.4B5.4B21.A$7.BA4.A9.4B3.4B$7.BAB3.3A8.4B
.4B$8.A7.A8.7B$15.2A9.5B12.B.B$15.4B7.6B10.AB3A$17.2A.A2.4B2A4B8.A
.A2B$16.BA.3BA.2BA2BA4B6.B2AB$17.B2A2BA4BABA3B4.2B.B3A$18.A3.A4.BA
3B4.4A.AB$18.BA4B5.5B2.B2.A.A$19.AB2ABA7.2A.2BABA.2A$22.BAB7.A.BAB
A.A2.A$23.A9.2A5.2A!
