#CSYNTH guntrue_1488 costs 3776 cells.
#C period 1488 fullperiod 1488 bbox 59 by 64
#CLL state-numbering golly
x = 59, y = 64, rule = LifeHistory
18.2A12.A$17.A2.A9.3A$16.A.A.A8.A$16.A.A.2A7.2A$14.2A.A.A.3B3.4B$
14.A2.A.2A2B2A.BAB$11.2A.A.ABAB.4B.ABAB$11.A2.3ABA.2A3.2B2AB.2A$
12.2A2.BAB.A3.7B2A$14.5A.A4.7B$14.A4.A5.7B$15.4A6.6B15.2A.2A.A$24.
8B14.2A.A.2A$9.A5.2A6.4B2.4B16.A$9.3A3.2A5.4B4.4B12.2A.AB4A$12.A8.
4B6.4B9.A2.ABA.A2.A$11.2A7.4B8.4B8.2A2.A2B.2B$11.5B3.4B10.4B12.4B$
13.3B2.4B12.4B10.6B$3.2A7.9B14.4B9.7B$3.A8.8B16.4B8.8B$2A.A.B3.10B
18.4B5.10B$A2.3AB.2B2A7B19.4B2.11B$.2A2.BA3B2A7B20.17B$3.4A12B21.
17B$3.A.2B3.7B.B2A20.16B$4.3AB2.7B.BA.A19.15B$7.A4.4B5.A19.15B$2.
5A5.4B5.2A17.15B$2.A10.4B10.A12.14B$4.A9.4B7.3A12.14B$3.2A10.4B5.A
15.15B$16.4B4.2A15.14B$9.2A6.9B14.15B$10.A7.6B14.17B$10.A.2A5.6B3.
B2.2B2.4BA2BA12B$11.A2.A4.17B2ABA2B2A11B2.B$12.2AB3.18B2ABA4BA.9B.
3A$7.2A4.14B2A7B2A7B2.B.6B2.B$8.A5.13B2A9BA4B2A5.5B$8.A.2A3.23B2AB
2AB5.B2A2B$9.AB.A2.17B.B.2B11.AB.A.B2A$11.BA3.15B4.3B9.A.2A2.BA.A$
10.AB4.15B5.A2B.2A5.A8.A$11.A2B3.13B5.A.A2B.A4.2A8.2A$9.A.A.2A4.
13B2.A.AB2.A$7.3A.2A.BAB.8B4.2A.A.A3.A$6.A3.A.AB3A7B6.2ABA2.4A.A$
7.2A.A.A.BAB3.4B7.B2.A.A3.A.A$9.A.A.2A6.4B5.2A.2A.A2.A2.A$9.A.A9.
5B5.A.A2.2A2.2A$10.2A10.5B4.A.A.A$19.3B2.4B4.A2.A4.2A$14.B2.BA3B3.
4B6.2A2.B2A2B$13.3AB2A2B2A3.4B10.4B2.2B$13.4A4B2A4.4B7.6B2.3A$14.
3B2A2.B6.4B6.5B.BA3B$14.3B12.4B4.2A2BA3BA3BA$30.4B3.5AB2.A2BA.A$
31.5B.B3A2B4.A.A2BA$32.5B2.B.2B5.A3BAB$33.3BA3.2BAB5.3BAB$34.3BA3.
A.A5.3A$35.3AB3.A7.2B!
