#CSYNTH guntrue_985 costs 5767 cells.
#C period 985 fullperiod 985 bbox 79 by 73
#CLL state-numbering golly
x = 79, y = 73, rule = LifeHistory
49.2A$48.A.A$42.2A4.A$40.A2.A2.2A.4A$40.2A.A.A.A.A2.A$43.A.ABABAB$
43.A.AB2AB$44.AB.2B$47.3B$47.4B6.2A$45.3B2AB6.A$45.3B2AB3.BA.A$43.
10B.B2A$42.13B$41.14B$40.8B3A4B$39.4B2.3BA4B$38.4B5.2BA3B$37.4B4.
9B$36.4B5.2A4.4B$19.A.A13.4B3.A3.A5.4B$19.2A.A2.2A7.4B4.4A7.4B$22.
A3.A6.4B17.4B$17.5A.3A6.4B6.2A.3A7.4B$16.A4.A.A7.4B6.A.A.A2.A7.4B$
15.A.3ABABA6.4B3.2A2.A.A3.2A8.4B$15.A3.AB2A6.4B4.A.A.A2.A13.4B$8.
2A3.2A.2A2.4B4.5B5.BA.AB2A14.4B$8.A.A.A.A.A3.14B4.2ABA18.4B10.2A$
10.A.A3.A4.2BA10B4.3BA.2A16.4B9.A$5.2A2.A.2AB2.2A3.BABA9B.4B.BABA
2.A15.4B10.A$4.A.A2.A.BAB7.A2BA11B2A2B.BA2.2A9.2A5.4B5.5A$3.A2.A.
2A.B9.B2A10B.A2BA2B16.A5.4B4.A$4.3A2.4B8.15B2A2B.BA2.2A10.A.AB.7B
2.B3A$7.AB2A3B5.2AB.11B.4B.BABA2.A11.2AB.7B3.2B.A$6.A2.A.2A5.A.AB
3.10B3.3BA.2A15.12B4A$6.2A2.2AB5.A4.5B.7B2.2ABA18.7B2A3BAB2.2A$10.
BA5.2A4.2A4.6B3.BA.AB2A15.7B2A2B.B3A2.A$10.2B12.A3.7B2.A.A.A2.A15.
10B3.B.A.2A$11.B9.3A5.B2A3B2.2A2.A.A15.8B8.A$10.2AB7.A8.B2A2B7.2A
15.9B7.2A$.2A6.A2BAB5.A.3A4.6B23.4B2.3B$2.A4.3B2A3B4.A3.A4.6B22.4B
3.5B$2.A.AB.8B.BA.A3.A.AB.7B20.4B7.2A$3.2AB.8B.B2A5.2AB2.6B19.4B8.
A$5.12B9.8B19.4B10.3A$5.12B9.B3A4B18.4B13.A$5.12B10.A7B16.4B$7.10B
11.A6B15.4B$9.7B13.6B7.2A5.4B$9.8B12.7B6.A5.4B$8.5B.4B11.7B3.2A.A
4.4B$8.6B.4B10.8B2.2BA4.4B$7.6B3.4B9.8BA2B5.4B$3.B2.3BA3B4.4B8.7BA
2BA4.4B$.7BABA2B5.4B6.8B3AB3.4B$.7BABA2B6.4B5.8B3A2B.4B$9BA3B7.4B
5.3B.4BA2B.4B$11B.B2A6.4B2.10BA6B$.9B2.BA.A5.13BA2BA5B$.7B7.A5.12B
A2BA5B$2.6B7.A.2A2.11BA3BA5B$3.4B7.2A.A3.11BA3B2A4B.B$4.4B9.A.13B
2A3BA5B2A$5.4B8.A.2A13B3A6B2A$6.4B6.2A.A.3B3.B.B3.B3A7B$7.4B8.A.B
10.6B2.4B$8.4B7.A.A10.6B$9.4B5.2A.3A7.A.2A2B$10.4B10.A4.3A.A.A.A$
11.3BA8.2A3.A4.A.2A.A$12.3BA12.2A3.A4.A$13.3AB15.2A4.2A!
