#CSYNTH guntrue_7140 costs 3168 cells.
#C period 7140 fullperiod 7140 bbox 72 by 44
#CLL state-numbering golly
x = 72, y = 44, rule = LifeHistory
35.A$35.3A9.A$38.A7.A.A$37.2A7.A.A14.2A$8.2A3.2A22.5B3.2A.3A11.BAB
AB$8.A.A.A.A24.3B4.B4.A11.B3A$10.A.A20.BA3.5B.B2AB3A13.B2A$5.2A2.A
.B2A12.B2AB3.2AB.6B.B2A.A10.B3.ABAB$4.A.A2.A.2AB10.A.4A.A3B2.4B3AB
13.2AB.A.AB$3.A2.A.2A.B11.A3B2.3B.A2.7BAB13.ABA2BA$4.3A2.BA2B9.A.
2BA2.AB.2A2.5BA3B14.4AB$7.5A2B9.2A2.B2.B.A3.B2A2B2AB6.2A7.B2AB$6.A
2.A.BA13.B4A.A3.A7B4.BA3B4.2B$6.2A2.3B14.2A.2A5.A8B.2B2ABA2.5B$10.
2A25.B3AB.6B3A9B$10.2B27.B2A7BABA12B$11.B28.25B$10.2AB27.4B3.14B3A
B$.2A6.A2BAB5.2A18.4B5.12BA2BA2B$2.A4.3B2A3B4.A18.4B8.9B2AB2A2B$2.
A.AB.8B.BA.A17.4B9.8BA7B$3.2AB.8B.B2A17.4B5.2A2.17B$5.12B6.A11.4B
5.A2BAB.10BA4B$5.12B6.3A8.4B7.2BAB.9B3A4B$5.12B9.A6.4B9.BAB3.7B3A
5B$7.10B8.2A5.4B5.A3.ABAB2.16B3.2A$9.7B9.5B.4B5.A2B.A.AB3.16B2.A.A
$9.8B10.3B2A2B6.A4BA5.5B3A8B2.A$8.5B.4B8.4B2AB3.2A3.4AB5.16B.2A$8.
6B.4B5.BA7B4.A3.4B7.5BABA2BA5B$7.6B3.4B3.BABA7B.A16.7BABA6B$3.B2.
3BA3B4.4B.3B2A8B2A16.6B3A6B$.7BABA2B5.16B3.A18.4BA6B$.7BABA2B6.16B
2A.A18.5B2.2B$9BA3B7.12B.BA.A2.A18.2B$11B.B2A6.10B3.BA2.2A14.4B$.
9B2.BA.A.2A2.9B23.2A3B$.7B7.A.A2.AB5.5B21.2BAB2A$2.6B7.A2.3AB8.2A
19.AB.A.B2A$3.4B7.2A7.A6.A19.BABA3.B$4.4B12.4A7.3A16.2BA$5.3BA11.A
12.A16.4B$6.3BA11.A28.2B2AB$7.3AB9.2A30.2A!
