#CSYNTH guntrue_8084 costs 5775 cells.
#C period 8084 fullperiod 8084 bbox 77 by 75
#CLL state-numbering golly
x = 77, y = 75, rule = LifeHistory
56.A$56.3A$59.A$58.2A.2B$58.9B$60.5BAB$59.5B2A2B$59.4BA4B$59.4B2A
3B$56.14B$56.4B2A9B3.2A$55.5B2A9B2.A2.A$54.6BA5B2A2B2A2.2A$54.7B3A
2BA2BA2B2A$54.7B3A3BAB.BA2.2A$23.2A7.A22.8B2A3B2.2B2A2.A$22.B2AB4.
3A21.10B2A2B3.B.A.2A$22.3B4.A8.A15.7B.3BA4B.B2A.A$11.2A10.B.B3.2A
5.3A17.4B2.8B.2BA.A$10.A2.A2.2A3.10B4.A14.AB3.6B3.6B3.BA$11.2A2.A.
A3.8B6.2A12.A.A2B.8B2.4B$13.2A.B3.8BA2B2.4B12.A.2AB.4BA3B.7B$13.A
2.2B.8BABA5B7.A5.2A.A.B3.2B2A10B$10.2A.A.7B2A3BABA5B5.3A4.A3.2A2B
2.3B2A8B$10.A2.A.2A10B2A5B5.A8.3A2.AB.BA3B3A7B$12.2A.2A4B2A11B4.2B
A10.2A2BA2BA2B3A7B$16.2B.3BA11B.BA3BA9.A2.2A2B2A5BA6B$19.17BA2B11.
2A2.9B2A5B$17.6B.13BAB.2B12.9B2A4B$17.2AB4.17B2A.2A9.14B$9.3B6.A5.
17B2A.A2.A9.3B2A4B$9.B3A2.3A5.20B.A.2A2.A6.4BA4B$8.A.3A2.A6.17B.2B
2.A5.3A4.2B2A5B$7.A.A.AB8.4B2.11B3.B.2A8.A4.BA5B$7.A2.A2.2B5.4B5.
8B3.A.A2.2A5.2A4.9B$8.2A3.3B3.4B4.10B3.2A2.A2.A4.6B4.2B.2A$13.3B.
5B5.2A3.B.B10.2A7.5B6.A$3.2A7.5BA3B7.A4.3B18.6B6.3A$3.A8.5BABA5.3A
4.B2AB17.8B7.A$2A.A.B3.8B2A6.A7.2A12.A.2A2.9B$A2.3AB.2B2A7B28.2A.A
12B$.2A2.BA3B2A7B33.12B$3.4A12B33.13B$3.A.2B3.7B.B2A2.2A27.9B.4B$
4.3AB2.7B.BA.A2.A27.9B2.4B$7.A4.4B5.2A28.11B2.4B$2.5A5.4B5.A29.11B
3.4B$2.A10.4B6.A27.12B3.4B$4.A9.4B4.2A21.B4.14B3.4B$3.2A10.4B2.2B
21.3B3.10B.4B3.4B$8.2A6.8B18.6B2.15B4.4B$9.A7.7B12.4B2.4BA2B.13B.B
2A3.4B$9.A.2A5.7B2.B2.2B2.11BABA15B.BA.A3.4B$10.A2.A4.26BA18B4.A4.
4B$11.2AB3.27BA7B3A8B4.2A4.3BA$12.14B2A12B2A2BA4BA4B2A8B10.ABA$13.
13B2A12B2A3B2ABA3BA2B2A7B11.2A$14.31B2A8BA9B11.B$14.17B.B5.7BABA5B
2A9B$15.15B10.B2.2B3A2BA12B$15.15B12.4BA15B.B.B$16.13B12.24B2A$18.
13B10.24B2A$17.8B4.2A.A6.2AB2.5B2.12B.2B$17.6B6.2AB3A3.A.AB2.4B3.
13B$17.5B8.B4.A2.A14.11B.B$17.B.B9.2A.3A2.2A14.12B2A$18.3B9.A.A20.
10B.B2A$17.B2AB9.A.A18.2AB.6B4.B$18.2A11.A18.A.AB.4B$50.A5.5B$49.
2A8.2A$59.A$60.3A$62.A!
