#CSYNTH guntrue_8300 costs 3712 cells.
#C period 8300 fullperiod 8300 bbox 64 by 58
#CLL state-numbering golly
x = 64, y = 58, rule = LifeHistory
26.2A$26.A$23.A4.A$23.5A.A$21.2A4.A.A2.A$20.A2.4AB.A.A.A$17.A2.3A
2.2BA.A2.A$17.3A3.AB2AB2A$20.A2.A.AB.B$19.2A3.AB$19.5B$11.2A.BA5.
4B$11.A2.2AB3.5B$12.5A2.3BABA12.A$13.9BABA11.A.A$13.5B2.2B2A2B10.A
.A$12.5A3.2BABA2B8.2A.3A$11.A2.2AB4.BABA2B3.2A4.B4.A$11.2A.BA5.3BA
2B2.B2A3B2AB3A$21.6B3.4B.2A.A$17.2A2.5B5.3B$14.A2.A4.4B4.3AB$13.A.
A.A4.3BA3.B3AB$13.A.A.2A2.BA2BAB2.A4B2.B11.A$14.2A2.A3BA11B.3A9.A.
A$16.2A4B3.6B.2B2.B10.A.A4.2A$16.A2.4B3.8B11.3A.2A4.A$17.4AB2A3.BA
3B2AB5.A3.A4.B5.A.2A3.2A$18.A.AB2AB3.A3B2A4.3A4.3AB2AB4.A.A4.A$13.
A2.A3.A.2B5.4B4.A9.A.2AB6.A.3A$13.4A.A.2ABA3.6B4.2A12.4B2.2A.A$17.
A.A4.A2.2A.B2.6B12.10B$15.A.A.A.4A3.A3.5B10.B2.7B.2B$15.2A2.A.A3.
3A3.7B2.B5.13B$19.A2.A2.A4.8B.3B2.16B$20.2A7.9B.21B$28.15BA4B2A10B
$27.4B.11B2A2BABA9B$26.4B2.6BA5BA2BABA7B$25.4B3.4B3A4BA3B2A6B$9.B
2A12.4B3.4BA14BA4B$9.3AB10.4B4.6B2A3BA4B3A4B$8.A.2AB9.4B3.7BABA2BA
5BA6B$7.A.A.2B8.4B2.9BABA2B2A11B$7.A2.A2.2B5.4B2.10B2A4BA12B$8.2A
3.3B3.4B3.21B.6B$13.B2A.5B4.16B2.10B$2A.2A7.BA2BA4B6.13B5.B.5B$2A.
A8.2B2A4B6.2B.7B2.B8.4B$3.A.B3.2A8B6.10B12.2B2AB$3.2A2B.3BA7B6.A.
2A2.4B14.2A$.2A2.A2BAB2A7B4.3A.A6.B2A.A$A2.AB2A12B3.A4.A.A4.B2AB3A
$2A.A.AB3.7B.B2A2.A3.2A.A5.B4.A$.A2.3AB2.7B.BA.2A7.A4.2A.3A$.A5.A
4.2BAB5.A8.2A4.A.A$2.5A5.3BA5.A.A12.A.A$4.A8.3AB5.2A13.A!
