#CSYNTH guntrue_1599 costs 3876 cells.
#C period 1599 fullperiod 1599 bbox 76 by 51
#CLL state-numbering golly
x = 76, y = 51, rule = LifeHistory
6.2A13.2A5.A$3.A.A2.A11.A.2BAB.A.A.2A$3.2A2.2A11.2A.BA2BA.A.2A$.2A
14.5B2.A2.A.A$A.B.7A.2A2.4B4.B3A.6A$ABA.A5.A.A.B.5B4.2A.B3.A2.A$.
2B.A.2A4.A.7B7.ABAB2.2A34.A$A3BA.A.A3.2A8B7.BA37.5A$2B2.2A2.A4.2B.
6B45.A5.A$2AB2AB2.3A5.6B.AB7.A23.2A9.B3A2.A$.B.AB6.A4.5B.BA2B4.3A
24.A10.2B.A.2A$4A6.2A2.7BABA4B.A27.A.2A7.2B2A3.A$BA8.12BA5B2.A21.A
5.A2B.4B.2BA2.A.A$.2B9.10BA4B4A21.3A5.2BA5B2AB2A.2A$B2AB7.16BA5.2A
20.A4.3BA4BAB$.2A8.10B2A3B.2BA.A2.A19.2A4.ABA5B2AB2A.2A$.3B.2B4.
13B4.2A.2A21.6B2.4B.2BA2.A.A$.10B2A4BA6B32.5B7.2B2A3.A$10B3A4B2A7B
29.7B6.2B.A.2A$9BABA5B3A7B8.2A3.A14.8B4.B3A2.A$12BA4B2A9B7.2A2.A.A
13.9B3.A5.A$2.26B11.A.A12.6B.4B3.5A$4.B.20B.B2A5.4A.A13.7B.4B4.A$
10.16B.BA.A3.A3.A14.8B2.4B$12.13B5.A2.A.AB2.A4.A8.10B.4B$5.2A6.5B.
5B6.2A2.A.A2B.A3.3A5.2BA14B$6.A5.13B10.A2B.2A6.A3.2BABA14B$6.A.AB.
16B7.3B9.2A2.2B2ABA9B2.4B$7.2AB.20B.B.2B10.11BA6B4.4B$9.34B5.7BA9B
4.4B$9.9B2A4BA19B3.8B3A7B5.4B$10.7B3A5BABA16B2.18B7.4B$11.7B2A4B3A
17B.17B10.3BA$13.6BA4B2A29B2.5B11.ABA$4.2A.2A4.13B4.2B2.21B3.4B12.
2A$2.A2.A.A2B.3B2A10B11.19B3.B.B2A11.B$2.2A5.A16B10.19B6.BA.A$6.4A
4BA10B11.19B9.A$6.A2.5BA12B8.19B10.2A$7.A.4BABA7B2.2A5.2B.11B2.8B$
4.3A4.2BAB.5B4.A5.2A3B2A7B4.7B$4.A7.BA.6B5.3A2.2AB.B2A5B7.4B.B2A$
15.6B.2B4.A3.B.8B7.B2A2B.BA.A$6.AB7.8B2A12.4B9.2A6.A$.2A2.BABA7.7B
.A14.2B17.2A$.A2.A3.B.2A4.5B.B.A.2A$2.6A.3AB4.4B2.2A.2A$7.A.A2.A2.
5B$4.2A.A.A2BAB.2A$4.2A.A.A.BA2B.A$8.A5.2A!
