#CSYNTH guntrue_1402 costs 6831 cells.
#C period 1402 fullperiod 1402 bbox 99 by 69
#CLL state-numbering golly
x = 99, y = 69, rule = LifeHistory
68.2A$68.A.A$44.2A24.A4.2A$43.A.A20.4A.2A2.A2.A$37.2A4.A22.A2.A.A.
A.A.2A$35.A2.A2.2A.4A20.BABABA.A$35.2A.A.A.A.A2.A21.B2ABA.A$38.A.A
BABAB24.2B.BA$38.A.AB2AB24.3B7.A$39.AB.2B16.2A6.4B7.3A$42.3B16.A6.
B2A3B8.A$33.A8.4B6.2A7.A.AB3.B2A3B7.A.A$31.3A6.3B2AB6.A9.2AB.10B5.
A.AB$30.A9.3B2AB3.BA.A11.13B5.A3B$29.A.A6.10B.B2A12.14B6.4B$28.BA.
A5.13B14.15B5.6B$27.3BA5.14B16.8B2.4B4.7B$25.4B6.15B16.6B5.4B2.8B.
4B.B$23.6B5.4B2.8B17.9B4.17B.B2A$22.7B4.4B5.6B16.4B4.2A5.18B2A$15.
B.4B.8B2.4B4.9B14.4B5.A6.16B.2B$14.2AB.17B5.2A4.4B12.4B7.3A2.17B$
14.2A18B7.A5.4B10.4B9.A2.A16B$15.2B.16B4.3A7.4B8.4B8.A3.2A.14B$18.
16B4.A10.4B6.4B9.2A7.12B$19.15B16.4B4.4B20.10B$20.12B.B2A15.4B2.4B
21.2B2A6B$20.11B2.BA.A15.8B21.3B2A6B$21.10B5.A16.6B23.10B$21.6B2A
2B5.2A16.4B24.8B.B2A.A$21.6B2A3B21.3A3B22.7B3.B2AB3A$21.10B21.3BA
4B21.6B6.B4.A$17.A.2AB.8B20.3BA2.4B21.6B4.2A.3A$15.3AB2AB3.7B18.4B
4.4B20.5B4.A2.2A$14.A4.B6.6B17.4B6.4B18.8B.A.A$15.3A.2A4.6B17.4B8.
4B8.A8.8BA.A.2A.A$17.2A2.A4.5B16.4B10.4B7.3A6.6B.2BAB.A.2A$20.A.A.
8B14.4B12.4B9.A4.7B2.2B2.A$17.3A.A.A8B8.A4.4B14.4B7.2A4.7B3.B.2A$
16.A2.A.BA2B.6B6.3A3.4B16.4B6.4B.8B2.A.A2.2A$15.A.A.A2.2B2.7B4.A5.
4B18.4B7.11B2.2A2.A2.A$14.A.A2.2A.B3.7B4.2A3.4B20.4B5.12B7.2A$14.A
.A.A2.A.A2.8B.4B2.4B22.4B4.12B$15.2A.2A2.2A2.11B3.4B24.4B3.11B$26.
12B.4B26.4B3.7B$26.16B28.4B2.8B$16.A10.14B30.14B$16.3A11.10B30.16B
$19.A9.12B26.B.17B.B$18.2A6.16B24.2AB.17B2A$12.2A4.24B6.A17.2A19B
2A$11.B2AB5.23B3.3A18.2B.18B$11.4B4.24B2.A24.13B2.5B$12.2B5.24B.B.
A26.9B6.2A$4.A7.4B2.27B2A26.9B6.A$3.A.A5.5B.4B.22BA2.2A25.7B8.3A$
4.A.14B3.2B7.B3.2B3.3B3A2.A25.5B11.A$5.14B3.2BAB5.3B.4B3.2B4.A24.
6B$5.14B4.A.A4.B2AB.B2AB5.4A25.2A$5.15B4.A6.2A3.2A7.A28.A$4.3B2A
12B22.A27.3A$4.3B2A13B21.2A26.A$2.2AB.11B2.4B$.A.AB2.8B5.4B$.A5.
10B4.4B$2A5.B.B5.2A5.4B$8.3B4.A7.3BA$7.B2AB5.3A5.3BA$8.2A8.A6.3AB!
