#CSYNTH guntrue_1700 costs 3120 cells.
#C period 1700 fullperiod 1700 bbox 65 by 48
#CLL state-numbering golly
x = 65, y = 48, rule = LifeHistory
46.2A$45.A.A$45.A$42.2A.AB$42.2A.A.2A$45.A.2A$45.A.A$21.A5.2A13.2A
.A.BAB$19.3A6.A13.2A.A2B2AB$18.A9.A.AB13.A.BAB$18.2A9.2AB.2A10.A.
2A9.2A$6.3B7.4B11.2B2AB3.2A5.AB11.A$5.9B2.2B13.4B5.A6.4A8.A.2A$5.
16B10.4B5.A.A.4A.2BA6.2A.A.A$5.3B2A12B.B.11B3.2A.2A3.2B.2B.A2BA2.B
.A2.A$2A4.2B2A4B2A3BA6B3A3BA3B4.B4.2A.A2BABA2BAB2ABA.2A$A3.8B3A4B
2AB.B5A2BABA2B3.2AB3A.2AB2AB2A2.A.B2.A$2.A.2A3.2BA8B2A.2A8BA2B3.2A
.A4.6B4.3A.A$.2AB2A3.2BABA2B5AB.B2A4B3A8B6.6B7.A$4.B4.3BA3B3A6BA3B
2A4B2A2B10.2B4.5A$.2A.2A3.11B.B.12B2A3B9.2B4.A$2.A.A5.4B10.16B8.2B
2.BA.A.A$2.A2.A4.4B13.2B2.9B6.2B2AB.B2A.A.A$3.A.A3.B2A3B10.4B7.5B.
6BABA2B3.A.A$2.2A.2A.BA2BA2B10.2A11.4B3A3BAB2AB3.A.A.2A$3.A3.2B2AB
A.BA10.A10.5BA2B6A2B.2A.A.A.A$3.A.2A2.2B.A.A.A6.3A10.6B4A3BA2B.A.B
.A.A$4.A2.A4.A2.2A6.A11.4B3.3BABA5.B2ABA.A$5.2A4.2A21.4B3.5BA7.BAB
A.A.2A$18.B2A12.4B5.2B11.BAB2A2.A$18.3AB10.4B4.4B10.BA4.A$17.A.2AB
9.4B4.2B3AB10.5A$16.A.A.2B8.4B5.2BA2BA$16.A2.A2.2B5.4B5.2B2A2BAB
11.A$17.2A3.3B3.4B5.3BA2BAB11.A.A$11.2A9.B2A.5B6.2B2ABA14.A$10.A.A
8.BA2BA4B7.3BA2B$10.A8.B.2B2A4B9.5B$7.2A.AB.B3.BA9B11.3B$8.A.A.2AB
.3A9B13.B$8.A.A.2A2B2A10B13.2B$7.2A.A2.5BA9B11.BA2BAB$7.A2.4A3BA8B
.B2A8.A2B2A2BA$8.2A2.BAB.BA8B.BA.A7.A2B2A2BA$10.2A6.7B5.A9.4A$10.A
7.2B.3BA5.2A6.A.A2.A.A$12.A9.3BA12.2A4.2A$11.2A10.3AB!
