#CSYNTH guntrue_330 costs 1440 cells.
#C period 330 fullperiod 330 bbox 45 by 32
#CLL state-numbering golly
x = 45, y = 32, rule = LifeHistory
23.2A$21.2B2AB$21.4B12.2A$21.2BA13.A$21.BABA3.B9.3A.2A$22.AB.A.B2A
10.A.2A$12.A11.2BAB2A10.B$12.3A9.2A3B11.B3A$15.A9.4B3.BABA2B.2BA2.
A$6.A7.2A13.4BA2BA5B.2A$5.A.A6.5B9.8B2A4B$3.3A.A8.3B8.7BA3B2A2B$2.
A4.2A5.7B6.9B2A4B$3.3A.B5.6BAB6.6BA2BA3B$5.AB2A4.5B2A4B.8BABA2B$6.
4B3.ABAB2A9B.4B$5.3BAB3.3BA12B.4B$4.ABA.2A3.16B2.4B$2.3A.AB2A3.A
14B4.4B$.A4.A.B3.3B3AB2A6B6.4B$.A.4A3B.6BAB2A6B7.4B$2A.A2.A3BA.14B
9.4B$A3.3A3B2.12B12.4B$.2A.A2.2BA3.B.6B16.4B$2.A.A.2A8.5B17.4B$2.A
.A.A7.2BA3B19.4B$3.A2.A4.4BABA22.4B$6.2A3.2A.A.A24.3BA$10.ABABA.A.
A23.ABA$10.A4.A.A.A23.2A$11.3A.A.A.A24.B$13.2A3.A!
