#CSYNTH guntrue_6840 costs 3720 cells.
#C period 6840 fullperiod 6840 bbox 60 by 62
#CLL state-numbering golly
x = 60, y = 62, rule = LifeHistory
8.2A$9.A$9.A.AB$10.2AB$12.3B$12.4B$.4B2.B.3B.4B$.4B.18B$2A5B2A16B$
2A5B2A16B$.B.22B19.2A10.2A$3.B2A21B16.B2A2B6.A2BAB$4.2A7B2.13B16.
4B6.4B$4.8B6.10B17.4B4.A3B$6.7B7.7B17.4B6.4B$5.10B6.8B15.4B6.2A2B$
5.13B2.7B2A14.5B6.2BA2B$6.9B2ABA8B2AB13.B3AB6.5B$8.4BABA3BA11B.B
10.7B4.7B$8.4BA11B2A5B2A9.2BABA2B4.2A3B2A$8.4BABA9B2A5B2A9.B5AB4.
2A3B2A$9.7BABA8B.4B10.2A3B2A4.B5AB$16.4B.3B.B2.4B10.2A3B2A4.2BABA
2B$17.4B21.7B4.7B$17.5B21.5B6.B3AB$15.13B.5B9.2BA2B6.5B$14.22B8.2B
2A6.4B$15.23B6.4B6.4B$16.23B6.3BA2BA5B$16.24B4.4BA2BABA4B$14.2AB.
23B2.BA9B2A3B$13.A.AB2.28BA6B2A3B$13.A6.24B2A8B2A2B$12.2A6.25B.5BA
BA2B$21.18B.4B4.3BA2B$21.22B$22.20B$22.5B2A12B$24.3B2A11B11.2A$27.
16B8.A$30.11B2AB4.A3.3A$30.10BA2BAB3.4A3.A$31.10B2A5B3.B.A.A$31.
19B2AB2A$16.A13.4B.15B2A$16.3A10.4B2.15B3.2A$19.A8.4B4.3B.10B4.A$
18.2A7.4B3.5B2.9B3.A$18.5B3.4B4.2A6.9B2.2A$9.2A9.3B2.4B6.A6.9B$8.A
.A8.9B4.3A7.9B$8.A8.B.8B5.A9.2B2A3B.B2A$5.2A.AB.B3.BA9B14.3BA2BA2B
.BA.A$6.A.A.2AB.3A9B13.2A3BABAB5.A$6.A.A.2A2B2A10B9.2A.A.AB.2BA4B
3.2A$5.2A.A2.5BA9B10.A.A.2B6.2A$5.A2.4A3BA8B.B2A7.A2.2AB7.A$6.2A2.
BAB.BA8B.BA.A7.2A2.B8.3A$8.2A6.7B5.A9.2A11.A$8.A7.2B.3BA5.2A8.A$
10.A9.3BA15.A$9.2A10.3AB13.2A!
