#CSYNTH guntrue_9995 costs 14250 cells.
#C period 9995 fullperiod 9995 bbox 125 by 114
#CLL state-numbering golly
x = 125, y = 114, rule = LifeHistory
29.2A38.2A$29.A.A36.A.A$31.A4.2A24.2A4.A$27.4A.2A2.A2.A20.A2.A2.2A
.4A$21.2A4.A2.A.A.A.A.2A20.2A.A.A.A.A2.A$21.A7.BABABA.A26.A.ABABAB
$23.A6.B2ABA.A26.A.AB2AB$19.5A7.2B.BA28.AB.2B$19.A10.3B34.3B$21.B
4A3.4B34.4B6.2A$21.BA2.A3.B2A3B30.3B2AB6.A$21.4B4.B2A3B30.3B2AB3.B
A.A$17.2A3.15B26.10B.B2A$17.A2.A.2A14B24.13B$19.2A.2A3BA11B22.14B$
23.B.BABA11B20.15B$26.BA7B2.4B18.4B2.8B$26.7B5.4B16.4B5.6B$26.9B4.
4B14.4B4.9B$25.4B4.2A5.4B12.4B5.2A4.4B$24.4B5.A7.4B10.4B7.A5.4B$
23.4B7.3A5.4B8.4B5.3A7.4B$22.4B10.A6.4B6.4B6.A10.4B$21.4B19.4B4.4B
19.4B18.A$20.4B13.A7.4B2.4B21.4B11.2A3.A.A$19.4B14.3A6.8B23.4B11.A
3.A2.A$18.4B18.A6.6B25.4B10.A.2A.A.A$17.4B18.2A7.4B27.4B10.A.A.A.
2A$16.4B19.B3AB3.6B27.4B10.2B2A.A2.A$3.2A10.4B22.3A2.8B27.4B10.4B
2.2A$4.A9.4B13.2A7.ABABA4B2.4B27.4B6.7B$2.A10.4B14.A8.A2B3A2B4.4B
27.4B3.8B$2.5A5.4B5.2A5.2A.A.B3.B2A3BA3B6.4B22.2A3.4B.8B$7.A4.4B5.
A6.A2.3AB.BA4B2A3B7.4B22.A4.12B$4.3AB2.7B.BA.A7.2A2.BAB3A2BABA3B8.
4B6.2A13.A.AB2.11B.2B$3.A.2B3.7B.B2A10.4A2BA4B2A3B9.4B5.A15.2AB.
14B2A13.2A$3.4A12B12.A.2B3.2A2B2AB.B2A8.4B6.A15.16B2A7.2A4.A.A$.2A
2.BA3B2A7B13.3AB2.2BA4B.BA.A8.4B4.2A15.14B.2B7.B2AB6.A3.2A$A2.3AB.
2B2A7B16.A4.A2BA5.A9.4B2.2B17.13B11.2B5.2A.A.A.A$2A.A.B3.10B11.5A
5.B2AB5.2A.2A6.8B15.14B.2B9.2B2.BA.B.A.A$3.A8.8B10.A10.BA2B8.A7.7B
13.18B2A7.2AB2.3A2BA.BA$3.2A7.9B11.A9.4B7.A.2A5.7B2.B2.2B2.19B.B2A
5.2B2A3B2AB.B2A3B$12.10B9.2A10.4B7.A2.A4.35B2.B4.8B.A4B4ABA$9.2A.
4B3.4B21.4B7.2AB3.27B.8B6.2A.5B3.2A2.6B$9.A.4B5.4B21.4B7.14B2A16B
2.7B5.B2A6B10.A2BA$6.2A.A.2B2AB5.4B21.4B7.13B2A16B2.7B6.9B10.A.A$
4.A2.A.2A2B2A7.4B21.4B7.29B3.7B8.2B.5B10.A$4.2A.A.3B11.4B21.4B6.
17B.4B11.6B.BA4.2B3.5B$7.A5.2A9.4B16.2A3.4B6.15B3.2B12.7BA.A2.BA2B
3.5B$7.2A5.A10.4B14.B2AB3.4B5.15B3.3B11.8BA3.A.A5.5B$12.A13.4B14.
2B5.4B5.13B5.A2B.2A7.6B.B5.A7.5B$12.2A13.4B14.2B4.5B6.13B2.A.A2B.A
7.5B17.5B$28.4B12.14B2.9B4.2A.A.AB2.A8.6B17.5B$29.4B11.14B2.8B5.2A
BA4.A7.2AB.5B7.2A7.6B$30.4B.B5.18B2.6B7.B2.5A.A4.A.AB3.4B7.A7.7B$
31.35B6.A.2A.A4.A.A3.A7.4B6.A.AB2.9B$31.35B6.2A2.A3.A3.A2.2A8.4B6.
2AB.11B$31.34B10.A4.2A2.2A12.4B7.3BA10B$31.33B8.3A24.4B6.2BABA10B$
32.32B8.A27.4B5.2BABA10BA$30.2AB2.23B3.4B36.4B4.3BA3B2.B3.ABA$29.A
.AB4.B.16B7.4B36.4B3.6B8.2A$29.A11.10B.2B9.4B36.4B.6B10.B$28.2A12.
9B13.4B36.4B.5B$39.11B15.4B36.8B$38.12B16.4B13.A22.7B$29.2A7.12B
17.4B10.3A21.10B$28.A2.A2.2A2.11B19.4B8.A24.12B$29.2A2.A.A2.8B.4B
18.4B7.2A23.12B$31.2A.B3.7B4.2A19.4B3.5B23.12B$31.A2.2B2.7B4.A21.
4B2.3B23.2AB.8B.B2A$28.2A.A.BA2B.6B6.3A19.9B7.2A12.A.AB.8B.BA.A$
28.A.2A.A.A8B8.A20.8B8.A12.A4.3B2A3B4.A$32.A.A.8B30.10B3.B.A.2A8.
2A5.BA2BA6.2A$29.2A2.A4.5B31.7B2A2B.B3A2.A16.B2A$27.3A.2A4.6B31.7B
2A3BAB2.2A18.B$26.A4.B6.6B30.12B4A20.2B$27.3AB2AB3.7B28.2AB.7B3.2B
.A20.2B$29.A.2AB.8B28.A.AB.7B2.B3A17.2A2.3A$33.10B28.A5.4B4.A20.A
2.A.2B$33.6B2A3B26.2A5.4B5.5A16.3A3BA$33.6B2A2B33.4B10.A13.3A2.A3B
$33.10B32.4B9.A14.A2.A.2A.A$32.12B30.4B10.2A14.A.A2.A.3B$32.14B.2A
24.4B28.2A2.A.ABA$31.16BA2.A21.4B34.A.A$30.17B2.2A20.4B33.A.A.A.A$
27.2B.16B24.4B34.2A3.2A$26.2A18B23.4B$26.2AB.17B21.4B$27.B.4B.8B2.
4B19.4B$34.7B4.4B6.A10.4B$35.6B5.4B5.3A7.4B$37.4B6.4B7.A5.4B$39.3B
A5.4B5.2A4.4B$40.BA.A5.4B4.9B$41.A.A6.4B5.6B$42.A8.4B2.8B$43.3A6.
15B$45.A7.14B$54.13B$55.10B.B2A$57.3B2AB3.BA.A$57.3B2AB6.A$59.4B6.
2A$59.3B$56.AB.2B$55.A.AB2AB$55.A.ABABAB$52.2A.A.A.A.A2.A$52.A2.A
2.2A.4A$54.2A4.A$60.A.A$61.2A!
