#CSYNTH guntrue_7304 costs 2640 cells.
#C period 7304 fullperiod 7304 bbox 66 by 40
#CLL state-numbering golly
x = 66, y = 40, rule = LifeHistory
19.B$18.2A2B7.B$16.BA2BA4B3.3B6.2A$16.BA2B2A5B.BAB6.A$17.B3A7BABAB
2.BA.A12.A$16.2B2A2B2A3B2AB2AB.B2A12.A.A$16.6B3A2B2AB2A3B14.A.A4.
2A$16.3B2AB2A2B3A6B12.3A.2A4.A$14.2AB.B2AB2A3B2A2B2A2B7.A3.A4.B5.A
.2A3.2A$13.A.AB2.BABA7B3AB6.3A4.3AB2AB4.A.A4.A$13.A6.BAB.5B2A2BAB
4.A9.A.2AB6.A.3A$12.2A6.3B3.4BA2BA2B3.2A12.4B2.2A.A$21.B7.2B2A8B
12.10B$31.B2.5B10.B2.7B.2B$33.7B2.B5.13B$32.8B.3B2.16B$31.9B.10B2A
9B$30.18BA3BA9B$29.4B.14BA3BA8B$28.4B2.5B2A9B2A7B$27.4B3.5BABA6B2A
7B$11.B2A12.4B3.6BAB2A4B2ABA6B$11.3AB10.4B4.7B2A6BABA5B$10.A.2AB9.
4B3.7B2A9B2A5B$9.A.A.2B8.4B2.8BA3BA14B$9.A2.A2.2B5.4B2.9BA3BA15B$
10.2A3.3B3.4B3.9B2A10B.6B$4.2A9.B2A.5B4.16B2.10B$3.A.A8.BA2BA4B6.
13B5.B.5B$3.A8.B.2B2A4B6.2B.7B2.B8.4B$2A.AB.B3.BA9B6.10B12.2B2AB$.
A.A.2AB.3A9B6.A.2A2.4B14.2A$.A.A.2A2B2A10B4.3A.A6.B2A.A$2A.A2.5BA
9B3.A4.A.A4.B2AB3A$A2.4A3BA8B.B2A2.A3.2A.A5.B4.A$.2A2.BAB.BA8B.BA.
2A7.A4.2A.3A$3.2A6.7B5.A8.2A4.A.A$3.A7.2B.3BA5.A.A12.A.A$4.A10.3BA
5.2A13.A$3.2A11.3AB!
