#CSYNTH guntrue_790 costs 4160 cells.
#C period 790 fullperiod 790 bbox 65 by 64
#CLL state-numbering golly
x = 65, y = 64, rule = LifeHistory
15.2A13.A$14.A.A11.3A$8.2A3.A13.A$8.A.A.A.2A11.2A$10.A.A.A.AB6.5B$
9.BA.5AB4.BA3B$8.BA3BA.7BABA3B$7.BA3B4A2B.2BA2BA4B$7.BA3BA2.2A2.3B
2A4B$6.BA2B11.6B$6.A.A12.5B$7.A12.7B$19.4B.4B$18.4B3.4B$17.4B5.4B$
16.4B7.4B$2A13.4B9.4B$.A12.4B11.4B$.A.AB2.B5.4B13.4B$2.2AB.3B3.4B
15.4B11.2A$4.6B.4B17.4B11.A$4.10B19.4B10.A.AB2.2A$4.2B2A5B21.4B10.
2AB.A.AB$5.A2BA3B23.4B11.3BAB$5.BABA4B23.4B10.4B$6.BA6B23.8B2.3B.
5B$6.3B2.4B21.21B$6.3B3.4B19.23B5.2A$6.B6.4B18.24B4.A$5.3AB5.4B18.
22B2.BA.A$4.AB3A6.4B19.21B.B2A$4.A2BA.A6.4B10.A7.23B$5.B.2BA7.4B7.
3A8.22B$5.3B2.2A6.4B5.A15.17B$4.B5A2.A6.4B4.2A15.16B$4.B2A4.A.A6.
9B14.17B$4.BA2B3A2.A7.6B14.18B$3.ABABA5.A.2A5.6B3.B2.2B2.21B$2.A4B
2.2A3.A2.A4.19B2A16B$.A.2BA4.A4.2AB3.19B2AB2A3B.9B$2.2A4.A7.14B2A
8B2AB2A3B2.6B$8.2A7.13B2A10B3A3B3.6B$12.2A4.29B6.4B$12.A.A3.17B.B.
2B12.B2A2B$15.A3.15B4.3B12.2A.B2A$9.AB2.2A.A2.15B5.A2B.2A11.BA.A$
8.A4B.A.A3.13B5.A.A2B.A14.A$8.A3B3A.2A4.13B2.A.AB2.A15.2A$9.AB.2A.
AB.AB.8B4.2A.A.A3.A$15.3A9B6.2ABA2.4A.A$9.AB.2A.AB.AB3.4B7.B2.A.A
3.A.A$8.A3B3A.2A6.4B4.A.4A.A2.A2.A$8.A4B.A.A8.4B3.2A5.A.A3.2A$9.AB
2.2A.A9.4B5.2A.A2.4A2.A$15.A11.4B5.A.2A5.A.A$12.A.A13.4B3.A4.2A2.
2A.2A$12.2A15.4B3.3A.A.A3.A2.A$30.4B4.ABA.2A.A2.A$31.4B4.BA2B3.2A$
32.4B3.2AB4A$33.11B.A.3A$34.3BA2B.A2BAB.A2.A$35.3BA3.2A2B.A.A$36.
3AB3.B2.2A.2A!
