#CSYNTH guntrue_2914 costs 6090 cells.
#C period 2914 fullperiod 2914 bbox 87 by 70
#CLL state-numbering golly
x = 87, y = 70, rule = LifeHistory
63.A$63.3A$66.A$65.2A$65.4B$53.2A12.5B$54.A10.2B3A2B$53.A10.3B3A4B
$53.2A4.7BA4BA2B$54.B.10BA2BABA2B$23.2A7.A18.A14BA2B3AB$22.B2AB4.
3A17.ABA11B3A2B2AB$22.3B4.A8.A10.BA2BA.5B2A7B2AB$11.2A10.B.B3.2A5.
3A10.2B2A6BA2BA2BABA2BA2B$10.A2.A2.2A3.10B4.A11.2AB.9BABA2B6A2B$
11.2A2.A.A3.8B6.2A9.A.AB3.8BA3BA3BA4B$13.2A.B3.11B2.4B9.A7.12B3A6B
$13.A2.2B.2A14B7.A2.2A8.7B.4BA7B$10.2A.A.B6A13B5.3A14.3B.10B.3B$
10.A2.A.ABABAB2A11B5.A17.7BA4B.7B8.2A$12.2A.AB2AB2A12B4.B2A16.6B3A
12B7.A$16.AB.BA11BAB.6B17.4BA3BA3BA8B3.BA.A$19.13B2A5B20.2B6A2BABA
9B.B2A$17.6B.8BABA4B.2B17.2BA2BABA2BA2BA6B2A2B$17.2AB4.8B3A6B2A.2A
14.B2A7B2A5B.A2BAB$18.A5.6B2AB2A6B2A.A2.A12.B2A2B3A11BABA$9.A5.3A
5.6BA2BA10B.A.2A2.A8.B3A2BA14BA$9.3A3.A6.7BABA7B.2B2.A5.3A5.2BABA
2BA10B.B$12.A8.4B2.3BA7B3.B.2A8.A4.2BA4BA7B4.2A$11.2A7.4B5.8B3.A.A
2.2A5.2A4.4B3A3B10.A$11.5B3.4B4.10B3.2A2.A2.A4.6B2.2B3A2B10.A$13.
3B2.4B5.2A3.B.B10.2A7.2B2AB.5B12.2A$3.2A7.9B7.A4.3B18.2B2A2B3.4B$
3.A8.8B5.3A4.B2AB17.8B4.2A$2A.A.B3.10B6.A7.2A12.A.2A2.9B3.A$A2.3AB
.3BA7B28.2A.A12B3.3A$.2A2.BA3B2A7B33.12B4.A$3.AB2A12B33.13B$3.A.2B
3.7B.B2A2.2A27.9B.4B$4.3AB2.7B.BA.A2.A27.9B2.4B$7.A4.4B5.2A28.11B
2.4B$2.5A5.3BA5.A29.11B3.4B$2.A10.ABAB6.A27.12B3.4B$4.A9.2A2B4.2A
21.B4.14B3.4B$3.2A10.4B2.2B21.3B3.10B.4B3.4B$8.2A6.8B18.6B2.15B4.
4B$9.A7.7B12.4B2.7B.5BA7B.B2A3.4B$9.A.2A5.7B2.B2.2B2.20B3A6B.BA.A
3.4B$10.A2.A4.9BA25B2ABA6B4.A4.4B$11.2AB3.8B2AB2A20B2AB3A7B4.2A4.
4B$12.17BA11B2A6BAB5A8B10.4B$13.12BA3BA11B2A6BAB3A4BA5B11.4B$14.
10B5A21B2ABA2B3A6B11.4B$14.9B2A6B.B5.8B2A3B2A3BABA5B13.4B$15.8B2A
5B10.B2.2BA2BA2BA11B15.4B$15.15B12.4B2A4BA6BA2B.B.B13.4B$16.13B12.
11B2A2BA2B2A4B2A13.4B$18.13B10.10B3ABABAB3A3B2A14.4B$17.8B4.2A.A6.
2AB2.5B2.B2A2BA2B2A2B.2B16.4B$17.6B6.2AB3A3.A.AB2.4B3.2BA5BA4B19.
3BA$17.5B8.B4.A2.A14.B5A5B.B18.ABA$17.B.B9.2A.3A2.2A14.2B3A7B2A18.
2A$18.3B9.A.A20.3BA6B.B2A19.B$17.B2AB9.A.A18.2AB.6B4.B$18.2A11.A
18.A.AB.4B$50.A5.5B$49.2A8.2A$59.A$60.3A$62.A!
