#CSYNTH guntrue_1734 costs 6298 cells.
#C period 1734 fullperiod 1734 bbox 94 by 67
#CLL state-numbering golly
x = 94, y = 67, rule = LifeHistory
46.2A$45.B2AB11.2A.A.2A15.A$46.3B4.A.2A.A2.A.2A2.A14.3A$45.B.B5.2A
.A.2A.A4.A.A9.2A5.A$45.5B8.B2.5A.A10.A5.2A4.2B$45.6B6.2ABA4.A4.2A
3.2A.A5.9B$45.8B4.2A.A.AB2.A3.A4.A.A8.7B$46.13B2.A.A2B.A3.3A.A8.9B
$44.13B5.A2B.2A5.A.2A2.3B.10B$43.15B3.3B9.5B.10B2A2B$43.15B3.2B11.
14BA2BA2B$42.17B.4B10.14BA2BA2B$42.29B3.15B2A2B$41.13B2A16B2.20B$
40.14B2A16B2.19B$39.2AB3.27B.10B2.3B.4B$38.A2.A4.37B7.2B$37.A.2A5.
7B2.B2.2B2.21B$37.A7.7B13.17B$36.2A6.8B15.15B$43.4B2.2B17.14B$42.
4B4.2A15.15B$41.4B6.A15.16B$40.4B6.A14.2AB.6B3.3B.2A$20.A18.4B7.2A
12.A.AB2.4B3.B2A2B2A$19.A.A3.2A11.2A2B22.A4.4B5.2A3B$18.A2.A3.A11.
ABAB22.2A3.4B7.6B.2A$18.A.A.2A.A10.3BA27.4B9.B2.2A2.A$17.2A.A.A.A
10.4B27.4B11.BA.3A$15.A2.A.2A2B10.4B27.4B12.A.B$15.2A2.4B10.4B27.
4B14.5A$19.7B6.4B27.4B19.A$20.8B3.4B27.4B16.2A$21.8B.4B3.2A22.4B
17.2A$21.12B4.A22.4B$18.2B.11B2.BA.A13.2A6.4B$17.2A14B.B2A15.A5.4B
$17.2A16B15.A6.4B$18.2B.14B15.2A4.4B$21.13B17.2B2.4B$18.2B.14B15.
8B6.2A$17.2A18B13.7B7.A$17.2AB.19B2.2B2.B2.7B5.2A.A$18.B2.35B4.A2.
A$21.8B.27B3.B2A$21.7B2.16B2A14B$21.7B2.16B2A13B$21.7B3.29B$18.AB.
6B11.4B.17B$11.A5.A.A7B12.2B3.15B$11.3A4.A8B11.3B3.15B$14.A4.B.6B
7.2A.2BA5.13B$13.2A7.5B7.A.2BA.A2.13B$13.5B3.6B8.A2.BA.A.2A4.8B$4.
2A9.3B2.5B.B2A7.A4.AB2A6.6B$3.A.A8.9B3.BA.A4.A.5A2.B8.5B$3.A8.B.8B
7.A3.A.A4.A.2A.A.2A5.B.B$2A.AB.B3.BA9B8.2A3.A2.2A.A2.A.2A.A4.3B$.A
.A.2AB.3A9B14.2A.A.2A11.B2AB$.A.A.2A2B2A10B33.2A$2A.A2.5BA9B$A2.4A
3BA8B.B2A$.2A2.BAB.BA8B.BA.A$3.2A6.7B5.A$3.A7.2B.3BA5.2A$4.A10.3BA
$3.2A11.3AB!
