#CSYNTH guntrue_119 costs 2250 cells.
#C period 119 fullperiod 119 bbox 50 by 45
#CLL state-numbering golly
x = 50, y = 45, rule = LifeHistory
2.2A3.B2A12.2A$2B2AB2.3AB6.2A2.A.A$2B2A2.AB.BA4B2.A3.A$2B3A3B4ABAB
3.3A.4A$2BA10BA2B4.A.A2.A$.BAB4A3B3A2B4.4B$.4BAB.BA2.2A2B5.2B$5.B
3A2.B2A2B4.5B16.2A.4B$6.2AB3.2A2.9B15.A.A2B3AB$16.6BA2B15.A.3A2BAB
$16.5B3AB.5B8.2A.AB3ABAB$15.6B3A8B5.BAB.4A.B3A$13.21B2.B3A2B3.2B3A
$10.2B.5B9A10B3AB.4A.BAB$9.2A3B2ABA2BABABA2BAB2A5B.BAB3ABA.2A$9.2A
B.ABA4BABABA4BABA4B2.BA2B3A.A$10.B.BABA2BABABABABA2BABA3B3.B3A2BA.
A$13.5BAB2AB2ABA9B3.4B.2A$14.B2A11B2A7B$14.2B5A3B5A9B$15.14B.B4.4B
$15.14B7.4B$15.13B9.4B$13.11B14.4B$12.13B14.4B$12.14B14.4B$12.14B
15.4B$10.2AB.14B14.4B$9.A.AB.15B14.4B$9.A5.13B16.4B$8.2A6.12B17.4B
$16.11B19.3BA$18.9B20.ABA$19.7B22.2A$19.8B22.B$19.5B2A$20.4B2AB$
21.5B$22.4B$21.2B.2B.A$20.A2.AB.A.A$20.4A3.A2$22.2A$22.2A!
