#CSYNTH guntrue_1930 costs 5688 cells.
#C period 1930 fullperiod 1930 bbox 79 by 72
#CLL state-numbering golly
x = 79, y = 72, rule = LifeHistory
49.2A$48.A.A$42.2A4.A$40.A2.A2.2A.4A$40.2A.A.A.A.A2.A$43.A.ABABAB$
43.A.AB2AB$44.AB.2B$47.3B$47.4B6.2A$45.6B6.A$45.6B3.BA.A$43.5BA4B.
B2A$42.6BA6B$41.6BABA5B$40.7B2A6B$39.4B2.2B2A4B$38.4B5.6B$37.4B4.
9B$36.4B5.2A4.4B$20.A.A12.4B3.A3.A5.4B$19.A.2A11.4B4.4A7.4B$19.A
13.4B17.4B$15.A.2A.3A9.4B6.2A11.4B$15.2A.A.A2.A7.4B3.2A2.A.A11.4B$
8.2A3.2A4.3B2AB5.4B4.A.A.A2.A11.4B$8.A.A.A.A6.4B4.5B5.BA.AB2A12.4B
$10.A.A10.12B4.2ABA16.4B$5.2A2.A.ABA8.2BA10B4.3BA.4A12.4B10.2A$4.A
.A2.A.3B8.BABA9B.4B.BABA2.A13.4B9.A$3.A2.A.2A.A10.A2BA11B2A2B.BA
18.4B10.A$4.3A2.A3B9.B2A10B.A2BA2B14.2A5.4B5.5A$7.3A3BA8.15B2A2B.B
A13.A5.4B4.A$6.A2.A.2B7.2AB.11B.4B.BABA2.A9.A.AB.7B2.B3A$6.2A2.3A
6.A.AB3.10B3.3BA.4A10.2AB.7B3.2B.A$10.2B7.A4.5B.7B2.2ABA17.12B4A$
10.2B6.2A4.2A4.6B3.BA.AB2A14.7B2A3BAB2.2A$11.B6.A6.A3.7B2.A.A.A2.A
14.7B2A2B.B3A2.A$10.2AB7.A.3A5.B2A3B2.2A2.A.A15.10B3.B.A.2A$.2A6.A
2BAB5.2A.A7.B2A2B7.2A15.8B8.A$2.A4.3B2A3B4.A3.2A4.6B23.9B7.2A$2.A.
AB.8B.BA.A4.A4.6B22.4B2.3B$3.2AB.8B.B2A5.A.AB.7B20.4B3.5B$5.12B8.
2AB2.6B19.4B7.2A$5.12B10.8B19.4B8.A$5.12B10.8B18.4B10.3A$7.10B11.
8B16.4B13.A$9.7B13.7B15.4B$9.8B13.6B7.2A5.4B$8.5B.4B12.7B6.A5.4B$
8.6B.4B11.7B3.BA.A4.4B$7.6B3.4B10.8B2.B2A4.4B$3.B2.3BA3B4.4B9.11B
5.4B$.7BABA2B5.4B8.11B4.4B$.7BABA2B6.4B6.12B3.4B$9BA3B7.4B5.13B.4B
$11B.B2A6.4B5.3B.7B.4B$.9B2.BA.A6.4B2.17B$.7B7.A6.22B$2.6B7.2A5.
21B$3.4B11.2A2.21B$4.4B7.2A.A3.21B.B$5.4B7.A.A.24B2A$6.4B6.A.A.2A
22B2A$7.4B6.2A.A.3B3.B.B3.11B$8.4B8.A.B10.6B2.4B$9.4B7.A.A10.6B$
10.4B5.2A.3A7.A.2A2B$11.4B10.A4.3A.A.A.A$12.3BA8.2A3.A4.A.2A.A$13.
3BA12.2A3.A4.A$14.3AB15.2A4.2A!
