#CSYNTH guntrue_7020 costs 3381 cells.
#C period 7020 fullperiod 7020 bbox 69 by 49
#CLL state-numbering golly
x = 69, y = 49, rule = LifeHistory
34.A$32.5A$31.A5.A$31.A2.2ABA9.2A$30.2A.A.2B10.A$29.A3.2A2B7.BA.A$
10.2A18.A.A2.2BA.4B.B2A5.A$8.A4BA15.2A.4A2BA6B5.3A$6.BA6BAB19.5AB
3AB4.A$4.2BA8BA2B11.2A.4A2BA6B4.2A$3.3BA8BA3B11.A.A2.2BA.4B2.2B3AB
$4.2BA8BA2B11.A3.2A2B7.2B3A$6.BA6BAB14.2A.A.2B6.2B2A2BA$8.A4BA17.A
2.2ABA4.8B$10.2A19.A5.A3.9B10.2B$10.2B20.5A3.9BAB7.6B$11.B22.A4.
10BABA4.10B$10.2AB25.4B2.3BA4BA.3B2A4B2A2BA$9.A2BAB5.2A16.4B3.3BA
2BA6B3A2B3A3BA$7.3B2A3B4.A16.4B3.5B3A.5B2A4B2A2BA$7.8B.BA.A15.4B3.
B2A4BA4B2.10B$6.9B.B2A15.4B3.B3A3BA4BA4.6B$5.B2A9B16.4B4.A4B3A4BA
6.2B$4.BA2BA8B15.4B3.3BABA2BA4BA$5.B2A9B3.A10.4B3.3AB.A8B$7.10B3.
3A7.4B4.3A5.4B.B$9.7B7.A5.4B4.2BA2B7.B2A$9.8B5.2A4.4B5.2BA2B6.A4BA
B$8.5B.4B4.9B5.3BA3B5.5BA.A$8.6B.4B5.6B6.2BABA2B3.3A.2B.A.3A$7.6B
3.4B2.8B5.9B.A3.ABA.A4.A$3.B2.3BA3B4.15B3.9B.A.2A2.3A.3A$.7BABA2B
5.14B4.2BABA2B3.A2.3A3BA$.7BABA2B6.13B4.3BA3B4.A.A.ABAB$9BA3B7.10B
.B2A3.2BA2B4.2A.A.2BA$11B.B2A6.2BA4B3.BA.A2.2BA2B4.A2.ABA.2A$.9B2.
BA.A4.2BABA4B5.A3.3A6.2A2.A.A2.A$.7B7.A4.2BABA3B6.2A2.3A7.A.2A.B3A
$2.6B7.2A5.BA4B11.B8.A2.A.A$3.4B15.5B22.2A2.A.2A$4.4B15.3B27.2A.A$
5.4B13.5B$6.4B12.2AB2AB$7.4B7.2A2.BA.2A2.2A$8.4B6.A2.A.A3.B2.A$9.
4B7.2A.7A$10.3BA8.A$11.3BA7.A.4A$12.3AB7.2A2.A!
