#CSYNTH guntrue_4896 costs 3366 cells.
#C period 4896 fullperiod 4896 bbox 66 by 51
#CLL state-numbering golly
x = 66, y = 51, rule = LifeHistory
2.A9.A$2.3A5.3A$5.A3.A$4.2A.B.2A$4.7B$6.3B$4.7B$3.4BA4B8.2A$3.3BAB
A3B3.2A2.A2.A$4.3BA3B4.A.A2.A.A$4.7B5.B.2A.A22.A$3.9B3.2B2.A14.A7.
3A$.17B.A13.A.A5.A16.2A$.15B2A.2A12.BA2B4.2A15.A$2BA13B2A.A14.2B.
6B17.A$.ABA8BA2B.B4.A13.BA4B18.2A$BABA7BABAB5.2A12.4A4B17.A$.BA8B
2A3B4.A11.A4BA3B.B15.2AB$3.13B.BA.A11.6BA4B14.ABAB$5.11B.B2A6.2A2.
A2B.3BA6B.B10.3BAB$5.2B2A9B8.A2.A.2A.B2A7B3AB7.5B$5.BA2BA8B10.2A4.
9B5A.2B3.5B$6.B2A9B11.A4.8B8A7B5.2A$7.11B9.A4.2AB.5B2A6B2A6B5.A$
10.8B9.2A2.A.AB.6B3A4B3A6B.BA.A$10.9B9.A2.A5.6B2A6B2A5B.B2A$9.5B2.
4B6.A2.3A5.7B8A8B4.2A$9.6B2.4B5.3A7.4B3.2B.5A9B4.A$8.6B4.4B7.A5.4B
7.B3A7B2AB.2A.A$4.B2.3BA3B5.4B5.2A4.A3B10.B.6BA3B.2BA$2.7BABA2B6.
4B4.6BABA14.4BA6B$2.7BABA2B7.4B5.4B2AB14.B.3BA4BA$.9BA3B8.4B2.8B
16.4B4A$.11B.B2A7.15B15.4BAB$2.9B2.BA.A7.15B12.6B.2B$2.7B7.A3.2A2.
15B12.2A4.2BAB$3.6B7.2A.B2A2B.11B3.3B10.A5.A.A$4.4B12.4B3.4B2AB5.B
3A6.3A7.A$5.4B11.4B2.5B2A2B3.A.3A6.A$6.4B9.AB2A3.8B3.A.A.AB$7.4B8.
ABAB5.6B3.A2.A$8.4B6.2BAB6.5B5.2A$9.4B5.2B2A7.3B$10.4B4.2B2AB5.5B$
11.4B5.2A6.2AB2AB$12.4B12.BA.2A2.2A$13.4B7.2A.A.A3.B2.A$14.4B6.A.
2A.7A$15.3BA9.A$16.3BA8.A.4A$17.3AB8.2A2.A!
