#CSYNTH guntrue_1253 costs 9576 cells.
#C period 1253 fullperiod 1253 bbox 152 by 63
#CLL state-numbering golly
x = 152, y = 63, rule = LifeHistory
96.2A$29.2A64.A.A21.2A$28.A.A58.2A4.A23.A.A$22.2A4.A24.2A32.A2.A2.
2A.4A21.A4.2A$20.A2.A2.2A.4A20.A.A31.2A.A.A.A.A2.A17.4A.2A2.A2.A$
20.2A.A.A.A.A2.A22.A4.2A28.A.ABABAB19.A2.A.A.A.A.2A$23.A.ABABAB20.
4A.2A2.A2.A26.A.AB2AB22.BABABA.A$23.A.AB2AB21.A2.A.A.A.A.2A27.AB.
2B24.B2ABA.A$24.AB.2B24.BABABA.A33.3B24.2B.BA$19.A7.3B24.B2ABA.A
33.4B6.2A14.3B$17.3A7.4B6.2A16.2B.BA32.3B2AB6.A6.2A6.4B$16.A8.3B2A
B6.A16.3B35.3B2AB3.BA.A7.A6.B2A3B7.A$15.A.A7.3B2AB3.BA.A7.2A6.4B
33.10B.B2A8.A.AB3.B2A3B7.3A$14.BA.A5.10B.B2A9.A6.B2A3B30.13B11.2AB
.10B8.A$13.3BA5.13B11.A.AB3.B2A3B29.14B13.13B6.A.A$11.4B6.14B12.2A
B.10B26.15B13.14B5.A.AB$9.6B5.15B14.13B24.4B2.8B15.15B5.A3B$8.7B4.
4B2.8B16.14B22.4B5.6B17.8B2.4B6.4B$.B.4B.8B2.4B5.6B16.15B20.4B4.9B
16.6B5.4B5.6B$2AB.17B4.9B17.8B2.4B18.4B5.2A4.4B14.9B4.4B4.7B$2A18B
5.2A4.4B16.6B5.4B16.4B7.A5.4B12.4B4.2A5.4B2.8B.4B.B$.2B.16B6.A5.4B
14.9B4.4B14.4B5.3A7.4B10.4B5.A7.17B.B2A$4.17B2.3A7.4B12.4B4.2A5.4B
12.4B6.A10.4B8.4B7.3A5.18B2A$5.16BA2.A9.4B10.4B5.A7.4B10.4B19.4B6.
4B10.A5.16B.2B$6.14B.2A3.A8.4B8.4B7.3A5.4B8.4B21.4B4.4B17.16B$6.
12B7.2A9.4B6.4B10.A6.4B6.4B23.4B2.4B18.15B$7.10B20.4B4.4B19.4B4.4B
25.8B17.2AB.12B$7.6B2A2B21.4B2.4B21.4B2.4B27.6B17.A.AB2.11B$7.6B2A
3B21.8B23.8B29.4B18.A5.10B3.2A$7.10B23.6B25.6B29.6B16.2A5.2B2A6B3.
A$3.A.2AB.8B24.4B27.4B29.8B21.3B2A6B4.A$.3AB2AB3.7B22.6B25.6B27.4B
2.4B21.10B3.2A$A4.B6.6B21.8B23.8B25.4B4.4B20.8B.B2A$.3A.2A4.6B21.
4B2.4B21.4B2.4B23.4B6.4B18.7B3.B2AB2A$3.2A2.A4.5B20.4B4.4B19.4B4.
4B21.4B8.4B17.6B6.B.A$6.A.A.8B18.4B6.4B6.A10.4B6.4B19.4B10.4B17.6B
4.2A3.A$2.A.2A.A.A8B8.A8.4B8.4B5.3A7.4B8.4B10.A6.4B12.4B16.8B.A2.
4A$2.2A.A.BA2B.6B6.3A7.4B10.4B7.A5.4B10.4B7.3A5.4B14.4B14.9BA.A.A$
5.A2.2B2.7B4.A9.4B12.4B5.2A4.4B12.4B5.A7.4B16.4B4.A8.7B.2BAB.A.2A$
5.2A.B3.7B4.2A7.4B14.4B4.9B14.4B4.2A5.4B18.4B3.3A6.6B3.2B2.A.A$3.
2A2.A.A2.8B.4B6.4B16.4B5.6B16.9B4.4B20.4B5.A4.7B4.B.2A2.A$2.A2.A2.
2A2.11B7.4B18.4B2.8B17.6B5.4B22.4B3.2A4.7B3.A.A2.A.A$3.2A7.12B5.4B
20.15B15.8B2.4B24.4B2.4B.8B3.2A2.A.A$12.12B4.4B22.14B13.15B26.4B3.
11B8.A$13.11B3.4B24.13B13.14B28.4B.12B$16.7B3.4B26.10B.B2A11.13B
30.B3A12B$15.8B2.4B29.3B2AB3.BA.A8.2AB.10B32.A13B10.A$14.14B30.3B
2AB6.A7.A.AB3.B2A3B35.A9B11.3A$13.16B31.4B6.2A6.A6.B2A3B34.12B9.A$
11.B.17B.B28.3B14.2A6.4B35.16B6.2A$10.2A17B.B2A24.AB.2B24.3B28.A6.
24B$10.2A19B2A23.A.AB2AB24.2B.BA25.3A3.23B$11.18B.2B24.A.ABABAB22.
B2ABA.A27.A2.24B$9.5B2.13B24.2A.A.A.A.A2.A19.BABABA.A26.A.B.24B$9.
2A6.9B27.A2.A2.2A.4A17.A2.A.A.A.A.2A23.2A27B$10.A6.9B29.2A4.A21.4A
.2A2.A2.A21.2A2.A22B.4B$7.3A8.7B36.A.A23.A4.2A22.A2.3A3B3.2B3.B7.
2B3.4B$7.A11.5B38.2A21.A.A29.A4.2B3.4B.3B5.BA2B3.4B$20.6B59.2A31.
4A5.B2AB.B2AB4.A.A5.3BA$24.2A94.A7.2A3.2A6.A7.ABA$24.A97.A27.2A$
25.3A93.2A28.B$27.A!
