#CSYNTH guntrue_6486 costs 5100 cells.
#C period 6486 fullperiod 6486 bbox 85 by 60
#CLL state-numbering golly
x = 85, y = 60, rule = LifeHistory
25.2A7.A$24.B2AB4.3A$24.3B4.A8.A$13.2A10.B.B3.2A5.3A$12.A2.A2.2A3.
2BA7B4.A42.2A$13.2A2.A.A3.B3A4B6.2A41.A.A$15.2A.B3.BA3BA5B2.4B42.A
B$15.A2.2B.B3AB3A6BAB7.A15.4B3.B.9B2.2B$12.2A.A.5BA4BA9B5.3A15.4B.
11B2A6B$12.A2.A.2A2B3A2BA9B5.A17.2A15BABA4B2A$14.2A.2A3BA4BA8B4.B
2A16.2A15BAB2A3B2A$18.2B.2B2A2BA8B.6B17.B.15B2A3B.B$21.3B2A15B21.
15BA3B$19.6B.4B2A9B.2B$19.2AB4.5BA11B2A.2A14.15BA3B$20.A5.2B3A12B
2A.A2.A10.B.15B2A3B.B$11.A5.3A5.20B.A.2A2.A6.2A15BAB2A3B2A$11.3A3.
A6.17B.2B2.A5.3A4.2A15BABA4B2A$14.A8.4B2.11B3.B.2A8.A4.4B.11B2A6B$
13.2A7.4B5.8B3.A.A2.2A5.2A4.4B3.B.9B2.2B$13.5B3.4B4.10B3.2A2.A2.A
4.6B21.AB$4.2A9.3B2.4B5.2A3.B.B10.2A7.5B19.A.A$3.A.A8.9B7.A4.3B18.
6B18.2A$3.A8.B.8B5.3A4.B2AB17.8B$2A.AB.B3.11B6.A7.2A12.A.2A2.9B$.A
.A.2AB.2BA9B28.2A.A12B$.A.A.2A3BA10B33.12B$2A.A2.5BA9B33.13B$A2.4A
4BA7B.B2A2.2A27.9B.4B$.2A2.BAB.6BA3B.BA.A2.A27.9B2.4B$3.2A6.7B5.2A
28.11B2.4B$3.A7.2B.4B5.A29.11B3.4B$5.A9.4B6.A27.12B3.4B$4.2A10.4B
4.2A21.B4.14B3.4B$17.4B2.2B21.3B3.10B.4B3.4B$10.2A6.8B18.6B2.15B4.
4B$11.A7.7B12.4B2.7B.13B.B2A3.4B$11.A.2A5.7B2.B2.2B2.29B.BA.A3.4B$
12.A2.A4.45B4.A4.4B$13.2AB3.46B4.2A4.4B$14.29B2A21B10.4B$15.28B2A
21B11.4B$16.10B2A39B11.4B$16.9BA7B.B5.26B13.4B$17.9BAB4A10.B2.20B
15.4B$17.10B3ABA12.20B.B.B13.3BA$18.13B12.24B2A13.ABA$20.13B10.24B
2A14.2A$19.8B4.2A.A6.2AB2.5B2.12B.2B16.B$19.6B6.2AB3A3.A.AB2.4B3.
13B$19.5B8.B4.A2.A14.11B.B$19.B.B9.2A.3A2.2A14.12B2A$20.3B9.A.A20.
10B.B2A$19.B2AB9.A.A18.2AB.6B4.B$20.2A11.A18.A.AB.4B$52.A5.5B$51.
2A8.2A$61.A$62.3A$64.A!
