#CSYNTH guntrue_1085 costs 5106 cells.
#C period 1085 fullperiod 1085 bbox 74 by 69
#CLL state-numbering golly
x = 74, y = 69, rule = LifeHistory
44.A3.2A.2A$43.A.A.A.A.A$42.A2.A.A.B.A$41.2B3A.AB.BA.2A$39.B2.BA.B
2A.A.A.A$38.2A4B2.BABA.A3.A$38.A.AB5.B2A.A2.2A$39.2AB4.A3.A3.A$39.
BA5.4A6.A.2A$34.2A2.4B2.2A9.2A.A$34.A.B2.2A2.B.A.2A.A3.B.A.B.A2.A$
36.ABA2BABA3.A.2A3.B2ABAB4A$32.5A6B4A6.2BA3B$32.A5.4A11.2BA2B.3A$
35.10A4.B2.2B2A2.A2.A$34.A2.6B2.A2.2AB2A.AB3.2A$34.2A.6B.2A2.A3B.A
$30.2A7.3B7.3BAB$31.A6.4B7.A2BA$31.A.AB2.5B4.2B$32.2AB.7B2.4B$34.
9B.6B14.A$33.17B12.3A$33.20B8.A$31.23B7.2A$31.23B5.4B$31.22B3.A.3B
3.B$28.2A.18B2A3BA3BA7B$28.A.18B3A3BA12B$29.A2.17BA3BA5B2A7B$30.A
2.19B2A6BA7B$27.3A5.25BA6B$27.A7.14B4A3BAB2A6B$35.19BAB5.B.2B$36.
14B4A2B4.3B$31.2B2.6B5.6BAB6.B2AB$30.11B5.6B9.2A$29.8B3.B2A4.4B$
20.2A6.8B4.BA.A$21.A4.4B2A3B.2B5.A$20.A4.4BA2BA4B2A4.2A16.A$20.2A
4.3BA2BA2B.B2A21.A.A$21.2B5.2B2A3B2.B22.A.A$4.2A5.3B6.5B2.8B24.2A.
2A$5.A5.4B4.15B26.B4.A2.2A$5.A.AB.5B4.10B.B2A2B5.7B.B10.2AB4A2.A$
6.2AB.5B3.13B2A3B4.13B.B4.2A.A6.3A$8.7B3.43B3.B4A2.A$8.8B3.40B5.BA
2.A2B$3.2A4.8B3.40B2.8B$3.A.A3.33B2A27B$5.A3.33B2A16BA9B$5.2A.41B
3.2B.5BA7B.B2A$7.18B3.B2.B3.B2.10B9.3BA7B.BA.A$2.2A3.18B14.6B13.B.
7B5.A$2.A2.B.12B3.5B13.3B19.5B5.2A$3.3A12B7.2A13.B19.8B$5.AB.9B8.A
13.2A19.2AB2.4B$3.2A3.9B3.2A4.3A10.A21.A4.4B$3.A4.9B4.A6.A11.A17.
3A6.4B$2A.A2.2AB.3B2A2B4.A.2A14.2A17.A9.4B$2A.A.A.AB.2BA2BA2B.3A2.
A44.4B$3.A.A5.BABA3BAB2.2A46.3BA$3.A.A3.4BA4B4A49.ABA$4.A4.2A5.4B.
A50.2A$10.A7.2A.A.A49.B$7.3A9.A2.2A$7.A9.A.A$17.2A!
