#CSYNTH guntrue_1050 costs 2279 cells.
#C period 1050 fullperiod 1050 bbox 53 by 43
#CLL state-numbering golly
x = 53, y = 43, rule = LifeHistory
20.2B.2A$19.B2A2.A$19.2AB2A$18.B2A2B$12.4B2.B2A2B$11.6B2.2AB2A$9.
4B3A2B.B2A2.A$8.6B3A5B.2A7.2B$.2A5.9B2A11.B4AB$2.A6.7B2AB9.2B6A2B$
2.A.AB2.4B5A2B7.3B8A3B$3.2AB.5B4A2B7.3B2A6B2A3B$5.7B3A4B7.3B8A3B$
5.B2A4BA6B9.2B6A2B$5.B2A4B2A6B10.B4AB$5.7B3A6B11.2B$6.3B5A2B2.4B7.
3B2.3B$7.4BA2B5.3BA4.3BAB2ABA3B$5.5B.3B6.ABA2B.3B2AB2AB2A3B$5.2A7.
4B3.2A7BAB2ABA3B$6.A7.4A4.6B.2B4.2B11.2A.2A$3.3A7.A4BA4.4B20.B2A.
2A$3.A7.3A.2B.3A3.4B12.A4.B2A$10.A3.B2.B3.A3.4B9.3A4.A2B5A$9.A.4AB
.2A.2A4.4B7.A6.A2B.A3.A$9.A.B2.BA2.A.A6.4B6.2A6.3B2.A$7.A.A.3AB3.A
.A7.4B.6B7.B5A$7.2A.A.A2B2.2A.3A6.8B8.A.B4.A$10.A.B10.A6.10B4.A3BA
BA.A$10.2A10.2A5.B.10B3.BA3B.2A$22.18BAB3.BA.A$24.15BABA5B5A$23.2B
2A12BABA.4BAB2.A$22.2BA2BA12BA4.2B4A$7.2B13.3B2A4B2.7B5.2BA2.A.A$
5.6B6.2B.9B4.7B7.2A2.2A$3.10B.14B6.3B8.A.A$.3B8A15B7.5B5.A.A2.A$4B
AB4ABA15B10.2A5.A.A.2A$.3B8A3B.12B9.A7.A.A$3.10B4.3BA6B11.3A6.A$5.
6B7.3BA5B13.A6.2A$7.2B10.3A3B!
