#CSYNTH guntrue_1191 costs 5688 cells.
#C period 1191 fullperiod 1191 bbox 79 by 72
#CLL state-numbering golly
x = 79, y = 72, rule = LifeHistory
50.2A$49.A.A$43.2A4.A$41.A2.A2.2A.4A$41.2A.A.A.A.A2.A$44.A.ABABAB$
44.A.AB2AB$45.AB.2B$48.3B$48.4B6.2A$46.3B2AB6.A$46.3B2AB3.BA.A$44.
10B.B2A$43.13B$42.14B$41.15B$40.4B2.8B$39.4B5.6B$38.4B4.9B$22.2A
13.4B5.2A4.4B$22.A.A2.2A7.4B3.A3.A5.4B$19.A4.A3.A6.4B4.4A7.4B$19.
5A.3A6.4B17.4B$23.A.A7.4B6.2A11.4B$19.3ABABA6.4B3.2A2.A.A11.4B$18.
A2.AB2A6.4B4.A.A.A2.A11.4B$18.2A2.4B4.5B5.BA.AB2A12.4B$22.14B4.2AB
A16.4B$23.2BA10B4.3BA.2A14.4B9.A$23.BABA9B.4B.BABA2.A13.4B6.3A$23.
A2BA11B2A2B.BA2.2A14.4B4.A$23.B2A10B.A2BA2B11.2A8.4B3.2A$23.15B2A
2B.BA2.2A5.A.A8.8B$21.2AB.11B.4B.BABA2.A7.A2.2A5.2B2AB4.2A$20.A.AB
3.10B3.3BA.2A8.2A.A.A6.2B2AB.BAB.A$20.A4.5B.7B2.2ABA9.A2.A.2A6.3BA
B2.B2A.A$19.2A4.2A4.6B3.BA.AB2A6.2A2.B.3B3.2B2AB3.B.B.2A$26.A3.7B
2.A.A.A2.A11.2B2A3.2B2AB2.2B2A2.A$23.3A5.B2A3B2.2A2.A.A10.A.2A2BA
5BA2B.BA2.2A$23.A7.B2A2B7.2A10.A2B.3BA4BA4BAB2A$24.2A4.6B19.A5BA
11BA2.2A$25.A4.6B20.2A.2BA3BA7B2.A2.A$25.A.AB.7B22.2A3B3A6B3.2A$
26.2AB2.6B23.3B5A4B$28.8B20.2A3.B2A6B$28.8B20.A2.B.2A8B.B$29.8B20.
3A3B3A6B2A$30.7B8.A13.AB.2B3A3B.B2A$31.6B6.3A11.2A4.6B3.B$31.7B4.A
14.A6.4B$27.B3.7B4.2A14.A4.4B$26.3B2.8B.4B13.2A3.4B$26.4B.11B19.4B
$26.4B.12B17.4B$11.A11.20B16.4B$11.3A8.9B.11B15.4B$14.A7.10B3.9B
13.4B$13.2A7.22B.2B9.4B$13.5B3.27B7.4B$4.2A9.3B2.31B3.4B$3.A.A8.
43B$3.A8.B.42B$2A.AB.B3.BA9B.33B$.A.A.2AB.3A9B2.31B$.A.A.2A2B2A10B
3.B2.3B.21B$2A.A2.5BA9B6.4B3.11B4.B$A2.4A3BA8B.B2A4.B2AB4.8B5.3B$.
2A2.BAB.BA8B.BA.A4.2A6.6B6.B2AB$3.2A6.7B5.A14.2B9.2A$3.A7.2B.3BA5.
2A12.2B$5.A9.3BA17.B2AB$4.2A10.3AB17.2A!
