#CSYNTH guntrue_288 costs 1400 cells.
#C period 288 fullperiod 288 bbox 50 by 28
#CLL state-numbering golly
x = 50, y = 28, rule = LifeHistory
28.2A3.A12.3B$26.3A.A.A.A6.A2.2A3B$25.A4.A.A.A5.A3B2A2B2A$25.ABABA
.A.A6.A7B2A$20.2A4.2A.A.A9.4AB2.B$21.A4.4BABA8.3B$21.A.2A4.2BA3B3.
3B$22.A2B.A4.5B.4B$11.B2A10.3BA2.12B$11.3AB9.A20B$10.A.2AB9.B3A16B
2A$9.A.A.2B8.11B3A5B.B2A$9.A2.A2.2B5.4B.5BA3B2A4B2.B$10.2A3.3B3.4B
3.4BA2B3AB2A2B$4.2A9.B2A.5B6.2BA2BA3B2A2B$3.A.A8.BA2BA4B7.3B2A2BA
2BA2B$3.A8.B.2B2A4B10.3B2A2BA2B$2A.AB.A3.11B9.5B4A4B$.A.A.A2B.2A
10B9.2A3.7B$.A.A.A15B10.A3.7B$2A.A2.5BA9B7.3A5.4B$A2.4AB4A7B.B2A5.
A7.3B$.2A2.BAB.10B.BA.A9.3B$3.2A6.7B5.A4.B2.2A3B$3.A7.2B.4B5.2A2.
2A4B4A$5.A9.3BA8.2A2B2AB3A$4.2A10.3BA8.3BAB2.B$17.3AB7.3B!
